liuyurong129/humanoid-gym/humanoid/data/robot2_actual_20250621-221106.csv
timestamp,joint_1,joint_2,joint_3,joint_4,joint_5,joint_6
0.00034618377685546875,0.0,0.0,0.0,0.0,0.0,0.0
0.020403623580932617,0.0,0.0,0.0,0.0,0.0,0.0
0.040485382080078125,0.0,0.0,0.0,0.0,0.0,0.0
0.06056571006774902,0.0,0.0,0.0,0.0,0.0,0.0
0.08067798614501953,0.0,0.0,0.0,0.0,0.0,0.0
0.10080099105834961,0.0,0.0,0.0,0.0,0.0,0.0
0.12086224555969238,-0.004999947300720552,0.005000000436659541,0.004999991626416938,0.005,-0.004999994600602031,0.004999622174171148
0.1409451961517334,-0.007499947104205033,0.007500030239110642,0.0024999916264169374,0.00749996616694293,-0.007499963480299812,0.0024996299356388196
0.16105437278747559,-0.012499946932603413,0.012500030243567859,-0.0025000066087857383,0.012499966166942931,-0.012499963268574716,-0.0025003857067531225
0.18108129501342773,-0.017499946681897045,0.017500034582476384,-0.007500005690308682,0.01749995491972948,-0.017499960112629,-0.00494997706639698
0.2016124725341797,-0.019999946707872453,0.020000038801217247,-0.010000005690308683,0.019999939376438965,-0.019999955777791206,-0.004904570142057819
0.2217092514038086,-0.024999948913693604,0.025000042530131154,-0.011445168063286722,0.02499992500409359,-0.02499995284677147,9.549599701867955e-05
0.24211430549621582,-0.029999943371828673,0.02192309245360288,-0.006445159620628577,0.020203496279573067,-0.02999995265941164,0.0050956476547717455
0.2621004581451416,-0.0349999313033104,0.016923097292639265,-0.01144514546301944,0.02520346808474719,-0.03499992758123458,0.010094513948898503
0.28210926055908203,-0.03999993421872842,0.021923100914481783,-0.006445147513815292,0.02998679650406988,-0.039999924171469955,0.015094677794765922
0.3022007942199707,-0.04249990561735839,0.01942310184063685,-0.008945119384045767,0.02748679650406988,-0.042499907016216566,0.0175934010049987
0.32232046127319336,-0.04749991528282917,0.014423105623213547,-0.008945127810102756,0.022486760990667588,-0.04749990494478228,0.02259405879249703
0.34238195419311523,-0.052499904430482566,0.009423111112742175,-0.008945113219307044,0.02063887305257606,-0.052499880555028,0.027592904805053255
0.3624727725982666,-0.054999904477909346,0.006923115256820409,-0.011445113219307045,0.02122577561912295,-0.05499987210638545,0.030092914450435767
0.3826282024383545,-0.0599999076954551,0.011923119217926246,-0.006445116857984599,0.016225733343410643,-0.059999871384467655,0.03509321980889532
0.4030160903930664,-0.06499990896519425,0.006923124003793182,-0.011445113178925128,0.011225685624999704,-0.05499986124928331,0.040092944179736426
0.4253096580505371,-0.06749990695650583,0.009423123705848543,-0.008945116114667534,0.008725685624999703,-0.05749986437119149,0.04259318561860596
0.4455902576446533,-0.0699999069611379,0.01192312793140654,-0.006445116114667533,0.006225643467831408,-0.059999862836098844,0.0450931961282325
0.46553802490234375,-0.0749999094277987,0.0069231333853737335,-0.011445112402334912,0.0019416406444199247,-0.05499985438103418,0.0500929204111
0.48563647270202637,-0.07999990603403924,0.01192313736757209,-0.006445114888496325,0.006941597676943578,-0.05999985705649979,0.05509311762317205
0.5057711601257324,-0.08249990844111321,0.009423137757936411,-0.008945111207491778,0.009441597676943579,-0.05749985327277215,0.057592832035340324
0.5258595943450928,-0.08749990652308143,0.009423141848534098,-0.008945114143263868,0.014441550534490677,-0.057499850848802665,0.06259308468332005
0.545921802520752,-0.09249990772581027,0.00942314646420873,-0.008945110514809423,0.01944150744697283,-0.05749984439581094,0.06259281384194489
0.5661716461181641,-0.09749990582795129,0.009423150689393067,-0.013945112372488522,0.024441460107204348,-0.057499837778747676,0.057592976206656765
0.5863018035888672,-0.09999990589666359,0.011923155072500927,-0.01644511237248852,0.026941413153431886,-0.05999983174735067,0.05509298731639625
0.6064860820770264,-0.10499990539045119,0.01692315953171266,-0.02144511081815128,0.031941362778777904,-0.06499982291949237,0.06009289880934591
0.626518964767456,-0.10999990543721179,0.021923163858469125,-0.02644511072238707,0.03694130913247567,-0.06999981384843557,0.06509290589769337
0.6465981006622314,-0.11499990775746685,0.026923167758496673,-0.021445113032966496,0.03194125786143759,-0.07499980721320032,0.07009310388579269
0.6666858196258545,-0.11749990776587288,0.029423168102244674,-0.018945113032966497,0.02944125155702498,-0.07749980619980502,0.07259310504217245
0.6867566108703613,-0.12249990719207866,0.029423173225666593,-0.01894510641737769,0.029441194998089185,-0.07749979236442489,0.07759264075628444
0.7068376541137695,-0.12749990807368178,0.02942317733315831,-0.01894511116178267,0.03444113250832061,-0.07749978573268214,0.08259301111821579
0.7269027233123779,-0.12999990822027369,0.03192318286398087,-0.016541018517000374,0.03694104975777433,-0.07999977256198276,0.0850930301419454
0.7470662593841553,-0.13499990687461913,0.026923188146721344,-0.02154101270801975,0.04194098710737324,-0.07499975313360427,0.09009263864548632
0.7671477794647217,-0.13999990694694459,0.03192319242891127,-0.026541015644170832,0.04694092454174069,-0.07999974372858616,0.09509287304825313
0.7872879505157471,-0.1449999069469446,0.036923192428911275,-0.03154101564417083,0.05194092454174069,-0.08499974372858617,0.10009287304825314
0.8077337741851807,-0.14999990694694457,0.041923192428911286,-0.03654101564417081,0.05694092454174046,-0.08999974372858609,0.10509287304825128
0.8280911445617676,-0.15249990694694457,0.04442319242891109,-0.03404101564417081,0.05944092454174553,-0.09249974372858737,0.10759287304825046
0.8480453491210938,-0.15419467401182085,0.049423192428911675,-0.03404101564416655,0.06444092454174528,-0.09249974372858369,0.11259287304794603
0.8682215213775635,-0.1559699643702119,0.0544231924289112,-0.034041015644170544,0.06944092454174529,-0.08818730049915555,0.11759287304822393
0.888385534286499,-0.1584699643702119,0.0569231924289112,-0.03154101564417054,0.07194092454174526,-0.08655610159266688,0.12009287304822393
0.90848708152771,-0.16346996437019637,0.051923192428912836,-0.0365410156441541,0.07694092454174527,-0.08155610159265426,0.11509287304717972
0.9285721778869629,-0.16846996437019637,0.05692319242891284,-0.041541015644154106,0.08194092454174527,-0.07655610159265426,0.11009287304717971
0.9486589431762695,-0.17346996305076895,0.06192319252996906,-0.04654101428012274,0.08694092454174528,-0.0815561008673717,0.10509281110662129
0.968817949295044,-0.17596996305077578,0.06442319253005985,-0.049041014280122745,0.08944092453945186,-0.08405610086671739,0.107592811106969
0.9888536930084229,-0.1809699560877143,0.06942319303110109,-0.04904100277107281,0.09046437369074083,-0.08905609775996634,0.11259254305565733
1.008943796157837,-0.18176925670812835,0.07442319845107903,-0.049041000549674724,0.09163539474622569,-0.08905606970373765,0.11259236826988182
1.0291271209716797,-0.180238625774561,0.07692320419242037,-0.051541000549674726,0.09413531600952176,-0.08655602066417054,0.11009239198629654
1.049243688583374,-0.18523862306464547,0.0819232087762375,-0.05654099927515429,0.0991352515407443,-0.08155599418724363,0.11266829488395964
1.0693066120147705,-0.19023862306464548,0.0869232087762375,-0.051540999275154285,0.10413525154074431,-0.08655599418724363,0.11766829488395965
1.0894136428833008,-0.18523862306464553,0.08192320877624175,-0.05654099927515397,0.10913525154064092,-0.08155599418721625,0.11266829488395878
1.1094863414764404,-0.1877386230646532,0.08442320877624086,-0.059040999275161696,0.11163525154064093,-0.0790559941872216,0.11016829488443965
1.1295654773712158,-0.19273862306465284,0.08942320877624098,-0.0640409992751614,0.11663525154063903,-0.07405599418722068,0.1051682948844226
1.149651288986206,-0.19773862306210988,0.09442320877630692,-0.06840320941152489,0.12163525154063903,-0.06905599418713144,0.10016829487771335
1.1697354316711426,-0.2027386201843453,0.0994232089090654,-0.07193659807259165,0.12663525154063904,-0.06905599370736686,0.10016825364808583
1.18984055519104,-0.2052386204110553,0.1019232110444128,-0.07344293826533248,0.12913523860674783,-0.07155598154774735,0.10266826066482182
1.2099230289459229,-0.21023862445296876,0.10692321367541374,-0.06844294136186131,0.12413519731442482,-0.07561951605666287,0.1076684537379022
1.230017900466919,-0.20523861985876707,0.1019232161401642,-0.07196877709760405,0.12913519197270118,-0.07061950284596945,0.11266806039894178
1.2500975131988525,-0.2077386171530546,0.09942321613834322,-0.06946877664864332,0.13163519197270118,-0.07311950336106285,0.115168108515242
1.2701725959777832,-0.2077386171530546,0.09442321613834322,-0.06897189898377898,0.1366351919727012,-0.07311950336106283,0.11516810851524108
1.2902517318725586,-0.20773861715306402,0.0944232161383423,-0.07239723817686841,0.1416351919727012,-0.0681195033610673,0.11016810851565961
1.310333013534546,-0.207738617153064,0.0994232161383423,-0.0751717629232634,0.1466351919727012,-0.0681195033610673,0.10516810851565912
1.3309967517852783,-0.205238617153064,0.1019232161383423,-0.07635458663093705,0.1491351919727012,-0.0706195033610673,0.10266810851565912
1.3511087894439697,-0.20023861715306399,0.10692321613834231,-0.07837721517105901,0.1541351919727012,-0.0756195033610673,0.09766810851565898
1.3711943626403809,-0.19523861715306398,0.11192321613834232,-0.0800155442885578,0.15913519197270118,-0.07977627043593497,0.10266810851565898
1.3912639617919922,-0.19023861715304877,0.10692321613834398,-0.08134259087372006,0.16413519197270118,-0.07477627043592858,0.09766810851501563
1.411346435546875,-0.19273861715306465,0.10942321613834226,-0.0788425908737332,0.16663519197270119,-0.07727627043593512,0.09516810851567437
1.4315991401672363,-0.1927386171530656,0.1144232161383423,-0.07740833178635988,0.1716351919727012,-0.07727627043593467,0.09016810851562762
1.4515924453735352,-0.19264134233405195,0.11942321673924677,-0.07923074874695125,0.1766351855770815,-0.0722762628458158,0.08516811071078362
1.471709966659546,-0.1934670171322434,0.12442321673924595,-0.08070690648503051,0.18163518557709477,-0.06727626284582465,0.08016811071078077
1.4917802810668945,-0.192263917135558,0.12692321674552007,-0.08133621583652746,0.1841351854916894,-0.0647762627748836,0.07766811073174561
1.5118677616119385,-0.1926408854253209,0.13192321698801004,-0.08241233286532614,0.1891351854916894,-0.05977626226871463,0.07266806324817375
1.5319085121154785,-0.19431876257715416,0.13499278184100555,-0.08328397695750551,0.19413509691482267,-0.05477617649234173,0.06766769923352726
1.5520167350769043,-0.19818561107477042,0.13169312633476907,-0.08398998327082204,0.1991351267677515,-0.04977620140694474,0.0626665313992685
1.5721192359924316,-0.19568567863378,0.13419312017111107,-0.08429102904599207,0.2016351267677515,-0.05227621410364501,0.060167660806307074
1.592188835144043,-0.190685672300465,0.13419312570414701,-0.08480572830072958,0.20663508849012235,-0.05227616295243219,0.059876816750483106
1.6123006343841553,-0.18568567139155615,0.12919313010455277,-0.08252515642070167,0.21163505550346068,-0.052276118551156055,0.06436549432192426
1.6323432922363281,-0.1806856612430454,0.12419313682487083,-0.08072263090616835,0.21663501283634432,-0.05227605778534576,0.06436505563821274
1.652904748916626,-0.17818566190580673,0.12169314040572891,-0.08135036781555152,0.2191349904565954,-0.04977602135933369,0.06186506527675888
1.673032522201538,-0.17318567385250347,0.12132585834419683,-0.08242380676952984,0.22413497119447276,-0.05477599200809783,0.05686550372870369
1.6931064128875732,-0.16818573196136408,0.12632585695098794,-0.08329331926103463,0.2291349376214739,-0.05977595427650305,0.05186649812420421
1.7131898403167725,-0.16318571878901755,0.12132586276452714,-0.08399757946043708,0.23413490334391468,-0.06477590605355489,0.04860048941560345
1.7332847118377686,-0.15818573444989223,0.12632586603079327,-0.08456804913500732,0.23913485973550336,-0.06977585655760687,0.044049023772335494
1.7533643245697021,-0.15568573131993568,0.1288258664319662,-0.08481124148017424,0.24163485973550336,-0.07227585575840932,0.046548930436321787
1.7734425067901611,-0.1506857348818394,0.12882588346365056,-0.08253011733215682,0.2466346505376183,-0.07335123344942807,0.051548992711572574
1.7935707569122314,-0.14568568296374415,0.12382589722610614,-0.08072706271641526,0.25163458308440456,-0.06956915848882557,0.051547898335472665
1.8140764236450195,-0.14318568360657782,0.12132590020684694,-0.08135435644477373,0.254134564730547,-0.06706912722000541,0.049047908605664776
1.834244728088379,-0.13818570714963452,0.11695585341375289,-0.08242704703183736,0.259134564730547,-0.06324519528318749,0.04404850994831514
1.8543014526367188,-0.13318570714963454,0.12195585341375298,-0.08329590809578825,0.26413456473054603,-0.06824519528318644,0.039048509948315456
1.8743743896484375,-0.12818570714963168,0.12695585341375334,-0.0839996855575863,0.26913456473054603,-0.07324519528318599,0.03404850994825855
1.894463062286377,-0.1256857071496583,0.12945585341374993,-0.08429971700184957,0.27163456473054604,-0.0709381329122449,0.031548509948803954
1.9145512580871582,-0.12068570714965621,0.13445585341375021,-0.08481277077149668,0.27663456473054604,-0.06636177677839351,0.02654850994876176
1.9346544742584229,-0.11568570714965279,0.13945585341375066,-0.08522834432490967,0.28163456473054604,-0.061361776778392996,0.02154850994869823
1.9556427001953125,-0.11318570716956017,0.1419558534960073,-0.0854055098924187,0.2841345639983501,-0.058861775789792944,0.01904851020728175
1.9757847785949707,-0.10818570716955993,0.14695585349600734,-0.08570846301285895,0.2891345639983501,-0.053861775789792905,0.014048510207277735
1.9958322048187256,-0.10318570724486885,0.15133424163392326,-0.0859538550404152,0.29413456150358563,-0.04886177213900569,0.00904851103201851
2.0159194469451904,-0.09818569830040991,0.1548807390150653,-0.0861526150687709,0.2991345450970221,-0.04386174448320589,0.004048413015286403
2.036036252975464,-0.09568570220523133,0.15639268045375768,-0.0862373535618938,0.30163445126147737,-0.04136156062947148,0.0015484500395261448
2.0562102794647217,-0.09068569725827456,0.15897808601801666,-0.086382250335881,0.30663437709158387,-0.0363613936878773,-0.0034516017800666765
2.0761752128601074,-0.08568569283370361,0.16107226316220133,-0.08649961729692889,0.31163431866943186,-0.03136124140255639,-0.008451641780364144
2.096349000930786,-0.08318568578570404,0.16196503790032984,-0.08654964999859842,0.31413431866943187,-0.028861240798852356,-0.010951692778130467
2.116398811340332,-0.07818568232594535,0.1634916919800313,-0.0866352113482177,0.319134272980209,-0.023861100663480964,-0.015951712092379347
2.1365132331848145,-0.07318567912595092,0.1647282809550255,-0.08670451638321222,0.324134237694708,-0.018860970491914392,-0.020951725910149946
2.156845808029175,-0.07061675798740111,0.16572993291531452,-0.08676065276246187,0.3291341872702068,-0.013860625573203464,-0.025951713915371436
2.1769561767578125,-0.07311677639565657,0.16615700509026543,-0.08678458748621568,0.33163411095444933,-0.011359774294325078,-0.028451637659663184
2.197178602218628,-0.07811677350659502,0.16688718353797535,-0.08682551201949303,0.3366340979826296,-0.0063596661525405435,-0.03345164532475488
2.2171785831451416,-0.08311677080561367,0.16747862760864962,-0.08685866107211299,0.34163409008523055,-0.0013595631443874367,-0.03845164972670188
2.237199068069458,-0.08811676826121444,0.16795769688456982,-0.08688551195466351,0.3466340865387154,0.0036405352441137503,-0.04345165147233496
2.2572953701019287,-0.09061676365568261,0.16816192804714003,-0.08689695700398416,0.3491340865387154,0.006140535318553891,-0.04595165323426399
2.2774112224578857,-0.09561676145733021,0.16851116918880737,-0.08691653155577604,0.35413408672608593,0.011140629386076876,-0.05095164941658904
2.2974801063537598,-0.1006167593832497,0.16879405418099414,-0.08693238707499586,0.35913409010177166,0.016140719389541047,-0.05595164434390987
2.317568302154541,-0.10561675743207118,0.16902319069949218,-0.08694523017748358,0.36413409616385706,0.02114080540770687,-0.06095163835064293
2.337646722793579,-0.10811675941216545,0.1691208779497918,-0.08695070715973523,0.3666341044319399,0.023640887502525604,-0.06345164056640332
2.3579461574554443,-0.11311675750328325,0.16928791782545963,-0.08696006990413806,0.37163411442931615,0.0286409653821446,-0.06845163515379271
2.377876043319702,-0.11811675571350316,0.16942321974088584,-0.08696765385778814,0.3766341256684901,0.03364103887965779,-0.07345162930909749
2.3979647159576416,-0.1231167540452498,0.1695328138838178,-0.08697379700280361,0.38163413763924237,0.038641107683236746,-0.07845162334477478
2.41908860206604,-0.12561675090451693,0.16957953321640165,-0.08697641456500149,0.38413413763924237,0.041141107519762035,-0.08095161168464174
2.4392383098602295,-0.13061674961900863,0.1696594269109953,-0.08698089325756561,0.389134149798668,0.046141171230022524,-0.08595160602396225
2.459271192550659,-0.13561674848776462,0.16972414035619587,-0.0869845212218307,0.3941341615627347,0.05114122939378006,-0.09095160148290884
2.479355812072754,-0.14061674752064585,0.1697765577558917,-0.08698746012633427,0.399134172299019,0.056141281467169575,-0.09595159845119847
2.4994328022003174,-0.1456167467284693,0.1698190153092816,-0.08698984092701283,0.4041341813203614,0.06114132683287851,-0.10095159733918889
2.5195200443267822,-0.14811674771164243,0.16983711657343453,-0.08699085683431154,0.40663418787924516,0.06364136486401165,-0.10345160324536525
2.539597988128662,-0.15311674689923768,0.16986806697727566,-0.0869925927324651,0.41163419116275507,0.06864139460007185,-0.10845160366367138
2.5596799850463867,-0.1581167462601179,0.16989313604176956,-0.08699399914391807,0.4166341902880107,0.0736414153175266,-0.11345160647061348
2.5797903537750244,-0.16061674552224742,0.1699038226314662,-0.08699459857228986,0.4191341902880107,0.07614141542343238,-0.11595160995245783
2.6001083850860596,-0.16561674555413886,0.1699220970859366,-0.0869956246600902,0.42413418429799987,0.08114142633568104,-0.12095162106205941
2.6200122833251953,-0.17061674582654537,0.16993689851913812,-0.08699645632424204,0.4291341721577622,0.08614142636505691,-0.12595163647437757
2.6400954723358154,-0.17561674635443006,0.1699488867207502,-0.08699713057006794,0.43413415275089023,0.09114141445594526,-0.1309516567321973
2.66015362739563,-0.18061674715324774,0.16995859611453426,-0.08699767737768013,0.4391341248763322,0.09614138947714183,-0.13595168239922545
2.6802897453308105,-0.1831167460641375,0.16996273370144116,-0.08699790963991212,0.44163408724548897,0.0986413491311164,-0.13845167190399194
2.700495958328247,-0.18811674671241976,0.16996980973927966,-0.08699830893330684,0.4466340384796096,0.1036412939822468,-0.14345169863916302
2.7204902172088623,-0.19311674762115355,0.16997553992131265,-0.08699863310625228,0.45163397710749364,0.10864122184869043,-0.1484517311270208
2.740541458129883,-0.19811674880450697,0.16998017984432978,-0.08699889651214601,0.45663390156351547,0.11364113127952333,-0.15345176991465456
2.7606453895568848,-0.20061675338154575,0.1699821601669273,-0.08699901198145726,0.45913390156351547,0.1161411335318087,-0.15595185111230864
2.7807276248931885,-0.20561675578081817,0.16998554079664352,-0.08699920594245115,0.46413381018598776,0.1211410235116616,-0.16095191294306116
2.800804376602173,-0.21061675855150125,0.16998827739060166,-0.08699936427816732,0.4691337012158849,0.12614089198451972,-0.1659519839446248
2.820868968963623,-0.21561676171121102,0.1699904921835294,-0.08699949387517025,0.4741335727959478,0.1311407372597467,-0.17095206479406083
2.8412771224975586,-0.21811675657765753,0.1699914308101519,-0.08699954448765322,0.47663342297019273,0.13364055276007003,-0.17345199946203363
2.8611764907836914,-0.2231167593563211,0.16999304190147949,-0.08699964028724813,0.48163324968384574,0.13864034537079448,-0.17845207839330773
2.8813180923461914,-0.22811676249993948,0.1699943445449178,-0.08699971932810066,0.48663305078372515,0.14364010910498023,-0.18345216715024226
2.901801586151123,-0.23061677370226463,0.16999490528979216,-0.08699976102366712,0.48913305078372515,0.14614011574251795,-0.18595237333494039
2.921935796737671,-0.2356167785960415,0.16999585195053482,-0.08699982195119965,0.4941328240190921,0.15113984965169408,-0.19095250051178775
2.9419877529144287,-0.24061680587760867,0.1699966284680727,-0.08699988819392163,0.4991328240190921,0.15613986687575904,-0.19595301342490556
2.962083101272583,-0.24561683618273675,0.16999725584685718,-0.0869999459804537,0.504132824019092,0.16113988671040716,-0.20095359031058146
2.9822347164154053,-0.24811685252199958,0.16999752264185952,-0.0869999723211134,0.5066328240190919,0.163639897692861,-0.20345390425142187
3.0022497177124023,-0.2531168876814475,0.16999797745421585,-0.08700002093409662,0.5116328240190918,0.1686399219705113,-0.2084545862334843
3.022308111190796,-0.2581169262943122,0.16999834387583174,-0.08700006528449847,0.5166328240190917,0.17363994958891185,-0.2134553446008777
3.0427589416503906,-0.26061694695096377,0.16999849926808944,-0.08700008623704303,0.5191328240190917,0.1761399647517884,-0.21595575405795156
3.0628502368927,-0.265616991076338,0.1699987632678698,-0.0870001263302707,0.5241328240190916,0.18113999799724764,-0.22095663685331288
3.082916259765625,-0.2706170391013685,0.1699989747018126,-0.08700016472184983,0.5291328240190915,0.18614003543297264,-0.22595760936533066
3.102992296218872,-0.2756170912076218,0.1699991433703473,-0.0870002021390483,0.5341328240190913,0.19114007743283154,-0.2309586771503992
3.123081684112549,-0.28061714757770073,0.16999927720303704,-0.08700023918606528,0.5391328240190912,0.1961401243901948,-0.23595984587582425
3.143173933029175,-0.28311717741889597,0.1699993331112884,-0.08700025773168132,0.5416328240190912,0.19864014985617615,-0.2384604698894188
3.163271903991699,-0.288117240528095,0.1699994263235392,-0.08700029514266924,0.5466328240190911,0.20364020502972538,-0.2434618008626339
3.183380603790283,-0.2931173083587478,0.16999949850870733,-0.08700033329598911,0.551632824019091,0.2086402662285288,-0.24846324734379832
3.204110622406006,-0.29561734410156215,0.16999952792396236,-0.08700035275546596,0.5541328240190909,0.2111402992304463,-0.2509640157569178
3.224337100982666,-0.3006174193553379,0.16999957540298288,-0.0870003926209435,0.5591328240190908,0.2161403703353799,-0.2559656466694321
3.24454665184021,-0.3056174997828646,0.16999960996273072,-0.08700043395831208,0.5641328240190907,0.221140448649444,-0.2609674080438238
3.264442205429077,-0.31061758556152724,0.16999963381080802,-0.0870004769876871,0.5691328240190906,0.22614053467677084,-0.26596930591298956
3.2844886779785156,-0.31561767686578357,0.16999964872744722,-0.08700052189841208,0.5741328240190905,0.23114062893781853,-0.2709713463127593
3.3045902252197266,-0.3181177246435755,0.16999965329632355,-0.08700054511127592,0.5766328240190904,0.23364067932286667,-0.2734724218440746
3.324673891067505,-0.32311782455541005,0.16999965741552686,-0.08700059314365338,0.5816328240190903,0.23864078694372773,-0.2784746873176347
3.3447508811950684,-0.32811780706978294,0.16999969094372872,-0.08700048044635925,0.5866322444826407,0.24364015477233067,-0.28347433302642433
3.365262269973755,-0.33311778832966,0.1699997161319053,-0.08700038916155099,0.5916316195880176,0.24863947498918262,-0.2884739478427846
3.385366678237915,-0.3356178019294544,0.16999973516652825,-0.0870003727949335,0.5941316195880175,0.2511394906841114,-0.2909742625613555
3.4054558277130127,-0.3406178304118959,0.16999976656284901,-0.08700034736835707,0.5991316195880174,0.2561395242218951,-0.29597492625052446
3.4256398677825928,-0.34561786067170797,0.1699997903934784,-0.08700033030862567,0.6041316195880173,0.26113956079829814,-0.3009756377007263
3.4456098079681396,-0.35061789276556254,0.16999980800116235,-0.08700032020961566,0.6091316195880172,0.26613960060117225,-0.30597639889513234
3.4657185077667236,-0.3531179095175655,0.16999981481914936,-0.08700031740631307,0.6116316195880172,0.26863962177239875,-0.3084767987619902
3.4858226776123047,-0.3581179444654276,0.16999982506018113,-0.08700031568833767,0.616631619588017,0.2736396667762279,-0.3134776382542687
3.505894422531128,-0.3631179813819989,0.1699998314128043,-0.0870003184870316,0.6216316195880169,0.2786397154933598,-0.3184785323628758
3.5259673595428467,-0.36561800059440386,0.1699998333348046,-0.08700032136661907,0.6241316195880169,0.28113974130687835,-0.3209790004920542
3.546055793762207,-0.370618040557928,0.16999983500797683,-0.08700032973211957,0.6291316195880168,0.2861397959700267,-0.32597998006544304
3.5661468505859375,-0.3756180826119145,0.16999983416015968,-0.0870003411805329,0.6341316195880167,0.2911398548508722,-0.33098101891123977
3.5862605571746826,-0.3806181268006503,0.16999983116324002,-0.0870003553202851,0.6391316195880166,0.2961399181538584,-0.3359821188045843
3.6063826084136963,-0.3831181497086146,0.16999982895500193,-0.08700036329779223,0.6416316195880165,0.2986399515276925,-0.3384826921822233
3.6264491081237793,-0.3881181971762124,0.169999823278167,-0.08700038089883479,0.6466316195880164,0.303640021848049,-0.3434838868387333
3.646526575088501,-0.3931182468763309,0.16999981609681597,-0.0870004005060466,0.6516316195880163,0.30864009710205736,-0.3484851466949833
3.667088508605957,-0.39561827257415627,0.1699998119981335,-0.08700041100121858,0.6541316195880162,0.3111401366426101,-0.3509858015534321
3.687201976776123,-0.40061832568455413,0.16999980287792615,-0.08700043327255276,0.6591316195880161,0.3161402196765008,-0.35598716204456116
3.7078537940979004,-0.40561838110421283,0.1699997926305099,-0.08700045713660513,0.664131619588016,0.32114030814624034,-0.3609885913850048
3.7282135486602783,-0.40811840968771756,0.1699997871171807,-0.08700046962822809,0.666631619588016,0.3236403544807624,-0.36348933228198627
3.748528480529785,-0.41061843885728794,0.16999978135918417,-0.0870004824753185,0.6691316195880159,0.326140402247172,-0.3659900908682879
3.768672227859497,-0.41561849896394765,0.16999976914803408,-0.08700050918922728,0.6741316195880158,0.33114050217017094,-0.37099166168250197
3.788713216781616,-0.4206185614402244,0.16999975606590578,-0.08700053719326324,0.6791316195880157,0.33614060810075763,-0.3759933049037498
3.8087878227233887,-0.42561862629788,0.1699997421696337,-0.08700056641335607,0.6841316195880156,0.3411407202182061,-0.3809950214899158
3.828871488571167,-0.4281186596222029,0.16999973493132545,-0.0870005814585955,0.6866316195880156,0.3436407786510988,-0.3834959075604044
3.848952531814575,-0.4331187280643473,0.1699997199004516,-0.08700061238130835,0.6916316195880154,0.348640900369119,-0.3884977357170324
3.8690359592437744,-0.43811879889784394,0.16999970416097357,-0.08700064436622953,0.6966316195880153,0.35364102868901326,-0.39349963907855173
3.8890950679779053,-0.44311887211866835,0.1699996877453054,-0.08700067735933323,0.7016316195880152,0.3586411637612081,-0.3985016181455384
3.909818410873413,-0.44561890962179174,0.1699996792930317,-0.08700069421769434,0.7041316195880152,0.36114123387366265,-0.40100263618648074
3.929959297180176,-0.4506189864058055,0.16999966191639226,-0.08700072862623845,0.7091316195880151,0.36614137933383656,-0.4060047294400584
3.95003604888916,-0.45561906554650455,0.16999964393128109,-0.08700076391521125,0.714131619588015,0.37114153187598153,-0.4110068990240051
3.970338821411133,-0.46061904793612246,0.16999968531706308,-0.08700061877132112,0.7191309499047184,0.3761407843260147,-0.4160064228473669
3.9905619621276855,-0.463119038894489,0.16999970265266515,-0.08700055689418901,0.7216306048624251,0.37864039804080896,-0.41850617682336066
4.01062273979187,-0.4681190203394908,0.1699997316961179,-0.0870004510842931,0.7266298942775373,0.38363960009267,-0.4235056687707878
4.030692100524902,-0.47311900115805783,0.16999975444268114,-0.08700036537827742,0.7316291562651259,0.38863876786039614,-0.428505139230609
4.050751447677612,-0.4781189813544967,0.16999977209982703,-0.0870002959564047,0.736628390761311,0.3936379008463038,-0.4335045880626334
4.070859909057617,-0.4806189712211593,0.1699997793336539,-0.08700026636076423,0.7391279976956595,0.3961374541532492,-0.4360043043364793
4.091022729873657,-0.4856189504956463,0.16999979113430008,-0.08700021575221903,0.7441271909594765,0.40113653413603306,-0.4410037205611024
4.111140251159668,-0.49061897758417117,0.16999979884238478,-0.0870002399908869,0.7491271909594764,0.40613659252608597,-0.4460044902890772
4.131180286407471,-0.4956190053804399,0.16999980365204465,-0.08700026221195258,0.7541271909594763,0.41113665333946664,-0.451005283958601
4.151265382766724,-0.49811901954149596,0.16999980513679072,-0.08700027269960457,0.7566271909594763,0.41363668466231523,-0.4535056897452841
4.171376705169678,-0.5031190483797326,0.1699998065489823,-0.08700029263986793,0.7616271909594762,0.4186367491437256,-0.45850651902996714
4.191433906555176,-0.5081190778920094,0.16999980620013933,-0.08700031143033302,0.7666271909594761,0.42363681607300024,-0.46350737163235256
4.211569309234619,-0.5131191080600048,0.16999980440740578,-0.08700032929683474,0.771627190959476,0.4286368854451897,-0.4685082471471003
4.231686115264893,-0.5156191233837532,0.16999980305252552,-0.08700033794081993,0.7741271909594759,0.43113692104416657,-0.4710086933549313
4.25175142288208,-0.520619154497651,0.16999979956495387,-0.08700035474257173,0.7791271909594758,0.43613699405808903,-0.47600960235853484
4.271846771240234,-0.5256191862149028,0.1699997951965583,-0.08700037099465166,0.7841271909594757,0.4411370694757003,-0.48101053302328634
4.291907787322998,-0.5306192185120826,0.16999979010574326,-0.08700038679104702,0.7891271909594756,0.44613714727039416,-0.48601148475625205
4.312033653259277,-0.5331192348704612,0.1699997873312615,-0.08700039454129112,0.7916271909594755,0.4486371870491154,-0.48851196832408006
4.332089424133301,-0.5381192679907341,0.1699997813951702,-0.08700040978105733,0.7966271909594754,0.45363726834581225,-0.49351295043684706
4.352156400680542,-0.5431193016267352,0.16999977502369407,-0.08700042470832484,0.8016271909594753,0.4586373519256358,-0.49851395191666836
4.372217416763306,-0.5481193357507226,0.16999976829999958,-0.08700043935354461,0.8066271909594752,0.46363743774011457,-0.5035149720001723
4.392378807067871,-0.5506193529867498,0.16999976482843202,-0.08700044657681506,0.8091271909594752,0.4661374814685278,-0.5060154887675651
4.412394285202026,-0.5556193877884054,0.16999975770459835,-0.08700046083244477,0.8141271909594751,0.47113757053076183,-0.5110165352288784
4.43251371383667,-0.5606194230042412,0.1699997503849098,-0.08700047483830234,0.819127190959475,0.476137661679978,-0.5160175981964201
4.452568769454956,-0.5656194586031809,0.1699997429169358,-0.08700048859462838,0.8241271909594748,0.4811377548468573,-0.5210186767618408
4.472656965255737,-0.568119476536395,0.16999973914048705,-0.0870004953778609,0.8266271909594748,0.48363780216372104,-0.5235192216000412
4.492757081985474,-0.5731195126501022,0.16999973152611314,-0.087000508749435,0.8316271909594747,0.4886378982149224,-0.5285203217816314
4.51283073425293,-0.5781195490661348,0.1699997238578914,-0.08700052185196777,0.8366271909594746,0.49363799608643577,-0.5335214351398037
4.533276796340942,-0.5831195857511937,0.1699997161664322,-0.08700053467207548,0.8416271909594745,0.49863809569028705,-0.5385225606533262
4.554234504699707,-0.5856196041840843,0.16999971232072103,-0.08700054097144695,0.8441271909594744,0.5011381461130332,-0.5410231276421088
4.574333190917969,-0.5906196412093526,0.16999970464540623,-0.08700055333838218,0.8491271909594743,0.5061382481400645,-0.5460242694185594
4.59452486038208,-0.5956196784187697,0.16999969701143014,-0.08700056538144237,0.8541271909594742,0.5111383516592231,-0.5510254206917834
4.614562034606934,-0.6006197157779855,0.16999968944103205,-0.08700057708215038,0.8591271909594741,0.5161384565671022,-0.556026580364355
4.634622812271118,-0.6056197532525659,0.16999968195488824,-0.08700058842152936,0.864127190959474,0.5211385627565978,-0.5610277473242044
4.655125141143799,-0.6081197720223575,0.1699996782495034,-0.0870005939497303,0.8666271909594739,0.5236386162975555,-0.5635283331861245
4.6749114990234375,-0.6131198096054687,0.16999967092564353,-0.08700060471118723,0.8716271909594738,0.528638724201422,-0.5685295089676546
4.694998264312744,-0.6181198472181068,0.1699996637322758,-0.08700061506359603,0.8766271909594737,0.5336388331052706,-0.5735306892133724
4.715069532394409,-0.6206198660248627,0.16999966018978074,-0.08700062008057928,0.8791271909594737,0.5361388878956357,-0.5760312806547366
4.735178470611572,-0.6256199036181462,0.16999965322319047,-0.08700062978474134,0.8841271909594736,0.5411389980789784,-0.5810324654628944
4.755362033843994,-0.6306199411566035,0.1699996464272266,-0.08700063903451011,0.8891271909594735,0.5461391089654825,-0.5860336518909797
4.7948243618011475,-0.6306199411566035,0.1699996464272266,-0.08700063903451011,0.8891271909594735,0.5461391089654825,-0.5860336518909797
4.814927816390991,-0.6356199786072109,0.1699996398165183,-0.08700064781300325,0.8941271909594734,0.5511392204335139,-0.5910348388064154
4.834991216659546,-0.6406200159374765,0.16999963340494711,-0.08700065610424834,0.8991271909594732,0.5561393323603679,-0.5960360250841569
4.855084180831909,-0.6431200345474918,0.16999963027797782,-0.08700066006243602,0.9016271909594732,0.5586393884573128,-0.5985366176351081
4.875158786773682,-0.6481200716376732,0.16999962418956327,-0.08700066759510139,0.9066271909594731,0.5636395008409595,-0.6035378008706147
4.895253896713257,-0.6531201085291016,0.1699996183318575,-0.08700067460520847,0.911627190959473,0.5686396133745726,-0.608538980708044
4.9153501987457275,-0.6581201451917229,0.16999961271626068,-0.08700068108068568,0.9166271909594729,0.5736397259347998,-0.6135401560715082
4.93541693687439,-0.6606201634280683,0.16999961000262429,-0.08700068411450998,0.9191271909594728,0.5761397821865234,-0.616040741744728
4.955599546432495,-0.6656201996929907,0.1699996047700334,-0.0870006897681856,0.9241271909594727,0.5811398945569896,-0.6210419084247122
4.975752830505371,-0.6706202356577913,0.16999959980497908,-0.08700069486267899,0.9291271909594726,0.5861400066495077,-0.6260430680345875
4.995774030685425,-0.6756202712956162,0.16999959511638907,-0.08700069939052066,0.9341271909594725,0.5911401183447462,-0.6310442195796371
5.015918731689453,-0.6781202889838008,0.16999959287836108,-0.08700070143999049,0.9366271909594724,0.5936401740066192,-0.6335447920246913
5.035979747772217,-0.6831203240830716,0.1699995886196273,-0.08700070510687785,0.9416271909594723,0.5986402848865559,-0.6385459296699211
5.056208848953247,-0.6881203587928197,0.1699995846565056,-0.08700070819451802,0.9466271909594722,0.6036403950801582,-0.6435470568918292
5.0761637687683105,-0.6931203930899628,0.16999958099536802,-0.08700071070032721,0.9516271909594721,0.6086405044763642,-0.6485481728033524
5.096567392349243,-0.6956204100769089,0.1699995792798312,-0.08700071173462104,0.9541271909594721,0.6111405588415653,-0.6510487262499707
5.1166698932647705,-0.7006204437143964,0.16999957608198854,-0.08700071336590096,0.959127190959472,0.6161406668402024,-0.6560498236090843
5.13674521446228,-0.7056204768866766,0.16999957319879674,-0.08700071441499531,0.9641271909594719,0.6211407737777724,-0.6610509075953656
5.156883716583252,-0.7106205095748088,0.16999957063401056,-0.0870007148841655,0.9691271909594718,0.6261408795550933,-0.6660519774495105
5.177216291427612,-0.7156205417610757,0.1699995683906351,-0.08700071477701216,0.9741271909594716,0.6311409840769323,-0.6710530324514662
5.197366714477539,-0.71812055766081,0.1699995673902112,-0.08700071450879826,0.9766271909594716,0.6336410358384174,-0.6735535541688213
5.217467546463013,-0.7231205890637582,0.16999956563295435,-0.08700071354676527,0.9816271909594715,0.6386411383076197,-0.6785545856305045
5.237446546554565,-0.7281206199259543,0.16999956420136578,-0.08700071202306056,0.9866271909594714,0.6436412393018571,-0.6835556006172999
5.257841348648071,-0.730620635150039,0.16999956360785606,-0.08700071105304154,0.9891271909594713,0.6461412892207123,-0.686056101750848
5.277967214584351,-0.7356206651763947,0.1699995626653288,-0.08700070870223477,0.9941271909594712,0.6511413878541636,-0.6910570909577569
5.2980828285217285,-0.7406206946308459,0.1699995620481699,-0.08700070581198306,0.9991271909594711,0.6561414848217996,-0.6960580623280057
5.318137884140015,-0.7456207235030762,0.16999956175502245,-0.08700070239313473,1.0041271909594711,0.6611415800557424,-0.7010590153910974
5.338242530822754,-0.7481207377179651,0.16999956172934133,-0.08700070048916275,1.006627190959471,0.6636416270027246,-0.7035594849220567
5.358297824859619,-0.7531207657001558,0.1699995619181741,-0.08700069630001904,1.011627190959471,0.6686417195197474,-0.7085604097352044
5.378404855728149,-0.7581207930795764,0.16999956242466985,-0.08700069161382384,1.0166271909594709,0.6736418101552555,-0.7135613152506598
5.398756980895996,-0.7606208065412737,0.16999956279591805,-0.08700068908874706,1.0191271909594708,0.6761418547515358,-0.7160617606693418
5.418898105621338,-0.765620833005318,0.16999956377182945,-0.08700068368392735,1.0241271909594707,0.6811419424721226,-0.7210626366465587
5.43895959854126,-0.7706208588532755,0.16999956505507643,-0.08700067781918366,1.0291271909594706,0.6861420281950864,-0.7260634925975125
5.4590606689453125,-0.775620884081756,0.1699995666404926,-0.08700067151071193,1.0341271909594705,0.691142111882872,-0.7310643283024304
5.47993540763855,-0.7781208743845797,0.1699995938236186,-0.08700060435964074,1.0366266894731748,0.693641167378793,-0.7335639277812802
5.499760389328003,-0.7831208553745791,0.16999964069234527,-0.087000489531309,1.0416257025141915,0.6986392917958839,-0.7385631391479203
5.519899606704712,-0.7881208368919462,0.1699996791869663,-0.08700039652036029,1.046624737889633,0.7036374364048212,-0.7435623678790195
5.539930582046509,-0.7931208189358631,0.16999971090092253,-0.08700032118149184,1.0516237958151715,0.708635602170708,-0.7485616141868159
5.560795068740845,-0.7956208101547867,0.16999972462848129,-0.08700028906334266,1.0541233332901558,0.7111346932765513,-0.7510612439888131
5.580918788909912,-0.8006207929851322,0.16999974851152952,-0.08700023414130754,1.0591224253540867,0.716132892486924,-0.7560605169841597
5.6009910106658936,-0.8056207763363233,0.16999976839323555,-0.0870001896544591,1.0641215403269069,0.7211311150653447,-0.7610598079373028
5.621081829071045,-0.810620760204716,0.1699997850340727,-0.08700015362011188,1.069120678282868,0.7261293618142728,-0.7660591169430125
5.641210556030273,-0.8131207523315258,0.1699997923363618,-0.08700013825810068,1.0716202558923307,0.7286284944904394,-0.7685587782365011
5.661340236663818,-0.818120736967321,0.16999980523220568,-0.08700011198906156,1.0766194283796178,0.7336267788955163,-0.7735581144296461
5.6813976764678955,-0.8231207221081377,0.16999981621270138,-0.08700009071113987,1.081618623872456,0.7386250892682995,-0.7785574687755915
5.7014265060424805,-0.8281207077479794,0.1699998256401824,-0.0870000734760233,1.0866178423178001,0.7436234262434658,-0.783556841262276
5.7216880321502686,-0.8306207007530002,0.1699998298654436,-0.08700006612842097,1.0891174601219014,0.7461226048920926,-0.7860565342968705
5.741817951202393,-0.8356206871288719,0.16999983749486605,-0.08700005356402099,1.0941167128237534,0.7511209828553987,-0.7910559339105387
5.761891603469849,-0.8406206739863152,0.16999984420208392,-0.087000043386857,1.099115988202206,0.7561193887970686,-0.7960553515135808
5.782055377960205,-0.8456206613174692,0.16999985015924915,-0.08700003514335417,1.104115286093294,0.7611178231836895,-0.8010547869999096
5.802063465118408,-0.8506206491140291,0.16999985550543548,-0.08700002846611687,1.1091146063046111,0.766116286434465,-0.8060542402391657
5.822167158126831,-0.8531206431841298,0.1699998579854053,-0.08700002561950519,1.1116142747128188,0.7686155290020724,-0.8085539734690625
5.842248201370239,-0.8581206316623554,0.1699998626187516,-0.0870000207517992,1.11661362798518,0.7736140362326501,-0.8135534530431525
5.862354278564453,-0.8631206205835436,0.1699998668825883,-0.08700001680895736,1.1216130029821572,0.7786125731715084,-0.8185529499460148
5.882389545440674,-0.8656206152072751,0.16999986889698687,-0.08700001512806162,1.124112698540707,0.7811118528638575,-0.8210527048321915
5.902554273605347,-0.8706206047749135,0.16999987272557876,-0.08700001225372991,1.1291121055925908,0.7861104348346231,-0.8260522273365613
5.922629117965698,-0.8756205947611402,0.1699998763256838,-0.08700000992552122,1.134111533628738,0.7911090470751566,-0.831051766620624
5.9426867961883545,-0.8806205851557921,0.16999987973552233,-0.08700000803967219,1.1391109823178058,0.796107689733869,-0.8360513224341348
5.962766885757446,-0.8856205759485225,0.1699998829858296,-0.08700000651213448,1.144110451310603,0.8011063629171131,-0.8410508945112247
5.982897520065308,-0.8881205714908917,0.16999988455907733,-0.08700000586092103,1.1466101933072645,0.8036057109774342,-0.8435506865615598
6.002947568893433,-0.8931205628610193,0.1699998876148178,-0.08700000474734604,1.1516096920655423,0.8086044300575614,-0.8485502825043747
6.0230512619018555,-0.8981205546027692,0.1699998905639056,-0.0870000038453503,1.1566092101862195,0.8136031797513481,-0.8535498939858199
6.043134927749634,-0.9006205506096494,0.16999989200301133,-0.08700000346081527,1.1591089763828988,0.8161025660698346,-0.8560497054567805
6.063237905502319,-0.9056205428886868,0.16999989481783664,-0.08700000280326037,1.1641085227934787,0.8211013616127057,-0.8610493396599836
6.08333945274353,-0.9106205355124308,0.1699998975563536,-0.08700000227064089,1.169108087545526,0.826100187620946,-0.8660489886058015
6.103428363800049,-0.9156205284700857,0.16999990022665246,-0.08700000183921912,1.174107670213252,0.8310990439732892,-0.8710486519600104
6.124235391616821,-0.9206205217508774,0.1699999028351713,-0.08700000148976748,1.1791072703629129,0.8360979305151157,-0.8760483293810284
6.144041299819946,-0.9231205185090946,0.16999990411790505,-0.08700000134079074,1.1816070768560643,0.8385973850499925,-0.8785481732581008
6.164124250411987,-0.9281205122544968,0.16999990664299905,-0.0870000010860405,1.1866067024010927,0.8435963165166425,-0.8835478711254174
6.184189796447754,-0.9331205062963503,0.16999990911717133,-0.0870000008796928,1.1916063443171794,0.8485952776496036,-0.8885475821803938
6.20459771156311,-0.9356205034251551,0.1699999103360757,-0.08700000079172351,1.194106171273294,0.8510947692607296,-0.8910474425411663
6.224771976470947,-0.9406204978920008,0.16999991273900358,-0.08700000064129605,1.1991058368980032,0.8560937743969806,-0.8960471727034834
6.244802236557007,-0.9456204924620151,0.16999991461854105,-0.0870000005194498,1.2041055076062814,0.8610927776498198,-0.901046906957093
6.264889478683472,-0.9506204871377989,0.16999991613571422,-0.08700000042075434,1.2091051836712088,0.8660917801333924,-0.906046645525778
6.284970998764038,-0.9556204820800397,0.1699999177884414,-0.08700000034081101,1.2141048749952572,0.8710908127701035,-0.9110463964039651
6.305050849914551,-0.9581204796476975,0.16999991865470532,-0.08700000030672991,1.2166047262220236,0.8735903402554044,-0.9135462763329882
6.3251471519470215,-0.9631204689630743,0.1699999018719737,-0.08700000024845123,1.2216040710116283,0.8785882260325851,-0.9185457475347594
6.345223426818848,-0.9681204529234693,0.16999987259760765,-0.08700000020124549,1.226603085242504,0.8835849952448956,-0.923544951957224
6.365291595458984,-0.9706204451938301,0.16999986059938343,-0.08700000018112093,1.229102609352357,0.8860834138115978,-0.9260445678858602
6.385378837585449,-0.9756204302957456,0.1699998410170097,-0.08700000014670795,1.2341016906630988,0.8910803181115379,-0.9310438264564326
6.405474662780762,-0.9806204161209112,0.16999982636186414,-0.08700000011883344,1.239100814907315,0.8960773109265405,-0.936043119689095
6.425546646118164,-0.9856204026399357,0.16999981567640965,-0.08700000009625508,1.244099980672083,0.9010743909702539,-0.9410424464461012
6.4458534717559814,-0.9906203898241517,0.16999980818517668,-0.08700000007796661,1.2490991865604035,0.9060715569159719,-0.9460418056013965
6.465773820877075,-0.9931203836569495,0.1699998054361908,-0.08700000007016995,1.2515988041190915,0.9085701716772742,-0.9485414969800633
6.485856533050537,-0.9981203717868204,0.1699998015970841,-0.08700000005683765,1.2565980676121802,0.9135674639083426,-0.9535409026505294
6.505939722061157,-1.0031203605134718,0.16999979959894995,-0.08700000004603849,1.2615973678163879,0.9185648385698476,-0.9585403379644891
6.526024580001831,-1.0081203498108684,0.1699997990712894,-0.08700000003729118,1.2665967034025034,0.9235622942197299,-0.963539801847478
6.546258449554443,-1.010620344665671,0.1699997992627822,-0.08700000003356206,1.2690963840544747,0.9260610519575263,-0.9660395441713131
6.56642484664917,-1.0156203347720565,0.1699998003967391,-0.08700000002718528,1.2740957702703504,0.9310586263304768,-0.9710390489315233
6.586465120315552,-1.0206203253874777,0.1699998023549773,-0.08700000002202007,1.2790951886452382,0.9360562779803538,-0.9760385796528058
6.606561183929443,-1.0231203208787565,0.16999980358656203,-0.08700000001981807,1.281594909501817,0.9385551323100091,-0.9785383544326011
6.6266655921936035,-1.0281203122142333,0.16999980646059745,-0.08700000001605264,1.2865943737862644,0.9435528970217073,-0.9835379222091225
6.646728038787842,-1.033120304001876,0.1699998097782283,-0.08700000001300265,1.291593867162311,0.9485507351839727,-0.9885375134616722
6.6669557094573975,-1.038120296220284,0.16999981343543874,-0.08700000001053214,1.2965933884493783,0.9535486452439241,-0.9935371272332361
6.687438249588013,-1.040620292484546,0.16999981536444125,-0.08700000000947893,1.2990931591981105,0.9560476267477862,-0.9960369422705919
6.707552194595337,-1.0456202853106413,0.16999981937854428,-0.08700000000767792,1.3040927201983594,0.9610456417241026,-1.0010365880746028
6.727663278579712,-1.0506202785173182,0.16999982355132404,-0.08700000000621912,1.3090923062794704,0.9660437246829962,-1.0060362541025099
6.748706579208374,-1.0556202720858074,0.16999982783351134,-0.08700000000503749,1.3140919163590776,0.9710418740517127,-1.0110359394763437
6.768761873245239,-1.0556202720858074,0.16999982783351134,-0.08700000000503749,1.3140919163590776,0.9710418740517127,-1.0110359394763437
6.788827180862427,-1.0606202659980695,0.16999983218537734,-0.08700000000408037,1.3190915493837132,0.9760400882571513,-1.0160356433415199
6.808927059173584,-1.0631202630776746,0.16999983437718033,-0.08700000000367233,1.3215913741791667,0.9785392191824935,-1.0185355019477549
6.829460620880127,-1.0681202574733382,0.16999983877557226,-0.08700000000297459,1.3265910397098417,0.9835375276980594,-1.023535231999293
6.849398851394653,-1.0706202547853292,0.16999984097641135,-0.08700000000267713,1.3290908801999615,0.9860367048971028,-1.026035103245776
6.86951470375061,-1.0756202496277827,0.16999984536918117,-0.08700000000216847,1.3340905760307757,0.9910351042029039,-1.0310348576943216
6.8895673751831055,-1.0806202447488922,0.16999984973668292,-0.08700000000175646,1.3390902908851101,0.9960335620918901,-1.0360346274532792
6.909664630889893,-1.0856202401340664,0.1699998540657002,-0.08700000000142273,1.3440900238559055,1.0010320770201115,-1.0410344117871202
6.929858922958374,-1.0881202312008915,0.1699998184035703,-0.08700000000128046,1.3465895107034642,1.00352916363816,-1.0435339971897406
6.950079441070557,-1.0931202139853857,0.16999975933234,-0.08700000000103716,1.351588530411348,1.008523475682728,-1.0485332049698384
6.970100164413452,-1.0981201976197976,0.16999971404791245,-0.0870000000008401,1.3565876102379337,1.013517975323791,-1.0535324610458199
6.990515470504761,-1.1031201820619927,0.16999967988549505,-0.08700000000068048,1.3615867474955035,1.0185126583269752,-1.0585317632366469
7.01056694984436,-1.1056201745733272,0.16999966628356725,-0.08700000000061243,1.3640863368420375,1.021010067268737,-1.061031430960816
7.03072452545166,-1.11062016015206,0.1699996448889291,-0.08700000000049607,1.369085555375118,1.026005017400142,-1.0660307983727324
7.050753116607666,-1.1156201464409088,0.16999962996510867,-0.08700000000040181,1.3740848249570552,1.0310001403665654,-1.071030206723645
7.070851564407349,-1.1206201334037666,0.16999962023827764,-0.08700000000032547,1.379084143169536,1.035995431993902,-1.0760296540537682
7.090930938720703,-1.1231201271271107,0.16999961699323926,-0.08700000000029293,1.3815838197773627,1.0384931397582444,-1.0785293917407535
7.1110310554504395,-1.12812011503682,0.1699996131906608,-0.08700000000023726,1.386583206567879,1.0434886766102276,-1.0835288940020955
7.131117820739746,-1.133120103537272,0.1699996123623093,-0.08700000000019217,1.391582636275255,1.0484843718132217,-1.0885284306163954
7.151275634765625,-1.1356200979993973,0.16999961286850288,-0.08700000000017295,1.394082366546625,1.0509822775246727,-1.0910282112589593
7.1713786125183105,-1.140620087328992,0.16999961539767716,-0.08700000000014009,1.3990818566128411,1.0559782026449958,-1.0960277961542857
7.191589593887329,-1.1456200771754785,0.16999961959007534,-0.08700000000011347,1.404081384347766,1.060974276028368,-1.1010274111595628
7.21158242225647,-1.1506200675117861,0.16999962508700286,-0.0870000000000919,1.4090809477794217,1.0659704937125856,-1.1060270546824087
7.231716632843018,-1.1556200583121845,0.16999963159821416,-0.08700000000007445,1.41408054500703,1.0709668517813,-1.1110267251890762
7.251790761947632,-1.1581200538787313,0.16999963515893918,-0.087000000000067,1.4165803557195167,1.0734650822491454,-1.1135265700978525
7.271860837936401,-1.163120045329834,0.169999642765726,-0.08700000000005426,1.4215800002300638,1.0784616436579015,-1.1185262783304382
7.292011976242065,-1.16812003718625,0.16999965088130256,-0.08700000000004394,1.4265796740885872,1.0834583358769536,-1.1235260099627613
7.3122398853302,-1.1706200332597136,0.16999965508567255,-0.08700000000003955,1.4290795215017478,1.0859567298702972,-1.1260258841341328
7.332290887832642,-1.1756200256843015,0.1699996637142561,-0.08700000000003202,1.4340792362887447,1.0909536113148346,-1.1310256483775833
7.352393627166748,-1.1806200184627673,0.1699996725548745,-0.08700000000002593,1.43907897639434,1.0959506143316893,-1.1360254327811727
7.372463703155518,-1.1856200115764313,0.16999968152678574,-0.087000000000021,1.4440787403193016,1.1009477353262338,-1.1410252361415874
7.39257287979126,-1.190620005007629,0.1699996905649388,-0.08700000000001702,1.4490785266265767,1.1059449707636237,-1.1460250573066049
7.412673473358154,-1.1931200018370498,0.1699996950920745,-0.08700000000001532,1.4515784277411468,1.108443630310424,-1.148524974219439
7.43291163444519,-1.1981199957135409,0.1699997041347701,-0.08700000000001241,1.4565782450598417,1.1134410309182567,-1.1535248200396806
7.452970743179321,-1.2031199898675613,0.16999971313158516,-0.08700000000001004,1.461578081430625,1.1184385374017212,-1.158524680999385
7.472927570343018,-1.2056199870440967,0.16999971760313046,-0.08700000000000904,1.4640780063736587,1.120937329308011,-1.161024616847494
7.4931640625,-1.2106199718297541,0.16999964189871325,-0.08700000000000732,1.4690776263109753,1.1259307983455347,-1.1660242887264796
7.5131707191467285,-1.215619947599179,0.16999950907782052,-0.08700000000000593,1.4740770594305386,1.1309203722576566,-1.1710237948526543
7.533255577087402,-1.220619924303368,0.16999940751032522,-0.0870000000000048,1.4790765596357107,1.1359103269388138,-1.1760233541062912
7.55337381362915,-1.22561990189864,0.16999933115568672,-0.08700000000000388,1.484076122795007,1.1409006525279761,-1.18102296319863
7.5734703540802,-1.22811989101744,0.16999930086548612,-0.08700000000000349,1.4865759267353387,1.1433959513588845,-1.1835227854428194
7.593522310256958,-1.2331198698726855,0.16999925345327027,-0.08700000000000283,1.4915755769303514,1.1483868150586152,-1.1885224634161118
7.613597631454468,-1.238119849520213,0.1699992207077724,-0.0870000000000023,1.4965752804491375,1.1533780255294643,-1.1935221835816434
7.6336510181427,-1.2406198396298804,0.16999920890944203,-0.08700000000000206,1.4990751510801692,1.1558737578570448,-1.1960220585957348
7.653797626495361,-1.2456198203997746,0.16999919292302626,-0.08700000000000167,1.504074927918368,1.1608654708801924,-1.2010218367727818
7.673979997634888,-1.2506198018768908,0.16999918537696435,-0.08700000000000135,1.5090747494094245,1.1658575074108766,-1.2060216502849062
7.693961143493652,-1.2556197840306917,0.16999918456583635,-0.08700000000000109,1.5140746123411557,1.1708498583976412,-1.211021496599551
7.714029550552368,-1.2606197668324841,0.1699991891085487,-0.08700000000000088,1.5190745136423518,1.1758425149376037,-1.2160213732996832
7.734123229980469,-1.2631197584678917,0.16999919302927965,-0.0870000000000008,1.5215744777593978,1.1783389550489982,-1.2185213223198041
7.75420069694519,-1.2681197421916748,0.1699992035740314,-0.08700000000000065,1.5265744311556904,1.1833320535556415,-1.223521240311248
7.7742979526519775,-1.2731197264991727,0.1699992170628948,-0.08700000000000052,1.531574415836269,1.1883254360206148,-1.2285211831304912
7.794354677200317,-1.278119711367422,0.16999923283635104,-0.08700000000000042,1.536574429194611,1.193319094074983,-1.2335211487401898
7.814495325088501,-1.2806197040050487,0.16999924140877726,-0.08700000000000038,1.5390744458475614,1.19581602387541,-1.2360211394826117
7.834557771682739,-1.2856196896744978,0.1699992596409887,-0.0870000000000003,1.5440744976067755,1.2008100799626877,-1.241021135679013
7.854900121688843,-1.2906196758534159,0.16999927900830503,-0.08700000000000024,1.5490745720643937,1.2058043913996035,-1.2460211500094798
7.874853610992432,-1.295619662523532,0.16999929919669018,-0.08700000000000019,1.55407466703393,1.210798950365278,-1.2510211807780953
7.894944190979004,-1.2981196560374006,0.16999930951745162,-0.08700000000000017,1.556574721558084,1.2132963202705325,-1.253521201821594
7.915027141571045,-1.30311964341259,0.16999933047725016,-0.08700000000000015,1.5615748434396288,1.218291236210564,-1.2585212542649633
7.935113906860352,-1.3081196312382526,0.16999935171228847,-0.08700000000000012,1.5665749808486342,1.2232863808181347,-1.2635213192964638
7.955406665802002,-1.3131196194998969,0.1699993730741253,-0.08700000000000009,1.5715751319747455,1.2282817468252627,-1.2685213955240864
7.975578784942627,-1.3156196137899394,0.16999938376426924,-0.08700000000000008,1.5740752121433073,1.2307795106255452,-1.2710214374234292
7.9957334995269775,-1.3206196026804013,0.16999940509970998,-0.08700000000000005,1.5790753806675935,1.2357751954493663,-1.27602152800969
8.015867948532104,-1.3256195919745484,0.16999942630570283,-0.08700000000000005,1.584075558811366,1.2407710841916406,-1.2810216266562366
8.035896301269531,-1.3306195816608777,0.16999944731333858,-0.08700000000000005,1.589075745098003,1.2457671701339617,-1.2860217322388623
8.05599594116211,-1.3356195717286108,0.1699994680676268,-0.08700000000000005,1.5940759381387315,1.2507634467133333,-1.2910218437035044
8.076076984405518,-1.3381195669023207,0.16999947833573284,-0.08700000000000005,1.5965760367811122,1.2532616544832311,-1.2935219013306918
8.096146821975708,-1.3431195575234074,0.16999949863102817,-0.08700000000000005,1.6015762375332505,1.2582582050500553,-1.298522019788703
8.116228103637695,-1.3481195485017854,0.1699995185804282,-0.08700000000000005,1.6065764419308057,1.2632549305195466,-1.3035221417826104
8.136500120162964,-1.3506195441222388,0.169999528417739,-0.08700000000000005,1.6090765451479554,1.2657533569532606,-1.3060222038439162
8.156591892242432,-1.3556195356205178,0.1699995478053407,-0.08700000000000005,1.6140767529623554,1.2707503335217343,-1.3110223296041468
8.176670551300049,-1.360619527455433,0.16999956679737888,-0.08700000000000005,1.6190769617936527,1.2757474702043246,-1.3160224569342918
8.196754932403564,-1.365619519619539,0.16999958538185453,-0.08700000000000005,1.6240771707144253,1.2807447613453347,-1.321022585145581
8.217059850692749,-1.3706195121058005,0.16999960355004878,-0.08700000000000005,1.629077378863799,1.2857422014350253,-1.3260227136014096
8.236976861953735,-1.373119508467643,0.1699996124760613,-0.08700000000000005,1.6315774823977018,1.2882409756533106,-1.3285227777357773
8.257066011428833,-1.3781195014247491,0.16999963000920001,-0.08700000000000005,1.6365776879146137,1.2932386291501894,-1.3335229054731834
8.277138710021973,-1.3831194946879752,0.16999964711491303,-0.08700000000000005,1.641577890781092,1.2982364184482147,-1.3385230320767303
8.297341108322144,-1.3856194914325362,0.16999965550702026,-0.08700000000000005,1.6440779910153527,1.3007353624506206,-1.3410230948041566
8.317479848861694,-1.3906194851440057,0.16999967196955545,-0.08700000000000005,1.6490781887059494,1.3057333460935383,-1.3460232188353187
8.337810516357422,-1.3956194791473846,0.1699996880037766,-0.08700000000000005,1.6540783822246332,1.3107314532615344,-1.3510233406312901
8.357744455337524,-1.4006194734373993,0.16999970361122738,-0.08700000000000005,1.6590785710542437,1.315729679281093,-1.356023459821846
8.377803087234497,-1.405619468008973,0.1699997187942468,-0.08700000000000005,1.6640787547263436,1.3207280196108984,-1.3610235760739908
8.397902250289917,-1.4081194653988058,0.16999972622750664,-0.08700000000000005,1.6665788444947098,1.3232272312585953,-1.3635236330038152
8.417964935302734,-1.4131194603835713,0.16999974077965102,-0.08700000000000005,1.6715790196533076,1.3282257348226216,-1.368523744300817
8.43808102607727,-1.418119455637913,0.16999975491579353,-0.08700000000000005,1.676579188681941,1.3332243419076042,-1.3735238519776474
8.458105564117432,-1.4231194511572685,0.16999976864006225,-0.08700000000000005,1.6815793512655512,1.3382230484175666,-1.3785239558172633
8.478220224380493,-1.4256194490149288,0.16999977534912059,-0.08700000000000005,1.684079430052798,1.3407224377103901,-1.3810240062383428
8.498316049575806,-1.4306194449234688,0.16999978846397962,-0.08700000000000005,1.689079582463448,1.345721285944482,-1.3860241039788155
8.518465280532837,-1.435619441086028,0.16999980117850616,-0.08700000000000005,1.694079727808962,1.3507202238930842,-1.3910241974641424
8.53860068321228,-1.440619437498331,0.16999981349765808,-0.08700000000000005,1.6990798659034811,1.3557192478777682,-1.396024286572961
8.558626413345337,-1.443119435796814,0.16999981951055393,-0.08700000000000005,1.7015799321825862,1.3582187910153993,-1.3985243294548497
8.579029321670532,-1.4481194325758189,0.1699998312462101,-0.08700000000000005,1.7065800591237155,1.363217937406156,-1.40352441182343
8.598897695541382,-1.453119429594062,0.16999984259936934,-0.08700000000000005,1.711580178489728,1.368217161131146,-1.4085244896140006
8.61896824836731,-1.45811942684738,0.16999985357529065,-0.08700000000000005,1.71658029020305,1.3732164589012736,-1.413524562783201
8.639235734939575,-1.460619425560893,0.16999985892343691,-0.08700000000000005,1.7190803431732806,1.3757161345544884,-1.4160245976265702
8.659383296966553,-1.4656194231590274,0.1699998693434017,-0.08700000000000005,1.7240804433219978,1.3807155374566809,-1.4210246638244883
8.679444313049316,-1.4706194209818304,0.1699998793993187,-0.08700000000000005,1.7290805357416252,1.3857150066403727,-1.4260247253748484
8.699527978897095,-1.4756194190251137,0.16999988909642533,-0.08700000000000005,1.7340806204451569,1.3907145391778166,-1.4310247822970381
8.71979808807373,-1.4781194181281192,0.1699998938120482,-0.08700000000000005,1.7365806599137836,1.3932143283161862,-1.433524809032879
8.739858865737915,-1.4831194216815227,0.16999978687046222,-0.08700007407651972,1.7415806599137835,1.398214347381166,-1.4385246275381607
8.760127305984497,-1.48811942634394,0.16999971901609065,-0.08700012471377062,1.7465806599137834,1.403214366182784,-1.4435244577189803
8.780195713043213,-1.4931194321935697,0.16999968242695412,-0.08700015676532188,1.7515806599137833,1.408214384694627,-1.4485242993708154
8.800280094146729,-1.498119439295347,0.16999967054517623,-0.08700017427028679,1.7565806599137832,1.4132144029129392,-1.4535241520742044
8.820433855056763,-1.5006194433357214,0.16999967217207437,-0.08700017861209103,1.7590806599137832,1.4157144119124865,-1.4560240824329997
8.840506553649902,-1.5056194524346258,0.1699996877481788,-0.08700018020295074,1.764080659913783,1.4207144296966026,-1.4610239508799898
8.860643148422241,-1.510619462942478,0.1699997166444763,-0.08700017424503413,1.769080659913783,1.4257144472041756,-1.466023829241893
8.880751848220825,-1.5156194749200342,0.1699997557665999,-0.08700016263479074,1.7740806599137828,1.4307144644526688,-1.4710237170391387
8.900803089141846,-1.5181194814786676,0.16999977836354668,-0.08700015519895775,1.7765806599137828,1.4332144729868896,-1.4735236643237206
8.9208984375,-1.5231194957725833,0.16999982830963598,-0.08700013787251504,1.7815806599137827,1.4382144898928755,-1.478523565357199
8.940973281860352,-1.5281195116840194,0.1699998831391385,-0.08700011816019258,1.7865806599137826,1.4432145066101387,-1.4835234745980255
8.961281061172485,-1.5331195292707198,0.16999994141310643,-0.08700009693996916,1.7915806599137825,1.4482145231774088,-1.488523391553059
8.981193542480469,-1.535619538710159,0.16999997147246534,-0.08700008598963391,1.7940806599137824,1.4507145314185286,-1.4910233527703787
9.001420021057129,-1.5406195589166296,0.17000003283017617,-0.08700006377808345,1.7990806599137823,1.4557145478464162,-1.4960232803824902
9.021442413330078,-1.5456195809400828,0.17000009517866904,-0.08700004155595932,1.8040806599137822,1.4607145642469512,-1.501023214502581
9.041515588760376,-1.550619604836389,0.17000015786992476,-0.08700001972024873,1.809080659913782,1.4657145806792273,-1.5060231546680523
9.061599731445312,-1.553119617504228,0.1700001891799654,-0.0870000090483325,1.811580659913782,1.4682145889272507,-1.508523126877681
9.081676483154297,-1.5581196443138665,0.17000025146405032,-0.08699998836069024,1.816580659913782,1.4732146055299842,-1.5135230752810436
9.10179352760315,-1.5631196731347705,0.1700003130169525,-0.08699996872582177,1.8215806599137818,1.4782146223360049,-1.518523028653299
9.12204122543335,-1.565619688316664,0.170000343431975,-0.08699995935880235,1.8240806599137818,1.4807146308393269,-1.5210230070799295
9.142155408859253,-1.5706197202577408,0.17000040340206252,-0.08699994161528189,1.8290806599137817,1.4857146480974333,-1.526022967183748
9.162243604660034,-1.5756197217370977,0.17000033237032905,-0.08699995270837832,1.834080622044119,1.4907149692694008,-1.531022953051888
9.182324886322021,-1.5806197233298043,0.17000027519805458,-0.08699996169378645,1.839080580902927,1.4957153115310646,-1.5360229370510312
9.202402114868164,-1.585619725031487,0.17000022920961283,-0.08699996897196703,1.8440805367718194,1.5007156740202436,-1.5410229193188087
9.222491264343262,-1.5881197259211555,0.17000020971181093,-0.08699997207477032,1.8465805137023603,1.5032158624859864,-1.543522909861649
9.242591857910156,-1.5931197277739704,0.17000017654944333,-0.08699997738056396,1.8515804657976376,1.508216253163576,-1.5485228898822088
9.26265573501587,-1.5981197297190517,0.17000014987822093,-0.08699998167825682,1.8565804158712116,1.5132166612830766,-1.5535228686390645
9.28271746635437,-1.6031197360924814,0.17000006455881966,-0.08699998515938802,1.8615810983281622,1.5182205064245995,-1.5585234557277263
9.303153276443481,-1.605619739321646,0.17000002675781106,-0.08699998664344921,1.8640814521509406,1.5207224943228317,-1.5610237510449358
9.323264837265015,-1.610619745807682,0.16999995893039443,-0.08699998918119385,1.8690821883616338,1.525726596215952,-1.5660243461004077
9.343628168106079,-1.6156197522678124,0.16999989937944046,-0.08699999123676702,1.8740829666898806,1.53073086298063,-1.5710249478710727
9.363598823547363,-1.6206197586242927,0.1699998460106186,-0.08699999290178129,1.8790837921230699,1.5357352909675093,-1.5760255573186726
9.383618593215942,-1.6231197617386368,0.16999982109913903,-0.08699999361160315,1.881584224110016,1.5382375643593398,-1.5785258652138332
9.403717279434204,-1.6281197677880042,0.16999977391169102,-0.08699999482539855,1.886585129932378,1.5432422279796543,-1.5835264879137703
9.423804521560669,-1.6331197718995534,0.16999977970616176,-0.08699999580857283,1.8915855793687768,1.5482448716233925,-1.5885267904874663
9.452009916305542,-1.6331197718995534,0.16999977970616176,-0.08699999580857283,1.8915855793687768,1.5482448716233925,-1.5885267904874663
9.484667778015137,-1.6331197718995534,0.16999977970616176,-0.08699999580857283,1.8915855793687768,1.5482448716233925,-1.5885267904874663
9.504719257354736,-1.6356197731031323,0.16999980517927488,-0.08699999622771555,1.8940855541008166,1.5507451282376177,-1.5910267781261531
9.524819374084473,-1.6381197743130969,0.1699998280339759,-0.086999996604944,1.896585529325559,1.553245387481726,-1.5935267658428356
9.544922351837158,-1.6431197767476926,0.16999986688007437,-0.08699999725000464,1.90158548152708,1.5582459135724003,-1.5985267415986213
9.56502389907837,-1.6481197791941824,0.16999989798843632,-0.08699999777250375,1.9065854365334027,1.5632464493509284,-1.6035267179298862
9.585052967071533,-1.6531197816431182,0.16999992277078846,-0.08699999819572804,1.9115853949244996,1.5682469943208621,-1.60852669500844
9.605733394622803,-1.6556197828654695,0.16999993315580147,-0.08699999837615524,1.914085375576215,1.5707472701104945,-1.611026683880648
9.625859498977661,-1.6606197852997027,0.16999995052152478,-0.08699999868468575,1.9190853401774146,1.5757478280406785,-1.6160266623941315
9.646214008331299,-1.6656197877114312,0.169999964021891,-0.08699999893459545,1.9240853097057002,1.5807483941283156,-1.6210266420674466
9.666131496429443,-1.6706197900901156,0.16999997432923245,-0.08699999913702232,1.9290852848172308,1.585748968041468,-1.626026623057699
9.68618369102478,-1.6756197924248817,0.1699999819869541,-0.08699999930098808,1.9340852661919596,1.5907495494942239,-1.6310266055168041
9.706631183624268,-1.678119793572303,0.1699999849628804,-0.08699999937088927,1.9365852594472504,1.5932498429710986,-1.633526597343117
9.726589679718018,-1.6831197958200437,0.16999998944199846,-0.08699999949042031,1.941585251546107,1.5982504352969469,-1.6385265822778414
9.748156547546387,-1.6856197969174243,0.16999999102448612,-0.08699999954137828,1.9440852505755817,1.6007507341028224,-1.6410265754204771
9.76822805404663,-1.6906197990516856,0.16999999304405575,-0.08699999962851641,1.9490852550721314,1.6057513369137695,-1.6460265631386488
9.788313388824463,-1.6931198000854875,0.169999993538442,-0.08699999966566477,1.9515852607354403,1.6082516408925374,-1.6485265577457735
9.808399200439453,-1.6981198020785573,0.16999999361813356,-0.08699999972918845,1.9565852793961866,1.6132522539517533,-1.653526548531489
9.828763246536255,-1.7006198030346014,0.16999999324468207,-0.08699999975626961,1.9590852926007798,1.6157525630225469,-1.6560265447387292
9.848958253860474,-1.705619804857462,0.16999999175855174,-0.08699999980257839,1.9640853272905319,1.620753186243058,-1.6610265388496184
9.869248867034912,-1.7106198065500633,0.16999998938253424,-0.0869999998400885,1.9690853737533276,1.6257538162629344,-1.6660265353060417
9.889289617538452,-1.7156198080984975,0.16999998621088933,-0.08699999987047168,1.9740854328961364,1.6307544531534617,-1.6710265342000665
9.909540891647339,-1.7181198088141914,0.16999998435070335,-0.08699999988342451,1.9765854675150378,1.6332547742094343,-1.673526534587213
9.92970895767212,-1.723119810119379,0.1699999801205506,-0.08699999990557385,1.9815855474515047,1.6382554216350222,-1.6785265372880485
9.949764490127563,-1.7281198112437806,0.16999997525261418,-0.08699999992351481,1.9865856424834059,1.6432560763000579,-1.6835265426111439
9.96986722946167,-1.7306198117333895,0.16999997259247657,-0.08699999993116334,1.9890856959800598,1.645756406415478,-1.686026546273363
9.989972352981567,-1.7356198125575888,0.16999996684047747,-0.08699999994424229,1.994085815594843,1.650757072371933,-1.691026555627061
10.010064840316772,-1.7406198131616575,0.16999996053437544,-0.08699999995483626,1.999085952946078,1.6557577462069877,-1.6960265677142081
10.030580520629883,-1.7456198135290752,0.1699999536940669,-0.08699999996341737,2.004086109157309,1.660758428251508,-1.701026582556197
10.05059814453125,-1.7506198136428688,0.16999994633380663,-0.08699999997036807,2.0090862853921334,1.665759118879127,-1.7060266001600906
10.070777177810669,-1.7531198135992276,0.16999994246187025,-0.08699999997333127,2.0115863813932435,1.6682594675400177,-1.7085266099958465
10.090740442276001,-1.7581198132997617,0.16999993433861482,-0.08699999997839833,2.016586589935554,1.673260171836045,-1.713526631722543
10.110798120498657,-1.7631198127022398,0.16999992571280925,-0.08699999998250264,2.0215868215929453,1.6782608858353998,-1.718526656160865
10.131086826324463,-1.7681198117880867,0.16999991658607114,-0.08699999998582714,2.0265870776778527,1.6832616100602154,-1.7235266832613454
10.15123438835144,-1.7706198112063436,0.1699999118347413,-0.08699999998724442,2.029087215303015,1.6857619761818383,-1.7260266977895211
10.171283721923828,-1.7756198097814149,0.16999990195492035,-0.08699999998966798,2.0340875105885474,1.6907627168157549,-1.7310267287507297
10.191376209259033,-1.7806198079914202,0.16999989156944798,-0.08699999999163106,2.0390878337814087,1.695763469163947,-1.7360267621694463
10.211447954177856,-1.7856198058161947,0.16999988067390212,-0.08699999999322117,2.0440881863556184,1.700764233894756,-1.7410267979290466
10.231540203094482,-1.7881198045776971,0.16999987503318384,-0.08699999999389905,2.046588374134549,1.703264621123779,-1.743526816644446
10.251628398895264,-1.7931198017858454,0.16999986336205977,-0.08699999999505824,2.0515887736505216,1.7082654057717546,-1.748526855649939
10.271709442138672,-1.7981197985564206,0.16999985116580033,-0.08699999999599717,2.056589206446241,1.713266204652906,-1.7535268966096649
10.291913509368896,-1.8031197949226534,0.16999983860543563,-0.0869999999967577,2.0615896724122185,1.7181903642206848,-1.7585269383406499
10.312098264694214,-1.8056197930697875,0.1699998325442365,-0.08699999999708193,2.064089914444487,1.7203717610838594,-1.7610269572597423
10.332177639007568,-1.8106198010837258,0.1699998821506421,-0.08700001146747889,2.06908992938518,1.7241011630610885,-1.7660269947907632
10.352280139923096,-1.8156198092359053,0.16999992199541028,-0.08700002180449817,2.0740899461902544,1.7271219786731442,-1.7710270359268678
10.37232255935669,-1.8206198175169255,0.16999995389471975,-0.08700003122133713,2.079089964883695,1.7295688392781372,-1.7760270806196714
10.392412662506104,-1.8231198173547072,0.16999995666253306,-0.08700002809920342,2.081589985502137,1.7306119907048938,-1.7785270817285284
10.412488222122192,-1.8281198257253772,0.16999997938525704,-0.08700003590895143,2.0865900080945172,1.732395751612218,-1.783527130267003
10.432704210281372,-1.8331198342092,0.16999999735830051,-0.0870000431915188,2.0915900327208026,1.7338405977096738,-1.7885271823408344
10.452691793441772,-1.8381198428005254,0.17000001145549715,-0.0870000500644492,2.096590059450914,1.7350109227772277,-1.7935272379580496
10.473169326782227,-1.8406198517887546,0.17000002766058517,-0.08700006291981532,2.099090059450914,1.735509835898775,-1.7960272946424292
10.493268251419067,-1.8456198606180436,0.1700000371243422,-0.08700006996336895,2.1040900883638183,1.7363630028820092,-1.8010273570343418
10.513370275497437,-1.8506198695446465,0.1700000442374978,-0.087000076838855,2.1090901195467686,1.7370540679152293,-1.8060274230631193
10.533466577529907,-1.8556198785661209,0.17000004942401498,-0.087000083615646,2.114090153094677,1.7376138303546362,-1.8110274927923875
10.553537130355835,-1.858119878159272,0.17000004143308126,-0.0870000752540814,2.116590189109601,1.7378524789740355,-1.8135274965560275
10.573646306991577,-1.863119887233031,0.17000004448623082,-0.08700008131795922,2.121590227700331,1.7382605449064388,-1.8185275705256823
10.593756198883057,-1.868119896396568,0.17000004636191984,-0.08700008739274587,2.1265902689820644,1.7385910779321265,-1.8235276483768978
10.613859176635742,-1.8731199056486576,0.17000004726498624,-0.08700009351831833,2.1315903130761504,1.7388588092967792,-1.8285277302024394
10.633965253829956,-1.8756199155678854,0.17000005690215197,-0.08700011081032183,2.1340903130761504,1.7389729360404496,-1.8310278103375313
10.654041290283203,-1.8806199250420954,0.17000005650583266,-0.0870001178398415,2.139090360109898,1.7391681122418716,-1.8360278998600912
10.6742422580719,-1.8856199346046265,0.17000005549463545,-0.0870001250272459,2.1440904102164344,1.7393262047015845,-1.8410279936536267
10.694297790527344,-1.8906199442552083,0.1700000539682214,-0.08700013239854461,2.149090463534608,1.7394542593332842,-1.8460280918369036
10.71436619758606,-1.8931199435273292,0.17000004404863792,-0.08700011915869015,2.1515905202089245,1.7395088600037827,-1.8485280993559148
10.734522342681885,-1.8981199532124728,0.17000004204475,-0.08700012597919324,2.1565905803895133,1.7396022108147222,-1.8535282026881013
10.754543542861938,-1.9031199629834499,0.17000003970138222,-0.08700013300471211,2.161590644232118,1.739677824584502,-1.858528310688871
10.774853467941284,-1.9081199728402456,0.17000003706640526,-0.08700014025214355,2.166590711898106,1.7397390713554088,-1.863528423491923
10.795206308364868,-1.9106199837365998,0.17000004411880126,-0.08700016415211625,2.169090711898106,1.7397651749635026,-1.8660285310159583
10.815319299697876,-1.9156199938270129,0.17000004096660007,-0.08700017274798741,2.174090783554491,1.7398098240286242,-1.8710286530977045
10.835463523864746,-1.9206200040057284,0.17000003760633045,-0.08700018163797708,2.1790908593739733,1.739845989552594,-1.876028780378221
10.855506658554077,-1.925620014272919,0.17000003406098163,-0.08700019083581104,2.1840909395349817,1.7398752834184286,-1.8810289130057651
10.875858068466187,-1.930620024628757,0.1700000303490975,-0.08700020035445803,2.1890910242217307,1.739899011252096,-1.8860290511318922
10.895949125289917,-1.9331200234141617,0.1700000206441045,-0.08700018031901223,2.1915911136242774,1.7399091301528544,-1.8885290644978008
10.916015148162842,-1.9381200337877194,0.1700000168587756,-0.08700018918564101,2.196591207938585,1.7399264267121182,-1.8935292091383873
10.936089754104614,-1.9431200442477807,0.17000001293830305,-0.08700019836277682,2.201591307366588,1.7399404365965052,-1.8985293596211297
10.957123279571533,-1.945620056229654,0.17000001834920775,-0.08700023095634575,2.2040913073665878,1.7399464076382292,-1.9010295000639061
10.977370977401733,-1.9506200669414404,0.17000001409346702,-0.08700024187715186,2.209091412116258,1.73995662120167,-1.9060296617612098
10.997427701950073,-1.955620082665019,0.16500002812324774,-0.08700025313097381,2.2140912972180398,1.7399651811400212,-1.9010297493807509
11.017525911331177,-1.9506200949617925,0.16000002448682346,-0.08700026510595422,2.219091419861437,1.7399719775058229,-1.8960299039293267
11.03760313987732,-1.9456201071802794,0.15500002019757048,-0.08700027785872903,2.2240915432364727,1.7399773328890893,-1.8910300869097583
11.057697534561157,-1.9431201053372378,0.1525000110409255,-0.08700025007285613,2.2265916739632825,1.7399796146731201,-1.8885301082266448
11.078102111816406,-1.9381201180783911,0.14750000527288867,-0.08700026222121965,2.2315918123722405,1.7399835183320032,-1.8835303009761766
11.097971439361572,-1.9331201139468863,0.1424999853930449,-0.08700021239918793,2.2365921011423526,1.7399866768331724,-1.8785303494043246
11.11815094947815,-1.9281201095435119,0.1374999645771907,-0.08700017204334222,2.2415924064850805,1.7399892343771879,-1.8735304013488383
11.138261318206787,-1.9256201072358043,0.13499995380899105,-0.087000154839008,2.244092565596327,1.7399903243967731,-1.871030428687522
11.15835452079773,-1.9206201023999734,0.12999993153321335,-0.08700012541959648,2.249092897161734,1.7399921877873512,-1.8660304861956365
11.178507328033447,-1.9156200972587665,0.12499990824609788,-0.08700010158987315,2.254093247152572,1.7399936964924416,-1.8610305476117037
11.19851565361023,-1.9106200917980098,0.11999988391658586,-0.08700008228779725,2.259093616351765,1.7399949179889336,-1.8560306130997977
11.21859884262085,-1.9081200889432484,0.11749987135108414,-0.08700007405901752,2.2615938084058103,1.739995438545881,-1.8535306474232944
11.238710880279541,-1.9031200829756072,0.11249984539861853,-0.08700005998780419,2.2665942079388715,1.7399963283909061,-1.8485307193364
11.258962631225586,-1.8981200766510076,0.10749981832388132,-0.08700004859012139,2.271594628744765,1.7399970488437912,-1.843530795750381
11.27912187576294,-1.893120069953685,0.10249979009406286,-0.08700003935799833,2.2765950716928613,1.7399976321889694,-1.8385308768442314
11.299198865890503,-1.8906200664602,0.09999977553561588,-0.08700003542219849,2.2790953017488165,1.7399978808253709,-1.8360309192032034
11.319360256195068,-1.8856200591732222,0.09499974551063041,-0.08700002869198077,2.2840957795956145,1.7399983059574844,-1.8310310076617413
11.339431762695312,-1.8806200514720806,0.08999971424650965,-0.08700002324050443,2.289096281869035,1.7399986503598528,-1.8260311012661337
11.360186576843262,-1.8756200309875812,0.09418173551003896,-0.0870000188248086,2.294097382812663,1.739998483383493,-1.8310313861793914
11.380192041397095,-1.8731200254046787,0.09668171451724887,-0.08700001694232773,2.296597722314443,1.7399985883166658,-1.8335314582652444
11.400261163711548,-1.868120017027975,0.10168168064960068,-0.08700001372328546,2.301598275336201,1.739998875172665,-1.8385315598697498
11.42030143737793,-1.8631200084628086,0.10668164584597399,-0.08700001111586123,2.3065988466066347,1.7399991048921102,-1.8435316636451693
11.440890073776245,-1.8606200041090968,0.10918162808611735,-0.0870000100042751,2.309099139273494,1.7399992017764758,-1.846031716364264
11.460779190063477,-1.8622104664484327,0.11418159825143431,-0.08700000810346284,2.3140996304898276,1.739999273792337,-1.8510318195275959
11.480829000473022,-1.8638556322234492,0.11918156105350981,-0.0870000065638049,2.319100249283776,1.7399994198408486,-1.8560319290420464
11.50104284286499,-1.8588556365239992,0.11418156365184412,-0.08700000531668196,2.3241002212251267,1.7400001213557514,-1.8510318205672058
11.521046161651611,-1.853855626743602,0.1091815238834308,-0.08700000430651239,2.3291008929635466,1.7400001052162606,-1.8460319391785944
11.541181564331055,-1.8513556216672655,0.10668150344820614,-0.08700000387586115,2.331601240431658,1.7400000984537796,-1.8435320007902067
11.56122875213623,-1.8463556111307209,0.10168146145335477,-0.08700000313944753,2.336601959245934,1.74000008720309,-1.8385321287554015
11.581300973892212,-1.8413556000665956,0.09668141792928989,-0.0870000025429525,2.3416027108224,1.7400000786102645,-1.8335322632192945
11.60137677192688,-1.8363555884556466,0.09168137283978951,-0.08700000205979153,2.3466034962920523,1.7400000723045668,-1.8285324043961708
11.622192621231079,-1.8338555824389942,0.08918134969662159,-0.08700000185381238,2.3491039020968705,1.7400000699143081,-1.8260324775698575
11.642282724380493,-1.8288555699708873,0.08418130219058337,-0.08700000150158803,2.354104740579722,1.7400000665031552,-1.8210326292252668
11.662364482879639,-1.8238555569061794,0.07918125302765879,-0.0870000012162863,2.3591056158885517,1.7400000647479559,-1.8160327881437415
11.68265986442566,-1.8188555432243125,0.07418120217097575,-0.0870000009851919,2.364106529238059,1.7400000644825064,-1.811032954550767
11.702603816986084,-1.8163555361454227,0.07168117609591682,-0.0870000008866727,2.3666070005640605,1.7400000648664355,-1.8085330406337554
11.722697496414185,-1.8113555214984962,0.0666811226291907,-0.08700000071820489,2.3716079733031967,1.7400000666000202,-1.8035332187027657
11.742945194244385,-1.8063554875087253,0.06668101258850583,-0.08700000058174595,2.376609973245482,1.7399995899164202,-1.8035336726428286
11.763208866119385,-1.8038554796950068,0.06918098438244272,-0.08700000052357136,2.379110493172874,1.7399996386456642,-1.8060337676462404
11.78326416015625,-1.7988554638872754,0.07418092701276571,-0.08700000042409281,2.3841115544843596,1.739999719547287,-1.811033960094536
11.803397417068481,-1.793855447836593,0.07918086833664637,-0.08700000034351517,2.3891126452343094,1.7399997817893103,-1.816034155896643
