liuyurong129/humanoid-gym/humanoid/data/robot2_action_20250621-220827.csv
timestamp,joint_1,joint_2,joint_3,joint_4,joint_5,joint_6
0.0002884864807128906,0.0,0.0,0.0,0.0,0.0,0.0
0.020296335220336914,0.0,0.0,0.0,0.0,0.0,0.0
0.040349721908569336,0.0,0.0,0.0,0.0,0.0,0.0
0.06042218208312988,0.0,0.0,0.0,0.0,0.0,0.0
0.08055448532104492,0.0,0.0,0.0,0.0,0.0,0.0
0.1006309986114502,-0.70788586,0.24196145,0.23717225,0.43358323,-0.9981458,0.043643378
0.12074661254882812,-0.70788586,0.24196145,0.23717225,0.43358323,-0.9981458,0.043643378
0.14083409309387207,-0.3299764,0.1709489,-0.84889215,1.9268664,-0.1320139,-0.7506829
0.1609501838684082,-0.4730749,0.21742529,-0.41502547,1.0599458,-0.3734775,-0.7230434
0.18104147911071777,-0.43989682,0.3806661,-0.44846454,1.077937,-0.7923205,-0.29905355
0.20113611221313477,-0.46811977,0.35297233,-0.2530452,0.44709724,-0.8490974,0.27336356
0.22145843505859375,-0.32530198,0.046293676,0.112595506,-0.0319482,-0.7811192,0.83411235
0.2413172721862793,-0.11201884,-0.39059824,-0.4246222,0.49520725,0.16558659,0.71882194
0.2614438533782959,-0.11201884,-0.39059824,-0.4246222,0.49520725,0.16558659,0.71882194
0.2815110683441162,-0.5581601,0.01403898,0.23882082,0.19235417,-0.70785046,1.2060596
0.30159544944763184,-0.32601616,-0.2596497,-0.26213145,0.36613685,-0.07937831,1.0948826
0.32219743728637695,-0.53644377,0.08986023,0.1771306,0.07247452,-0.62647045,1.3411864
0.3422553539276123,-0.19820912,-0.42516318,-0.2926344,0.13801849,0.4498197,0.9686538
0.36234402656555176,-0.6584562,0.034773737,0.3096056,0.06330932,-0.50327873,1.3012394
0.3824656009674072,-0.304187,-0.36080003,-0.32112446,0.28740895,0.41259763,0.8208919
0.40249109268188477,-0.304187,-0.36080003,-0.32112446,0.28740895,0.41259763,0.8208919
0.42262721061706543,-0.63568884,0.1264418,0.20461415,0.20906463,-0.5272722,1.0642914
0.4426915645599365,-0.142989,-0.36132616,-0.47091675,0.58122164,0.7165512,0.4334926
0.46281862258911133,-0.5147397,0.20908079,-0.055151634,0.7571712,-0.39652413,0.5009954
0.48302698135375977,-0.500576,0.22727248,-0.09743161,0.16496512,-0.2364039,0.42541656
0.5034525394439697,-0.37863553,0.18771005,-0.055169336,0.3340936,0.0024762452,0.37505472
0.5233139991760254,-0.43789732,0.1219247,0.11831056,0.30290872,0.08274846,0.27819258
0.5433802604675293,-0.24699073,-0.0059636384,-0.4858724,1.1906315,1.0536358,-0.68099314
0.5638644695281982,-0.24699073,-0.0059636384,-0.4858724,1.1906315,1.0536358,-0.68099314
0.5840559005737305,-0.6545295,0.5359734,-0.4419694,1.5038143,0.08273524,-0.8693099
0.6040608882904053,-0.49174294,0.5076542,-0.29811794,0.8499249,-0.31906286,-0.44089046
0.6241929531097412,-0.32692507,0.6139494,-0.3383799,0.77130884,-0.59463346,0.06393594
0.644481897354126,-0.2758952,0.5477245,-0.07562692,0.12932178,-0.8473985,0.750698
0.6646032333374023,-0.18469208,0.3039295,0.2566194,-0.15792927,-0.5575365,1.229807
0.6846752166748047,-0.01914953,-0.17722294,-0.1822969,0.34312543,0.5146209,0.95506036
0.7047576904296875,-0.58316666,0.3462521,0.45517147,0.15360498,-0.7084633,1.1840941
0.7251670360565186,-0.58316666,0.3462521,0.45517147,0.15360498,-0.7084633,1.1840941
0.7450928688049316,-0.096978664,-0.30647144,-0.38096064,0.5307093,0.80836964,0.6065079
0.7655692100524902,-0.5249673,0.25015187,0.09789686,0.5242427,-0.50141025,0.63431627
0.7855334281921387,0.18013349,-0.2888201,-0.71878964,1.3636644,1.171247,-0.21334168
0.8054873943328857,-0.4982104,0.36828783,-0.24404636,0.95942384,-0.061152644,-0.2164461
0.825584888458252,-0.42667198,0.5284262,-0.18764275,0.41560212,-0.5231031,0.22291449
0.8458342552185059,-0.37413642,0.4771056,0.08588698,-0.0901547,-0.5401232,0.6922228
0.8661139011383057,-0.37413642,0.4771056,0.08588698,-0.0901547,-0.5401232,0.6922228
0.8860507011413574,0.14709793,-0.0678111,-0.4942715,0.9912775,0.73665154,0.2711714
0.9062888622283936,-0.39095923,0.38944474,0.15247142,0.6697184,-0.37100777,0.26028058
0.9263045787811279,-0.06644799,0.2546393,-0.61862075,1.3916737,0.7640178,-0.46215507
0.9463772773742676,-0.44750604,0.28003246,-0.23715413,0.7705022,0.08387435,-0.51616955
0.9664595127105713,-0.361955,0.36821494,-0.23558128,0.46921426,-0.25951198,-0.04055967
0.9874849319458008,-0.361955,0.36821494,-0.23558128,0.46921426,-0.25951198,-0.04055967
1.0075793266296387,-0.47603986,0.42677757,0.008227875,0.00015739352,0.12738141,0.18666457
1.02764892578125,0.031284284,0.03420666,-0.37006024,1.1962454,0.86183536,-0.46601206
1.048046350479126,-0.5712899,0.5019902,-0.15288125,1.011887,-0.21934122,-0.42204842
1.0679373741149902,-0.31867215,0.54087365,-0.23899557,0.47769827,-0.46691355,0.081186466
1.0880491733551025,-0.3302606,0.4094132,0.28418335,-0.18360981,-0.34128234,0.5935072
1.1081340312957764,0.24831301,-0.17564921,-0.45649466,1.1054804,1.0798898,0.14596474
1.1281707286834717,-0.32378447,0.27197838,0.13891831,0.8958362,-0.0711062,0.013639382
1.1484947204589844,-0.32378447,0.27197838,0.13891831,0.8958362,-0.0711062,0.013639382
1.1689426898956299,-0.15038733,0.20799658,-0.51284987,1.1456027,0.9411912,-0.48096249
1.1888220310211182,-0.40393898,0.21002313,-0.19112088,0.6685626,0.27065876,-0.40747467
1.2089674472808838,-0.278832,0.16011563,0.036231026,0.19267827,-0.3931956,0.32360566
1.229038953781128,0.6305326,-0.3741613,-0.70538133,1.6252983,1.2725987,-0.18391466
1.2491028308868408,-0.13074557,0.17405507,-0.040593944,1.1603392,-0.035941385,-0.15949579
1.269186019897461,0.32319465,0.013780028,-0.73983335,2.15453,0.5845201,-0.6882439
1.2892675399780273,-0.23415549,0.34384242,-0.2526731,0.8837102,-0.40237007,-0.30042657
1.309403657913208,-0.24992193,0.34514037,0.2141897,0.067502536,-0.7503289,0.6587837
1.3295173645019531,-0.24992193,0.34514037,0.2141897,0.067502536,-0.7503289,0.6587837
1.3496716022491455,0.32586518,-0.2912541,-0.17945626,0.40747634,0.49086088,0.639568
1.369708776473999,-0.3570597,0.07171407,0.76517564,0.046443976,-0.6570542,1.0941285
1.389746904373169,-0.111616015,-0.10910981,-0.16444151,0.7276016,0.3928925,0.8406203
1.409907579421997,-0.508632,0.20810711,0.5393116,-0.068381734,-0.7334726,1.24168
1.4299430847167969,0.03810393,-0.40141302,-0.0851221,-0.09189295,0.6941484,0.9084115
1.4503862857818604,-0.10851633,-0.38219726,0.022649994,0.49428338,0.40275666,0.6245314
1.470217227935791,-0.10851633,-0.38219726,0.022649994,0.49428338,0.40275666,0.6245314
1.49031662940979,0.10271436,-0.45087212,-0.32242474,1.4134544,0.5719373,0.059264608
1.5104131698608398,-0.41832647,0.14328054,0.0049978103,0.5347866,-0.5316105,0.27224725
1.5305001735687256,0.40282288,-0.15765458,-0.61989814,1.3814625,1.0666715,-0.321875
1.5505492687225342,-0.26109773,0.52763,-0.14993532,1.0912843,-0.0589547,-0.4655244
1.5708107948303223,-0.39689994,0.58880985,-0.18666317,0.33906418,0.03751439,-0.22741404
1.5908114910125732,-0.3484665,0.51649165,0.4578468,-0.21372199,-0.6267576,0.42927137
1.611177682876587,0.1435848,0.16179761,-0.37494728,0.85942954,0.6875051,0.15333866
1.6311511993408203,0.1435848,0.16179761,-0.37494728,0.85942954,0.6875051,0.15333866
1.6512572765350342,-0.3476604,0.33746845,0.52312565,0.42643145,0.10512507,-0.08881349
1.671872615814209,-0.05306363,0.10054858,-0.36345002,1.4309999,1.2436844,-0.79482955
1.6920149326324463,-0.05306363,0.10054858,-0.36345002,1.4309999,1.2436844,-0.79482955
1.7123689651489258,-0.54609495,0.62087643,-0.40530196,1.3010982,0.18404248,-1.1368113
1.7322862148284912,-0.2966563,0.5937587,-0.104754925,0.6055222,-0.33649376,-0.5699746
1.7523550987243652,0.32313877,0.49931726,-0.66061187,1.8863993,0.26934007,-0.630142
1.7724404335021973,-0.12651847,0.3456487,0.04651632,0.5817733,-0.5671321,-0.21568045
1.7925443649291992,0.37091696,0.08780266,-0.47969466,2.1031127,-0.034091853,-0.62268937
1.8126661777496338,-0.23702542,0.48365137,-0.22772437,0.64318794,-0.4707246,-0.27731547
1.832664966583252,-0.21747941,0.35783586,0.38103092,-0.13612145,-0.76368594,0.66931087
1.8528141975402832,-0.21747941,0.35783586,0.38103092,-0.13612145,-0.76368594,0.66931087
1.8728537559509277,0.24197419,-0.27218732,0.005934788,0.1508007,0.3233473,0.69147253
1.8929815292358398,0.22323617,-0.40217817,-0.06496928,1.1124346,0.17335075,0.44881576
1.9130489826202393,0.5757722,-0.5071764,-0.586598,2.1633325,0.5837697,-0.11924266
1.9331605434417725,-0.018222708,0.039904907,-0.3197972,1.1401048,-0.3625897,0.092918865
1.9532890319824219,-0.3751609,0.4493111,0.58649987,0.32725176,-1.0899646,0.6495149
1.9733235836029053,-0.018200386,-0.021496952,0.1178836,0.15948942,-0.025121003,0.6768748
1.99371337890625,0.020151373,0.03792274,-0.1738064,1.398465,-0.021400303,0.2003325
2.0138158798217773,0.020151373,0.03792274,-0.1738064,1.398465,-0.021400303,0.2003325
2.0338990688323975,-0.5062795,0.4784353,0.4356152,0.11074517,-0.786046,0.4510965
2.0541019439697266,-0.10737009,0.08152561,-0.5120306,1.5399593,0.67298174,-0.30316982
2.0741021633148193,-0.5010664,0.5555223,-0.1549609,0.62664706,-0.41334227,-0.24847305
2.094200372695923,-0.334774,0.66285825,0.27223286,0.02994842,-0.9179088,0.30932134
2.114298105239868,0.34280804,0.09359452,-0.59117544,1.3991027,0.817631,-0.22165686
2.134345054626465,-0.29898855,0.56757927,0.018945364,0.8512874,-0.47659883,-0.18762292
2.154911756515503,-0.29898855,0.56757927,0.018945364,0.8512874,-0.47659883,-0.18762292
2.1750242710113525,-0.16301872,0.5530821,-0.5595492,1.075888,0.48310027,-0.5669248
2.1950795650482178,-0.35794917,0.43608132,0.08388178,0.47677404,-0.36852768,-0.3389463
2.215182304382324,0.21748722,0.32320967,-0.7769204,2.0398898,0.68578875,-0.74680716
2.2356679439544678,-0.1878091,0.29151675,-0.3870735,0.9516688,0.31359547,-0.9496688
2.255831718444824,-0.38418385,0.3526607,0.16166827,0.3387781,-0.18937346,-0.55408055
2.275883674621582,0.43205532,0.007763803,-0.9527576,3.0007858,1.1102195,-1.4586009
2.2959227561950684,0.049611222,0.44014725,-0.7935508,2.5080009,0.4726296,-1.8799628
2.3159923553466797,0.049611222,0.44014725,-0.7935508,2.5080009,0.4726296,-1.8799628
2.3364181518554688,-0.053266574,0.5025996,-0.5504376,1.8482198,0.18431209,-1.7788303
2.3564040660858154,-0.21985371,0.4564055,-0.31057987,1.2259572,-0.16436955,-1.4545847
2.376422882080078,-0.23949651,0.60810256,-0.26757297,1.1009094,0.2175301,-1.2946438
2.396556854248047,-0.3436145,0.39767835,-0.13852194,0.6865762,0.06167215,-0.9641327
2.416654348373413,-0.09496266,0.2979398,-0.46046764,1.2373457,0.5769428,-1.0318539
2.4367151260375977,-0.3497282,0.25108954,-0.014357755,0.6581128,-0.12072538,-0.84701943
2.4567952156066895,0.72929305,-0.1232221,-0.94952184,3.0406663,1.1193924,-1.4139131
2.4771900177001953,0.72929305,-0.1232221,-0.94952184,3.0406663,1.1193924,-1.4139131
2.4972846508026123,0.18128227,0.25766984,-0.6966358,2.1740234,0.3412025,-1.4966882
2.5173773765563965,0.14038971,0.082877785,-0.36576876,1.7571033,-0.39474916,-1.037347
2.537656307220459,0.04349577,0.23110464,-0.09687532,1.4257013,-0.9101331,-0.5668322
2.557605504989624,0.4424017,-0.04324533,-0.7434001,2.9227176,0.08178783,-1.0633386
2.5776543617248535,-0.20215283,0.35932228,-0.06405752,1.2697501,-0.921798,-0.72548985
2.5977447032928467,0.544403,0.04303503,-0.6451945,2.5384119,-0.053466402,-0.96537143
2.618136167526245,-0.19912142,0.46779105,-0.24918918,1.2583376,-0.57502997,-0.74267197
2.6385819911956787,-0.19912142,0.46779105,-0.24918918,1.2583376,-0.57502997,-0.74267197
2.6587257385253906,-0.17306182,0.30225477,0.2961837,0.4159321,-1.0002234,0.069896
2.6787939071655273,0.4588655,-0.40853596,-0.341534,1.2568381,0.3267648,-0.18685013
2.6989035606384277,-0.3264443,0.070866466,0.57402825,0.4738019,-0.6882074,0.21985456
2.718971014022827,0.27318063,0.0343775,-0.67702657,2.216952,0.59057355,-0.36150184
2.7390668392181396,-0.30317813,0.32001534,-0.115443625,0.8538929,-0.6047511,-0.17415382
2.7591493129730225,0.16223618,0.04257974,-0.5697713,1.4187132,0.26120177,-0.181975
2.7792179584503174,-0.24814333,0.2359635,0.2657169,0.7424994,-0.959043,0.2100282
2.799428939819336,-0.24814333,0.2359635,0.2657169,0.7424994,-0.959043,0.2100282
2.819493532180786,0.33105996,-0.1666337,-0.14190665,0.97131616,0.20511569,0.10383793
2.8395087718963623,-0.030076314,-0.0629196,0.1769976,1.3403785,0.029678732,-0.2812362
2.859635829925537,-0.27859375,0.14871752,-0.5101054,1.6973171,-0.06690183,-0.9152323
2.8797695636749268,-0.40061167,0.64844286,-0.21994421,0.9789687,-0.53763795,-0.6636817
2.8998615741729736,-0.31649345,0.48419246,0.25883332,0.07969729,-0.80432034,-0.028951056
2.9200594425201416,0.36599413,-0.24038537,-0.6624984,2.0011954,0.91230166,-0.7025254
2.940180540084839,0.36599413,-0.24038537,-0.6624984,2.0011954,0.91230166,-0.7025254
2.9602482318878174,-0.3322279,0.2557645,-0.31007415,1.1479722,-0.052711964,-0.7832625
2.980327844619751,-0.2804709,0.39864966,-0.011605592,0.57514447,-0.4620748,-0.45449692
3.0004007816314697,0.27418438,0.18452203,-0.56977135,1.8325862,1.1763363,-1.1353568
3.0205016136169434,-0.44833472,0.3446868,-0.4656118,1.4377418,0.35888526,-1.4004083
3.040571451187134,-0.48067737,0.34140486,-0.15554616,0.6819368,0.088794306,-1.0679544
3.060685873031616,-0.23424815,0.2593911,-0.61121726,1.4591371,0.8048618,-1.4275478
3.080761432647705,-0.23424815,0.2593911,-0.61121726,1.4591371,0.8048618,-1.4275478
3.1008799076080322,-0.4270871,0.1597403,-0.34023112,1.0222367,0.57628214,-1.4162658
3.1212193965911865,-0.5367667,0.43547037,-0.078847654,0.7355593,-0.254901,-0.98894197
3.1411776542663574,-0.16063833,0.35991988,-0.7207679,1.5992051,1.0561674,-1.4373437
3.161280393600464,-0.372416,0.13581115,-0.3740302,1.2768862,0.5168655,-1.6401582
3.1813647747039795,-0.34638312,0.4132459,-0.20158662,1.0790147,-0.20307735,-1.135913
3.2016944885253906,-0.06653048,0.3421574,-0.49457732,1.3215038,0.6678245,-1.2200863
3.221851110458374,-0.06653048,0.3421574,-0.49457732,1.3215038,0.6678245,-1.2200863
3.24198579788208,-0.4113871,0.096216574,-0.04447507,0.6746522,0.07955159,-1.1441475
3.262019157409668,0.3399119,-0.1308395,-1.0214089,3.1871295,0.3560221,-1.3104138
3.2821109294891357,-0.08261709,0.22854072,-0.48763993,1.8310794,-0.3241397,-1.3180789
3.302212953567505,0.14768471,0.12010339,-0.2765879,1.611916,-0.72340584,-0.9014747
3.3223235607147217,-0.09015591,0.1689823,0.049533688,1.2794527,-0.911178,-0.44535187
3.3423917293548584,0.27070963,-0.03775823,-0.64320105,2.9566832,-0.11411117,-0.9163343
3.362468719482422,-0.049158055,0.29060367,-0.42553905,2.2704172,-0.2870907,-1.0485467
3.3826897144317627,-0.049158055,0.29060367,-0.42553905,2.2704172,-0.2870907,-1.0485467
3.402792453765869,-0.048077907,0.067522794,-0.0815912,1.3952043,-0.5398365,-0.83599997
3.4228641986846924,0.45281896,-0.08593847,-0.92373604,3.7814474,0.33303928,-1.5377768
3.442939043045044,-0.14267908,0.39356264,-0.5850093,2.3815904,-0.1837269,-1.8110307
3.463050127029419,0.16287932,0.28974405,-0.61069787,2.2363849,0.01491262,-1.6355132
3.483131170272827,-0.16039562,0.22783303,-0.05569569,1.5416211,-0.47072658,-1.4881194
3.503206253051758,0.27975973,0.20956758,-0.8638202,3.2946253,0.9440137,-2.4507725
3.523623466491699,0.093235716,0.33406895,-0.8163969,3.7224588,0.61733925,-2.9426541
3.5437204837799072,0.093235716,0.33406895,-0.8163969,3.7224588,0.61733925,-2.9426541
3.5638058185577393,0.10966791,0.3058109,-0.8061009,3.4289966,0.653568,-3.0093215
3.584153890609741,0.11067875,0.23191121,-0.76497036,3.3414786,0.6123475,-2.9904048
3.604053497314453,0.025132459,0.2954722,-0.723352,3.299167,0.35116014,-2.877682
3.6242082118988037,-0.031027634,0.21287325,-0.6611696,2.911458,0.28430074,-2.7410796
3.6445555686950684,-0.20015787,0.3885511,-0.5367439,2.6923234,-0.18581665,-2.4270108
3.664511203765869,-0.02279951,0.43111154,-0.5966453,2.4291937,0.2711881,-2.307783
3.6845099925994873,-0.21826147,0.24061933,-0.5279903,2.5144584,0.05159781,-2.4501626
3.704923629760742,-0.21826147,0.24061933,-0.5279903,2.5144584,0.05159781,-2.4501626
3.7250356674194336,-0.3265034,0.33434656,-0.43962657,1.8263912,-0.20558017,-1.9357846
3.7451226711273193,-0.33908466,0.35052845,-0.3178086,1.1621457,0.013373703,-1.5296149
3.7652788162231445,-0.26031893,0.24646196,-0.26043716,1.2926915,0.16192436,-1.4555483
3.7853877544403076,0.0029235007,-0.027912244,-0.7515878,2.1227913,0.52555597,-1.6264757
3.805417060852051,-0.27672562,0.2647993,-0.30291387,1.6595154,-0.5787134,-1.3637004
3.8254973888397217,0.50724524,-0.07717335,-0.64839417,2.4156568,-0.09629014,-1.2166737
3.8458874225616455,0.50724524,-0.07717335,-0.64839417,2.4156568,-0.09629014,-1.2166737
3.8658335208892822,-0.22371443,0.2216523,-0.16342859,1.3467011,-0.81318176,-0.86487925
3.885910749435425,0.443155,-0.17921337,-0.59391254,2.584479,-0.13519146,-0.7937768
3.9062700271606445,-0.010942656,0.021391258,-0.3594689,1.5449854,-0.5594199,-0.5698553
3.926297664642334,-0.34782442,0.055152148,0.5581466,0.66284233,-1.3660164,0.18979001
3.9463629722595215,0.19831495,-0.3089096,-0.14101578,0.9103659,-0.22999567,0.2116151
3.9664037227630615,0.6605771,-0.6607988,-0.3721998,1.6539884,0.15394737,-0.08463659
3.986724615097046,-0.028210834,-0.36057645,0.4437243,0.73574656,-0.5653428,0.33358914
4.006618499755859,-0.028210834,-0.36057645,0.4437243,0.73574656,-0.5653428,0.33358914
4.0267205238342285,0.2623025,-0.5926758,-0.09680587,1.1816715,-0.047316402,0.057220735
4.048429012298584,0.66681165,-0.659019,-0.46453258,2.0743608,0.49896747,-0.52370846
4.068891763687134,0.66681165,-0.659019,-0.46453258,2.0743608,0.49896747,-0.52370846
4.088724851608276,-0.07578699,0.002851069,-0.04605522,1.4843756,-0.44859302,-0.5243188
4.108799457550049,0.12821524,0.21787044,-0.92236674,3.0048676,0.32970187,-1.257739
4.128870725631714,-0.37228417,0.34571728,-0.23164149,1.4111274,-0.6029054,-1.3033212
4.1492204666137695,0.6284088,0.1345332,-0.9315232,3.4177206,0.5505966,-1.9042864
4.16912055015564,-0.21006481,0.623039,-0.61841077,2.917485,-0.09091666,-2.29486
4.1891868114471436,-0.34174988,0.6739204,-0.6559982,2.0295634,0.45201036,-2.265828
4.209445476531982,-0.47785294,0.4912012,-0.51331466,1.7363555,0.347792,-2.1654394
4.229538917541504,-0.47785294,0.4912012,-0.51331466,1.7363555,0.347792,-2.1654394
4.249628067016602,-0.5843394,0.44864926,-0.35759792,1.31248,0.14831668,-1.9269954
4.269704818725586,-0.61909145,0.41096112,-0.2121588,0.98448294,-0.057692006,-1.6374004
4.290285110473633,-0.10696603,0.37396023,-0.8581261,2.4384327,1.1437995,-2.2263799
4.310405731201172,-0.33496043,0.2419909,-0.59950924,2.2436395,0.71079504,-2.499123
4.330477714538574,-0.27100053,0.44184896,-0.5541244,2.2276888,0.43754017,-2.3581254
4.350824356079102,-0.31929708,0.36270258,-0.50436914,1.9718856,0.3948928,-2.238714
4.370682954788208,-0.31929708,0.36270258,-0.50436914,1.9718856,0.3948928,-2.238714
4.390790224075317,-0.4874675,0.25188208,-0.33786723,1.2737197,0.20869273,-1.8838762
4.410871982574463,-0.23713218,0.1967814,-0.5450378,1.7682096,0.34486973,-1.8550884
4.430949449539185,-0.45553216,0.3458862,-0.26340452,1.2815008,-0.34688368,-1.4553803
4.451380968093872,0.7026978,-0.24788827,-0.89629143,3.229527,0.6584064,-1.6869136
4.471487522125244,0.25988305,0.089945585,-0.4545986,2.2634344,-0.036291227,-1.5316405
4.491551876068115,-0.32257375,0.4294488,-0.16973937,1.4286803,-0.7255528,-1.2427005
4.511637210845947,0.7470487,-0.2267803,-0.7206989,2.9669342,0.35078743,-1.5059168
4.531904220581055,0.7470487,-0.2267803,-0.7206989,2.9669342,0.35078743,-1.5059168
4.552046775817871,-0.0790869,0.1277884,-0.2447379,1.6603376,-0.5014874,-1.2406698
4.57214879989624,0.5978556,-0.07847067,-0.8880061,4.0946875,0.17139864,-1.7136867
4.592238903045654,-0.15947548,0.2802269,-0.48287213,1.8290378,-0.28476122,-1.5385144
4.612341642379761,0.10702122,0.16828379,-0.13166483,1.6075922,-0.6729344,-1.0808498
4.632410526275635,0.3576118,0.16551846,-0.62820655,2.6506147,0.29637963,-1.5377905
4.652509450912476,-0.48853734,0.42674193,-0.25096494,1.6408244,-0.662295,-1.4807824
4.672621488571167,0.71949214,-0.081717975,-0.83748674,3.4194858,0.28885275,-1.9111613
4.693264961242676,0.71949214,-0.081717975,-0.83748674,3.4194858,0.28885275,-1.9111613
4.71327805519104,-0.061274607,0.28789577,-0.5602405,2.1941607,-0.07142747,-1.8453004
4.733648300170898,0.06044094,0.359696,-0.44222012,2.169034,-0.16650939,-1.914585
4.753549337387085,-0.14628363,0.38332853,-0.33704352,2.1400962,-0.08296472,-2.10352
4.782635688781738,-0.14628363,0.38332853,-0.33704352,2.1400962,-0.08296472,-2.10352
4.802692174911499,0.25217208,0.18521234,-1.0598094,3.4838848,1.3648975,-2.7940924
4.822786092758179,-0.035304327,0.37646404,-0.8264717,3.5650496,0.652688,-2.868764
4.842845678329468,0.0011021914,0.31436104,-0.7058825,3.0771346,0.5630739,-2.8306987
4.863096475601196,-0.07977192,0.24640909,-0.59567744,2.7896833,0.3910879,-2.7071893
4.8830437660217285,-0.23918565,0.29720315,-0.50399715,2.4308758,0.08128907,-2.4379485
4.903126239776611,-0.33036566,0.22404525,-0.37006924,1.6383729,0.052503534,-1.9960054
4.9234864711761475,0.3347477,0.042262852,-0.8646371,3.2070465,0.58009255,-2.1783369
4.943594932556152,0.3347477,0.042262852,-0.8646371,3.2070465,0.58009255,-2.1783369
4.963695764541626,-0.124405846,0.33073273,-0.54823655,2.6104198,-0.1155965,-2.054071
4.983781099319458,0.33265308,0.12810758,-0.6232255,2.5208187,0.079973415,-1.8279768
5.003900527954102,-0.21738209,0.28770682,-0.08810451,1.8535615,-0.89434993,-1.3754557
5.023979187011719,0.87697375,-0.29327703,-0.78745526,3.002377,0.41283023,-1.6179106
5.044072866439819,-0.13256988,0.08424242,-0.28742242,1.6425974,-0.50478125,-1.2240484
5.064164161682129,-0.13256988,0.08424242,-0.28742242,1.6425974,-0.50478125,-1.2240484
5.084419250488281,0.6036331,-0.17992306,-0.77741605,3.3005984,0.14969575,-1.2477394
5.1043994426727295,-0.0047478555,0.041559532,-0.4409344,2.2939682,-0.33094457,-1.0965242
5.124617099761963,0.04004551,0.030700654,-0.22516981,1.7076259,-0.7374519,-0.77304304
5.144649028778076,0.5371581,-0.15303059,-0.67293674,2.9734044,-0.1193773,-1.1648916
5.164698839187622,-0.008551496,0.2648345,-0.44274107,2.1028697,-0.4640566,-1.2246523
5.184777498245239,0.012783003,0.10761815,-0.17238459,1.8452054,-0.62074614,-1.1756406
5.204923629760742,0.5003095,-0.02446223,-0.85237783,3.4256995,0.3461472,-1.7704326
5.225400447845459,0.5003095,-0.02446223,-0.85237783,3.4256995,0.3461472,-1.7704326
5.245517015457153,-0.31143683,0.5173619,-0.49758556,2.4240394,-0.33123583,-1.9832474
5.265578031539917,-0.02143358,0.60460293,-0.52062863,2.3229115,-0.13696435,-2.010031
5.285688400268555,-0.5136814,0.46482608,-0.451875,1.7512206,0.0023520961,-2.223366
5.306092262268066,-0.43080986,0.4101797,-0.5492413,1.8033966,0.33769488,-2.2460878
5.326173305511475,-0.56958914,0.31822845,-0.33164206,1.3956664,0.083830625,-2.0538094
5.346304893493652,-0.0044418154,0.11505601,-0.7803392,2.5384474,0.73398936,-2.3792922
5.366402626037598,-0.4609609,0.4279423,-0.46276495,2.3309865,-0.1387552,-2.326371
5.386784791946411,-0.14117981,0.40654823,-0.65899515,2.2597656,0.54463017,-2.379707
5.406919717788696,-0.14117981,0.40654823,-0.65899515,2.2597656,0.54463017,-2.379707
5.426978826522827,-0.43936595,0.20664003,-0.4202328,1.6207453,0.33579105,-2.1572874
5.447198390960693,0.078227565,0.14604959,-0.85647887,2.970202,0.5439191,-2.2665102
5.467165231704712,-0.20598002,0.42828622,-0.5473845,2.6815097,-0.12209678,-2.2162144
5.487256765365601,0.17336193,0.3629633,-0.5946553,2.5380998,0.2037782,-2.159387
5.5073325634002686,-0.44277886,0.18321714,-0.30914512,1.6309596,-0.097932935,-1.9753162
5.527420997619629,0.74825376,0.020153448,-1.1649833,4.5301094,0.69275534,-2.2236655
5.5474841594696045,0.07193951,0.43011877,-0.8235139,3.5461774,0.36830014,-2.4370496
5.568260431289673,0.07193951,0.43011877,-0.8235139,3.5461774,0.36830014,-2.4370496
5.588425874710083,-0.24629994,0.26967752,-0.38533795,2.1176734,-0.205258,-2.0115514
5.608487606048584,1.124531,-0.426631,-1.104182,4.364575,1.1647663,-2.2660782
5.628592491149902,0.30211455,0.1411719,-0.7523278,3.099371,0.5579957,-2.1854231
5.648676872253418,-0.20233305,0.33007693,-0.40195087,2.4979692,-0.4537826,-1.7716639
5.668754816055298,0.7827138,-0.34647942,-0.8571356,3.6803346,0.8397869,-1.9518162
5.689204692840576,0.01774351,0.1491299,-0.5555693,2.3125527,0.14461312,-1.8064052
5.709113121032715,-0.052884597,0.16792116,-0.30124238,2.6695642,-0.736146,-1.5373278
5.729804515838623,-0.052884597,0.16792116,-0.30124238,2.6695642,-0.736146,-1.5373278
5.749874830245972,0.6795066,-0.047484905,-1.0641689,4.24117,0.59454453,-1.8940462
5.769927740097046,-0.22408067,0.45278594,-0.5262429,2.8593953,-0.25175837,-2.0292985
5.79002571105957,0.10645604,0.31300637,-0.45444533,2.4636054,-0.3621093,-1.8468198
5.810124635696411,0.64874274,0.023302436,-0.8515762,3.6378012,0.7977245,-2.6763134
5.830200433731079,-0.29863384,0.42874804,-0.6759767,3.2793841,0.22459385,-2.7436502
5.8502984046936035,-0.31399807,0.37086323,-0.5831165,2.3368123,0.3476491,-2.5187895
5.870384454727173,-0.45324844,0.26872075,-0.3831763,1.6486887,0.14892393,-2.1554036
5.890934705734253,-0.45324844,0.26872075,-0.3831763,1.6486887,0.14892393,-2.1554036
5.911032199859619,0.091673,-0.022773735,-0.7513786,2.5717885,0.72748923,-2.335072
5.93116021156311,-0.3924211,0.25148988,-0.4355422,2.0702515,-0.16087377,-2.0835001
5.951233148574829,0.9138885,-0.31657302,-1.2134395,4.545412,1.1703516,-2.3269646
5.9713006019592285,0.2531976,0.15040234,-0.7627905,3.0424242,0.5473727,-2.209697
5.991510629653931,0.0027938606,0.22547147,-0.5514642,3.3156047,-0.19049604,-1.8561199
6.0115227699279785,0.18526655,0.017772973,-0.5913244,2.5445418,0.08858362,-1.7543224
6.031770467758179,-0.31985608,0.35109326,-0.07340012,1.7685039,-0.8220358,-1.4390708
6.051883220672607,-0.31985608,0.35109326,-0.07340012,1.7685039,-0.8220358,-1.4390708
6.072129249572754,0.47613862,-0.0839781,-0.7417434,2.6958842,0.43103138,-1.7528504
6.092123508453369,-0.36115324,0.20057806,-0.23979421,1.5837882,-0.6804652,-1.4559118
6.11220383644104,0.51357365,-0.01693669,-0.7532653,2.7312503,0.08568081,-1.488408
6.132287502288818,-0.29947504,0.3022903,-0.24106792,1.4089826,-0.69510424,-1.2266951
6.152367830276489,0.5179391,-0.1957577,-0.58759063,2.5162458,0.29224852,-1.3861912
6.1725146770477295,-0.37513253,0.19354114,0.04273986,1.2995416,-0.7912704,-1.0859841
6.192538261413574,0.32397458,0.036928117,-0.707491,2.6311421,0.13289434,-1.4247828
6.213045597076416,0.32397458,0.036928117,-0.707491,2.6311421,0.13289434,-1.4247828
6.233194351196289,-0.4838117,0.2950968,-0.19076765,1.1847812,-0.7554383,-1.242515
6.253257989883423,0.27794844,-0.099120356,-0.58499575,2.4178653,0.1639088,-1.4431032
6.273348093032837,-0.42708316,0.33523166,-0.16198695,1.4706551,-0.55816555,-1.3603622
6.2933502197265625,-0.22442743,0.28792775,-0.6637912,1.7247258,0.699535,-1.7462131
6.313442945480347,-0.5178725,0.2328032,-0.16619593,1.0735312,-0.093082614,-1.5577592
6.333516836166382,0.47561854,-0.19699164,-1.0602002,3.3129368,1.0016595,-1.9888736
6.353620290756226,0.47561854,-0.19699164,-1.0602002,3.3129368,1.0016595,-1.9888736
6.37378191947937,-0.2004209,0.22695008,-0.59940594,2.1530476,0.14323923,-1.983016
6.393816232681274,-0.11953692,0.18928441,-0.40104324,1.9800304,-0.2596548,-1.4826452
6.413887977600098,0.9028106,-0.20057702,-0.93562675,3.626354,0.80450416,-1.6146519
6.433948040008545,-0.07145892,0.2750232,-0.45083138,2.0291867,-0.16994399,-1.5499183
6.4540488719940186,0.8894523,-0.24923614,-0.81492764,3.6302755,0.8673953,-1.9253417
6.474144697189331,0.13816746,0.25249645,-0.5343886,2.7176847,0.058851913,-1.9657909
6.494243860244751,-0.18438773,0.27024314,-0.5093955,2.1248183,0.0483457,-2.1582463
6.514780521392822,-0.18438773,0.27024314,-0.5093955,2.1248183,0.0483457,-2.1582463
6.53489875793457,0.45080104,0.22809643,-0.81137335,3.1641536,0.976359,-2.6080406
6.555017948150635,-0.2539281,0.26207995,-0.63005537,2.9048254,0.5560273,-2.7815335
6.57514214515686,-0.38507685,0.28632894,-0.50717103,1.9617566,0.50899994,-2.428505
6.5951926708221436,0.33416867,0.020826831,-0.89446616,3.1705217,1.1292334,-2.6412907
6.615360736846924,-0.22935303,0.2872107,-0.6149389,2.8223472,0.3180143,-2.4647684
6.635425329208374,-0.25510815,0.24959779,-0.4485722,1.8096102,0.3435202,-2.0967722
6.6555116176605225,0.4533265,-0.05673729,-0.7565857,2.895442,0.83540833,-2.2478058
6.675917625427246,0.4533265,-0.05673729,-0.7565857,2.895442,0.83540833,-2.2478058
6.696343660354614,-0.15288036,0.12935364,-0.5767621,2.1458976,0.15967992,-1.9317696
6.716277360916138,-0.048487503,0.13255376,-0.5312773,2.6798193,-0.18214127,-1.430314
6.73637580871582,0.79221404,-0.2650255,-0.8551714,3.6302724,0.38344365,-1.5193409
6.756454706192017,0.119139194,0.016442135,-0.5273898,2.7453375,-0.014959596,-1.2689084
6.7765960693359375,0.83434635,-0.32122684,-0.792134,3.5365725,0.3871234,-1.3838266
6.796642541885376,0.29168856,-0.03372585,-0.49607506,2.818531,-0.2141031,-1.2539614
6.816812515258789,0.8967291,-0.22911234,-0.88876516,3.896355,0.41975343,-1.5873998
6.837195158004761,0.8967291,-0.22911234,-0.88876516,3.896355,0.41975343,-1.5873998
6.857275724411011,-0.097834855,0.2698479,-0.41375563,1.9719261,-0.34722915,-1.3895532
6.877338647842407,0.75149256,-0.23296353,-0.66410804,3.0038536,0.66215515,-1.6016883
6.897470951080322,-0.16167058,0.15578845,-0.19990279,1.8066374,-0.4990141,-1.3731958
6.917570352554321,0.56190944,0.07228336,-0.88869697,3.2772944,0.3358861,-1.7283083
6.937739372253418,-0.45764834,0.4416158,-0.3538244,1.9505433,-0.58714426,-1.7062117
6.958128929138184,0.6751603,-0.08282,-0.840602,3.5909767,0.6957357,-2.1125312
6.97799015045166,0.1414706,0.32640705,-0.6670472,3.0768037,0.1305055,-2.2777665
6.998007297515869,-0.41818863,0.357376,-0.480946,1.9091624,0.10304842,-2.2994747
7.018317222595215,-0.41818863,0.357376,-0.480946,1.9091624,0.10304842,-2.2994747
7.038457155227661,-0.41818863,0.357376,-0.480946,1.9091624,0.10304842,-2.2994747
7.058507442474365,0.43012875,0.239791,-0.9070633,3.3225858,1.0927243,-2.7905757
7.078589677810669,-0.17980267,0.21110201,-0.67357117,3.0977404,0.78783536,-3.0173223
7.098670482635498,-0.32959422,0.32606584,-0.5960355,2.3718562,0.683416,-2.6744745
7.118785381317139,-0.32959422,0.32606584,-0.5960355,2.3718562,0.683416,-2.6744745
7.139230012893677,-0.30276188,0.2401157,-0.5506323,2.0999885,0.6477301,-2.489045
7.159153699874878,0.26233688,0.028746009,-0.8414915,3.098888,1.1117895,-2.682706
7.179224729537964,-0.25899762,0.29015508,-0.6055506,2.7945724,0.31882647,-2.4816234
7.199303388595581,-0.16677606,0.22096488,-0.52193487,2.0536132,0.48679033,-2.224314
7.219403266906738,0.57215506,-0.1119784,-0.8415226,3.2890875,0.97855234,-2.3677247
7.239453315734863,-0.17922549,0.19934759,-0.5945075,2.6078224,0.27524757,-2.1847908
7.259795665740967,0.18837593,0.018943503,-0.74821943,3.3597298,0.31542602,-1.8380502
7.280172348022461,0.18837593,0.018943503,-0.74821943,3.3597298,0.31542602,-1.8380502
7.300117254257202,0.2914649,-0.14399341,-0.66588587,3.0784893,0.114532515,-1.4671698
7.3202478885650635,0.15856741,-0.09721576,-0.51276094,2.7281117,-0.11794482,-1.2493745
7.340317010879517,1.0641382,-0.41949797,-0.8839369,4.075902,0.63280153,-1.5905848
7.360454559326172,0.17263924,-0.21325356,-0.6060178,3.6073973,0.08308649,-1.2055913
7.380509853363037,0.47218218,-0.34800994,-0.5665722,3.2706628,0.30105495,-1.2539798
7.400584936141968,0.47218218,-0.34800994,-0.5665722,3.2706628,0.30105495,-1.2539798
7.420740127563477,0.8536113,-0.42389613,-0.79241884,4.1644964,0.58394,-1.531109
7.441073656082153,0.19791599,-0.041323178,-0.5536145,3.3573015,-0.091699034,-1.4647409
7.460973501205444,0.7960757,-0.10806115,-1.0485172,4.470022,0.5404633,-2.0287385
7.481053829193115,-0.35132763,0.29388386,-0.46712995,2.935742,-0.42791218,-1.9005975
7.501181602478027,0.72126865,-0.24354522,-1.0677145,4.192329,1.1833013,-2.3233643
7.521270275115967,-0.21682228,0.3205119,-0.70069855,2.8492777,0.36964944,-2.4204845
7.5413243770599365,-0.21682228,0.3205119,-0.70069855,2.8492777,0.36964944,-2.4204845
7.561557769775391,-0.34893095,0.31149265,-0.4470943,1.8498652,0.12311126,-2.111694
7.581505537033081,0.45568976,0.21106109,-0.8579013,3.2566476,0.9932765,-2.655542
7.601593971252441,-0.2584178,0.19620532,-0.6314102,2.9374118,0.652344,-2.89952
7.6216721534729,-0.33131957,0.27249038,-0.5776628,2.2588153,0.6202773,-2.6014767
7.642053842544556,0.28165203,0.028601617,-0.909614,3.2927818,1.122939,-2.7664716
7.6620707511901855,-0.24943744,0.29686058,-0.6542677,2.9598665,0.34619698,-2.5688636
7.682058811187744,-0.26339945,0.18641117,-0.47545817,1.9457484,0.29863295,-2.1534655
7.703024864196777,-0.26339945,0.18641117,-0.47545817,1.9457484,0.29863295,-2.1534655
7.723177194595337,0.81925356,-0.2846932,-1.0124532,3.9602032,0.8860599,-2.279474
7.743255376815796,0.07719864,0.1674746,-0.7278221,2.9271553,0.383027,-2.1625316
7.763352394104004,-0.17799716,-0.08092153,-0.6160846,3.3261256,-0.23739041,-1.6877853
7.783422231674194,0.5421943,-0.19675536,-0.85664773,3.5459638,0.5221392,-1.5151476
7.803507089614868,-0.30675837,-0.1248782,-0.24975704,1.5243689,-0.510743,-0.9099006
7.823586463928223,0.7292525,-0.5271522,-0.47587684,2.2088892,-0.0034458265,-0.62987214
7.843819856643677,1.081899,-0.6985867,-0.56072813,3.0592804,0.47018868,-0.75258756
7.863846063613892,1.081899,-0.6985867,-0.56072813,3.0592804,0.47018868,-0.75258756
7.884054899215698,1.3305837,-0.81515694,-0.6576392,4.011523,0.8583486,-0.84209335
7.904062509536743,0.6140679,-0.41506967,-0.35732403,2.9320304,0.18834996,-0.68147767
7.924131870269775,1.1168371,-0.6027206,-0.68467176,3.5882664,0.65967035,-1.0537704
7.944217920303345,0.4846472,-0.28946012,-0.40410873,2.9070735,0.06390923,-0.96611995
7.964306354522705,1.0076911,-0.43605423,-0.8016284,3.7969828,0.5771328,-1.4465581
7.9844231605529785,0.28522834,-0.034426644,-0.59952325,3.3088095,-0.16535877,-1.4569349
8.004494428634644,0.28522834,-0.034426644,-0.59952325,3.3088095,-0.16535877,-1.4569349
8.024636030197144,0.4353618,0.067414775,-0.9356703,3.9492626,0.12641889,-1.9217626
8.044717073440552,-0.5525675,0.436604,-0.3884997,2.5155005,-0.7114682,-1.8637229
8.064761877059937,0.47381428,-0.11545822,-1.0682397,4.0404196,0.8905164,-2.3603497
8.084860801696777,-0.42015398,0.45680097,-0.69735914,2.9998713,0.18254426,-2.6244802
8.104933023452759,-0.27740172,0.44664058,-0.67939943,2.5793161,0.33227876,-2.6485188
8.124990701675415,-0.4596313,0.3163929,-0.61456996,2.201419,0.37948745,-2.5823739
8.14511775970459,-0.4596313,0.3163929,-0.61456996,2.201419,0.37948745,-2.5823739
8.165253639221191,-0.10857259,0.2890737,-0.7984462,2.735497,0.8247851,-2.7978961
8.185306787490845,-0.35946408,0.14439294,-0.58105475,2.3355856,0.53248966,-2.6031482
8.20536732673645,0.2870152,0.0127848685,-0.9828698,3.4964042,1.0796448,-2.788009
8.225445747375488,-0.26555243,0.3269006,-0.7066811,3.1058497,0.36720952,-2.682748
8.245500564575195,-0.16461404,0.2543406,-0.6537394,2.4707785,0.55359125,-2.5023382
8.266197681427002,-0.16461404,0.2543406,-0.6537394,2.4707785,0.55359125,-2.5023382
8.286202669143677,-0.27150792,0.11813253,-0.50981903,2.0359652,0.39171293,-2.2781277
8.30629825592041,0.3493524,0.08976537,-0.9890502,3.502172,1.0192031,-2.5559876
8.326343059539795,-0.4403638,0.15898946,-0.6306018,3.2183304,0.01981093,-2.2217178
8.346463918685913,0.7055359,-0.22130768,-1.0718186,4.1872587,0.86451316,-2.46998
8.366533994674683,-0.15824325,0.12580651,-0.68185264,3.6676607,0.16237354,-2.1845937
8.386613130569458,0.70984423,-0.09210922,-1.1609341,4.347995,0.6851013,-2.2448556
8.407041072845459,0.09775053,0.26575482,-0.87341136,4.207118,0.27718452,-2.4073672
8.4272940158844,0.09775053,0.26575482,-0.87341136,4.207118,0.27718452,-2.4073672
8.447275400161743,0.21369277,0.09943573,-0.71434337,3.304961,0.092249885,-2.4727886
8.467357397079468,0.09137969,0.3204244,-0.8429709,3.8050709,0.09789884,-2.569243
8.487407445907593,0.110731855,0.19235271,-0.858021,3.5186744,0.48384163,-2.7470424
8.507503509521484,0.17784534,0.13327143,-0.8583675,3.6140175,0.63523734,-2.8038852
8.527648210525513,0.17653058,0.22131357,-0.93177253,3.8980746,0.5957558,-2.775512
8.547734260559082,0.2310672,0.16816625,-0.9221137,3.7574322,0.71835804,-2.8409073
8.568471431732178,0.2310672,0.16816625,-0.9221137,3.7574322,0.71835804,-2.8409073
8.588859558105469,0.2856315,0.13511288,-0.9291225,3.8597512,0.75630677,-2.8539221
8.608772277832031,0.28424022,0.21802431,-1.0299652,4.1978927,0.69183743,-2.7945127
8.6288743019104,0.26054135,0.1824832,-0.91146743,3.8358598,0.62789166,-2.796436
8.648972034454346,0.21836789,0.12384918,-0.78831714,3.6120954,0.39980856,-2.6614003
8.669068813323975,0.2710366,0.18125087,-0.89391136,4.0888643,0.06481702,-2.5337389
8.689190149307251,0.13832457,0.1884776,-0.78128713,3.3614454,0.21716332,-2.4566529
8.709271907806396,0.79927593,-0.11069495,-1.0807006,4.6802115,0.5029639,-2.5895622
8.72983455657959,0.79927593,-0.11069495,-1.0807006,4.6802115,0.5029639,-2.5895622
8.749922275543213,0.43996477,0.17111573,-1.0627303,4.2038593,0.40412816,-2.4262025
8.770288944244385,0.28440502,0.10200046,-0.9319876,4.324171,0.4324372,-2.3072746
8.790178537368774,0.5832787,-0.023119584,-1.2625484,5.1468143,0.47334692,-2.2370543
8.810757875442505,0.29202673,0.28946146,-1.050846,3.926371,0.36798838,-2.332813
8.830883741378784,0.5109039,-0.006593883,-0.9518176,4.451196,0.17240545,-2.3938162
8.850937604904175,0.42388442,0.16491973,-0.9413999,3.9322705,-0.017506659,-2.2460256
8.871026039123535,0.21150921,0.19158015,-0.7836178,3.7797146,-0.04000672,-2.2191787
8.891102075576782,0.21150921,0.19158015,-0.7836178,3.7797146,-0.04000672,-2.2191787
8.911251544952393,0.36319485,-0.12619749,-0.8226534,3.7253451,0.1650373,-2.1097524
8.93128228187561,0.37420067,0.0059259236,-0.98472875,4.2301893,0.12974021,-2.1217158
8.951756954193115,0.17538925,0.32793233,-0.9793707,4.07623,0.18733424,-2.2279334
8.971952199935913,0.25507313,0.07992078,-0.89503884,4.280184,0.25759444,-2.38718
8.991968870162964,0.31377763,0.25358382,-0.9935481,3.8571017,0.0779345,-2.4188344
9.01207947731018,0.0007569315,0.30205083,-0.70298797,3.1136565,-0.12080678,-2.2246878
9.032263278961182,0.3410883,0.014561981,-0.81060845,3.5782092,0.15255816,-2.1330836
9.052367687225342,0.3410883,0.014561981,-0.81060845,3.5782092,0.15255816,-2.1330836
9.072482109069824,0.1730602,0.23004457,-0.7643605,3.2464485,-0.2934465,-2.048092
9.092541217803955,0.25313812,0.113907784,-0.8285329,3.513319,0.054847293,-2.0837681
9.112804889678955,0.29330203,0.12323591,-1.0144047,4.3773966,0.09195902,-2.1633449
9.1328284740448,-0.012074816,0.37158534,-0.78258234,2.867138,-0.102079704,-2.0801504
9.152903079986572,0.3677294,0.10172948,-0.81621426,3.4704704,0.050683692,-2.0757327
9.172981023788452,0.3677294,0.10172948,-0.81621426,3.4704704,0.050683692,-2.0757327
9.193084001541138,0.1706839,0.31506076,-0.7573685,3.2202482,-0.39770794,-2.024513
9.213170051574707,0.32065248,0.20722774,-0.8465645,3.7178936,0.005989656,-2.227118
9.233301877975464,0.1337236,0.23218521,-0.6504404,2.8567963,-0.2834429,-2.1794534
9.253693103790283,0.20860429,0.2003676,-0.74140453,3.0857968,0.088000014,-2.3368747
9.273621082305908,-0.28305864,0.25321203,-0.57208925,2.514812,-0.22620268,-2.0944936
9.29366397857666,0.9572566,-0.26171812,-1.2422026,4.85389,0.9623115,-2.4590724
9.313834428787231,0.9572566,-0.26171812,-1.2422026,4.85389,0.9623115,-2.4590724
9.33386754989624,0.78511965,0.30025527,-1.2953763,4.776045,0.91087294,-2.9085538
9.353933811187744,0.3548449,0.22940561,-1.0672619,4.449136,0.6587949,-2.974955
9.374362707138062,0.24670635,0.20545661,-1.0118977,4.0408144,0.5602248,-2.8648462
9.394287586212158,0.2044053,0.18768391,-0.9443337,3.7467823,0.40342614,-2.6855664
9.41457200050354,0.34856558,0.20877254,-0.9826464,3.857596,0.27298298,-2.54367
9.434706926345825,0.34856558,0.20877254,-0.9826464,3.857596,0.27298298,-2.54367
9.45479154586792,0.21355836,0.20232192,-0.826116,3.7826848,0.049137227,-2.3144825
9.485912799835205,0.37547645,0.009338528,-1.0039828,4.382485,0.25643903,-2.3025773
9.520739793777466,0.37547645,0.009338528,-1.0039828,4.382485,0.25643903,-2.3025773
9.545133829116821,0.37547645,0.009338528,-1.0039828,4.382485,0.25643903,-2.3025773
9.565218687057495,0.13089107,0.32994297,-0.8233567,3.336154,-0.101742044,-2.1114519
9.58534049987793,0.50335544,-0.040086605,-0.8590422,3.7872384,0.17707376,-2.128145
9.605406522750854,0.57873255,0.04818976,-1.0304401,4.8615294,0.09524869,-2.2958038
9.625627040863037,0.39813498,0.3441113,-1.3023906,5.422303,0.5015957,-2.6263688
9.645603656768799,0.39813498,0.3441113,-1.3023906,5.422303,0.5015957,-2.6263688
9.665700912475586,0.14451931,0.33508733,-1.1109828,4.273552,0.5716113,-2.8074849
9.685832262039185,0.33929494,0.23619199,-1.0052223,3.6935341,0.5148165,-2.6753428
9.705859422683716,-0.12278263,0.18740419,-0.7372821,3.0158248,0.0061356127,-2.2547863
9.725950717926025,0.41507533,0.19531098,-0.91292083,3.8723922,-0.14186466,-2.169471
9.746033430099487,0.47480696,0.008651793,-0.91196835,4.349748,0.11016035,-2.2928898
9.766244649887085,0.47480696,0.008651793,-0.91196835,4.349748,0.11016035,-2.2928898
9.786375999450684,0.36840796,0.21760353,-1.1168572,5.0206547,0.23818244,-2.4497771
9.806558847427368,0.21115799,0.17746463,-0.9974653,3.335659,0.3766594,-2.352235
9.82658576965332,0.6934288,0.14947498,-1.1181943,4.9070625,0.1410043,-2.4866884
9.84669041633606,0.16883586,0.44854125,-0.9014891,3.6662316,0.06471061,-2.2801926
9.866762638092041,0.4764442,0.105552584,-0.95561165,4.1138687,0.23222193,-2.3493507
9.886894226074219,0.22625871,0.36698994,-0.8463343,3.7385216,-0.20610212,-2.306744
9.906901121139526,0.4808187,0.22856542,-0.9501261,4.3525887,0.050468042,-2.4788053
9.927034854888916,0.4808187,0.22856542,-0.9501261,4.3525887,0.050468042,-2.4788053
9.9499351978302,0.22818087,0.19116354,-0.75207806,3.3217008,-0.13065246,-2.3611314
9.98031997680664,0.24189244,0.29903486,-1.0755897,4.3325233,0.11992464,-2.4605181
10.000358819961548,0.24189244,0.29903486,-1.0755897,4.3325233,0.11992464,-2.4605181
10.020490407943726,0.1104549,0.25823256,-0.87317705,3.2117443,0.14143714,-2.2631884
10.04060411453247,0.7367225,-0.053801753,-0.9465684,4.355977,0.091777064,-2.4139585
10.060652732849121,0.35881415,0.29876456,-0.8556921,3.9165945,-0.21150161,-2.319038
10.080806016921997,0.47413668,0.07913619,-0.95191664,4.796249,0.18731126,-2.5664814
10.100907802581787,0.43382484,0.28268865,-1.0988762,4.4618464,0.15674926,-2.626343
10.120909929275513,0.1857103,0.25865456,-0.98231524,3.8986423,0.2668344,-2.5257814
10.141470432281494,0.1857103,0.25865456,-0.98231524,3.8986423,0.2668344,-2.5257814
10.16159987449646,0.7168726,0.10017416,-1.2353367,4.8728795,0.456873,-2.674531
10.181674718856812,0.30646625,0.4723678,-1.1476442,4.89388,0.38989842,-2.7651706
10.201727628707886,0.2077155,0.24954626,-1.0716556,4.071789,0.43631488,-2.6884265
10.221994638442993,0.31150168,0.15439466,-1.0101353,3.4606614,0.4589503,-2.3970559
10.242023229598999,0.14950876,0.2901623,-0.9754985,4.6188354,0.15073642,-2.3631148
10.262105464935303,0.72928065,-0.040293247,-1.1597099,4.556383,0.75585103,-2.6490655
10.282206773757935,0.72928065,-0.040293247,-1.1597099,4.556383,0.75585103,-2.6490655
10.302328109741211,0.10193382,0.3176248,-1.0878768,4.3875546,0.3094383,-2.5807686
10.322407007217407,0.250005,0.19484177,-1.0207258,3.43294,0.41024214,-2.3455522
10.342501163482666,0.40477034,0.14488456,-1.0337726,4.8527465,0.33183762,-2.2976832
10.362555742263794,0.4833469,0.11865592,-1.2288378,5.5678024,0.5326656,-2.6616447
10.382671594619751,0.27061686,0.41210398,-1.1675198,4.5704308,0.49497744,-2.6957352
10.402743577957153,0.32918084,0.2153652,-1.0364127,3.973854,0.28423133,-2.6563509
10.423271656036377,0.32918084,0.2153652,-1.0364127,3.973854,0.28423133,-2.6563509
10.443364143371582,-0.22978865,0.32281563,-0.7112167,3.0954108,-0.14039141,-2.1235383
10.463609218597412,0.4129784,-0.041120544,-0.8057758,3.703683,-0.029114544,-2.0685897
10.483567714691162,0.5253768,0.017581597,-0.95136815,4.852566,0.1037959,-2.3228014
10.503643035888672,0.5106874,0.1631979,-1.1791391,5.64138,0.4657612,-2.7551262
10.523727893829346,0.24738942,0.43748227,-1.1573733,4.5753317,0.4773853,-2.7294774
10.543847799301147,0.38504696,0.21793571,-1.0683385,3.98881,0.35475603,-2.6816683
10.563899040222168,0.38504696,0.21793571,-1.0683385,3.98881,0.35475603,-2.6816683
10.584077596664429,-0.15072377,0.2963867,-0.7796451,3.313085,-0.04689963,-2.2044022
10.604097366333008,0.4473787,-0.025772661,-0.8695037,3.927546,0.03358061,-2.206145
10.624253511428833,0.61059934,0.07166228,-1.062056,5.289053,0.22705564,-2.5667078
10.644294023513794,0.44654995,0.36417493,-1.1024019,4.444025,0.16125605,-2.6460128
10.664342641830444,0.12647824,0.2732406,-0.8721682,3.7853847,0.10851196,-2.3113904
10.68447756767273,0.63645804,0.020145327,-1.0067841,4.497403,0.21630575,-2.456421
10.704494953155518,0.5560623,0.19841576,-1.0077552,4.764629,0.11678291,-2.5902827
10.725102186203003,0.5560623,0.19841576,-1.0077552,4.764629,0.11678291,-2.5902827
10.74526047706604,0.5072034,0.3795565,-1.200902,5.7942467,0.32206842,-2.9157188
10.765315294265747,0.46752256,0.20037082,-1.2302616,4.6813555,0.67605925,-3.0047357
10.785488605499268,0.32267132,0.2691378,-1.1168935,4.8487606,0.3547875,-2.776531
10.805514812469482,0.7196402,0.21550038,-1.3275465,5.3237953,0.5294759,-3.0069273
10.825568675994873,0.5359519,0.29866055,-1.2763858,5.270708,0.6162387,-3.007921
10.845648050308228,0.39461705,0.21659794,-1.1991848,4.6089783,0.5551598,-2.830661
10.865708351135254,0.39461705,0.21659794,-1.1991848,4.6089783,0.5551598,-2.830661
10.885804653167725,0.3931619,0.17025825,-1.0705245,4.429178,0.3252705,-2.5807166
10.905914783477783,0.48036113,0.21915239,-1.1920526,5.997732,0.3247155,-2.7847948
10.926279067993164,0.30791724,0.26744297,-1.1283805,4.1612425,0.45110938,-2.600315
10.94616174697876,0.7812887,0.19137517,-1.1955285,4.830782,0.22142403,-2.5943744
10.966229915618896,0.088688776,0.32855365,-0.80391437,4.268055,0.007864729,-2.3015776
10.986368656158447,0.5824449,-0.009708777,-1.02514,4.3202868,0.27504694,-2.3442876
11.00643515586853,0.5824449,-0.009708777,-1.02514,4.3202868,0.27504694,-2.3442876
11.02654218673706,0.30044022,-0.009888127,-0.90163577,5.3371964,0.15206373,-2.4012878
11.046624898910522,0.37115866,0.19836906,-1.105938,4.942667,0.39004204,-2.5312207
11.066691875457764,-0.12191333,0.17808318,-0.87355405,3.7048688,0.19202259,-2.2948697
11.086792707443237,0.17480974,0.17377648,-0.8648049,4.2335176,-0.100379005,-2.2673879
11.10689640045166,0.4333116,0.22098252,-0.9541852,4.5491834,0.0714148,-2.402273
11.126975536346436,0.7543121,0.006445512,-1.1208484,5.263867,0.33471307,-2.853535
11.147145509719849,0.7543121,0.006445512,-1.1208484,5.263867,0.33471307,-2.853535
11.167224407196045,0.17230748,0.40602395,-0.89887697,4.90283,-0.10033068,-2.8052108
11.187339305877686,0.5655363,0.40941104,-1.2827809,5.235955,0.41482458,-3.053694
11.207406997680664,0.46251163,0.30258918,-1.2886512,5.1066275,0.63795483,-3.1006086
11.22748351097107,0.44345513,0.21570584,-1.2514325,4.928281,0.57438827,-3.0144684
11.247568607330322,0.51018065,0.2272979,-1.2584816,5.113837,0.51178813,-2.9776378
11.267658472061157,0.40937695,0.19633266,-1.1730491,4.8778205,0.44389445,-2.8382502
11.287723779678345,0.40937695,0.19633266,-1.1730491,4.8778205,0.44389445,-2.8382502
11.30783224105835,0.49712914,0.18724647,-1.1360817,4.9324484,0.29536316,-2.8328435
11.327919483184814,0.33312818,0.36061403,-1.2403522,6.2546124,0.6081507,-2.9118874
11.348000526428223,0.28462693,0.25997183,-1.1771898,4.406231,0.61057794,-2.9931433
11.36807370185852,0.019465785,0.2210269,-0.94549817,3.397127,0.22490731,-2.4029927
11.388162851333618,0.22564445,0.18694112,-0.89125234,3.8764203,0.0045556873,-2.0258143
11.40848183631897,0.47350982,0.061476246,-0.93046546,4.1922064,-0.023906484,-2.0212052
11.428383111953735,0.33475855,0.035663337,-0.7916383,4.684179,-0.10867342,-2.2040975
11.448640823364258,0.33475855,0.035663337,-0.7916383,4.684179,-0.10867342,-2.2040975
11.468755006790161,0.3366253,0.08379215,-0.9707982,4.654301,0.1897538,-2.3362854
11.488852977752686,0.15444972,0.12976319,-0.8284063,3.6302278,-0.098074704,-2.264299
11.50892424583435,0.15544637,0.14641723,-0.8293112,3.8569536,-0.10444848,-2.0844197
11.529052257537842,0.12512197,0.17189369,-0.7252601,3.680747,-0.31214264,-1.983234
11.549137830734253,0.11557861,0.17354146,-0.7072169,3.2520127,-0.3746772,-1.8906273
11.569362878799438,0.13436262,0.17099527,-0.68108505,3.0635364,-0.45433766,-1.7797506
11.589364528656006,0.13436262,0.17099527,-0.68108505,3.0635364,-0.45433766,-1.7797506
11.609724998474121,0.17428042,0.1677489,-0.67722595,2.9913352,-0.47059444,-1.7182724
11.629676580429077,0.1671272,0.1786057,-0.6619585,2.9227421,-0.49587873,-1.6701123
11.64974331855774,0.22367002,0.17836782,-0.699577,2.822804,-0.4498955,-1.681564
11.669812202453613,0.14495651,0.2691448,-0.6926771,2.747882,-0.4968734,-1.6300381
11.689887046813965,0.21266304,0.17802641,-0.6923689,2.6165683,-0.3705112,-1.6737045
11.709958791732788,0.20458879,0.31213796,-0.7745914,3.024984,-0.3974796,-1.7590954
11.730371475219727,0.06937511,0.09957291,-0.776918,2.552477,-0.07640305,-1.5909182
11.750524759292603,0.06937511,0.09957291,-0.776918,2.552477,-0.07640305,-1.5909182
11.770596027374268,0.3693178,0.14989126,-0.74237484,3.5630395,-0.31563017,-1.7444357
11.7906494140625,0.21811585,0.27879986,-0.732352,4.3295364,-0.2870384,-2.2010047
11.81082010269165,0.34201983,0.16865727,-1.0327432,3.7887335,0.4102033,-2.5867488
11.830937623977661,-0.0049491106,0.3903601,-1.0404032,4.1893234,0.17282176,-2.682771
11.850992441177368,0.09363191,0.38423398,-1.0667964,3.5280104,0.3780032,-2.572622
11.871076583862305,-0.08719386,0.29644215,-0.85828406,2.8688574,0.08877616,-2.2276275
11.891189098358154,-0.08719386,0.29644215,-0.85828406,2.8688574,0.08877616,-2.2276275
