liuyurong129/humanoid-gym/humanoid/data/robot1_actual_20250621-225021.csv
timestamp,joint_1,joint_2,joint_3,joint_4,joint_5,joint_6
0.0003571510314941406,0.0,0.0,0.0,0.0,0.0,0.0
0.02067255973815918,0.0,0.0,0.0,0.0,0.0,0.0
0.04065537452697754,0.0,0.0,0.0,0.0,0.0,0.0
0.06075620651245117,0.0,0.0,0.0,0.0,0.0,0.0
0.08084559440612793,0.0,0.0,0.0,0.0,0.0,0.0
0.10097765922546387,0.0,0.0,0.0,0.0,0.0,0.0
0.12106680870056152,-0.006666676808044305,-0.006667454361687983,-0.006666666666666667,-0.006666783431202035,-0.006664492917852658,0.006666775378814561
0.14118480682373047,-0.010000027789807697,-0.0033352665059568983,-0.01,-0.010000100242078352,-0.009997077900714421,0.010000088479165541
0.1612088680267334,-0.016666685535580157,-0.0033349150102236136,-0.016666666666666666,-0.016666747359070106,-0.01666487331381817,0.016666743622226123
0.18126988410949707,-0.023333373287101885,-0.010002490197786488,-0.023333333333333334,-0.016666763138198492,-0.02332960351954575,0.023333403688977666
0.201401948928833,-0.026666714574500525,-0.01333618877536517,-0.02642968288064003,-0.013333408615917587,-0.02666229228636137,0.02666670678500509
0.22159886360168457,-0.03333341047739786,-0.02000466005247172,-0.01976301621397336,-0.006666494318345456,-0.03332664052016688,0.033333097561200314
0.24179911613464355,-0.04000008156759876,-0.026672083874846226,-0.013096349547306693,3.774138956401732e-07,-0.039992770093216674,0.03999956271079151
0.2618062496185303,-0.04666671263606044,-0.033338761227232415,-0.006429871465758522,0.006667046350434152,-0.04665942530318823,0.04666653909111641
0.28200411796569824,-0.05333337722348582,-0.04000561888431054,0.00023679520090814487,0.013333809274456942,-0.053326178872553864,0.05333311774816443
0.3021063804626465,-0.056666710398359736,-0.04333896248686687,0.0035701285342414784,0.016667149564980978,-0.05665953283113512,0.05666644501928465
0.3221926689147949,-0.0633333733080991,-0.05000581726780823,0.010236795200908146,0.0233339379236374,-0.06332644296451335,0.06333300307320898
0.3423318862915039,-0.07000003406523451,-0.05667268634135071,0.016903461867574812,0.030000765396060135,-0.0699935542619753,0.06999952870200024
0.3623619079589844,-0.07333335984711935,-0.06000621730948118,0.020236795200908146,0.033334278342916565,-0.07332743400132676,0.07333270547137186
0.38246726989746094,-0.08000001619818588,-0.06667310152343257,0.026903461867574814,0.04000117460315103,-0.07999490697943312,0.07999917432074653
0.4025399684906006,-0.08666666987764023,-0.07333999560717315,0.03357012853424148,0.0466681112597234,-0.086662590899229,0.08666560991400092
0.4226372241973877,-0.09333332054985413,-0.0800069009582957,0.04023679520090815,0.053335091695404575,-0.09333049963514667,0.09333200948836087
0.4426705837249756,-0.10000006092637864,-0.08667379652311052,0.04690345140691687,0.051564770957877405,-0.09999832955856129,0.09999846593337504
0.4627809524536133,-0.10333339876669756,-0.09000706812738585,0.046008685342038474,0.05489796271346538,-0.10333070135989877,0.10333191023502457
0.4829380512237549,-0.11000005286141347,-0.09667389213889815,0.04853672921698125,0.061564944869285834,-0.10999914119437981,0.10999832768214554
0.5029418468475342,-0.11666670947737579,-0.1009069491061979,0.05520339588364792,0.06729351649352776,-0.11666690682660891,0.11666482054338563
0.5233163833618164,-0.12000003302628029,-0.1017166959418147,0.058536729216981255,0.06944921712372586,-0.12000113632970853,0.11999799811677404
0.5434398651123047,-0.12666668982642074,-0.09505013034261688,0.056219608992666745,0.06278272394379616,-0.12666844038474498,0.1266645167460072
0.5635397434234619,-0.1333333529771422,-0.08838350357687517,0.04955294232600008,0.05611612711692514,-0.1333353391573967,0.13333112337966624
0.5836317539215088,-0.1400000118472495,-0.08171692908930515,0.04288627565933341,0.0494497035651781,-0.12667025518755917,0.13999760025128544
0.6036911010742188,-0.14333335203003952,-0.08505017374194972,0.039552942326000075,0.046116215000707714,-0.12333634221748652,0.14333106565319892
0.6237790584564209,-0.15000000879352876,-0.09171698153546548,0.03288627565933341,0.03944978655246959,-0.11667051225859384,0.1499975321834574
0.6438617706298828,-0.15666666496855014,-0.09829859104798971,0.03288627565933341,0.039450117190507124,-0.1100052906804112,0.15666393931001696
0.6639220714569092,-0.16333332761322447,-0.10496532272812838,0.039552942326000075,0.04611689554295964,-0.10333906148455854,0.1633305167051733
0.6840364933013916,-0.16666664421374539,-0.10829890111294437,0.04288627565933341,0.04945059012511043,-0.10000690684466981,0.1666635515972297
0.7041079998016357,-0.173333312218799,-0.11496553501550963,0.04955299667719762,0.056117489502809675,-0.09333708283764137,0.1733299075267988
0.7242465019226074,-0.1799999689692794,-0.12163219187558358,0.05621971288672353,0.06278440880408595,-0.10000331322705287,0.1799963132954893
0.744265079498291,-0.18666662720843902,-0.12829895460197677,0.06032392589050944,0.05611771608033337,-0.1066707656777639,0.18666303553730154
0.7643642425537109,-0.1899999020528401,-0.13163229584050684,0.0636572837078003,0.05945117244498381,-0.11000399544064379,0.18999634156410838
0.7844634056091309,-0.1966665581568378,-0.13163228752230385,0.06365730246719062,0.05945126307326915,-0.11667039273093953,0.19666290704700223
0.8045198917388916,-0.20333326383728106,-0.12496561951054459,0.05699063307665971,0.052784596406602484,-0.11667039277178426,0.2033295951727104
0.8245937824249268,-0.20999993122580624,-0.1196092649485431,0.0503239663948131,0.046117929739935816,-0.11000372610557937,0.20999626209052105
0.8447909355163574,-0.21333326539737904,-0.11778854583672409,0.046990633008019034,0.04278459640660248,-0.10667039277334044,0.2133295958864481
0.8649382591247559,-0.21999993580402197,-0.11112187905522469,0.04032396604527804,0.036117929739935814,-0.10000372611210749,0.2199962648911783
0.8852496147155762,-0.22666659091835434,-0.11778863572816037,0.033657285273110384,0.029450984755130968,-0.09333548498090591,0.226663155866135
0.905156135559082,-0.23333326584180303,-0.11849567337491776,0.040323969420030935,0.03611755765174623,-0.08666634480309526,0.2333298402939809
0.9253051280975342,-0.23666659916109903,-0.11516234030871206,0.04365730275336427,0.03945089212158643,-0.08333301977636201,0.23666317290097877
0.9454514980316162,-0.24333326285642895,-0.10849572676536791,0.049363478806229134,0.03945089087448697,-0.08333256283186763,0.2433298265544999
0.9654223918914795,-0.24999992574272079,-0.10182912645825043,0.04816570392047418,0.032784501712664386,-0.08333488093974194,0.24999630071684628
0.9858417510986328,-0.2566665890398382,-0.09516253062487219,0.04149903725380751,0.026117955151652363,-0.07666886677208341,0.2566628730975332
1.0059144496917725,-0.2599999203165139,-0.09182925074465993,0.03816570392047418,0.02278470002294332,-0.07333592879636212,0.25999614417072575
1.0260100364685059,-0.25333325164742965,-0.08516265222001883,0.03149903725380751,0.016118259561030836,-0.06667109926683508,0.26666265076084394
1.0460929870605469,-0.24666658428069055,-0.07849601863670697,0.024832370587140842,0.009451397372727544,-0.07333555015929787,0.2733294381208352
1.0661835670471191,-0.23999991603998988,-0.07182944865991599,0.018165703920474174,0.002784807165184475,-0.08000229520559367,0.27999603540981366
1.0865144729614258,-0.23666658213969935,-0.06849616344916634,0.01483237058714084,-0.0005484899491922609,-0.08333562831189986,0.28332933487723805
1.106440782546997,-0.22999991477014559,-0.06182959291486176,0.008165703920474172,-0.007215087599120395,-0.09000222020906892,0.2899959350005186
1.1265373229980469,-0.22333324796887175,-0.055163176732604416,0.001499037253807505,-0.01388157227945353,-0.09666855507015318,0.29666242276997423
1.1468896865844727,-0.21666658308289574,-0.04849691664336754,-0.005167629412859162,-0.02054794111976729,-0.1033345233336397,0.30332879266697627
1.16682767868042,-0.21333325153084762,-0.045163787757306485,-0.008500962746192496,-0.02388112502440336,-0.10666742154597462,0.30666197486473556
1.1869139671325684,-0.2066665902283187,-0.0384975331264991,-0.015167629412859164,-0.030547490347672984,-0.11333305441384359,0.31332833262015897
1.2069966793060303,-0.19999993136946623,-0.03183128376386063,-0.02183429607952583,-0.037213850378205085,-0.11999847961741153,0.3199946799637677
1.227107286453247,-0.19333327502113384,-0.025165040943416414,-0.028500962746192498,-0.04388020269840709,-0.12666370891849524,0.3266610149791536
1.2471842765808105,-0.18666662126795414,-0.01849880591616816,-0.03516762941285916,-0.050546544843083685,-0.1333287532638947,0.3333273356993514
1.2672693729400635,-0.18333329539545393,-0.015165691710113406,-0.038500962746192496,-0.053879711316855206,-0.136661209282383,0.3366604900708985
1.2873575687408447,-0.17666664572861232,-0.00849947067270065,-0.045167629412859164,-0.06054603347819389,-0.1433259949987037,0.3433267855560517
1.3074398040771484,-0.16999999893590562,-0.0018332604679630825,-0.05183429607952583,-0.06721233910910919,-0.149990619728099,0.34999306162424354
1.3274946212768555,-0.16333333553149645,0.004833340389997603,-0.05835086647157325,-0.07387896701901454,-0.15665684105283706,0.356659679852506
1.347644329071045,-0.16000000920743915,0.00816654268389826,-0.06121577982441592,-0.07721220213658865,-0.1599894420753645,0.3599929020682917
1.3677318096160889,-0.15333335686743202,0.014832960206328044,-0.0661147816577769,-0.08387867836364,-0.16665467131967202,0.3533260202295479
1.3878324031829834,-0.14666670500187848,0.02149939149446634,-0.07008297314279929,-0.09054515904945454,-0.17331992771175408,0.3466591449209763
1.4079158306121826,-0.14000005368078175,0.028165833275194254,-0.07329720824566742,-0.09721164028426592,-0.17998520718984123,0.33999227304135254
1.42799711227417,-0.1366667282524585,0.0314990572016646,-0.07466748742110067,-0.10054488007792156,-0.18331785357513558,0.33665883754106285
1.4480786323547363,-0.13000007792107496,0.03816550959390377,-0.07701066481109155,-0.10721135619078374,-0.18998315591365084,0.32999196590320373
1.4681565761566162,-0.12333342837534983,0.044831966284867616,-0.07890863849698415,-0.11387782547113469,-0.19664846647393552,0.3233250915808465
1.4882245063781738,-0.1166667797208537,0.051498425459887434,-0.08044599718255716,-0.12054428549827244,-0.20331378033997322,0.3166582125539015
1.5087122917175293,-0.11333345576140125,0.05483165548917127,-0.08110139746430144,-0.12387751134063002,-0.20664643713823289,0.3133247706925639
1.5286099910736084,-0.10666680864572463,0.06149811558201126,-0.08222213194608416,-0.1305439533683921,-0.2133117480256066,0.3066578811860768
1.5487923622131348,-0.10000016269108412,0.06816457473525185,-0.08312992687632817,-0.13721038086297246,-0.2199770524328064,0.29999098260619406
1.5689091682434082,-0.09333351800472728,0.0748310319168474,-0.08386524076982582,-0.14387679193100908,-0.2266423473415791,0.2933240734105147
1.5889866352081299,-0.09000019617025815,0.07816425948662478,-0.08417871669284324,-0.1472099907391525,-0.22997499041175418,0.2899906143749487
1.6090898513793945,-0.08333355358384627,0.08483071209093639,-0.08471476052120303,-0.15387637381644353,-0.23664026635491353,0.28332368655895707
1.6291921138763428,-0.08000023285750339,0.0881639369492285,-0.08494328446908272,-0.15720955766437594,-0.23997289872261016,0.2799902174443983
1.6494133472442627,-0.08000023285750339,0.0881639369492285,-0.08494328446908272,-0.15720955766437594,-0.23997289872261016,0.2799902174443983
1.669431209564209,-0.07333359260130115,0.09483038338370799,-0.085334060419957,-0.16387590895688953,-0.24663815113392232,0.2733232679978094
1.6894896030426025,-0.06666695402198601,0.10149682497966894,-0.08565058894016517,-0.17054223706034544,-0.25330338582595413,0.2666563025664291
1.7095720767974854,-0.06333363539103193,0.10483004380785023,-0.08578553004614865,-0.1738753919353327,-0.25663599610105287,0.2633228134840772
1.7297179698944092,-0.056666999504506856,0.11149647725127589,-0.0860162793373804,-0.1805416823995461,-0.2633012017714055,0.2566558218701365
1.7500123977661133,-0.05000036552666753,0.11816290475675373,-0.08620318626327812,-0.18720794594340792,-0.2699663867467241,0.24998881140535012
1.7699203491210938,-0.04333373354426747,0.1248293259857763,-0.08635458087325527,-0.19387418116209224,-0.2766315501300729,0.24332178102844546
1.7904846668243408,-0.0366671036404659,0.13149574064680225,-0.08647721050733678,-0.20054038669733373,-0.2832966911471899,0.23665472972296078
1.810617208480835,-0.03333378949301956,0.13482894543464288,-0.0865294894566031,-0.20387347792152527,-0.2866292530539699,0.23332119591618458
1.8307056427001953,-0.02666715408792973,0.14134585984335127,-0.08661888645984851,-0.21053975255594143,-0.29329466777776725,0.22665420796464683
1.8507628440856934,-0.02000049259446909,0.14679011911763493,-0.08669129803247728,-0.21720637094833442,-0.2999610262522859,0.21998750740384487
1.8708317279815674,-0.013333838674048415,0.1511999244945415,-0.08674995140630659,-0.22387288797028865,-0.30662714679784087,0.2133207238069676
1.890956163406372,-0.01000051440781974,0.15307987856000255,-0.08677495626567593,-0.227206110704869,-0.3099601263445648,0.20998730291979395
1.9110219478607178,-0.00333387100990759,0.15629457226458326,-0.08681771457519749,-0.23387248877490738,-0.3166259383335362,0.20332040662301742
1.9311234951019287,0.0033327658228135726,0.15889844110625034,-0.08685234880590997,-0.24053878189117472,-0.323291569970161,0.19665344183640368
1.9511995315551758,0.009999408951053543,0.16100761528421703,-0.08688040253278707,-0.24720515395293383,-0.32995744631694307,0.18998654005728166
1.9712834358215332,0.01333273552596396,0.16190681686832703,-0.08689236227950836,-0.25053840341686023,-0.33329055625162457,0.18665313998024927
1.9915764331817627,0.019999387145647675,0.16344444493685004,-0.08691281344640177,-0.257204883811844,-0.33995673750779115,0.17998632503125594
2.0115292072296143,0.026666036743678942,0.1646899154340864,-0.08692937889158543,-0.26387134010743046,-0.3466228694687141,0.1733194908357202
2.0315797328948975,0.03333268433193824,0.1656987387596444,-0.08694279690218419,-0.2705377728897589,-0.35328895423632944,0.16665263784926412
2.0518534183502197,0.03666600737324256,0.16612881317921702,-0.08694851721196577,-0.2738709806046647,-0.356621979439491,0.16331920441821304
2.0717978477478027,0.04333265194687806,0.16686423494696523,-0.08695829894169227,-0.2805373788896667,-0.3632879962833474,0.15665232383931854
2.091865301132202,0.04999929449835117,0.16745991960759318,-0.08696622214277074,-0.2872037545041542,-0.3699539691788539,0.14998542511541912
2.1119914054870605,0.05666593500948497,0.16794241742910807,-0.0869726399356443,-0.2938701075835462,-0.3766198988213966,0.14331850834963758
2.132091999053955,0.05999925449264017,0.16814811130679153,-0.08697537594207987,-0.29720327568981775,-0.37995284756858977,0.1399850432144344
2.152228593826294,0.0666658918968747,0.16849984288834524,-0.08698005451308469,-0.3038695950273136,-0.38661871308610035,0.13331809943465125
2.1723031997680664,0.07333252719240589,0.16878473908334052,-0.0869838441555986,-0.3105358918061364,-0.3932845360616305,0.1266511376014125
2.1925408840179443,0.07999916034530989,0.1690154987107672,-0.08698691376603486,-0.31720216590889116,-0.39995031647300355,0.11998415763214261
2.212613582611084,0.08333247610698649,0.16911387276869036,-0.08698822238943138,-0.3205352944079508,-0.40328319067453977,0.11665066081230757
2.232696056365967,0.08999910597722333,0.16928208769541683,-0.08699046013543942,-0.3272015341850257,-0.40994890692558467,0.10998365342134725
2.252762794494629,0.09666573361105933,0.1694183356541466,-0.08699227270970593,-0.3338677508269481,-0.41661458005240626,0.10331662757594408
2.2733407020568848,0.09999904657710094,0.16947641794608412,-0.08699304543873533,-0.337200850402825,-0.419947400332098,0.09998310768569435
2.293379783630371,0.10666567078295483,0.1695757340362742,-0.08699436680537562,-0.343867031919394,-0.4266130080689115,0.09331605387320294
2.3135082721710205,0.11333229265490864,0.1696561740307213,-0.08699543711235425,-0.3505331897258268,-0.43327857167141015,0.08664898122263942
2.333557367324829,0.11999891215515641,0.16972132441712717,-0.08699630406100695,-0.35719932358796835,-0.4399440906687719,0.07998188958434335
2.3539493083953857,0.12666552924741892,0.16977409024943427,-0.08699700628941562,-0.36386543327940496,-0.44660956457202955,0.07331477881864806
2.374016284942627,0.1299988368797622,0.16979658284676558,-0.08699730566047406,-0.36719847899392455,-0.4499422844583919,0.06998121622322862
2.39412522315979,0.13666545029660973,0.16983504066163985,-0.08699781758498398,-0.373864552035984,-0.45660768979127375,0.06331407653736953
2.4142005443573,0.14333206122471445,0.16986618558834513,-0.08699823224383703,-0.38053060041222153,-0.4632730487988057,0.05664691744703866
2.4350478649139404,0.14666536574687036,0.16987946088463013,-0.08699840901945333,-0.3838636153005319,-0.4666057107822444,0.05331333060160894
2.4551374912261963,0.15333197289205572,0.1699021571848606,-0.08699871130575719,-0.39052962639324373,-0.47327099942393497,0.04664614227740414
2.475252866744995,0.15999857748740642,0.16992053538692756,-0.08699895615766333,-0.39719561248543217,-0.4799362406067221,0.03997893441927648
2.495298385620117,0.1666651795153265,0.16993541598060946,-0.0869991544877073,-0.40386157350189217,-0.4866014339300855,0.03331170702696287
2.51538348197937,0.16999847956219657,0.16994175760101368,-0.08699923903893657,-0.40719454459363746,-0.4899340125299306,0.02997808601435183
2.5355091094970703,0.17666509943569725,0.16995267277246542,-0.08699938362153863,-0.4138607038729567,-0.4965996213255808,0.02331101673259352
2.5555715560913086,0.18333173960563037,0.16996157874891218,-0.08699950073344628,-0.42052708524552457,-0.5032656911595075,0.01664412407989445
2.575855016708374,0.18666505929301952,0.16996537459068153,-0.08699955066010165,-0.4238602720584655,-0.5065987184714406,0.013310674761106667
2.5960052013397217,0.19333169787039528,0.16997186369110104,-0.08699963603468233,-0.43052663793506984,-0.5132647577873853,0.006643770153418778
2.6162309646606445,0.1999983353832298,0.1699771175406266,-0.08699970518809268,-0.4371929934908366,-0.5199307765809948,-2.3142382345293314e-05
2.636246681213379,0.20666497183197413,0.16998137086706794,-0.08699976120235506,-0.44385933875814176,-0.5265967747417954,-0.006690062792496855
2.6563949584960938,0.21333160721950126,0.1699848138039677,-0.0869998065739076,-0.45052567379114533,-0.5332627521877461,-0.013356991005623561
2.676426649093628,0.21666492451688546,0.16998628071890848,-0.08699982591651684,-0.4538588374928062,-0.536595733125145,-0.016690458011063537
2.696579694747925,0.2233315583234367,0.1699887874705642,-0.08699985899237864,-0.4605251573249145,-0.5432616794106864,-0.023357397755263756
2.71662974357605,0.22999819108696754,0.16999081578494651,-0.0869998857838267,-0.46719146715683274,-0.5499276049097565,-0.030024345044618563
2.73671293258667,0.23666482281928505,0.16999245661337936,-0.08699990748489962,-0.4738577671226417,-0.5565935096502657,-0.03669129974392871
2.7578532695770264,0.2399981383031477,0.1699931553241888,-0.08699991673640967,-0.477190913454056,-0.5599264542540167,-0.040024779825051114
2.7780797481536865,0.2466647685165434,0.16999434857988696,-0.08699993255649183,-0.4838571989233406,-0.5665923279833222,-0.04669174534571893
2.7981016635894775,0.2533313977397775,0.1699953131484448,-0.08699994537075838,-0.490523474964239,-0.5732581811738008,-0.05335871785842013
2.8181214332580566,0.25999802599388816,0.16999609254206718,-0.08699995575031427,-0.4971897417927577,-0.5799240139752925,-0.060025697164514266
2.838217258453369,0.26666465330252737,0.16999672200923088,-0.08699996415775456,-0.5038559996480018,-0.5865898265738809,-0.0666926830478454
2.8583667278289795,0.2699979666103929,0.16999698966866955,-0.0869999677419791,-0.5071891252916004,-0.5899227253652437,-0.07002617838374096
2.878605365753174,0.2766645925508018,0.16999744604911152,-0.08699997387100307,-0.5138553701849174,-0.5965885080885623,-0.07669317369040028
2.89853572845459,0.2833312176160459,0.16999781405347444,-0.08699997883551248,-0.5205216068012785,-0.6032542712348923,-0.08336017496030575
2.918804407119751,0.28666452983052676,0.16999797031873798,-0.08699998095196124,-0.5238547221037085,-0.6065871455636842,-0.08669367774658938
2.938953161239624,0.29333115364459633,0.16999823636078,-0.0869999845710886,-0.5305209469047071,-0.613252879946695,-0.09336068744378956
2.958970785140991,0.29999777666900457,0.1699984503879538,-0.08699998750258175,-0.5371871642587944,-0.6199185956092712,-0.10002770239261871
2.9792542457580566,0.30666439894191755,0.1699986223665297,-0.08699998987709122,-0.5438533745328364,-0.6265842929580627,-0.1066947222836538
2.999244451522827,0.30999770980907054,0.16999869517460112,-0.0869999908893821,-0.5471864771345865,-0.6299171349017233,-0.1100282339822559
3.0193214416503906,0.31666433103088765,0.16999881873014538,-0.08699999262039951,-0.5538526775167393,-0.6365828056208768,-0.11669526067850225
3.0394017696380615,0.3233309516055995,0.16999891764520816,-0.0869999940225236,-0.5605188718149109,-0.6432484591990055,-0.12336229148908523
3.059466600418091,0.32999757157822357,0.16999899669226623,-0.08699999515824412,-0.567185060456235,-0.6499140961658669,-0.13002932606368334
3.0798733234405518,0.3333308813532779,0.16999903000424713,-0.08699999564241971,-0.5705181527930909,-0.6532469085947709,-0.133362844650413
3.1000072956085205,0.3399975005107629,0.16999908626551827,-0.08699999647035997,-0.5771843337816527,-0.6599125217107189,-0.14002988419392048
3.120138645172119,0.34666411918562656,0.16999913099643196,-0.08699999714099158,-0.5838505102423457,-0.6665781196834311,-0.1466969265869267
3.1401867866516113,0.35333073742801985,0.16999916648310012,-0.08699999768420318,-0.5905166826477429,-0.6732437031546061,-0.1533639714510798
3.1602768898010254,0.3566640464030195,0.16999918135333256,-0.08699999791578286,-0.5938497674801302,-0.6765764896606702,-0.1566974946900841
3.1803550720214844,0.3633306640931153,0.16999920633453255,-0.08699999831178412,-0.6005159347099095,-0.6832420526462003,-0.1633645425399914
3.2004430294036865,0.3699972814805886,0.16999922606516937,-0.08699999863254514,-0.6071820991059331,-0.68990760285899,-0.1700315918940033
3.220813035964966,0.376663898618714,0.16999924163988198,-0.08699999889236157,-0.6138482611689838,-0.6965731410363915,-0.17669864235997285
3.240919351577759,0.38333051556126496,0.1699992539452894,-0.08699999910281286,-0.6205144214045296,-0.7032386679394712,-0.1833656935445115
3.2611143589019775,0.38666382397609644,0.1699992591020224,-0.08699999919253158,-0.6238475009958512,-0.7065714274070246,-0.18669921928326635
3.2813799381256104,0.39333044072676127,0.1699992678056834,-0.08699999934595058,-0.6305136594443698,-0.7132369388731258,-0.1933662708082907
3.3013060092926025,0.399997057417293,0.16999927478638716,-0.08699999947021997,-0.6371798173394884,-0.7199024410595303,-0.2000333220708321
3.321354627609253,0.4066636741018038,0.16999928046661336,-0.08699999957087817,-0.6438459751909977,-0.7265679347958974,-0.20670037268252972
3.3414649963378906,0.40999698245863375,0.16999928292840918,-0.08699999961379036,-0.6471790542591495,-0.7299006787588005,-0.21003389762402447
3.3615922927856445,0.4166635992348674,0.1699992872765203,-0.08699999968717019,-0.6538452129958935,-0.7365661614084393,-0.21670094654043012
3.381619453430176,0.42333021613866756,0.16999929105729805,-0.08699999974660785,-0.6605113729506487,-0.7432316377442565,-0.22336799385520126
3.401681900024414,0.4299968332223483,0.16999929446927808,-0.08699999979475236,-0.6671775346190639,-0.7498971086401314,-0.23003503919891133
3.421771287918091,0.43333014184775454,0.1699992960880322,-0.08699999981527712,-0.6705106162488333,-0.7532298423234011,-0.23336856101826983
3.4418609142303467,0.43999675929736864,0.16999929923495893,-0.08699999985037447,-0.6771767814007992,-0.759895306714625,-0.24003560272997132
3.461925745010376,0.4466633770534445,0.16999930235274494,-0.08699999987880332,-0.6838429494707714,-0.7665607678805854,-0.24670264158313274
3.482067584991455,0.44999668606163323,0.16999930392955667,-0.08699999989092298,-0.6871760347455707,-0.7698934975328817,-0.2500361598316823
3.5021071434020996,0.4566633043680199,0.16999930716576628,-0.08699999991164761,-0.6938422080595987,-0.7765589555341711,-0.2567031937664506
3.522230863571167,0.4633299230996137,0.16999931056226283,-0.08699999992843456,-0.7005083854300799,-0.7832244125410698,-0.2633702240181244
3.5422866344451904,0.4699965423012544,0.16999931416707723,-0.08699999994203199,-0.7071745672897694,-0.789889869443063,-0.2700372502773454
3.5624706745147705,0.4733298520918942,0.16999931605937307,-0.08699999994782878,-0.7105076600343556,-0.7932225981314427,-0.273370761816582
3.5826032161712646,0.47999647207894286,0.16999932004187157,-0.08699999995774131,-0.7171738494072087,-0.799888056532932,-0.2800377815351504
3.6026837825775146,0.4866630926404958,0.16999932430638953,-0.08699999996577046,-0.7238400442854629,-0.8065535170280689,-0.2867047965450133
3.6227734088897705,0.49332971381502466,0.16999932886864366,-0.08699999997227408,-0.7305062450469271,-0.8132189804810045,-0.2933718065840255
3.642810344696045,0.49999633563898466,0.16999933373855053,-0.086999999977542,-0.7371724520518311,-0.8198844477443031,-0.30003881140467875
3.663189172744751,0.5033296468053251,0.16999933629064598,-0.0869999999797878,-0.740505558003168,-0.8232171830676475,-0.3033723117848733
3.683105707168579,0.5099962373355433,0.16999924746540712,-0.08699999998362812,-0.7471714417481734,-0.8298817761046079,-0.3100395530308
3.7031490802764893,0.5166627969549255,0.1699990932551768,-0.08699999998673878,-0.7538370059182661,-0.8365454965754655,-0.31670702766992387
3.7234692573547363,0.5199960774591881,0.16999902881243012,-0.0869999999880649,-0.7571697947360522,-0.8398773626121031,-0.3200407595135791
3.7435860633850098,0.5266626398959487,0.16999892124812543,-0.08699999999033256,-0.7638353862374919,-0.846541107404749,-0.3267082119901128
3.7636663913726807,0.5333292042852809,0.16999883766561438,-0.08699999999216937,-0.7705009967261534,-0.8532048706110716,-0.33337564920080465
3.7837491035461426,0.5399957706805911,0.16999877361523666,-0.08699999999365719,-0.7771666267611999,-0.8598686539368453,-0.34004307079533014
3.8038244247436523,0.5433290546457678,0.16999874775803975,-0.08699999999429148,-0.7804994492707371,-0.8632005536645753,-0.3433767756368768
3.823922872543335,0.549995624138905,0.1699987064533456,-0.0869999999953761,-0.7871651095727259,-0.8698643702625075,-0.3500441732288155
3.8439855575561523,0.5566621957490001,0.16999867688655376,-0.08699999999625464,-0.7938307906165966,-0.8765282110294246,-0.35671155448554254
3.8640363216400146,0.5633287695114885,0.16999865691150498,-0.08699999999696625,-0.8004964927993831,-0.8831920774927413,-0.3633789191815278
3.8841474056243896,0.5666620572095723,0.16999864996214206,-0.08699999999726962,-0.8038293519293142,-0.8865240208225952,-0.3667125952583164
3.904341459274292,0.5733286342560759,0.16999864120735594,-0.08699999999778839,-0.8104950864640522,-0.8931879285713048,-0.37337993476647635
3.9244303703308105,0.5799952135216552,0.16999863827219264,-0.0869999999982086,-0.8171608429292218,-0.8998518655857356,-0.38004725730144695
3.944489002227783,0.5866617950244455,0.1699986401128253,-0.08699999999854896,-0.8238266215622568,-0.9065158331894438,-0.38671456275715954
3.964545249938965,0.5899950866191687,0.16999864255147323,-0.08699999999869407,-0.8271595192538048,-0.9098478288590627,-0.3900482090560656
3.9846301078796387,0.5966616715014937,0.1699986500089317,-0.08699999999894219,-0.8338253314872981,-0.9165118446931784,-0.3967154887649312
4.0047078132629395,0.6033282586460091,0.1699986603958345,-0.08699999999914317,-0.8404911662906214,-0.9231758941533298,-0.40338275126974205
4.0248401165008545,0.6099948480549199,0.16999867319660047,-0.08699999999930597,-0.8471570237503817,-0.9298399783428196,-0.4100499965742804
4.044946193695068,0.6133281436080538,0.16999868036679644,-0.08699999999937537,-0.8504899609923159,-0.933172033788172,-0.41338361278562746
4.065036058425903,0.6199947364085023,0.16999869601866094,-0.08699999999949405,-0.8571558525103224,-0.9398361719987305,-0.4200508323602899
4.0851616859436035,0.6266613314607538,0.16999871316205553,-0.08699999999959018,-0.8638217667257392,-0.9465003474130033,-0.426718034869171
4.105228424072266,0.63332792875298,0.16999873153537348,-0.08699999999966805,-0.8704877035881424,-0.9531645609064762,-0.4333852204130538
4.125509738922119,0.6366612282343957,0.1699987411139238,-0.08699999999970125,-0.8738206804863036,-0.9564966821886371,-0.4367188068614927
4.145470380783081,0.643327828856566,0.16999876093676664,-0.08699999999975801,-0.8804866511461513,-0.9631609542996278,-0.44338596720124296
4.165587902069092,0.6499944316737727,0.1699987815127306,-0.08699999999980398,-0.8871526441724249,-0.969825266393333,-0.4500531109346585
4.185617685317993,0.6566610366623992,0.16999880270320716,-0.08699999999984122,-0.8938186593951452,-0.9764896191180193,-0.45672023824451025
4.206049680709839,0.6599943399628089,0.16999881349163956,-0.0869999999998571,-0.8971516752686443,-0.9798218109021037,-0.46005379580335365
4.226167678833008,0.6666609481579353,0.1699988353905133,-0.08699999999988425,-0.9038177234008566,-0.9864862256494586,-0.4667208988650033
4.2462477684021,0.6733275584530705,0.16999885764416706,-0.08699999999990625,-0.9104837931743615,-0.9931506823711993,-0.4733879860467217
4.266400098800659,0.6799941708152276,0.16999888017445952,-0.08699999999992405,-0.9171498843194124,-0.9998151814961337,-0.48005505759713296
4.286469221115112,0.6833274777605166,0.16999889152195852,-0.08699999999993165,-0.920482937815172,-1.0031474470772483,-0.48338858759265163
4.306531190872192,0.689994093156538,0.1699989143439893,-0.08699999999994462,-0.92714906045821,-1.009812010479171,-0.49005563619648335
4.326620578765869,0.6966607105278015,0.1699989372909083,-0.08699999999995514,-0.9338152036941196,-1.0164766170947515,-0.49672266985681646
4.34723687171936,0.6999940199417357,0.1699989487961091,-0.08699999999995962,-0.9371482829261818,-1.0198089366795542,-0.5000561811758943
4.367384672164917,0.706660635174476,0.16999895144252583,-0.0869999999999673,-0.9438144021131373,-1.0264733914763275,-0.5067232311959243
4.387624502182007,0.7133272475251478,0.16999894022339346,-0.08699999999997352,-0.9504804896079099,-1.0331376785089301,-0.5133903031444241
4.407679080963135,0.7199938620670395,0.16999893630919585,-0.08699999999997855,-0.9571466002764746,-1.0398020170898883,-0.5200573584303275
4.427764654159546,0.7266604401043182,0.1699987732944466,-0.08699999999998263,-0.9638123148026381,-1.0464646383796663,-0.5267246916583191
4.447865009307861,0.7299937112837439,0.16999862923704914,-0.08699999999998437,-0.9671449785555992,-1.0497950985878406,-0.5300584939513214
4.4679365158081055,0.7366602574223228,0.16999839216514936,-0.08699999999998734,-0.9738103467707744,-1.056456110323061,-0.5367260693759247
4.488052845001221,0.743326808490489,0.16999821217936698,-0.08699999999998974,-0.9804757682348417,-1.0631172436583687,-0.5433936067471979
4.508133888244629,0.7466600858315376,0.16999814007937228,-0.08699999999999077,-0.9838084985426875,-1.06644785583757,-0.5467273614764716
4.528448104858398,0.7533266440438597,0.16999802582052426,-0.08699999999999253,-0.9904739975144626,-1.0731091709870744,-0.5533948436535613
4.548369646072388,0.7599932068511709,0.16999794499658594,-0.08699999999999394,-0.9971395465551516,-1.0797706068112916,-0.560062290300832
4.568451881408691,0.7666597741189131,0.16999789112140645,-0.0869999999999951,-1.0038051443660891,-1.0864321627723723,-0.5667297024355489
4.593212366104126,0.7666597741189131,0.16999789112140645,-0.0869999999999951,-1.0038051443660891,-1.0864321627723723,-0.5667297024355489
4.61335825920105,0.7733263457125994,0.16999785893771835,-0.08699999999999602,-1.0104707896381402,-1.0930938382427386,-0.573397081076096
4.633395433425903,0.7766596330897376,0.16999784961496864,-0.08699999999999643,-1.0138036296608628,-1.09642472057427,-0.5767307581540853
4.653899431228638,0.7799929214981121,0.16999784418391875,-0.08699999999999679,-1.0171364810547254,-1.0997556325092297,-0.5800644272398653
4.673708438873291,0.7866595013419828,0.16999784340515522,-0.0869999999999974,-1.0238022172947252,-1.1064175447772813,-0.586731741941249
4.693791151046753,0.793326085111657,0.1699978538002977,-0.0869999999999979,-1.0304679970352566,-1.113079574175119,-0.5933990261897384
4.713921070098877,0.7966593784275575,0.16999786246047308,-0.0869999999999981,-1.0338009028049924,-1.1164106325051975,-0.5967326572078304
4.73405122756958,0.8033259678399948,0.16999788549520423,-0.08699999999999847,-1.0404667453185368,-1.1230728358045488,-0.6033998976546696
4.75420355796814,0.8099925608524143,0.1699979148043829,-0.08699999999999876,-1.047132628034725,-1.1297351537439104,-0.610067110139406
4.779627799987793,0.8133258586686908,0.16999793138086253,-0.08699999999999888,-1.0504655840593868,-1.1330663553593192,-0.6134007062023605
4.8099424839019775,0.8133258586686908,0.16999793138086253,-0.08699999999999888,-1.0504655840593868,-1.1330663553593192,-0.6134007062023605
4.8465471267700195,0.8133258586686908,0.16999793138086253,-0.08699999999999888,-1.0504655840593868,-1.1330663553593192,-0.6134007062023605
4.866710424423218,0.8199924568425344,0.16999796766012404,-0.08699999999999909,-1.0571315246277357,-1.1397288431605672,-0.6200678785757174
4.886733293533325,0.8266590583011036,0.1699980073107533,-0.08699999999999927,-1.0637975021436457,-1.1463914427203672,-0.6267350254111977
4.906814336776733,0.8333256629218818,0.1699980495350095,-0.08699999999999941,-1.0704635153244895,-1.153054152790635,-0.6334021476550546
4.926937103271484,0.8366589663804312,0.16999807140490059,-0.08699999999999947,-1.0737965348921974,-1.1563855488637556,-0.6367356998467093
4.94700026512146,0.8433255755198169,0.16999811631496256,-0.08699999999999956,-1.0804625991964167,-1.1630484222541582,-0.6434027869438821
4.967330694198608,0.8499921875253528,0.16999816240178814,-0.08699999999999965,-1.0871286960235438,-1.1697114028302524,-0.6500698517464403
4.987266540527344,0.8566588022830182,0.16999820928139173,-0.08699999999999972,-1.0937948241467828,-1.1763744891901786,-0.6567368951431981
5.0076377391815186,0.859992110658994,0.16999823291868513,-0.08699999999999974,-1.0971278995663079,-1.17970607159115,-0.6600704090871488
5.027714490890503,0.8666587293369126,0.1699982804221251,-0.0869999999999998,-1.1037940723759974,-1.186369313921289,-0.6667374220013184
5.048095941543579,0.8733253504937298,0.16999832804621343,-0.08699999999999983,-1.1104602735018694,-1.1930326583822206,-0.6734044156497696
5.067990779876709,0.8799919740250641,0.16999837560644981,-0.08699999999999986,-1.1171265017898186,-1.1996961034623492,-0.6800713908540826
5.088428974151611,0.8833252866493435,0.16999839931473767,-0.08699999999999987,-1.1204596257652166,-1.2030278632556224,-0.6834048717908474
5.10836935043335,0.8899919135530582,0.16999844650810159,-0.0869999999999999,-1.1271258926831758,-1.2096914563789176,-0.6900718208245405
5.128431558609009,0.8966585425830339,0.16999849331575587,-0.08699999999999992,-1.1337921839809793,-1.2163551462447226,-0.6967387533776566
5.148485422134399,0.9033251736451228,0.1699985396499374,-0.08699999999999994,-1.140458498588951,-1.223018931271239,-0.7034056701985529
5.168930768966675,0.9066584899095999,0.1699985626168147,-0.08699999999999994,-1.1437916643069703,-1.226350858971692,-0.7067391229373926
5.18904185295105,0.9133251238498239,0.16999860811275166,-0.08699999999999994,-1.1504580119307544,-1.2330147837446674,-0.7134060175159479
5.20914626121521,0.919991759599777,0.16999865298389394,-0.08699999999999994,-1.1571243803036964,-1.239678799670795,-0.7200728981385873
5.2292256355285645,0.9266583970756884,0.16999869718982966,-0.08699999999999994,-1.163790768447775,-1.246342905132712,-0.726739765477725
5.249273061752319,0.9299917164355044,0.1699987190330691,-0.08699999999999994,-1.1671239696357254,-1.2496749909328713,-0.7300731943701464
5.269384860992432,0.9366583563497057,0.16999876218347187,-0.08699999999999994,-1.1737903856617515,-1.2563392276567065,-0.7367400429971214
5.289474725723267,0.9433249977932406,0.16999880460133845,-0.08699999999999994,-1.1804568191322202,-1.263003549858245,-0.7434068799263651
5.309520483016968,0.9499916406925024,0.16999884626976836,-0.08699999999999994,-1.1871232691641627,-1.2696679559142028,-0.7500737057543252
5.3302483558654785,0.9533249626658025,0.16999886681884624,-0.08699999999999994,-1.1904565001222323,-1.2730001898810976,-0.7534071146858573
5.350513935089111,0.9599916076168102,0.16999890734052017,-0.08699999999999994,-1.197122973400589,-1.279664718682257,-0.7600739249334837
5.370537042617798,0.96665825385179,0.16999894708750887,-0.08699999999999994,-1.2037894611524445,-1.2863293272971859,-0.7667407254778196
5.390630483627319,0.9733249013068188,0.16999898605482505,-0.08699999999999994,-1.2104559625901563,-1.2929940141214527,-0.7734075168414563
5.41071629524231,0.9766582093731525,0.16999885608702434,-0.08699999999999994,-1.2137890724498341,-1.2963246799444943,-0.7767410226614699
5.430956602096558,0.9833248276526951,0.16999864621746463,-0.08699999999999994,-1.2204553171619559,-1.3029861501143536,-0.7834080174083379
5.4509193897247314,0.989991448795877,0.16999849316052118,-0.08699999999999994,-1.2271215946429532,-1.3096478148235389,-0.7900749899014806
5.471049070358276,0.99665807266347,0.16999838578313184,-0.08699999999999994,-1.233787903069959,-1.3163096706580528,-0.7967419413371687
5.4922075271606445,0.9999913855769831,0.16999834633536157,-0.08699999999999994,-1.2371210683351546,-1.3196406691820612,-0.8000754095196494
5.512195825576782,1.0066580132827148,0.16999829112026865,-0.08699999999999994,-1.243787419896321,-1.3263028053257477,-0.8067423315108704
5.532279968261719,1.0133246433898497,0.16999826215420225,-0.08699999999999994,-1.250453798112631,-1.3329651241251756,-0.8134092352331456
5.5525758266448975,1.0199912757789433,0.16999825411708852,-0.08699999999999994,-1.257120201373567,-1.3396276222385433,-0.8200761217225017
5.572746276855469,1.0233245927933647,0.16999825656683973,-0.08699999999999994,-1.2604534119087398,-1.3429589375018078,-0.8234095588165395
5.592842102050781,1.0299912283930939,0.16999827210990123,-0.08699999999999994,-1.2671198498465526,-1.349621698386726,-0.8300764213031072
5.612896919250488,1.036657865999226,0.16999829930210128,-0.08699999999999994,-1.2737863090606625,-1.3562846303680152,-0.8367432689564931
5.632982492446899,1.0399911855228128,0.16999831645308838,-0.08699999999999994,-1.277119546204625,-1.3596161595101586,-0.8400766874993216
5.6534271240234375,1.0466578259499058,0.16999835651354578,-0.08699999999999994,-1.28378603471386,-1.3662793420987291,-0.8467435145521508
5.673481225967407,1.053324468138811,0.16999840275444145,-0.08699999999999994,-1.2904525410887435,-1.3729426877901532,-0.8534103289120912
5.693531036376953,1.059991111999802,0.16999845368087763,-0.08699999999999994,-1.2971190640618668,-1.3796061934570347,-0.8600771313662592
5.713720083236694,1.0633244345304955,0.1699984805137932,-0.08699999999999994,-1.3004523313914536,-1.3829380053156242,-0.8634105283642821
5.733757734298706,1.0699910807409423,0.169998536276147,-0.08699999999999994,-1.307118877003037,-1.3896017451759926,-0.87007731435321
5.753857374191284,1.0766577284180225,0.16999859412215057,-0.08699999999999994,-1.3137854362776098,-1.3962656373844726,-0.8767440902411057
5.774133682250977,1.0799910527829433,0.16999862359909815,-0.08699999999999994,-1.3171187206979347,-1.3995976396892102,-0.8800774746046202
5.7942376136779785,1.0866577025204445,0.16999868328387804,-0.08699999999999994,-1.3237852984510288,-1.406261754865929,-0.8867442365670003
5.814323902130127,1.0933243535440684,0.1699987435263189,-0.08699999999999994,-1.3304518872518687,-1.4129260150566736,-0.8934109900139525
5.834433317184448,1.096657679517485,0.16999877372362607,-0.08699999999999994,-1.3337851854932417,-1.4162581986407754,-0.8967443637256166
5.85450291633606,1.1033243323480404,0.16999883405024388,-0.08699999999999994,-1.3404517890800338,-1.4229226710315364,-0.9034111054711023
5.87483024597168,1.1099909863066713,0.16999889404322654,-0.08699999999999994,-1.3471184014024153,-1.4295872814174926,-0.910077840085016
5.89507794380188,1.116657641335904,0.1699989534612006,-0.08699999999999994,-1.353785021616575,-1.4362520270836483,-0.9167445680683021
5.915221929550171,1.1199909692348748,0.1699989828923664,-0.08699999999999994,-1.3571183344316302,-1.4395844498132395,-0.920077929722209
5.935267925262451,1.126657617528052,0.1699988792846638,-0.08699999999999994,-1.3637849060440908,-1.446247811554739,-0.926744723937276
5.955423355102539,1.1333242596630155,0.16999867183374023,-0.08699999999999994,-1.3704514346190173,-1.452909880421131,-0.9334115784931525
5.975488662719727,1.139990904313902,0.16999853089453829,-0.08699999999999994,-1.377117981088044,-1.4595723144915784,-0.940078415290941
5.995618581771851,1.1433242275447062,0.16999848105580623,-0.08699999999999994,-1.3804512604385442,-1.4629036668696864,-0.943411827383027
6.015681028366089,1.1499908757437673,0.1699984154679789,-0.08699999999999994,-1.3871178302444476,-1.4695666391269084,-0.9500786396228404
6.03575325012207,1.156657526165776,0.16999838737328954,-0.08699999999999994,-1.3937844134358552,-1.4762299639096181,-0.9567454367819388
6.055934906005859,1.1599908521764908,0.1699983848359682,-0.08699999999999994,-1.3971177095441756,-1.4795617569783384,-0.9600788300084597
6.076045274734497,1.1666575057322464,0.16999839853936605,-0.08699999999999994,-1.4037843098319411,-1.4862256015108097,-0.9667456063268953
6.096153497695923,1.1733241612503285,0.1699984325699108,-0.08699999999999994,-1.4104509196877155,-1.4928897867314175,-0.9734123698522225
6.116252899169922,1.1799908186343369,0.1699984822143589,-0.08699999999999994,-1.417117537772479,-1.4995543081648912,-0.9800791213995673
6.1363513469696045,1.1833241507295562,0.1699979580188029,-0.08699999999999994,-1.4204506589781676,-1.5028855660592433,-0.9834126998440766
6.156419277191162,1.1899908174886509,0.1699970913055229,-0.08699999999999994,-1.4271169339630239,-1.5095487413741882,-0.9900798151296827
6.176907539367676,1.1966574881714356,0.16999643521619473,-0.08699999999999994,-1.4337832498477003,-1.5162129322763618,-0.9967468745183007
6.196658611297607,1.2033241624982964,0.16999594681271732,-0.08699999999999994,-1.4404496039658987,-1.5228781338433246,-1.003413880271584
6.216782331466675,1.206657500940472,0.16999575432077313,-0.08699999999999994,-1.443782794621554,-1.5262111119543798,-1.0067473637138846
6.236889839172363,1.2133241802080879,0.16999545415790085,-0.08699999999999994,-1.450449201827194,-1.532877819735724,-1.0134142930280472
6.256955862045288,1.2199908624221825,0.16999524642238403,-0.08699999999999994,-1.4571156420707885,-1.5395455257959967,-1.0200811739061753
6.277420520782471,1.2266575473058092,0.16999511041539536,-0.08699999999999994,-1.463782113859293,-1.5462142259667508,-1.0267480082576923
6.297234773635864,1.229990890662088,0.16999506392445698,-0.08699999999999994,-1.467115361207617,-1.5495489476630109,-1.0300814085598171
6.317357301712036,1.2366575790297447,0.1699950049859011,-0.08699999999999994,-1.4737818782444736,-1.5562191321600891,-1.0367481765237194
6.337460279464722,1.2399909239712354,0.16999498946311908,-0.08699999999999994,-1.4771151477684643,-1.5595545941976319,-1.0400815446158074
6.358137369155884,1.2399909239712354,0.16999498946311908,-0.08699999999999994,-1.4771151477684643,-1.5595545941976319,-1.0400815446158074
6.378180980682373,1.246657615193582,0.16999497971532762,-0.08699999999999994,-1.4837817085729295,-1.5662262561516571,-1.0467482500687428
6.401015520095825,1.2533242876059745,0.16999586960438878,-0.08699999999999994,-1.490448358042766,-1.5728942240273105,-1.053414910510702
6.421088695526123,1.25999096094863,0.16999660176269268,-0.08699999999999994,-1.497115007511355,-1.5795624901724346,-1.060081565389868
6.441220998764038,1.2666576351334986,0.1699972049644353,-0.08699999999999994,-1.5037816569766558,-1.58623104872993,-1.0667482150862106
6.461314678192139,1.269990972519145,0.16999746573733093,-0.08699999999999994,-1.5071149817187273,-1.5895654370007788,-1.0700815380940598
6.481417179107666,1.2766576478312113,0.16999791813738652,-0.08699999999999994,-1.5137816312953873,-1.5962344302946023,-1.0767481806283008
6.501437187194824,1.2833243238026963,0.16999829220917997,-0.08699999999999994,-1.5204482811635953,-1.602903711074822,-1.0834148187784538
6.521666526794434,1.2866576620123216,0.1699984543078557,-0.08699999999999994,-1.5237816062926448,-1.6062384587448744,-1.086748136304285
6.541943550109863,1.2933243388317237,0.16999873599549187,-0.08699999999999994,-1.5304482571646418,-1.6129081676873336,-1.0934147684439466
6.562053680419922,1.2999910161199029,0.16999896916063162,-0.08699999999999994,-1.5371149092245415,-1.6195781602876909,-1.1000813969475556
6.582008361816406,1.3066576937973955,0.16999916194000209,-0.08699999999999994,-1.5437815630009055,-1.6262484353310867,-1.1067480221111419
6.602200984954834,1.3099910327566933,0.16999924529150287,-0.08699999999999994,-1.5471148907247527,-1.6295836784395052,-1.1100813335336797
6.622289419174194,1.3166577108641562,0.16999938940958223,-0.08699999999999994,-1.5537815482817852,-1.63625437527217,-1.1167479542498715
6.642422676086426,1.3233243891518136,0.1699995072735956,-0.08699999999999994,-1.560448209307909,-1.642925352318274,-1.123414572386767
6.662469148635864,1.3299910675311255,0.1699996027233984,-0.08699999999999994,-1.5671148746790422,-1.6495966090124237,-1.1300811882657835
6.683913469314575,1.3333244067266188,0.16999964303394305,-0.08699999999999994,-1.5704482092954362,-1.6529323421021958,-1.133414495463031
6.704133033752441,1.3399910778036548,0.16999975028446176,-0.08699999999999994,-1.5771148620378996,-1.6596004647748854,-1.1400811532178508
6.724132776260376,1.346657748938756,0.16999983739976227,-0.08699999999999994,-1.5837815152873123,-1.6662686657772765,-1.146747811077375
6.7442731857299805,1.353324420110976,0.16999990791374608,-0.08699999999999994,-1.590448169332878,-1.6729369459684038,-1.1534144691282942
6.764332056045532,1.3566577557027935,0.16999993784267067,-0.08699999999999994,-1.5937814967596116,-1.6762711156549117,-1.156747798255204
6.784465312957764,1.3633244268808478,0.16999998853313786,-0.08699999999999994,-1.6004481526480538,-1.682939514040221,-1.1634144567747158
6.804529905319214,1.3699910980279886,0.17000002864765976,-0.08699999999999994,-1.6071148102412764,-1.6896079909360766,-1.1700811157374937
6.824609041213989,1.3733244335808872,0.17000004526493476,-0.08699999999999994,-1.610448139806174,-1.6929422587780445,-1.1734144454203899
6.844716787338257,1.3799911046265034,0.1700000724904825,-0.08699999999999994,-1.6171148007475584,-1.699610853195621,-1.1800811052646931
6.864882707595825,1.3866577755658058,0.17000009266552296,-0.08699999999999994,-1.6237814644941981,-1.7062795259060646,-1.1867477658549952
6.884931802749634,1.393324446961178,0.17000011464508213,-0.08699999999999994,-1.6304481290253028,-1.7126537679160527,-1.1934144276954026
6.904998779296875,1.3999911187085057,0.17000013616683785,-0.08699999999999994,-1.6371147951769225,-1.717851993792746,-1.2000810910944464
6.925158500671387,1.4033244544030032,0.17000014309191464,-0.08699999999999994,-1.6404481301541656,-1.720068070216439,-1.203414423232908
6.945226430892944,1.409991125454554,0.17000015112158745,-0.08699999999999994,-1.6471148037178511,-1.7238575463713968,-1.2100810884163848
6.965451955795288,1.4166577960776443,0.17000015328597942,-0.08699999999999994,-1.653781481886582,-1.7269270069807277,-1.216747754834412
6.98725438117981,1.4199911312349087,0.17000015273326013,-0.08699999999999994,-1.6571148226340373,-1.7282355618736533,-1.2200810885130406
7.00739598274231,1.4266578012505364,0.17000014921631054,-0.08699999999999994,-1.6637815073552435,-1.730473183521338,-1.2267477568175114
7.027473449707031,1.4333244708771877,0.1700001433504368,-0.08699999999999994,-1.6704481962763782,-1.7322856495753227,-1.2334144263903786
7.047545909881592,1.4399911401231003,0.17000013591852065,-0.08699999999999994,-1.6771148893076857,-1.7337537414764543,-1.240081097233587
7.067957401275635,1.443324474605006,0.17000013179651496,-0.08699999999999994,-1.6804482373455414,-1.7343796105438758,-1.2434144331310835
7.087728261947632,1.4499911432887607,0.17000012300591805,-0.08699999999999994,-1.687114936443085,-1.7354498440959203,-1.250081105875273
7.107809782028198,1.4566578116002533,0.17000011374210003,-0.08699999999999994,-1.6937816395580876,-1.7363167307595468,-1.2567477798800009
7.127948045730591,1.4633244795392464,0.1700001042220741,-0.08699999999999994,-1.700448346696284,-1.7370189072546192,-1.2634144551377473
7.148003101348877,1.4666578133685404,0.17000009941201338,-0.08699999999999994,-1.7037817017814645,-1.737318255735187,-1.2667477932337976
7.168173313140869,1.4733244807449268,0.17000008975132258,-0.08699999999999994,-1.7104484150088535,-1.7378301411109844,-1.2734144703542976
7.188258409500122,1.479991147741754,0.17000008008379108,-0.08699999999999994,-1.7171151323576732,-1.7382447679655857,-1.2800811487041581
7.208377838134766,1.4866578143541171,0.1700000704378913,-0.08699999999999994,-1.7237818538958645,-1.7385806158084736,-1.2867478282726328
7.228409767150879,1.489991147514321,0.17000006562535624,-0.08699999999999994,-1.7271152162611263,-1.738723793188142,-1.290081168510353
7.24849009513855,1.4966578135386757,0.17000005601641643,-0.08699999999999994,-1.7337819442415787,-1.738968626966422,-1.2967478498855352
7.268924713134766,1.5033244791622289,0.17000004641419142,-0.08699999999999994,-1.7404486766411837,-1.7391669431356889,-1.3034145324504842
7.288767576217651,1.509991144377037,0.1700000367941601,-0.08699999999999994,-1.7471154135733897,-1.739327580258069,-1.3100812161930708
7.309263229370117,1.513324476828483,0.17000003196841484,-0.08699999999999994,-1.7504487837777696,-1.7393960628588605,-1.3134145585021153
7.329246520996094,1.51999114141373,0.17000002226580524,-0.08699999999999994,-1.7571155277461363,-1.7395131691195895,-1.3200812439878526
7.34920859336853,1.5266578055673392,0.17000001246791302,-0.08699999999999994,-1.7637822765790614,-1.739608026651129,-1.3267479306198307
7.369499683380127,1.5333244692790318,0.1700000025420715,-0.08699999999999994,-1.7704490304276248,-1.7396848628577537,-1.3334146183851368
7.389754056930542,1.5366578009657808,0.16999999752111386,-0.08699999999999994,-1.7737824092827434,-1.7397176200124254,-1.336747962688706
7.4095892906188965,1.5433244639940018,0.16999998734360533,-0.08699999999999994,-1.7804491709600463,-1.7397736361410143,-1.3434146521294292
7.429678440093994,1.5499911265519835,0.16999997696029995,-0.08699999999999994,-1.7871159380745032,-1.7398190111365575,-1.3500813426705007
7.450132608413696,1.5566577886273738,0.16999996634255862,-0.08699999999999994,-1.7937827108120297,-1.7398557669352501,-1.3567480342984954
7.470061540603638,1.5599911194800793,0.16999996093726788,-0.08699999999999994,-1.7971160993502466,-1.7398714373464796,-1.3600813805158638
7.490163326263428,1.5666577808071582,0.16999994991771522,-0.08699999999999994,-1.8037828808926328,-1.739898235465229,-1.3667480737488404
7.510330677032471,1.5733244416182355,0.1699999385991573,-0.08699999999999994,-1.8104496685663396,-1.7399199442876403,-1.3734147680347444
7.530346632003784,1.5799911018989286,0.1699999269584141,-0.08699999999999994,-1.8171164625923264,-1.739937530897237,-1.3800814633598513
7.550429105758667,1.5833244318357256,0.16999992101034853,-0.08699999999999994,-1.8204498620592926,-1.7399450293397805,-1.3834148114078044
7.5707292556762695,1.5899910912925836,0.16999990884574967,-0.08699999999999994,-1.8271166660506386,-1.7399578537069642,-1.3900815082658926
7.590891599655151,1.5966577501805046,0.16999989630655044,-0.08699999999999994,-1.83378347699228,-1.7399682442069666,-1.3967482061287286
7.610845327377319,1.599991079405987,0.1699998898904632,-0.08699999999999994,-1.8371168851496638,-1.7399726749520075,-1.4000815554326194
7.630938768386841,1.6066577374094042,0.16999987675376085,-0.08699999999999994,-1.8437837070040188,-1.7399802537918487,-1.4067482547767476
7.651077508926392,1.6133243948015097,0.16999986319616026,-0.08699999999999994,-1.8504505364746986,-1.7399863957290076,-1.4134149550912471
7.67116641998291,1.6199910515642468,0.16999984920038097,-0.08699999999999994,-1.8571173738480902,-1.7399913739062398,-1.4200816563624785
7.691232442855835,1.6233243797037822,0.1699998420329219,-0.08699999999999994,-1.8604507955910332,-1.7399934974689797,-1.4234150073526344
7.711641311645508,1.629991035487186,0.16999982734860378,-0.08699999999999994,-1.8671176453814997,-1.7399971313817122,-1.43008171003363
7.731547117233276,1.6366576905932106,0.1699998121850004,-0.08699999999999994,-1.873784503843235,-1.740000078403203,-1.4367484136377922
7.752017259597778,1.6399910178858625,0.16999980441850332,-0.08699999999999994,-1.8771179364282353,-1.7400013361886808,-1.44008176578195
7.772078037261963,1.6466576719373822,0.16999978850631828,-0.08699999999999994,-1.8837848085184,-1.7400034898972232,-1.4467484707463159
7.792173624038696,1.6533243252592604,0.16999977207560318,-0.08699999999999994,-1.89045169012766,-1.7400052383221516,-1.45341517660146
7.812266111373901,1.6599909778293596,0.16999975511093063,-0.08699999999999994,-1.897118581618567,-1.7400066586222356,-1.4600818833348852
7.832363128662109,1.6633243038253767,0.16999974642356014,-0.08699999999999994,-1.9004520311867346,-1.7400072657500913,-1.4634152370271345
7.852447271347046,1.6699909552247156,0.16999972862917037,-0.08699999999999994,-1.9071189382104738,-1.7400083072525858,-1.4700819450552645
7.872498989105225,1.676657605813746,0.16999971026247626,-0.08699999999999994,-1.9137858560840122,-1.7400091553517534,-1.4767486539319348
7.892628192901611,1.6799909307967016,0.1699997008597197,-0.08699999999999994,-1.9171193192179166,-1.7400095187024094,-1.480082008684961
7.9127092361450195,1.6866575801236918,0.1699996816057713,-0.08699999999999994,-1.9237862541452242,-1.7400101436699607,-1.4867487188136308
7.93332576751709,1.693324228577158,0.16999966174103875,-0.08699999999999994,-1.9304532009835038,-1.7400106548098755,-1.4934154297638123
7.953291654586792,1.696657552468027,0.16999965157478264,-0.08699999999999994,-1.9337866790098406,-1.7400108746814118,-1.4967487855438586
7.973422288894653,1.7033241995610249,0.16999963076474753,-0.08699999999999994,-1.9404536445669207,-1.7400112546451652,-1.503415497707968
7.9935197830200195,1.7099908457124444,0.16999960930494745,-0.08699999999999994,-1.9471206231952864,-1.740011567794207,-1.5100822106700453
8.01396131515503,1.7133241684261544,0.16999959832645875,-0.08699999999999994,-1.9504541175646817,-1.740011703441968,-1.5134155674477143
8.034168720245361,1.7199908131113222,0.16999957586238626,-0.08699999999999994,-1.9571211167302525,-1.7400119397500626,-1.5200822815915016
8.054262161254883,1.726657456781896,0.16999955270887523,-0.08699999999999994,-1.9637881302327969,-1.7400121370283406,-1.5267489965140508
8.074323892593384,1.7333240994072592,0.16999952884984498,-0.08699999999999994,-1.9704551586095007,-1.7400123028963896,-1.5334157122090986
8.094592571258545,1.7399907409559834,0.16999950426909377,-0.08699999999999994,-1.9771222024158148,-1.7400124435304725,-1.5400824286712858
8.114691972732544,1.7433240613165617,0.16999949170297737,-0.08699999999999994,-1.9804557302837467,-1.7400125059887883,-1.543415787188645
8.134817123413086,1.7466573813958253,0.16999947895030187,-0.08699999999999994,-1.9837892622258542,-1.7400125639377066,-1.5467491458962217
8.154870748519897,1.7499907011896163,0.16999946600900967,-0.08699999999999994,-1.987122798316883,-1.7400126178568462,-1.5500825047936293
8.175267696380615,1.7533240206937257,0.1699994528770365,-0.08699999999999994,-1.9904563386327951,-1.7400126681781412,-1.5534158638805498
8.195310354232788,1.7599906588158098,0.16999942603275842,-0.08699999999999994,-1.9971234322492681,-1.7400127595446286,-1.5600825826220155
8.215551853179932,1.7666572957273885,0.16999939840083045,-0.08699999999999994,-2.0037905437077472,-1.740012840708512,-1.5667493021195358
8.235498189926147,1.7733239313929607,0.1699993699645272,-0.08699999999999994,-2.010457673660934,-1.7400129138376197,-1.5734160223732692
8.255582571029663,1.7766572487471797,0.16999935543948674,-0.08699999999999994,-2.0137912457826355,-1.7400129479528066,-1.5767493827841228
8.276004552841187,1.783323882475415,0.16999932576509535,-0.08699999999999994,-2.020458404746874,-1.7400130122236301,-1.5834161041753683
8.295864343643188,1.7899905148653759,0.1699992952442059,-0.08699999999999994,-2.0271255839285307,-1.7400130722596807,-1.5900828263291333
8.315932512283325,1.796657145878768,0.16999926385988065,-0.08699999999999994,-2.0337927840540315,-1.7400131291081726,-1.5967495492504993
8.336847305297852,1.799990460857071,0.16999924783862838,-0.08699999999999994,-2.0371263922037013,-1.740013156609826,-1.600082911001049
8.356923818588257,1.8066570897321108,0.16999921512733362,-0.08699999999999994,-2.043793625154943,-1.7400132102232273,-1.6067496350868105
8.377052545547485,1.8133237379625957,0.16999930695948945,-0.08699999999999994,-2.050460567303078,-1.740012772842507,-1.6134163839967888
8.39711880683899,1.8199903853275814,0.16999937686103544,-0.08699999999999994,-2.0571275225017462,-1.7400124189612225,-1.6200831337156687
8.417197704315186,1.8233237086754206,0.16999940487380147,-0.08699999999999994,-2.0604610051825074,-1.7400122684167347,-1.6234165088790993
8.437255620956421,1.8299903546838,0.1699994491690612,-0.08699999999999994,-2.0671279810532974,-1.7400120117219375,-1.6300832598078256
8.457440376281738,1.8366569997512754,0.16999948020211297,-0.08699999999999994,-2.0737949714120347,-1.7400118049066007,-1.6367500115316076
8.477670907974243,1.8433236438478267,0.16999950034712297,-0.08699999999999994,-2.0804619768461428,-1.7400116386674618,-1.6434167640424457
8.497767925262451,1.8466569655224343,0.16999950695190225,-0.08699999999999994,-2.0837954854053256,-1.7400115683509607,-1.646750140590814
8.517851829528809,1.8533236081047966,0.16999951424721446,-0.08699999999999994,-2.090462514596427,-1.7400114493152097,-1.6534168942696945
8.537988185882568,1.8599902496381735,0.16999951478754574,-0.08699999999999994,-2.097129560417012,-1.7400113546317664,-1.66008364872066
8.558476686477661,1.8666568900901692,0.16999950970033575,-0.08699999999999994,-2.103796623523759,-1.7400112798628238,-1.666750403939918
8.578595638275146,1.8699902099003485,0.16999950533816746,-0.08699999999999994,-2.1071301617702396,-1.7400112487957577,-1.6700837818368415
8.59880518913269,1.8766568486681217,0.16999949346011572,-0.08699999999999994,-2.113797252082315,-1.740011197385944,-1.676750538204425
8.618775606155396,1.883323486270736,0.16999947791125009,-0.08699999999999994,-2.1204643614123175,-1.7400111581585613,-1.6834172953369355
8.638838768005371,1.8866568046243266,0.16999946893060416,-0.08699999999999994,-2.123797923436152,-1.7400111424363822,-1.6867506741903795
8.658923625946045,1.87999011645905,0.16999953785398625,-0.08699999999999994,-2.1304649084077654,-1.7400121205293484,-1.6934175368529758
8.679330587387085,1.8733234174587345,0.16999950097252353,-0.08699999999999994,-2.1371320709469983,-1.7400120285960987,-1.7000843046734568
8.699298858642578,1.8666566344492397,0.16999902265202754,-0.08699999999999994,-2.1304672240802853,-1.7400131171641928,-1.693417646406797
8.719345092773438,1.8599899444620802,0.16999909469631222,-0.08033333333333328,-2.1238009193801584,-1.7400116319261911,-1.68675100019398
8.739429712295532,1.8566566077660622,0.16999917270380024,-0.07699999999999996,-2.1204676374021214,-1.7400107623132184,-1.6834176805478829
8.75951623916626,1.8499899114617742,0.1699992090785228,-0.0703333333333333,-2.1138014262896823,-1.7400107879130395,-1.6767511015882213
8.779638767242432,1.8433232163493838,0.1699992446141924,-0.06366666666666665,-2.107135197056024,-1.7400109085918112,-1.6700845282139503
8.79967713356018,1.836656522445829,0.16999927948452423,-0.05699999999999998,-2.100468949745286,-1.740011107787699,-1.6634179599602232
8.820526361465454,1.833323175950429,0.1699992967159302,-0.05366666666666665,-2.097135819351774,-1.7400112329374382,-1.6600846776311773
8.840715408325195,1.826656483878584,0.1699993308478816,-0.04699999999999998,-2.090469545157035,-1.7400115277775177,-1.653418116311558
8.860751628875732,1.819989793040269,0.1699993646245134,-0.04033333333333331,-2.083803253160649,-1.7400118745966229,-1.6467515590852353
8.880869150161743,1.8133231034452513,0.16999939813251347,-0.03366666666666664,-2.0771369434350224,-1.7400122658330075,-1.6400850055062242
8.900922536849976,1.8066564151029951,0.1699994314431122,-0.026999999999999975,-2.070470616033632,-1.7400126951778787,-1.6334184551118818
8.921079397201538,1.8033230714044899,0.16999944804315095,-0.02366666666666664,-2.067137445716496,-1.7400129224514886,-1.6300851809604064
8.941145658493042,1.7966563571406793,0.16999929896833638,-0.016999999999999973,-2.0604715269296685,-1.7400139141217612,-1.6234186171917782
8.96120285987854,1.789989644252693,0.16999918112575846,-0.010333333333333306,-2.053805589788518,-1.740014811472254,-1.6167520556876736
8.981411457061768,1.7866562883212973,0.16999913194965235,-0.0069999999999999715,-2.0504726144830414,-1.7400152308437271,-1.6134187756802467
9.001517057418823,1.7799896116455314,0.16999926725622744,-0.01366666666666664,-2.043806110452401,-1.7400150601066735,-1.606752217262554
9.021645545959473,1.7733229136015933,0.16999924972582334,-0.020333333333333307,-2.0504732742413605,-1.7400156611566258,-1.6000856655041378
9.041715383529663,1.76665620297333,0.16999915843254973,-0.026999999999999975,-2.057140630530116,-1.7400161815885555,-1.5934191014087031
9.06181025505066,1.7599894909945972,0.16999908140601497,-0.03366666666666664,-2.063808004735565,-1.7400165066764097,-1.5867525349312048
9.08187222480774,1.7566561344956506,0.16999904730848422,-0.03699999999999998,-2.0671416987034603,-1.740016608122426,-1.5834192506827136
9.102266073226929,1.749989380540577,0.16999863305929905,-0.03699999999999998,-2.0671430508325814,-1.7400140430339355,-1.5767524623720026
9.122196435928345,1.7433226670458373,0.16999864994896588,-0.03033333333333331,-2.06047711242602,-1.7400146140632582,-1.5700858891659881
9.14218807220459,1.7366559548991807,0.16999866691596052,-0.02366666666666664,-2.053811155784586,-1.740015173694165,-1.5634193189740984
9.162302494049072,1.7333225993272061,0.1699986753168223,-0.020333333333333307,-2.050478170788515,-1.7400154488098851,-1.5600860348141588
9.18237566947937,1.7266558891793284,0.1699986918461215,-0.01366666666666664,-2.043812187739429,-1.740015991669267,-1.553419468143354
9.202449560165405,1.7199891803505931,0.1699987078895987,-0.0069999999999999715,-2.037146187665134,-1.7400165268628573,-1.5467529033791696
9.222574234008789,1.7133224728301233,0.16999872332004054,-0.00033333333333330443,-2.030480171018524,-1.7400170564522601,-1.5400863401784797
9.242615938186646,1.7099891195570465,0.16999873077079977,0.003000000000000029,-2.0271471566199684,-1.7400173196488997,-1.536753059059905
9.262713193893433,1.7033224139782426,0.1699987450826498,0.009666666666666697,-2.020481115947488,-1.7400178436215727,-1.5300864975833712
9.282878398895264,1.6966557096798487,0.16999875853632748,0.016333333333333363,-2.013815059804162,-1.740018365147323,-1.5234199368596386
9.303033113479614,1.693322358007255,0.16999876491676127,0.019666666666666697,-2.010482026066071,-1.740018625217123,-1.5200866566853037
9.323140859603882,1.6866556556081174,0.16999877694019935,0.026333333333333365,-2.00381594752562,-1.7400191442866684,-1.5134200965303324
9.343225240707397,1.6799889836001534,0.16999900037570417,0.019666666666666697,-1.9971493839595365,-1.7400187268705425,-1.5067535289506016
9.36336612701416,1.6733222929176328,0.16999905441569632,0.013000000000000029,-2.0038164535677576,-1.7400191905182125,-1.5000869737422797
9.38341760635376,1.6666555919249373,0.1699990281703261,0.006333333333333361,-2.0104836802021877,-1.7400195203306545,-1.493420411379316
9.40353536605835,1.6633222409597292,0.16999901628467995,0.0030000000000000274,-2.0138172990307233,-1.7400196223248883,-1.4900871300394218
9.42361569404602,1.656655538085347,0.1699989944429,-0.0036666666666666397,-2.020484547959649,-1.7400197208784036,-1.4834205668461653
9.443694114685059,1.6499888239066633,0.16999889758366418,-0.010333333333333307,-2.0204853011951465,-1.7400198073562458,-1.4767539927182567
9.463893413543701,1.6466554720851199,0.16999889941302804,-0.013666666666666641,-2.017152261266395,-1.7400197326169953,-1.473420708497884
9.48404049873352,1.639988736811171,0.16999861328108934,-0.006999999999999973,-2.0104866475932117,-1.7400163942195324,-1.466753944821814
9.50419020652771,1.6333220354640396,0.1699986782897592,-0.00033333333333330616,-2.003820535346108,-1.7400169233280303,-1.460087373139649
9.524168729782104,1.6266553353235873,0.1699987328795992,0.006333333333333361,-1.9971544088666815,-1.7400174498429937,-1.4534208023367117
