liuyurong129/humanoid-gym/humanoid/data/robot2_action_20250621-214834.csv
timestamp,joint_1,joint_2,joint_3,joint_4,joint_5,joint_6
0.0003218650817871094,0.0,0.0,0.0,0.0,0.0,0.0
0.02041792869567871,0.0,0.0,0.0,0.0,0.0,0.0
0.04044508934020996,0.0,0.0,0.0,0.0,0.0,0.0
0.06076836585998535,0.0,0.0,0.0,0.0,0.0,0.0
0.08098554611206055,0.0,0.0,0.0,0.0,0.0,0.0
0.10096406936645508,0.0,0.0,0.0,0.0,0.0,0.0
0.12101912498474121,-0.86791956,-1.066974,-1.4166197,1.955852,-0.82337785,-0.17524162
0.14110040664672852,-1.4313062,-1.4865949,-1.480577,4.0246797,-1.9101653,-1.1662618
0.1612098217010498,-2.1246686,-1.9099921,-1.2830274,4.0118346,-2.4123356,-1.9472041
0.18127727508544922,-2.2575734,-2.0981379,-1.2571502,3.9835622,-2.7754166,-2.1506982
0.20133209228515625,-2.2301662,-2.0868518,-1.2547846,4.001437,-2.8561926,-2.1493542
0.22183585166931152,-2.1762967,-2.0436413,-1.2346591,4.031135,-2.8054886,-2.1409514
0.24193334579467773,-2.1762967,-2.0436413,-1.2346591,4.031135,-2.8054886,-2.1409514
0.26204586029052734,-2.1132655,-2.0249267,-1.1694511,4.0578,-2.6562746,-2.1755419
0.28212857246398926,-2.0393906,-2.0409625,-1.0705872,4.097814,-2.4230947,-2.2710378
0.3023233413696289,-1.9631916,-2.088889,-0.9435271,4.141724,-2.1306849,-2.4224892
0.32234740257263184,-1.8834794,-2.1534286,-0.79651326,4.182347,-1.785542,-2.6167061
0.34243059158325195,-1.7948817,-2.193296,-0.65604734,4.2199306,-1.3724859,-2.8388999
0.3625023365020752,-1.7026591,-2.1856124,-0.46484044,4.2704344,-0.8389129,-3.0880966
0.3825829029083252,-1.6187221,-2.138266,-0.11576931,4.3091936,-0.051578764,-3.3757362
0.4027113914489746,-1.6187221,-2.138266,-0.11576931,4.3091936,-0.051578764,-3.3757362
0.4228789806365967,-1.3572544,-2.0142279,0.2402965,4.2945933,1.3582653,-3.7606523
0.44292521476745605,-1.3036361,-1.9352567,0.70391774,4.013168,1.8954217,-4.2030554
0.4632837772369385,-1.3073622,-1.762939,0.91995335,3.9249134,2.292647,-4.230277
0.4834563732147217,-1.334989,-1.6868225,0.9792907,3.8477566,2.3995483,-4.1644163
0.5035154819488525,-1.341551,-1.6843977,0.96687853,3.8253796,2.4062593,-4.102955
0.5235490798950195,-1.3363862,-1.704923,0.93619204,3.842066,2.3940217,-4.059647
0.543649435043335,-1.3363862,-1.704923,0.93619204,3.842066,2.3940217,-4.059647
0.5637586116790771,-1.3104705,-1.6868557,0.89725864,3.8771083,2.378776,-3.8926194
0.5838370323181152,-1.3115442,-1.7564543,0.81895924,3.967518,2.398722,-3.8506896
0.6039066314697266,-1.2977414,-1.7559613,0.794603,3.974614,2.302473,-3.7856433
0.6239876747131348,-1.293198,-1.748037,0.7622673,3.9293327,2.1870959,-3.7130263
0.6443674564361572,-1.3235538,-1.7375673,0.74453694,3.8367655,1.9871366,-3.626866
0.6643085479736328,-1.3844328,-1.9150888,0.73997813,3.4247196,1.3637263,-3.5003207
0.6843490600585938,-1.3844328,-1.9150888,0.73997813,3.4247196,1.3637263,-3.5003207
0.704456090927124,-1.3952836,-2.050639,0.65947396,3.6853077,1.3941355,-3.5286617
0.7245559692382812,-1.43435,-2.0804613,0.6334931,3.5261073,1.1324043,-3.4715502
0.7446014881134033,-1.4259034,-2.127098,0.5936438,3.568088,1.0423915,-3.463693
0.7646994590759277,-1.5337877,-2.0080192,0.47917822,4.217789,0.9789346,-3.6399534
0.7849102020263672,-1.3459218,-1.826927,0.66129905,3.5003963,1.1028781,-3.4103177
0.804908275604248,-1.4061811,-1.840964,0.5830407,3.9826558,1.6506736,-3.4270334
0.8255653381347656,-1.4061811,-1.840964,0.5830407,3.9826558,1.6506736,-3.4270334
0.8456840515136719,-1.3975074,-1.9701513,0.59324497,3.424025,1.0981425,-3.3081634
0.8657488822937012,-1.3832495,-2.1270084,0.33279395,4.037151,1.4084558,-3.641886
0.8859391212463379,-1.3341349,-2.282645,0.48995116,4.115585,1.5653049,-3.709472
0.906029224395752,-1.4750245,-2.325502,0.30822685,4.448659,1.6389885,-3.9525673
0.9261233806610107,-1.4709778,-2.3579555,0.5427935,4.447293,1.7505354,-3.9587739
0.9461827278137207,-1.4298445,-1.9552898,0.3510518,4.242566,1.7562926,-3.6951127
0.9662940502166748,-1.4298445,-1.9552898,0.3510518,4.242566,1.7562926,-3.6951127
0.9866464138031006,-1.2803514,-2.0980463,0.47611603,3.8997762,1.7712138,-3.6181922
1.006563425064087,-1.155124,-1.9515964,0.21731852,3.9291973,1.8073292,-3.3911998
1.0266544818878174,-1.0699886,-2.3663013,0.32606712,4.042136,1.5661551,-3.3447459
1.0467479228973389,-0.95120114,-2.134552,0.032028984,3.991286,1.6287144,-3.034785
1.0668511390686035,-0.8573985,-1.8705852,-0.1367741,4.2582364,1.8388268,-2.4512188
1.0873873233795166,-0.76972365,-2.1719618,-0.17127241,4.414169,1.9537572,-2.3183374
1.1075294017791748,-0.76972365,-2.1719618,-0.17127241,4.414169,1.9537572,-2.3183374
1.127683401107788,-0.63306344,-2.175004,-0.21304117,4.4368463,1.9721088,-2.1336641
1.1476898193359375,-0.49174297,-2.0913842,-0.21734338,4.370539,1.9939548,-1.9317869
1.1678688526153564,-0.33488202,-1.9809967,-0.20207693,4.245826,2.041291,-1.7153664
1.1879024505615234,-0.17501646,-1.849697,-0.19504406,4.0541654,2.0431395,-1.437784
1.2079699039459229,-0.17501646,-1.849697,-0.19504406,4.0541654,2.0431395,-1.437784
1.228379726409912,0.035671752,-1.6539223,-0.21725012,3.656905,1.9284656,-0.93704426
1.2484087944030762,0.22247092,-1.8729757,-0.1872759,3.4100678,1.9531417,-0.7928911
1.2683913707733154,0.22247092,-1.8729757,-0.1872759,3.4100678,1.9531417,-0.7928911
1.2884571552276611,0.41317177,-1.9834474,-0.10136552,3.0300684,2.0940602,-0.69224095
1.308565378189087,0.55602026,-2.3187137,0.025609534,2.7585218,2.389012,-0.8963218
1.3286714553833008,0.3697389,-2.492652,0.048031252,2.1078413,2.0669935,-1.3807503
1.3488109111785889,0.34836352,-2.7577844,0.08163048,1.2786947,1.9790901,-1.473524
1.368833303451538,0.30048788,-2.8278885,0.12236203,0.3044015,1.9431015,-1.327597
1.3891887664794922,0.30048788,-2.8278885,0.12236203,0.3044015,1.9431015,-1.327597
1.409294843673706,0.3141573,-2.7786412,0.12320362,-0.6807394,1.8017911,-1.0908566
1.4294309616088867,0.3810345,-2.6381779,0.048056524,-1.1210512,1.5938932,-0.89543134
1.449462652206421,0.546996,-2.436434,-0.0424756,-1.1628939,1.4628873,-0.65200704
1.4695749282836914,0.8486274,-1.9190198,-0.16735138,-0.47659767,1.4846214,-0.11731068
1.4896447658538818,0.8942191,-1.535573,-0.1272092,-0.048932105,1.4094101,0.0851567
1.5097215175628662,0.67225736,-1.141278,-0.12561561,0.37076,1.4374704,0.3381445
1.5298523902893066,0.67225736,-1.141278,-0.12561561,0.37076,1.4374704,0.3381445
1.5499417781829834,0.39198655,-0.8504234,-0.14011343,0.66705287,1.4480227,0.59039396
1.570009708404541,0.24236335,-0.6744996,-0.18367554,0.87838304,1.5434813,0.7804886
1.590101718902588,0.01572327,-0.40965945,-0.2066923,1.1909062,1.5857085,0.97019637
1.6101672649383545,-0.13212363,-0.0024704337,-0.29176643,1.4700154,1.7311448,1.2999494
1.6303093433380127,-0.05441946,0.3195172,-0.7093519,1.3504671,1.9526293,2.0219715
1.6503682136535645,-0.27344602,0.77839583,-0.8023578,1.4273323,1.8869725,2.4747663
1.6707656383514404,-0.27344602,0.77839583,-0.8023578,1.4273323,1.8869725,2.4747663
1.6908934116363525,-0.5382866,1.4237893,-1.005349,1.5349196,1.8664175,2.9041026
1.7109954357147217,-0.3761216,1.6770467,-1.5239538,1.1387951,2.139697,2.6779692
1.7310423851013184,0.22739162,1.592864,-1.2527858,1.0631429,2.264015,2.4911878
1.751159429550171,0.18174084,1.5757494,-1.0358887,0.8393414,2.0104198,2.179054
1.771235704421997,0.22198142,1.65057,-0.99117744,0.7413982,1.9601552,2.2074034
1.7913098335266113,-0.04498147,1.2758929,-1.5154239,0.7837429,1.629628,2.2469285
1.8115370273590088,0.4095714,1.5146828,-1.0679132,0.92512035,2.0147474,2.071443
1.8317196369171143,0.4095714,1.5146828,-1.0679132,0.92512035,2.0147474,2.071443
1.851768970489502,0.2932409,1.276698,-1.0036849,0.51330256,1.7427207,2.0105486
1.8718721866607666,-0.35990345,1.6809069,-1.2714151,0.8091153,1.4128747,2.2233984
1.8921239376068115,0.4229027,1.4789307,-0.907786,0.58319473,1.839265,1.8753372
1.9122166633605957,-0.16866349,1.1582137,-1.5755681,0.71799314,1.3426613,1.9414109
1.9323620796203613,0.41499472,1.4394253,-0.9337395,0.7983986,1.8816198,1.7929226
1.9524104595184326,-0.21100537,1.1324853,-1.5161473,0.66611254,1.302773,1.8561194
1.9725170135498047,-0.21100537,1.1324853,-1.5161473,0.66611254,1.302773,1.8561194
1.9926033020019531,0.370026,1.3163241,-0.8812238,0.53558993,1.6929333,1.6919082
2.0127272605895996,-0.22747533,1.0217872,-1.4881259,0.57634246,1.24903,1.7161782
2.032806634902954,0.39406168,1.2067821,-0.83211404,0.45578188,1.6013032,1.5595783
2.0528523921966553,-0.24491124,0.8932689,-1.427607,0.4791189,1.1601021,1.6017743
2.073040246963501,0.40829158,1.0944546,-0.77463615,0.38127735,1.4686477,1.4330407
2.093158483505249,-0.38106036,0.83178276,-1.3671705,0.40304607,1.0267904,1.4557894
2.1132009029388428,0.28669876,1.0162402,-0.70401686,0.3118018,1.2951053,1.292332
2.133578062057495,0.28669876,1.0162402,-0.70401686,0.3118018,1.2951053,1.292332
2.1536974906921387,-0.44523436,0.7386532,-1.2816455,0.3010586,0.8687307,1.3173256
2.173771858215332,0.16226144,0.933533,-0.62630546,0.24959135,1.1226382,1.1679711
2.1938529014587402,-0.49183416,0.63593286,-1.1521578,0.18955983,0.69136107,1.1815813
2.213970899581909,0.15521522,0.8015359,-0.5464128,0.19067022,0.9186544,1.0340447
2.234039306640625,-0.6538171,0.6477197,-0.50217986,0.0033951104,0.29789072,1.207943
2.2541654109954834,-0.5456702,0.44204563,-0.6294707,0.09490076,0.20283435,1.2408551
2.2744836807250977,-0.5456702,0.44204563,-0.6294707,0.09490076,0.20283435,1.2408551
2.2945330142974854,-0.70667505,0.25372404,-0.3435625,0.41030335,0.34922466,1.2097888
2.314592123031616,-0.60740733,-0.05129896,-0.36594233,0.803445,0.47783396,1.2007341
2.3346924781799316,-0.55122924,-0.3089481,-0.46701103,1.1011813,0.3828201,1.0843998
2.3549671173095703,-0.7526891,-0.15096302,-0.19904357,1.9108484,0.4470454,0.5874179
2.374957799911499,-0.998518,-0.80486274,0.07379364,1.9546248,0.31910646,-0.86359835
2.395305633544922,-1.0795605,-1.3837225,0.2654977,2.844383,0.6520876,-2.2441208
2.4152109622955322,-1.2206086,-1.5048788,0.53580695,3.409558,0.99403787,-3.2663262
2.4356250762939453,-1.2206086,-1.5048788,0.53580695,3.409558,0.99403787,-3.2663262
2.4557182788848877,-1.2535859,-2.0921686,0.6039005,3.1389248,0.9585183,-3.8231301
2.4757895469665527,-1.2245502,-2.3578522,0.69290626,3.2596824,1.0637361,-3.8939755
2.4959452152252197,-1.2326972,-2.5003877,0.65481436,3.1352568,1.019103,-4.034995
2.516293525695801,-1.1150614,-2.4885364,0.6792549,3.1769152,1.2878029,-4.2272553
2.536162853240967,-1.1270297,-2.4883976,0.7064459,3.2159207,1.2989686,-3.9849036
2.5562713146209717,-0.9221945,-2.4368162,0.6555234,2.825026,1.3072003,-3.8475459
2.5764052867889404,-0.9221945,-2.4368162,0.6555234,2.825026,1.3072003,-3.8475459
2.596468687057495,-0.8004861,-2.553877,0.70231235,2.7615144,1.6413934,-4.0368304
2.61655592918396,-0.51718974,-2.4368737,0.55593157,2.8318212,1.5758581,-3.6266396
2.636627197265625,-0.5120765,-2.6318789,0.595793,2.696747,1.7228587,-3.6974242
2.657167434692383,-0.20771374,-2.6408634,0.6083575,2.6024363,2.124289,-3.7589393
2.6775622367858887,0.1821617,-2.4227376,0.49775556,2.6436865,2.2481756,-3.6087086
2.6974680423736572,0.39259896,-2.2690141,0.47120583,2.4902253,2.4249747,-3.405043
2.717534065246582,0.698372,-2.1575973,0.38352957,2.2766852,2.4162273,-3.181842
2.7376065254211426,0.698372,-2.1575973,0.38352957,2.2766852,2.4162273,-3.181842
2.757707357406616,0.783546,-2.1115663,0.30695158,1.9511511,2.362643,-2.9729476
2.7777721881866455,0.9533528,-2.031512,0.26494592,1.5894705,2.3627284,-2.9227068
2.797863006591797,1.1178577,-1.9766401,0.20708878,1.028699,2.2146132,-2.935312
2.8179330825805664,1.2889959,-1.9653445,0.18095,0.28543893,2.0076227,-2.9821966
2.8380320072174072,1.4472846,-1.6875402,0.23031859,-0.2776794,1.8739033,-2.970267
2.8580939769744873,1.4472846,-1.6875402,0.23031859,-0.2776794,1.8739033,-2.970267
2.8784279823303223,1.579165,-1.3800255,0.24716865,-0.9052267,1.9268165,-2.7371247
2.8985395431518555,1.5673493,-0.7125129,0.27566427,-1.2386771,2.3141005,-2.2699516
2.918510675430298,1.5087211,0.19861202,0.03493393,-0.82414687,2.4421785,-1.4881533
2.9386026859283447,1.8861529,0.4575513,-0.66233075,-0.3779181,1.9420787,-0.47164637
2.9587020874023438,2.0454159,0.44800603,-0.719257,0.7709917,2.5730128,0.3793016
2.9788243770599365,1.7162884,0.84593433,-0.6860716,0.97200394,2.2299573,0.28782934
2.9988391399383545,1.7162884,0.84593433,-0.6860716,0.97200394,2.2299573,0.28782934
3.018949270248413,1.531167,1.4893984,-0.8688824,1.0718067,1.9639037,0.8029214
3.039034128189087,1.3456559,2.054167,-0.88009757,1.4153644,1.8436905,1.2658651
3.059115171432495,1.0505017,2.4032855,-0.8342056,1.3543379,1.6508374,1.5364658
3.079228639602661,0.8926327,2.6252584,-0.8286849,1.3652636,1.5710424,1.6756234
3.0993216037750244,0.8011048,2.7647634,-0.8274146,1.3771122,1.5450443,1.7485051
3.119678497314453,0.7227341,2.8252203,-0.8186148,1.3426787,1.509454,1.7796069
3.1395151615142822,0.6706955,2.8388004,-0.81158626,1.2844591,1.4729854,1.7855247
3.1607584953308105,0.6706955,2.8388004,-0.81158626,1.2844591,1.4729854,1.7855247
3.1808505058288574,0.6364494,2.818214,-0.80715984,1.2108587,1.4364166,1.7734834
3.201153516769409,0.611809,2.770793,-0.8021747,1.1239945,1.3984677,1.747003
3.221099615097046,0.59428185,2.701039,-0.7945756,1.0235444,1.3628601,1.7089994
3.2413384914398193,0.58087116,2.6080496,-0.7817661,0.9065275,1.3299012,1.6596661
3.2614314556121826,0.57018596,2.4869146,-0.76114726,0.7673737,1.2993954,1.5965537
3.281501531600952,0.5611596,2.3292007,-0.7308233,0.5963067,1.2682805,1.5140594
3.301945447921753,0.55179596,2.1144478,-0.68054545,0.37643525,1.2312332,1.3983791
3.3220458030700684,0.55179596,2.1144478,-0.68054545,0.37643525,1.2312332,1.3983791
3.3421218395233154,0.45255715,1.8834974,-0.6586046,0.16188733,1.2330532,1.2967254
3.3622007369995117,0.42703426,1.2336469,-0.8785146,-0.16025357,1.010364,1.2283684
3.382340669631958,0.27553064,0.87743086,-0.81245303,-0.17850223,0.7608959,1.0223305
3.402395725250244,0.17149718,0.63147885,-0.6388343,-0.20013538,0.49206063,0.79797685
3.4224703311920166,-0.39980137,0.30007106,-1.1434761,-0.15559307,-0.05406842,0.5373481
3.4425535202026367,0.28972882,0.3731227,-0.46409425,-0.29455134,0.42359647,0.25628957
3.462977170944214,0.28972882,0.3731227,-0.46409425,-0.29455134,0.42359647,0.25628957
3.483105182647705,-0.39398217,0.39115465,-0.6017005,-0.32487255,-0.25891703,0.37388986
3.5036511421203613,0.34734982,0.3063153,-0.37888488,-0.37070736,0.16711682,0.14583406
3.523373603820801,-0.475735,0.26347876,-0.09483023,-0.3124778,-0.42249197,0.26552066
3.5442116260528564,-0.33922774,-0.5631213,-0.35965544,0.7646259,-0.99973243,-1.0639828
3.5642945766448975,-0.7920422,-0.6623242,0.2625302,1.4146196,0.56608886,-1.2959647
3.584376811981201,-1.1854846,-1.2069001,0.48228344,1.8973144,-0.37851557,-2.954786
3.6044299602508545,-1.1786934,-1.4463297,0.60886157,2.6392426,-0.05331141,-3.877397
3.624528646469116,-1.1786934,-1.4463297,0.60886157,2.6392426,-0.05331141,-3.877397
3.644615650177002,-1.2604324,-1.704996,0.7343855,2.8763986,0.46756804,-4.2320414
3.66500186920166,-1.4228524,-2.0905252,0.7605346,2.9986389,0.59109324,-4.073448
3.6848666667938232,-1.3315171,-2.481815,0.6909031,2.571409,0.30987924,-4.2615414
3.7049522399902344,-1.0927953,-2.5698333,0.7040175,2.5601451,0.6708472,-4.531678
3.7250547409057617,-1.2513788,-2.482594,0.62702775,2.7425852,0.7393918,-4.1909294
3.7451295852661133,-1.2358615,-2.5007439,0.66678864,2.6262407,0.52791846,-4.325508
3.7652010917663574,-1.2358615,-2.5007439,0.66678864,2.6262407,0.52791846,-4.325508
3.785290479660034,-0.9551116,-2.5357304,0.7130735,2.4308205,0.87792474,-4.4790173
3.8056840896606445,-1.1093265,-2.4469926,0.65604174,2.6143217,0.9782396,-4.1333566
3.8255674839019775,-1.040253,-2.483201,0.6897493,2.4184504,0.7843541,-4.2533245
3.8456385135650635,-0.7815775,-2.2145998,0.6787845,2.217559,1.1233962,-4.2156363
3.865722179412842,-0.8444971,-2.1923802,0.6770995,1.9479299,0.97253734,-3.8100755
3.886080265045166,-0.92623043,-1.9345073,0.65536433,2.4231215,1.2984641,-4.1057305
3.906158685684204,-0.92623043,-1.9345073,0.65536433,2.4231215,1.2984641,-4.1057305
3.9262378215789795,-1.0660583,-2.2778404,0.6146278,2.1479766,1.0079813,-3.8330743
3.9463841915130615,-1.0020401,-2.6110344,0.6878097,2.0402544,0.8618514,-4.129139
3.9664225578308105,-0.8125007,-2.656359,0.705698,1.9512595,1.2036972,-4.3811445
3.986534357070923,-0.79620135,-2.271972,0.7347797,2.1951334,1.4253688,-4.0057116
4.006645441055298,-0.79246664,-2.5749893,0.7318809,1.8003879,1.1039298,-4.12632
4.026716947555542,-0.90648305,-2.383902,0.6016375,1.795575,1.1199464,-3.9156168
4.046949863433838,-0.7393465,-2.0534077,0.6787562,2.0201583,1.3726889,-3.9211938
4.067058563232422,-0.7393465,-2.0534077,0.6787562,2.0201583,1.3726889,-3.9211938
4.087129354476929,-0.89614516,-2.267956,0.6175456,1.7232232,1.1391332,-3.7132733
4.107235431671143,-0.61875606,-2.5295973,0.6870928,1.5260032,1.0922564,-3.8319457
4.127588748931885,-0.33910236,-2.5013165,0.7030027,1.3788918,1.5992527,-3.9915693
4.147541522979736,-0.5144546,-2.0660992,0.7461984,1.5928329,1.8095175,-3.7086737
4.16761326789856,-0.4988261,-2.093849,0.698996,1.530391,1.7466681,-3.6201556
4.187697887420654,-0.5687622,-2.1921806,0.5970358,1.2313104,1.4857131,-3.4724243
4.208007097244263,-0.20818321,-2.4553356,0.6363926,1.0937234,1.5155491,-3.4464037
4.2279016971588135,-0.20818321,-2.4553356,0.6363926,1.0937234,1.5155491,-3.4464037
4.248091220855713,0.114825875,-2.1361616,0.5308364,1.065075,1.6927431,-3.3261993
4.268140554428101,0.16756488,-1.8482467,0.546564,0.9934497,1.8666098,-3.0870001
4.288214206695557,-0.20342787,-1.2469094,0.53140426,1.1519861,1.8735012,-2.5919807
4.308314323425293,-0.2634889,-0.9989409,0.35838568,1.0678695,1.455761,-2.064006
4.328410625457764,-0.10786039,-1.2893503,0.32293627,0.6392759,1.4140491,-1.9070224
4.348502159118652,0.12749562,-1.1582981,0.20159505,0.45865917,1.4852877,-1.7344095
4.3685972690582275,-0.08494972,-0.56737524,0.21040499,-0.015478998,1.5789294,-0.82711226
4.389657735824585,-0.08494972,-0.56737524,0.21040499,-0.015478998,1.5789294,-0.82711226
4.409941911697388,-0.00073187426,0.9057259,-0.596227,1.0443678,1.2684803,0.6827215
4.4299092292785645,0.23823024,0.18839209,-1.728808,1.1781621,1.014526,0.69407845
4.450025320053101,0.5485478,1.5178566,-0.8709236,1.4320205,1.2001091,1.0642267
4.470064401626587,0.85305,1.9973913,-0.9951785,0.9442539,1.5723293,1.5979993
4.490152359008789,0.5484951,1.913958,-1.0619785,0.8893206,1.3778032,1.6430151
4.510221719741821,0.50283355,2.03621,-1.0504222,0.9145793,1.3659322,1.6653188
4.530290842056274,0.45268142,2.0487814,-1.044262,0.83059406,1.3545487,1.6604323
4.550691843032837,0.45268142,2.0487814,-1.044262,0.83059406,1.3545487,1.6604323
4.570802688598633,0.4004321,1.9974695,-1.0288193,0.720402,1.3044014,1.6277304
4.590903043746948,0.36671293,1.9114507,-1.0064541,0.59611034,1.270514,1.579619
4.6109678745269775,0.25120848,1.8275034,-0.9893111,0.49774638,1.3003901,1.5285025
4.63102650642395,0.17349984,1.7263944,-0.96262443,0.36277664,1.269909,1.4526561
4.6511452198028564,0.17349984,1.7263944,-0.96262443,0.36277664,1.269909,1.4526561
4.671369552612305,0.17349984,1.7263944,-0.96262443,0.36277664,1.269909,1.4526561
4.69150972366333,0.14089419,1.6022755,-0.93893063,0.21095765,1.2040988,1.3822495
4.711821794509888,0.08997835,1.4687635,-0.9043782,0.071881995,1.1091373,1.3142328
4.731769800186157,0.0002901666,1.3429325,-0.84396183,-0.0366652,0.95131797,1.2414988
4.752149343490601,-0.11569081,1.0961038,-0.7759174,-0.14383256,0.7066291,1.0900022
4.772002696990967,-0.11794411,0.91838926,-1.383696,0.42508426,0.20040798,0.75059974
4.7921226024627686,0.22625555,0.52553934,-1.1088119,0.05072256,0.7204681,0.84084165
4.82249641418457,0.22625555,0.52553934,-1.1088119,0.05072256,0.7204681,0.84084165
4.8498077392578125,0.22625555,0.52553934,-1.1088119,0.05072256,0.7204681,0.84084165
4.870030879974365,0.22625555,0.52553934,-1.1088119,0.05072256,0.7204681,0.84084165
4.8901097774505615,0.018388044,0.22688322,-0.9927928,-0.22329229,0.43745786,0.67778575
4.910448312759399,-0.26350498,0.3796817,-1.4028825,0.2512348,0.13471538,0.45413843
4.930411100387573,0.13392474,0.12708615,-0.9598612,-0.27187592,0.42940333,0.4897736
4.950520753860474,-0.11096905,-0.07383992,-0.9191677,-0.2328302,0.032561284,0.3413888
4.970582008361816,-0.4305574,0.43181968,-1.0478302,0.17597786,-0.042664442,0.3713245
4.990647554397583,0.20521869,0.14200692,-0.7994767,-0.37185887,0.21629727,0.3631229
5.010781764984131,-0.24580126,-0.2151049,-1.40456,0.0725135,-0.116810106,0.15427151
5.030847072601318,-0.24580126,-0.2151049,-1.40456,0.0725135,-0.116810106,0.15427151
5.0511884689331055,0.08449359,-0.009866133,-0.6308954,-0.583581,0.029938724,0.062377952
5.07112193107605,-0.12391929,-0.28943598,-1.35119,-0.00023324788,-0.22537993,-0.07138602
5.091202735900879,0.18689571,0.20702694,-0.45646384,-0.5361147,0.054513033,-0.11496589
5.111266851425171,-0.020018686,-0.17208798,-0.97543585,-0.21771464,-0.1650691,-0.21741709
5.131357192993164,0.24780478,-0.31203032,-0.42970088,-0.64619696,-0.1653838,-0.40438995
5.151500225067139,-0.58702374,0.32332897,0.20529288,0.20379555,0.057872247,-0.26484814
5.171553611755371,-0.07228467,-0.1781149,-0.07487887,0.82170117,-0.7451531,-0.9040199
5.191608905792236,-0.39995006,0.896447,0.21017914,0.45740703,-0.6098335,-1.5266564
5.212740898132324,-0.39995006,0.896447,0.21017914,0.45740703,-0.6098335,-1.5266564
5.232833623886108,0.15127994,-0.42101812,-0.5981946,0.70516765,-0.5613921,-1.5292703
5.252913236618042,0.29211184,-0.72596335,0.10354403,-0.6631373,-0.042861167,-1.7195375
5.272989273071289,-0.9868344,-1.7604439,0.32375902,-0.54152524,-0.60200435,-3.3585773
5.293077707290649,-1.0123032,-2.2613902,0.35117403,0.045865744,-0.4154903,-3.9038832
5.3131935596466064,-0.6154053,-1.9856863,0.5159146,0.6062536,0.072385155,-3.8946092
5.333247900009155,-1.1441344,-2.1040344,0.4998909,0.59310853,-0.10308469,-3.7760808
5.353427171707153,-0.8705158,-2.134905,0.5955847,1.0741273,-0.47342807,-3.7069542
5.373544931411743,-0.8705158,-2.134905,0.5955847,1.0741273,-0.47342807,-3.7069542
5.393904447555542,-0.67118907,-1.979895,0.60142255,1.2188913,0.0035066265,-3.848011
5.413811206817627,-0.8940889,-1.9776845,0.6541462,1.0577632,0.34356678,-3.6341531
5.434081315994263,-0.63507646,-2.026255,0.61365545,1.1962609,0.20915887,-3.7005103
5.454136610031128,-0.37808728,-1.8933505,0.58799446,1.1848418,0.7316697,-3.8316064
5.474360942840576,-0.74015784,-1.8895966,0.64540285,0.9910085,0.89487773,-3.5796406
5.494297742843628,-0.5924418,-1.9549779,0.58813536,1.2054899,0.6720794,-3.544881
5.514388084411621,-0.5924418,-1.9549779,0.58813536,1.2054899,0.6720794,-3.544881
5.534491062164307,-0.5045971,-2.1150417,0.61822367,1.1624303,1.003446,-3.867617
5.5548789501190186,-0.7591707,-1.8658103,0.6648312,1.2542795,1.1697985,-3.474529
5.574909925460815,-0.7911014,-2.1509786,0.6197511,1.2853128,0.8763959,-3.6864583
5.5953450202941895,-0.98136294,-2.2840924,0.5304548,1.0627226,0.68895876,-3.635442
5.615196228027344,-0.63331366,-2.2946548,0.615504,1.0486763,0.93693036,-3.5801961
5.63532567024231,-0.3660956,-2.500172,0.6416664,0.8909217,1.0898702,-3.7260368
5.655937194824219,-0.3660956,-2.500172,0.6416664,0.8909217,1.0898702,-3.7260368
5.676034927368164,-0.7685316,-2.034659,0.6122755,0.89349425,1.3279109,-3.4977071
5.696141004562378,-0.5027705,-2.0942614,0.61210316,0.95151997,1.1300983,-3.3560998
5.7162957191467285,-0.26010528,-2.3710556,0.6447184,0.71081305,1.1708167,-3.527516
5.7363927364349365,-0.4880907,-2.0051026,0.61661017,0.52614903,1.5742791,-3.3954122
5.756427764892578,-0.35377613,-1.7371148,0.5133698,0.7302635,1.5382861,-3.101051
5.776521682739258,-0.5354539,-1.9342717,0.5315613,0.2995819,1.1605289,-3.002586
5.796677350997925,-0.5354539,-1.9342717,0.5315613,0.2995819,1.1605289,-3.002586
5.816729784011841,-0.29469317,-1.7117362,0.45298812,0.39868256,1.4578888,-2.7845802
5.8368000984191895,-0.016679544,-1.8334943,0.47620007,0.18413837,1.3650705,-2.7250412
5.856916904449463,0.23149589,-1.5618781,0.30571473,0.13708085,1.4786444,-2.327548
5.877141237258911,0.14911243,-1.2463574,0.13598691,0.228181,1.4182572,-1.811973
5.897227048873901,0.27539742,-0.054442987,0.027352419,-0.33171716,0.950959,-0.85309505
5.917360067367554,0.07040818,-0.40897685,-0.12646955,-0.21790977,0.44965005,-0.5923566
5.937565803527832,1.0126389,0.076767206,0.12026864,0.17447409,2.8090243,-0.21829796
5.957511901855469,0.12154271,0.56074536,-0.7527181,0.2118217,0.63729674,-0.039327838
5.97763729095459,0.12154271,0.56074536,-0.7527181,0.2118217,0.63729674,-0.039327838
5.997720956802368,1.1643987,0.3512318,-0.99029315,0.46873546,1.3022915,0.054448746
6.017907381057739,0.9564477,0.37457645,-1.1947176,0.32254383,1.1880136,0.5028043
6.037898302078247,0.80701005,1.4101617,-1.0629674,0.7062925,1.1807438,0.97091854
6.05830454826355,0.86389494,1.9274138,-1.0247988,0.6910455,1.139392,1.2937859
6.078186988830566,0.6741375,2.0550132,-1.0090657,0.74244463,1.1757387,1.5182327
6.098586320877075,0.5582451,2.1017218,-0.9929031,0.6374961,1.1199926,1.5583128
6.118451118469238,0.5099241,2.0828223,-0.9897567,0.5613712,1.0681764,1.5370148
6.138519525527954,0.5099241,2.0828223,-0.9897567,0.5613712,1.0681764,1.5370148
6.158725261688232,0.46706247,2.0432484,-0.9788301,0.4814516,1.0420674,1.5042633
6.17886757850647,0.35932285,2.048551,-0.9687109,0.45402068,1.0917968,1.4910364
6.198877334594727,0.31546664,1.9921933,-0.9391538,0.32663217,1.0474923,1.4465367
6.218933582305908,0.29412854,1.8959278,-0.90648484,0.18286897,0.9997315,1.3965365
6.239025354385376,0.26715624,1.7645725,-0.86723185,0.01728443,0.9442173,1.3337526
6.25909948348999,0.20992638,1.5545536,-0.819922,-0.16894129,0.8270457,1.2184969
6.279436111450195,0.20992638,1.5545536,-0.819922,-0.16894129,0.8270457,1.2184969
6.299596071243286,0.104648545,1.1986661,-0.7459508,-0.35081872,0.6105222,0.9950408
6.319643020629883,0.041394006,0.8057419,-0.52368623,-0.4733986,0.23131011,0.74746126
6.339779853820801,0.055668127,0.8039682,-1.1471685,0.20425531,-0.009723548,0.41903415
6.359888792037964,0.2437088,0.28482866,-0.94061804,-0.40520552,0.24176767,0.5826025
6.379976034164429,0.04545484,-0.050274804,-0.6930548,-0.5664259,-0.17108785,0.32023683
6.400096893310547,-0.043838818,0.60338837,-1.0208796,0.15213132,-0.28520036,0.019645832
6.4202351570129395,-0.043838818,0.60338837,-1.0208796,0.15213132,-0.28520036,0.019645832
6.440293788909912,0.23708181,0.32244653,-0.79553646,-0.5908892,0.016137268,0.29684138
6.4603800773620605,0.14187811,-0.008350924,-0.6375308,-0.6465031,-0.3343923,0.15535393
6.480487823486328,0.032708447,0.64874595,-0.92012185,0.010645237,-0.391596,-0.06184829
6.5005552768707275,0.25838244,0.2984684,-0.64892685,-0.72964025,-0.13854688,0.17367247
6.520637035369873,0.3125173,0.015494391,-1.4800018,0.109306425,-0.4826939,-0.09400759
6.540714979171753,0.1964777,0.07788734,-0.6994659,-0.7828332,-0.24716645,-0.20827255
6.561317205429077,0.029008936,-0.3033325,-0.1906004,-0.97824764,-0.7056889,-0.5064243
6.581462860107422,0.029008936,-0.3033325,-0.1906004,-0.97824764,-0.7056889,-0.5064243
6.601518630981445,-0.96984273,-0.2729072,0.22665389,-0.11510429,-1.2015942,-1.0055519
6.621621608734131,-0.9371066,-0.50214976,0.112164564,0.5665703,-1.3785317,-1.7369982
6.641698598861694,-1.0758162,-1.1462935,0.27277896,0.85745966,-1.555374,-2.605985
6.661947965621948,-1.1881558,-1.5167762,0.3683586,0.8496722,-1.3508022,-2.8186986
6.682056665420532,-1.2185665,-1.68809,0.3843394,0.91096795,-1.2992394,-2.9326003
6.702148675918579,-1.1873813,-1.724218,0.3855475,0.968228,-1.1944139,-2.9656098
6.722217321395874,-1.101979,-1.7089909,0.38553515,1.0187224,-1.0324278,-2.99398
6.742412805557251,-0.96320856,-1.6559907,0.36945972,1.0893787,-0.792689,-3.0549076
6.762541055679321,-0.96320856,-1.6559907,0.36945972,1.0893787,-0.792689,-3.0549076
6.7829344272613525,-0.7489521,-1.5568125,0.3361307,1.1970168,-0.40826526,-3.1416972
6.802834749221802,-1.1446873,-1.5516042,0.5104524,0.69078934,0.18075295,-2.706281
6.822918653488159,-0.8249595,-1.7092365,0.39038482,0.8645543,-0.2690256,-2.8808835
6.843005657196045,-0.6790978,-1.6309497,0.35612082,0.85696256,0.12537703,-2.9883268
6.863100051879883,-0.44734547,-1.5285044,0.32672334,0.882552,0.5624986,-3.0058362
6.883209705352783,-0.87624454,-1.5067803,0.48843566,0.5342946,0.7629731,-2.6730232
6.903418302536011,-0.87624454,-1.5067803,0.48843566,0.5342946,0.7629731,-2.6730232
6.9235680103302,-0.71728015,-1.580467,0.3887346,0.71873736,0.37729686,-2.646155
6.9438793659210205,-0.4674391,-2.1534708,0.43358615,0.48607507,0.44901296,-2.916424
6.963775157928467,-0.38718262,-1.6759185,0.34097525,0.600767,0.9891432,-3.0360253
6.983857154846191,-0.8286325,-1.5869004,0.5218583,0.6096579,1.1748431,-2.6775558
7.004026889801025,-0.5233774,-1.3537558,0.3205641,0.81000817,0.8525939,-2.3996196
7.0241193771362305,-0.37843958,-1.8757629,0.3907077,0.5444374,0.7233924,-2.656532
7.044318199157715,-0.395337,-1.9733465,0.45118675,0.021238327,1.0004321,-2.6533
7.065264463424683,-0.395337,-1.9733465,0.45118675,0.021238327,1.0004321,-2.6533
7.085201263427734,-0.24959992,-1.3297199,0.20023547,0.51099193,1.2632346,-2.3670194
7.105314493179321,-0.5402055,-1.5120585,0.41783458,-0.0774706,1.1649656,-1.9644452
7.12544059753418,-0.14985462,-0.83722496,-0.03589164,0.5458487,1.1796796,-1.4810988
7.145507574081421,0.28515062,0.0055520386,-0.8794478,0.6647142,0.98074234,-0.48427156
7.165590524673462,0.9105311,0.18745773,-0.63902134,0.1115506,1.0802312,-0.23650727
7.185733318328857,1.0690353,0.15481262,-0.5153928,-0.0862132,1.0613465,0.088581674
7.206681728363037,0.457035,0.8255494,-1.1819834,0.535831,0.9611084,0.42043796
7.226611137390137,0.457035,0.8255494,-1.1819834,0.535831,0.9611084,0.42043796
7.246691942214966,0.887121,0.9987698,-1.1411061,0.378227,1.0207211,0.93381214
7.267016172409058,0.7179826,1.7982268,-0.9266523,0.52109456,1.1275585,1.2676113
7.287005186080933,0.66571563,2.0779328,-0.9418333,0.42582127,1.1322627,1.4352635
7.307066440582275,0.46070272,2.0362291,-0.9099227,0.4356033,1.1374979,1.5608604
7.327152729034424,0.3978553,1.9482235,-0.8588458,0.26254955,1.1176858,1.5230283
7.347368955612183,0.33276224,1.8602092,-0.85498,0.14013109,1.0866036,1.4656686
7.367682456970215,0.33276224,1.8602092,-0.85498,0.14013109,1.0866036,1.4656686
7.387530565261841,0.297755,1.7568876,-0.82143575,0.006714791,1.023299,1.4055493
7.407653093338013,0.25714767,1.6330115,-0.7742821,-0.146518,0.94248545,1.3379109
7.427732229232788,0.17575647,1.498606,-0.70226276,-0.28694758,0.79433864,1.2576215
7.447851657867432,0.050507735,1.1550721,-0.6197672,-0.4449853,0.51441437,1.0239491
7.467889308929443,0.20517094,0.6401069,-1.408595,0.21265143,0.060570832,0.53434706
7.488075256347656,0.26464164,0.44130588,-0.93041515,-0.30458656,0.3207691,0.5783649
7.50806450843811,0.22198893,0.31271124,-0.7245884,-0.66662264,0.06330996,0.3886036
7.528144359588623,0.22198893,0.31271124,-0.7245884,-0.66662264,0.06330996,0.3886036
7.54833197593689,0.2406586,0.13376962,-1.5514971,0.19011997,-0.24501747,0.076795064
7.568434238433838,0.2408687,0.37176204,-0.8215005,-0.434018,0.04878741,0.10907265
7.588489294052124,0.29502344,0.2542112,-0.4458532,-0.8746439,-0.10870508,0.026149832
7.608636856079102,0.16529693,0.021417782,-1.3021351,-0.020171374,-0.3736604,-0.04726378
7.628708362579346,0.20854612,0.0990489,-0.620923,-0.8422017,-0.15030834,-0.1286129
7.648780107498169,0.19883521,0.044846043,-1.3257313,-0.09621032,-0.4457888,-0.23200202
7.668856382369995,0.15185387,-0.0064707547,-0.47030818,-0.9711094,-0.24317136,-0.37900177
7.689328908920288,0.112875655,-0.25403368,-0.9367466,-0.36160353,-0.46018356,-0.5944377
7.7094221115112305,0.112875655,-0.25403368,-0.9367466,-0.36160353,-0.46018356,-0.5944377
7.729488849639893,0.07489781,0.0495892,-0.06901513,-1.1007096,-0.55560976,-0.56828606
7.7528486251831055,-0.68207705,-1.1462594,-0.04520313,-0.08312158,-1.2570845,-1.5647792
7.773036241531372,-0.68207705,-1.1462594,-0.04520313,-0.08312158,-1.2570845,-1.5647792
7.7931129932403564,-1.0659118,-1.2877743,0.27458686,0.2096191,-0.9551532,-2.951887
7.813400745391846,-1.1082916,-1.6260033,0.3996502,0.9136479,-1.1597729,-3.5049536
7.833345651626587,-1.1021212,-1.8469528,0.5083924,1.0624177,-0.8572907,-3.4966726
7.853760004043579,-1.2203912,-1.954736,0.5656249,0.8092848,-0.54274476,-3.3945088
7.8746888637542725,-1.2203912,-1.954736,0.5656249,0.8092848,-0.54274476,-3.3945088
7.8947978019714355,-1.0646131,-1.9553251,0.48194385,1.1953834,-0.79682416,-3.471094
7.915194511413574,-0.86180854,-1.7855557,0.44178662,1.3777559,-0.47268653,-3.5409048
7.935139179229736,-1.1520394,-1.784012,0.5975372,0.81189847,0.26976857,-3.127678
7.955204486846924,-0.8371111,-1.9064451,0.46653116,1.1115502,-0.3796822,-3.3659317
7.975303888320923,-0.9098415,-1.897491,0.57260746,0.7632921,0.22468577,-3.264972
7.99543023109436,-0.6748785,-1.9405202,0.48211247,0.9400859,0.08295863,-3.3905065
8.016037464141846,-1.0692124,-1.824498,0.5147852,0.7567488,0.43886182,-3.127802
8.036058187484741,-1.0692124,-1.824498,0.5147852,0.7567488,0.43886182,-3.127802
8.056167364120483,-0.7709588,-1.988599,0.49634734,0.8787092,0.03748652,-3.1815865
8.07653522491455,-0.54349947,-1.9143182,0.46637627,0.7647797,0.5734675,-3.2316864
8.096428155899048,-0.9340863,-1.8293672,0.5132935,0.58919346,0.71427387,-3.0576284
8.116615533828735,-0.75607663,-1.9148854,0.48422986,0.8319534,0.41619024,-3.055815
8.136641263961792,-0.49923122,-2.372006,0.5200801,0.618363,0.57200944,-3.2503917
8.15678358078003,-0.24200056,-1.9285597,0.48185256,0.54020405,1.1105617,-3.2047658
8.176769495010376,-0.80268776,-1.8045802,0.55944717,0.54206216,1.2279503,-3.0403216
8.19697117805481,-0.80268776,-1.8045802,0.55944717,0.54206216,1.2279503,-3.0403216
8.217024087905884,-0.48391104,-1.752124,0.4720321,0.72623897,0.8622131,-2.8186395
8.237138986587524,-0.35020286,-2.1832929,0.52448255,0.53974235,0.89959604,-3.069988
8.257238626480103,-0.21378507,-2.260413,0.548929,0.478781,1.0058002,-3.1878715
8.277369260787964,-0.4890337,-1.3572161,0.5088514,0.35100445,1.5754867,-2.3416982
8.297396659851074,-0.27753714,-1.754431,0.36536202,0.30350992,0.75492966,-2.3346913
8.317468643188477,-0.08525854,-1.6999755,0.24435125,0.23407218,1.0843544,-2.2856877
8.337735891342163,-0.104224294,-1.2831107,0.1938421,0.063841075,1.3574252,-1.5265005
8.357833862304688,-0.104224294,-1.2831107,0.1938421,0.063841075,1.3574252,-1.5265005
8.378195524215698,-0.12337671,-0.79827124,-0.17347164,0.69381166,0.75417596,-1.0350707
8.398190259933472,0.37654102,0.22398214,-0.045137975,-0.35524765,0.837001,0.058832042
8.418199300765991,0.19077511,1.574443,-0.68100095,0.82346463,1.3291045,1.2527918
8.438283681869507,0.9733672,1.3746516,-1.0564651,0.2829227,1.3736298,1.3762503
8.458406686782837,0.47684827,1.6820168,-0.9100616,0.5390675,1.1845069,1.6008235
8.478477478027344,0.57525766,1.8957323,-0.89238924,0.4127284,1.2590231,1.6841055
8.498671293258667,0.4493941,1.6450781,-0.781821,0.22139119,1.1407366,1.6000273
8.518847465515137,0.4493941,1.6450781,-0.781821,0.22139119,1.1407366,1.6000273
8.539108753204346,0.40971658,1.551935,-0.75213045,0.06469022,1.1622497,1.5324506
8.559033870697021,0.3275798,1.3977028,-0.7052774,-0.07458505,1.0580014,1.4338557
8.579102039337158,0.24949206,1.4315107,-0.6996082,-0.117399946,1.0280503,1.4251539
8.599374294281006,0.17993908,1.4078978,-0.6724086,-0.18718103,0.9130781,1.3843632
8.619329690933228,0.11830078,1.3870105,-0.6668191,-0.22973493,0.76562613,1.3387375
8.63951325416565,0.19899537,1.2549833,-1.1401621,0.34029868,0.31572846,0.8902055
8.659619331359863,0.4286062,0.89872366,-0.96288097,-0.10389543,0.67729455,1.110279
8.679702997207642,0.4286062,0.89872366,-0.96288097,-0.10389543,0.67729455,1.110279
8.699830293655396,0.3385591,0.62357527,-0.9694204,-0.4210948,0.45726413,0.867628
8.719866037368774,0.2362655,0.40722513,-0.79888916,-0.5677793,0.26445,0.6203609
8.739932298660278,0.23539318,0.28712732,-1.3118194,-0.10723496,0.06452472,0.38984117
8.76001524925232,0.29856825,0.3548174,-0.8625054,-0.5359371,0.19499359,0.38799205
8.7800931930542,0.20593388,0.19683413,-0.47499886,-0.7993927,-0.10884716,0.18966863
8.800171375274658,0.14378734,0.5962401,-1.017001,-0.06571759,-0.19953649,0.11034795
8.820318460464478,0.14378734,0.5962401,-1.017001,-0.06571759,-0.19953649,0.11034795
8.840389728546143,0.35167,0.41007584,-0.6570146,-0.76389086,0.07513385,0.29254726
8.860498189926147,0.2649259,0.16651027,-0.82760847,-0.64150727,-0.20738685,0.20422226
8.88060712814331,0.20071064,0.019107565,-0.33877394,-0.9394157,-0.41808036,-0.04603336
8.900758981704712,-0.25960284,0.44747394,-0.090507776,-0.5265001,-0.5228699,0.25878462
8.920936107635498,0.11912215,-0.011483416,-0.5720761,0.73267794,-1.1314228,-0.16549763
8.940998315811157,-0.100131854,0.2645924,0.15161754,-0.62872136,-0.41920388,-0.38585398
8.961085796356201,-0.4816262,-0.67571634,-0.24983817,0.15851456,-1.034418,-1.1122432
8.981265306472778,-0.4816262,-0.67571634,-0.24983817,0.15851456,-1.034418,-1.1122432
9.0014967918396,-0.9397375,-0.5698569,0.15577322,0.22711012,0.446298,-0.870913
9.021566152572632,-0.5227584,-0.6828848,-0.05174664,0.6837908,-0.5433229,-1.3903463
9.04169774055481,-0.49638236,-1.094572,0.10975167,0.7685642,-0.45135444,-1.9859943
9.061733484268188,-0.41074073,-1.3092324,0.20341386,0.87462544,-0.2304084,-2.4587471
9.081893920898438,-0.44917166,0.0021523684,0.65460575,-0.7696618,-0.26129004,-1.6576742
9.1019606590271,-0.710757,-1.8099813,0.33468416,-0.6408255,-0.63349235,-2.3582566
9.122023344039917,-0.7176615,-2.2852583,0.2622839,-0.49813673,0.022874441,-3.3796408
9.142157793045044,-0.7176615,-2.2852583,0.2622839,-0.49813673,0.022874441,-3.3796408
9.162540912628174,-0.23068027,-1.9735997,0.3473891,0.01923339,0.499054,-3.346263
9.18244481086731,-0.6475049,-1.7628311,0.49548432,-0.05831532,0.9497951,-2.9517443
9.202541589736938,-0.31742218,-1.5804749,0.28260413,0.64073956,0.48447663,-2.7050905
9.222599029541016,-0.69785243,-1.5737016,0.5153563,0.3408826,0.80317736,-2.4088051
9.24271559715271,-0.3752368,-1.1972275,0.119285926,0.85101295,0.5419268,-2.1586308
9.262796401977539,-0.5612468,-1.6098896,0.43245462,0.18080464,0.59807795,-1.9310987
9.28287410736084,-0.20381781,-1.1815939,0.0542504,0.671649,0.5638986,-1.8045138
9.302936792373657,-0.20381781,-1.1815939,0.0542504,0.671649,0.5638986,-1.8045138
9.32334852218628,0.23883091,-0.81850034,-0.023117978,0.9329699,0.9779986,-1.3848197
9.34329104423523,0.42874256,1.3699931,0.094921425,-0.14940986,0.79002583,0.02015213
9.363370180130005,0.10841495,0.5045451,-0.8501364,1.1574312,-0.36045116,0.4562154
9.383440732955933,0.8817644,0.99433225,-0.5382016,0.027167588,1.1251647,0.69178134
9.403515338897705,0.47567493,1.5384952,-1.1572548,0.54209864,0.7602218,0.9073144
9.423822164535522,0.8136543,1.2199234,-0.9371504,0.15922469,0.9870817,1.4034318
9.443751096725464,0.63448477,1.8628807,-0.75368464,0.16636372,1.0722644,1.4051651
9.464279651641846,0.62727016,2.0540133,-0.80998945,0.103833646,1.1290463,1.4562913
9.484680414199829,0.62727016,2.0540133,-0.80998945,0.103833646,1.1290463,1.4562913
9.504572868347168,0.45189914,1.8851973,-0.7570921,0.033091523,1.0696143,1.5081545
9.544877529144287,0.3703636,1.694765,-0.66030693,-0.19191785,0.9810694,1.4243135
9.582738876342773,0.3703636,1.694765,-0.66030693,-0.19191785,0.9810694,1.4243135
9.602797031402588,0.22174256,1.4568728,-0.54100406,-0.37458715,0.73564714,1.278516
9.622875928878784,0.34812978,1.7130806,-1.1357905,0.3400219,0.20740701,0.86048293
9.643062353134155,0.5017129,1.1577662,-0.80951387,-0.17504801,0.5381207,1.1271437
9.663098096847534,0.5017129,1.1577662,-0.80951387,-0.17504801,0.5381207,1.1271437
9.6831955909729,0.4975995,0.87552637,-0.7149286,-0.6525506,0.4479521,0.85483915
9.70325493812561,0.35598475,0.4077615,-0.4333879,-0.7580981,0.031857874,0.42547134
9.723369836807251,0.24715199,0.76030934,-0.9500713,-0.11893476,-0.22375421,0.21860576
9.74347472190857,0.43705696,0.48888034,-0.56703377,-0.79976547,0.09577262,0.34319577
9.763591527938843,0.42495444,0.2996856,-1.3190091,-0.067692265,-0.33478707,0.117827885
9.783668041229248,0.42761558,0.37667102,-0.5503652,-0.78337157,0.011261072,0.07342883
9.803876876831055,0.35739148,0.056796297,-0.18836151,-0.9658519,-0.42016217,-0.20306745
9.823875665664673,-0.35590696,-0.016959742,0.02525359,-0.5202193,-0.88887393,-0.28360918
9.844001054763794,-0.35590696,-0.016959742,0.02525359,-0.5202193,-0.88887393,-0.28360918
9.86409854888916,-0.60236555,-0.8554353,-0.15927538,0.36640814,-1.136759,-1.3723506
9.884183406829834,-1.0107667,-1.1990404,0.30191407,0.4471011,-0.5022078,-2.2611477
9.904252529144287,-1.0465474,-1.7418249,0.3759583,0.88321376,-0.9180872,-3.0108678
9.924342632293701,-1.0072935,-1.8005229,0.40068537,1.1341904,-0.69263506,-3.1398754
9.944417476654053,-0.81871516,-1.7199138,0.37177393,1.423967,-0.42880195,-3.2063506
9.964503288269043,-1.0522407,-1.7036763,0.568378,0.8631089,0.38815916,-2.8539498
9.9845871925354,-0.7977617,-1.8375385,0.39235407,1.175145,-0.2673683,-3.1063325
10.004693269729614,-0.7977617,-1.8375385,0.39235407,1.175145,-0.2673683,-3.1063325
10.024847269058228,-1.1366149,-1.7365414,0.49094394,0.9566599,0.23528856,-2.8399622
10.044967889785767,-0.87469786,-1.8719383,0.4022193,1.1096054,-0.23068085,-2.937263
10.065056324005127,-0.65993744,-1.7438327,0.3729103,1.1125774,0.23721662,-2.958381
10.085095643997192,-0.9845822,-1.6778029,0.5150602,0.89235556,0.6487846,-2.651239
10.105201959609985,-0.8366451,-1.7003714,0.38576433,1.0664349,0.20306198,-2.6955094
10.125267028808594,-0.4929819,-2.1048355,0.42946035,0.8539989,0.369178,-2.7557702
10.145360469818115,-0.29842246,-1.6932014,0.36114833,0.85467505,0.91932195,-2.767182
10.165444135665894,-0.29842246,-1.6932014,0.36114833,0.85467505,0.91932195,-2.767182
10.185514688491821,-0.76436186,-1.4678265,0.51832914,0.80307305,1.1495824,-2.3445022
10.205590009689331,-0.6549614,-1.4707273,0.33071023,0.9332489,0.65660536,-2.2707164
10.225707769393921,-0.46313316,-1.8555433,0.37071165,0.69558847,0.6955703,-2.4049861
10.246110200881958,-0.23211588,-1.8810802,0.3721296,0.5450475,0.93496686,-2.38716
10.26603078842163,-0.0925812,-1.849122,0.34711748,0.44074357,1.0617507,-2.3341548
10.286127805709839,-0.0705028,-1.6104988,0.23619606,0.5061743,1.0318884,-2.045334
10.306179761886597,-0.44337317,-1.1818279,0.36197641,-0.010372862,0.95951885,-1.3110939
10.326289653778076,-0.44337317,-1.1818279,0.36197641,-0.010372862,0.95951885,-1.3110939
10.346397638320923,-0.22155267,-1.2798326,-0.021316055,0.4493824,0.45660692,-1.5526506
10.366467714309692,0.09409322,-1.1260009,-0.16226694,0.09436104,0.8290077,-1.177443
10.386862516403198,0.45635605,0.25737196,-1.203893,0.72078574,1.3038278,0.06113126
10.406776666641235,0.89913887,0.72414345,-0.9364803,0.39659145,1.0201064,0.52723294
10.426852703094482,1.0212225,0.8754621,-0.73794776,0.025807068,1.2840154,0.9557414
10.447235584259033,0.90652287,1.5818771,-0.73662263,0.24868926,1.4914864,1.3659643
10.467336177825928,0.6391057,1.7955955,-0.8229051,0.27108046,1.3407397,1.5520722
10.48745584487915,0.6391057,1.7955955,-0.8229051,0.27108046,1.3407397,1.5520722
10.507552146911621,0.47245353,1.8633243,-0.79839975,0.29541445,1.2852719,1.7030625
10.527620792388916,0.4180073,1.8386484,-0.7646632,0.18792927,1.2485071,1.6670578
10.547741651535034,0.36563373,1.7457442,-0.7288718,0.052718,1.1653814,1.6029162
10.567802429199219,0.3199492,1.6461809,-0.6787192,-0.07646606,1.0820357,1.5393054
10.588204622268677,0.24687053,1.5333542,-0.6106357,-0.20342118,0.95440733,1.4606605
10.608109951019287,0.14084993,1.4220173,-0.53123504,-0.30863398,0.74541014,1.3570973
10.628542423248291,0.14084993,1.4220173,-0.53123504,-0.30863398,0.74541014,1.3570973
10.648507118225098,0.26789162,1.5682544,-1.1626049,0.38595763,0.35831168,0.9662851
10.668613910675049,0.4869361,0.9739135,-0.8604391,-0.13035575,0.52852714,1.1495792
10.68866753578186,0.43010277,0.8168621,-0.82613385,-0.5396334,0.4954284,0.9675453
10.708785772323608,0.2758924,0.4934482,-0.5785066,-0.66799986,0.20452814,0.61825955
10.728905439376831,0.29041535,0.32417005,-1.4053347,0.13934198,-0.15527321,0.27810624
10.748958587646484,0.35698366,0.5267026,-0.7447461,-0.46053562,0.18460545,0.39609906
10.769266843795776,0.33952206,0.3909126,-0.35050842,-0.8910371,-0.040120546,0.2282004
10.789280652999878,0.33952206,0.3909126,-0.35050842,-0.8910371,-0.040120546,0.2282004
10.809366703033447,-0.18683535,0.09993167,-0.34633648,-0.66674244,-0.24124295,0.53531975
10.829428672790527,-0.23750697,0.17259626,-0.36851737,-0.55300784,-0.09296821,0.5362797
10.855926275253296,-0.30324468,-0.10176174,-0.31986693,-0.5323783,-0.12325988,0.32480404
10.87640643119812,-0.37670892,-0.37301302,-0.21812163,-0.606923,-0.05341847,0.28016934
10.896275043487549,-0.26027688,0.50704974,-0.048320923,0.11480874,0.75045943,0.1619344
10.91651725769043,0.32369325,1.022952,-0.31295836,0.86150515,-0.359987,-0.19826195
10.936434507369995,0.81983554,0.5512665,-0.25080812,-0.81686974,0.45495406,-0.06310085
10.956553936004639,0.81983554,0.5512665,-0.25080812,-0.81686974,0.45495406,-0.06310085
10.976633548736572,0.19845213,1.1146461,-0.20431338,-0.4079769,0.3998828,0.44649377
10.996907472610474,0.8920931,1.2431753,-0.0014878986,-0.86823213,0.43393135,0.2335698
11.016869068145752,0.2599492,0.48934394,-0.51165247,0.44477192,-0.8139411,0.08736702
11.03697657585144,0.82969785,0.6100226,0.0603501,-0.65045464,0.43180266,-0.07184885
11.05733060836792,-0.43229997,-0.7033346,-0.12659386,0.014279164,-0.87190574,-1.0142548
11.077208518981934,-1.4408998,-1.1847488,0.3128907,0.3213306,-0.29030406,-1.9867092
11.097476243972778,-1.0800376,-1.7682081,0.31408212,0.6447805,-1.0470147,-2.5203886
11.117572546005249,-1.0800376,-1.7682081,0.31408212,0.6447805,-1.0470147,-2.5203886
11.137810945510864,-0.8842509,-1.7957717,0.36995545,0.92695904,-0.853031,-2.6671522
11.157833576202393,-0.5708016,-1.6993632,0.33880195,1.2311475,-0.45374125,-2.7483165
11.177878141403198,-0.27497858,-0.015735582,0.72808325,-0.51591444,-0.02259216,-1.5775055
11.19796085357666,-0.5895325,-1.8285576,0.3137294,-0.28224155,-0.52188736,-2.3299346
11.21804690361023,-0.41899425,-2.3148718,0.3120171,-0.034370467,0.39260352,-3.056959
11.238397598266602,-0.03032874,-1.782725,0.30492133,0.58809483,0.8053284,-2.980806
11.258327722549438,0.29645982,0.07646309,0.6049631,-0.5696604,0.6147917,-1.7238463
11.27842664718628,0.29645982,0.07646309,0.6049631,-0.5696604,0.6147917,-1.7238463
11.298511743545532,-0.48421204,-1.3817937,0.38998616,-0.27287915,-0.42207047,-1.8097672
11.318604946136475,-0.37346187,-2.089486,0.27081183,-0.36513728,0.49748653,-2.7758787
11.33876085281372,0.02752496,-1.6483394,0.21177486,0.02869302,0.9745506,-2.6760545
11.3588228225708,0.2007666,0.3415531,0.4296983,-0.6477705,0.5224248,-1.3636192
11.378906011581421,-0.4123347,-1.1128755,0.27141616,-0.43650118,-0.4491738,-1.4547843
11.398985862731934,-0.19671474,-1.791284,0.15914498,-0.6622983,0.64389527,-2.3975518
11.419801473617554,-0.19671474,-1.791284,0.15914498,-0.6622983,0.64389527,-2.3975518
11.439951181411743,0.19262032,-1.3412158,0.0705377,0.35950583,0.9459732,-2.5314264
11.460022211074829,0.3643663,0.6280233,0.2696825,-0.55891573,0.61200005,-1.065895
11.480161666870117,-0.30002967,-0.5189091,-0.28603095,0.58281446,-0.74994737,-0.8360626
11.500211477279663,0.07023348,-0.24840401,0.18979323,-0.8890227,0.44615555,-0.9162289
11.52030324935913,-0.54832,-1.1951209,0.2280075,-1.1332763,-0.20345834,-1.7236632
11.540684700012207,-0.09476806,-1.2960045,-0.051108647,-0.8069627,0.61886317,-2.1775944
11.56056833267212,-0.09725793,-0.918558,0.2917102,-0.17262313,1.9720469,-1.3113506
11.58108925819397,0.49429366,-0.23030415,0.00217734,1.060441,0.9375077,-0.79884213
11.601158380508423,0.49429366,-0.23030415,0.00217734,1.060441,0.9375077,-0.79884213
11.621236562728882,0.8007896,1.8150355,-0.2206828,0.11168492,0.7618237,0.39733586
11.641356229782104,1.1923991,2.0395956,-0.95616233,0.39134246,1.3116385,1.3729393
11.661396265029907,0.6133538,2.0626335,-0.81531775,0.4718478,0.99856615,1.5378389
11.681492805480957,0.67801154,2.417276,-0.8233481,0.3413128,0.97788614,1.6387078
11.701574802398682,0.55131763,2.3714085,-0.83433807,0.4164127,0.97924405,1.7036203
11.72165584564209,0.4951566,2.311695,-0.8070218,0.27404734,0.91966015,1.6836314
11.742035150527954,0.4951566,2.311695,-0.8070218,0.27404734,0.91966015,1.6836314
11.762186527252197,0.45180678,2.2313356,-0.79359114,0.1831756,0.85822374,1.6397295
11.782310247421265,0.40053052,2.1810262,-0.7707729,0.1283731,0.8415597,1.5952909
11.80247712135315,0.36023533,1.958774,-0.75631374,-0.103298396,0.7615666,1.5174769
11.82268738746643,0.3056838,1.2923925,-0.8347963,-0.4466577,0.5864234,1.3947843
11.842859983444214,0.18153657,0.5817812,-0.74069273,-0.64055467,0.25571775,0.9205797
11.862890720367432,0.23199935,0.26372772,-0.9504867,-0.40886274,-0.046522934,0.44973883
