liuyurong129/humanoid-gym/humanoid/data/robot2_action_20250621-220758.csv
timestamp,joint_1,joint_2,joint_3,joint_4,joint_5,joint_6
0.00013756752014160156,0.0,0.0,0.0,0.0,0.0,0.0
0.02020096778869629,0.0,0.0,0.0,0.0,0.0,0.0
0.04028820991516113,0.0,0.0,0.0,0.0,0.0,0.0
0.06065082550048828,0.0,0.0,0.0,0.0,0.0,0.0
0.08086633682250977,0.0,0.0,0.0,0.0,0.0,0.0
0.1007697582244873,0.0,0.0,0.0,0.0,0.0,0.0
0.12084341049194336,-0.70788586,0.24196145,0.23717225,0.43358323,-0.9981458,0.043643378
0.14092350006103516,-0.3299764,0.1709489,-0.84889215,1.9268664,-0.1320139,-0.7506829
0.16130995750427246,-0.4730749,0.21742529,-0.41502547,1.0599458,-0.3734775,-0.7230434
0.18124699592590332,-0.43989682,0.3806661,-0.44846454,1.077937,-0.7923205,-0.29905355
0.20134735107421875,-0.46811977,0.35297233,-0.2530452,0.44709724,-0.8490974,0.27336356
0.2213902473449707,-0.32530198,0.046293676,0.112595506,-0.0319482,-0.7811192,0.83411235
0.24205613136291504,-0.32530198,0.046293676,0.112595506,-0.0319482,-0.7811192,0.83411235
0.2622058391571045,-0.11201884,-0.39059824,-0.4246222,0.49520725,0.16558659,0.71882194
0.282437801361084,-0.5581601,0.01403898,0.23882082,0.19235417,-0.70785046,1.2060596
0.302715539932251,-0.32601616,-0.2596497,-0.26213145,0.36613685,-0.07937831,1.0948826
0.3226161003112793,-0.53644377,0.08986023,0.1771306,0.07247452,-0.62647045,1.3411864
0.34271836280822754,-0.19820912,-0.42516318,-0.2926344,0.13801849,0.4498197,0.9686538
0.3628087043762207,-0.6584562,0.034773737,0.3096056,0.06330932,-0.50327873,1.3012394
0.38292646408081055,-0.304187,-0.36080003,-0.32112446,0.28740895,0.41259763,0.8208919
0.40314459800720215,-0.63568884,0.1264418,0.20461415,0.20906463,-0.5272722,1.0642914
0.423159122467041,-0.63568884,0.1264418,0.20461415,0.20906463,-0.5272722,1.0642914
0.4432501792907715,-0.142989,-0.36132616,-0.47091675,0.58122164,0.7165512,0.4334926
0.46329832077026367,-0.5147397,0.20908079,-0.055151634,0.7571712,-0.39652413,0.5009954
0.484050989151001,-0.500576,0.22727248,-0.09743161,0.16496512,-0.2364039,0.42541656
0.5043759346008301,-0.37863553,0.18771005,-0.055169336,0.3340936,0.0024762452,0.37505472
0.5244314670562744,-0.43789732,0.1219247,0.11831056,0.30290872,0.08274846,0.27819258
0.5451197624206543,-0.43789732,0.1219247,0.11831056,0.30290872,0.08274846,0.27819258
0.5693163871765137,-0.24699073,-0.0059636384,-0.4858724,1.1906315,1.0536358,-0.68099314
0.5897257328033447,-0.6545295,0.5359734,-0.4419694,1.5038143,0.08273524,-0.8693099
0.609830379486084,-0.49174294,0.5076542,-0.29811794,0.8499249,-0.31906286,-0.44089046
0.6302058696746826,-0.32692507,0.6139494,-0.3383799,0.77130884,-0.59463346,0.06393594
0.6500968933105469,-0.2758952,0.5477245,-0.07562692,0.12932178,-0.8473985,0.750698
0.6702773571014404,-0.2758952,0.5477245,-0.07562692,0.12932178,-0.8473985,0.750698
0.6904206275939941,-0.18469208,0.3039295,0.2566194,-0.15792927,-0.5575365,1.229807
0.7106103897094727,-0.01914953,-0.17722294,-0.1822969,0.34312543,0.5146209,0.95506036
0.7305853366851807,-0.58316666,0.3462521,0.45517147,0.15360498,-0.7084633,1.1840941
0.7510035037994385,-0.096978664,-0.30647144,-0.38096064,0.5307093,0.80836964,0.6065079
0.7711596488952637,-0.5249673,0.25015187,0.09789686,0.5242427,-0.50141025,0.63431627
0.7911982536315918,0.18013349,-0.2888201,-0.71878964,1.3636644,1.171247,-0.21334168
0.8112902641296387,-0.4982104,0.36828783,-0.24404636,0.95942384,-0.061152644,-0.2164461
0.8315532207489014,-0.4982104,0.36828783,-0.24404636,0.95942384,-0.061152644,-0.2164461
0.8516824245452881,-0.42667198,0.5284262,-0.18764275,0.41560212,-0.5231031,0.22291449
0.8717861175537109,-0.37413642,0.4771056,0.08588698,-0.0901547,-0.5401232,0.6922228
0.8918848037719727,0.14709793,-0.0678111,-0.4942715,0.9912775,0.73665154,0.2711714
0.9119727611541748,-0.39095923,0.38944474,0.15247142,0.6697184,-0.37100777,0.26028058
0.9320464134216309,-0.06644799,0.2546393,-0.61862075,1.3916737,0.7640178,-0.46215507
0.9521377086639404,-0.44750604,0.28003246,-0.23715413,0.7705022,0.08387435,-0.51616955
0.9723646640777588,-0.361955,0.36821494,-0.23558128,0.46921426,-0.25951198,-0.04055967
0.9924654960632324,-0.361955,0.36821494,-0.23558128,0.46921426,-0.25951198,-0.04055967
1.01283860206604,-0.47603986,0.42677757,0.008227875,0.00015739352,0.12738141,0.18666457
1.0328586101531982,0.031284284,0.03420666,-0.37006024,1.1962454,0.86183536,-0.46601206
1.0528416633605957,-0.5712899,0.5019902,-0.15288125,1.011887,-0.21934122,-0.42204842
1.0729966163635254,-0.31867215,0.54087365,-0.23899557,0.47769827,-0.46691355,0.081186466
1.0930447578430176,-0.3302606,0.4094132,0.28418335,-0.18360981,-0.34128234,0.5935072
1.1134366989135742,0.24831301,-0.17564921,-0.45649466,1.1054804,1.0798898,0.14596474
1.1336076259613037,0.24831301,-0.17564921,-0.45649466,1.1054804,1.0798898,0.14596474
1.153792381286621,-0.32378447,0.27197838,0.13891831,0.8958362,-0.0711062,0.013639382
1.1738026142120361,-0.15038733,0.20799658,-0.51284987,1.1456027,0.9411912,-0.48096249
1.1942243576049805,-0.40393898,0.21002313,-0.19112088,0.6685626,0.27065876,-0.40747467
1.2145569324493408,-0.278832,0.16011563,0.036231026,0.19267827,-0.3931956,0.32360566
1.2350311279296875,0.6305326,-0.3741613,-0.70538133,1.6252983,1.2725987,-0.18391466
1.2549142837524414,-0.13074557,0.17405507,-0.040593944,1.1603392,-0.035941385,-0.15949579
1.2750563621520996,0.32319465,0.013780028,-0.73983335,2.15453,0.5845201,-0.6882439
1.295125961303711,0.32319465,0.013780028,-0.73983335,2.15453,0.5845201,-0.6882439
1.3152391910552979,-0.23415549,0.34384242,-0.2526731,0.8837102,-0.40237007,-0.30042657
1.3353509902954102,-0.24992193,0.34514037,0.2141897,0.067502536,-0.7503289,0.6587837
1.3555941581726074,0.32586518,-0.2912541,-0.17945626,0.40747634,0.49086088,0.639568
1.3757715225219727,-0.3570597,0.07171407,0.76517564,0.046443976,-0.6570542,1.0941285
1.39607834815979,-0.111616015,-0.10910981,-0.16444151,0.7276016,0.3928925,0.8406203
1.4160475730895996,-0.111616015,-0.10910981,-0.16444151,0.7276016,0.3928925,0.8406203
1.437972068786621,-0.508632,0.20810711,0.5393116,-0.068381734,-0.7334726,1.24168
1.4598031044006348,0.03810393,-0.40141302,-0.0851221,-0.09189295,0.6941484,0.9084115
1.47987699508667,0.03810393,-0.40141302,-0.0851221,-0.09189295,0.6941484,0.9084115
1.4999947547912598,-0.10851633,-0.38219726,0.022649994,0.49428338,0.40275666,0.6245314
1.5200915336608887,0.10271436,-0.45087212,-0.32242474,1.4134544,0.5719373,0.059264608
1.540428638458252,-0.41832647,0.14328054,0.0049978103,0.5347866,-0.5316105,0.27224725
1.560462474822998,0.40282288,-0.15765458,-0.61989814,1.3814625,1.0666715,-0.321875
1.5805232524871826,-0.26109773,0.52763,-0.14993532,1.0912843,-0.0589547,-0.4655244
1.600600004196167,-0.39689994,0.58880985,-0.18666317,0.33906418,0.03751439,-0.22741404
1.6217777729034424,-0.39689994,0.58880985,-0.18666317,0.33906418,0.03751439,-0.22741404
1.6418530941009521,-0.3484665,0.51649165,0.4578468,-0.21372199,-0.6267576,0.42927137
1.6620478630065918,0.1435848,0.16179761,-0.37494728,0.85942954,0.6875051,0.15333866
1.682166576385498,-0.3476604,0.33746845,0.52312565,0.42643145,0.10512507,-0.08881349
1.7021379470825195,-0.05306363,0.10054858,-0.36345002,1.4309999,1.2436844,-0.79482955
1.722294807434082,-0.54609495,0.62087643,-0.40530196,1.3010982,0.18404248,-1.1368113
1.7423527240753174,-0.2966563,0.5937587,-0.104754925,0.6055222,-0.33649376,-0.5699746
1.7624566555023193,0.32313877,0.49931726,-0.66061187,1.8863993,0.26934007,-0.630142
1.7824933528900146,0.32313877,0.49931726,-0.66061187,1.8863993,0.26934007,-0.630142
1.802595615386963,-0.12651847,0.3456487,0.04651632,0.5817733,-0.5671321,-0.21568045
1.8226749897003174,0.37091696,0.08780266,-0.47969466,2.1031127,-0.034091853,-0.62268937
1.8427650928497314,-0.23702542,0.48365137,-0.22772437,0.64318794,-0.4707246,-0.27731547
1.8628604412078857,-0.21747941,0.35783586,0.38103092,-0.13612145,-0.76368594,0.66931087
1.8829407691955566,0.24197419,-0.27218732,0.005934788,0.1508007,0.3233473,0.69147253
1.9030582904815674,0.22323617,-0.40217817,-0.06496928,1.1124346,0.17335075,0.44881576
1.923703670501709,0.22323617,-0.40217817,-0.06496928,1.1124346,0.17335075,0.44881576
1.9438068866729736,0.5757722,-0.5071764,-0.586598,2.1633325,0.5837697,-0.11924266
1.9638898372650146,-0.018222708,0.039904907,-0.3197972,1.1401048,-0.3625897,0.092918865
1.9841539859771729,-0.3751609,0.4493111,0.58649987,0.32725176,-1.0899646,0.6495149
2.0040764808654785,-0.018200386,-0.021496952,0.1178836,0.15948942,-0.025121003,0.6768748
2.0241873264312744,0.020151373,0.03792274,-0.1738064,1.398465,-0.021400303,0.2003325
2.044604539871216,-0.5062795,0.4784353,0.4356152,0.11074517,-0.786046,0.4510965
2.0645480155944824,-0.10737009,0.08152561,-0.5120306,1.5399593,0.67298174,-0.30316982
2.0849227905273438,-0.5010664,0.5555223,-0.1549609,0.62664706,-0.41334227,-0.24847305
2.1049914360046387,-0.5010664,0.5555223,-0.1549609,0.62664706,-0.41334227,-0.24847305
2.1251204013824463,-0.334774,0.66285825,0.27223286,0.02994842,-0.9179088,0.30932134
2.1451988220214844,0.34280804,0.09359452,-0.59117544,1.3991027,0.817631,-0.22165686
2.165379047393799,-0.29898855,0.56757927,0.018945364,0.8512874,-0.47659883,-0.18762292
2.1854960918426514,-0.16301872,0.5530821,-0.5595492,1.075888,0.48310027,-0.5669248
2.205566883087158,-0.35794917,0.43608132,0.08388178,0.47677404,-0.36852768,-0.3389463
2.2256336212158203,0.21748722,0.32320967,-0.7769204,2.0398898,0.68578875,-0.74680716
2.2456915378570557,0.21748722,0.32320967,-0.7769204,2.0398898,0.68578875,-0.74680716
2.265885829925537,-0.1878091,0.29151675,-0.3870735,0.9516688,0.31359547,-0.9496688
2.2859678268432617,-0.38418385,0.3526607,0.16166827,0.3387781,-0.18937346,-0.55408055
2.3060402870178223,0.43205532,0.007763803,-0.9527576,3.0007858,1.1102195,-1.4586009
2.326057195663452,0.049611222,0.44014725,-0.7935508,2.5080009,0.4726296,-1.8799628
2.3461644649505615,-0.053266574,0.5025996,-0.5504376,1.8482198,0.18431209,-1.7788303
2.3663063049316406,-0.21985371,0.4564055,-0.31057987,1.2259572,-0.16436955,-1.4545847
2.386347770690918,-0.23949651,0.60810256,-0.26757297,1.1009094,0.2175301,-1.2946438
2.4063758850097656,-0.3436145,0.39767835,-0.13852194,0.6865762,0.06167215,-0.9641327
2.4264800548553467,-0.3436145,0.39767835,-0.13852194,0.6865762,0.06167215,-0.9641327
2.4465689659118652,-0.09496266,0.2979398,-0.46046764,1.2373457,0.5769428,-1.0318539
2.4666454792022705,-0.3497282,0.25108954,-0.014357755,0.6581128,-0.12072538,-0.84701943
2.4867148399353027,0.72929305,-0.1232221,-0.94952184,3.0406663,1.1193924,-1.4139131
2.5068106651306152,0.18128227,0.25766984,-0.6966358,2.1740234,0.3412025,-1.4966882
2.5268826484680176,0.14038971,0.082877785,-0.36576876,1.7571033,-0.39474916,-1.037347
2.5469603538513184,0.04349577,0.23110464,-0.09687532,1.4257013,-0.9101331,-0.5668322
2.5670101642608643,0.4424017,-0.04324533,-0.7434001,2.9227176,0.08178783,-1.0633386
2.587124824523926,0.4424017,-0.04324533,-0.7434001,2.9227176,0.08178783,-1.0633386
2.607207775115967,-0.20215283,0.35932228,-0.06405752,1.2697501,-0.921798,-0.72548985
2.627650499343872,0.544403,0.04303503,-0.6451945,2.5384119,-0.053466402,-0.96537143
2.647491455078125,-0.19912142,0.46779105,-0.24918918,1.2583376,-0.57502997,-0.74267197
2.667570114135742,-0.17306182,0.30225477,0.2961837,0.4159321,-1.0002234,0.069896
2.6877777576446533,0.4588655,-0.40853596,-0.341534,1.2568381,0.3267648,-0.18685013
2.7078874111175537,-0.3264443,0.070866466,0.57402825,0.4738019,-0.6882074,0.21985456
2.728048086166382,0.27318063,0.0343775,-0.67702657,2.216952,0.59057355,-0.36150184
2.74817156791687,0.27318063,0.0343775,-0.67702657,2.216952,0.59057355,-0.36150184
2.7683804035186768,-0.30317813,0.32001534,-0.115443625,0.8538929,-0.6047511,-0.17415382
2.7883691787719727,0.16223618,0.04257974,-0.5697713,1.4187132,0.26120177,-0.181975
2.80843448638916,-0.24814333,0.2359635,0.2657169,0.7424994,-0.959043,0.2100282
2.828582286834717,0.33105996,-0.1666337,-0.14190665,0.97131616,0.20511569,0.10383793
2.848628520965576,-0.030076314,-0.0629196,0.1769976,1.3403785,0.029678732,-0.2812362
2.8687033653259277,-0.27859375,0.14871752,-0.5101054,1.6973171,-0.06690183,-0.9152323
2.889186382293701,-0.27859375,0.14871752,-0.5101054,1.6973171,-0.06690183,-0.9152323
2.9092977046966553,-0.40061167,0.64844286,-0.21994421,0.9789687,-0.53763795,-0.6636817
2.929483652114868,-0.31649345,0.48419246,0.25883332,0.07969729,-0.80432034,-0.028951056
2.9495511054992676,0.36599413,-0.24038537,-0.6624984,2.0011954,0.91230166,-0.7025254
2.9696593284606934,-0.3322279,0.2557645,-0.31007415,1.1479722,-0.052711964,-0.7832625
2.9897525310516357,-0.2804709,0.39864966,-0.011605592,0.57514447,-0.4620748,-0.45449692
3.009799003601074,0.27418438,0.18452203,-0.56977135,1.8325862,1.1763363,-1.1353568
3.0302069187164307,0.27418438,0.18452203,-0.56977135,1.8325862,1.1763363,-1.1353568
3.0503108501434326,-0.44833472,0.3446868,-0.4656118,1.4377418,0.35888526,-1.4004083
3.070387125015259,-0.48067737,0.34140486,-0.15554616,0.6819368,0.088794306,-1.0679544
3.090466260910034,-0.23424815,0.2593911,-0.61121726,1.4591371,0.8048618,-1.4275478
3.1105458736419678,-0.4270871,0.1597403,-0.34023112,1.0222367,0.57628214,-1.4162658
3.130659580230713,-0.5367667,0.43547037,-0.078847654,0.7355593,-0.254901,-0.98894197
3.150972843170166,-0.16063833,0.35991988,-0.7207679,1.5992051,1.0561674,-1.4373437
3.1714694499969482,-0.372416,0.13581115,-0.3740302,1.2768862,0.5168655,-1.6401582
3.1915347576141357,-0.372416,0.13581115,-0.3740302,1.2768862,0.5168655,-1.6401582
3.2116217613220215,-0.34638312,0.4132459,-0.20158662,1.0790147,-0.20307735,-1.135913
3.2317004203796387,-0.06653048,0.3421574,-0.49457732,1.3215038,0.6678245,-1.2200863
3.2517855167388916,-0.4113871,0.096216574,-0.04447507,0.6746522,0.07955159,-1.1441475
3.2718653678894043,0.3399119,-0.1308395,-1.0214089,3.1871295,0.3560221,-1.3104138
3.291964292526245,-0.08261709,0.22854072,-0.48763993,1.8310794,-0.3241397,-1.3180789
3.312040090560913,0.14768471,0.12010339,-0.2765879,1.611916,-0.72340584,-0.9014747
3.3321168422698975,-0.09015591,0.1689823,0.049533688,1.2794527,-0.911178,-0.44535187
3.3528802394866943,-0.09015591,0.1689823,0.049533688,1.2794527,-0.911178,-0.44535187
3.3730077743530273,0.27070963,-0.03775823,-0.64320105,2.9566832,-0.11411117,-0.9163343
3.3934214115142822,-0.049158055,0.29060367,-0.42553905,2.2704172,-0.2870907,-1.0485467
3.4133083820343018,-0.048077907,0.067522794,-0.0815912,1.3952043,-0.5398365,-0.83599997
3.433391571044922,0.45281896,-0.08593847,-0.92373604,3.7814474,0.33303928,-1.5377768
3.453601837158203,-0.14267908,0.39356264,-0.5850093,2.3815904,-0.1837269,-1.8110307
3.4739537239074707,0.16287932,0.28974405,-0.61069787,2.2363849,0.01491262,-1.6355132
3.493741273880005,-0.16039562,0.22783303,-0.05569569,1.5416211,-0.47072658,-1.4881194
3.513927459716797,-0.16039562,0.22783303,-0.05569569,1.5416211,-0.47072658,-1.4881194
3.534066915512085,0.27975973,0.20956758,-0.8638202,3.2946253,0.9440137,-2.4507725
3.5544331073760986,0.093235716,0.33406895,-0.8163969,3.7224588,0.61733925,-2.9426541
3.574374198913574,0.10966791,0.3058109,-0.8061009,3.4289966,0.653568,-3.0093215
3.594572067260742,0.11067875,0.23191121,-0.76497036,3.3414786,0.6123475,-2.9904048
3.6146628856658936,0.025132459,0.2954722,-0.723352,3.299167,0.35116014,-2.877682
3.634803056716919,-0.031038929,0.21286932,-0.6611585,2.9114766,0.28425026,-2.7410667
3.6547672748565674,-0.21070427,0.38938972,-0.5348903,2.6809235,-0.18059814,-2.4307392
3.6751725673675537,-0.21070427,0.38938972,-0.5348903,2.6809235,-0.18059814,-2.4307392
3.6952741146087646,-0.03110664,0.42022988,-0.5860166,2.406169,0.26491234,-2.2992299
3.71549654006958,-0.2303045,0.19420385,-0.48866126,2.4070833,-0.0009317547,-2.3781762
3.7354981899261475,-0.3027961,0.4404646,-0.4461413,1.8139628,-0.23748454,-1.8164724
3.755568742752075,-0.15724304,0.4079812,-0.42549,1.3741924,0.31851503,-1.5905279
3.77565336227417,-0.28805858,-0.04818666,0.3135617,0.85032696,-0.58379865,-0.8744377
3.795734167098999,0.55369,-0.36696035,-0.80126756,2.448099,-0.02421226,-0.82496136
3.816345453262329,0.55369,-0.36696035,-0.80126756,2.448099,-0.02421226,-0.82496136
3.8364717960357666,0.31437293,-0.31805217,-0.43672177,1.7248658,-0.29996857,-0.49182013
3.8565828800201416,0.3952748,-0.6957971,0.11712942,0.09597004,-0.99611664,0.6126057
3.876659393310547,2.203894,-0.96809995,-0.38998854,-1.0517942,-0.45442128,1.4479526
3.896728754043579,0.8911604,0.34841716,-0.20455763,1.2172483,0.36785388,1.1187903
3.916825532913208,0.02921937,0.64205325,-0.7162153,2.5169005,0.9435401,0.03315229
3.936901569366455,-0.58374155,0.7083138,-1.2591382,2.6009877,1.14685,-0.98065716
3.9569804668426514,-0.5011652,0.8972317,-1.591753,2.6961226,1.0856516,-1.4398566
3.9770963191986084,-0.26183587,0.7827289,-1.6776979,2.5360322,0.9269637,-1.3912095
3.997629404067993,-0.26183587,0.7827289,-1.6776979,2.5360322,0.9269637,-1.3912095
4.017390966415405,0.01705299,0.57778156,-1.5089095,2.180163,0.7544681,-1.0969664
4.037674188613892,0.02150103,0.17016447,-1.1331851,1.5963489,0.34609243,-0.641636
4.057711362838745,0.29619753,-0.3170123,-0.62157494,1.1993991,-0.018090785,-0.061008416
4.077809810638428,0.76702267,-0.8192191,-0.06669035,0.49704784,-0.18772201,1.023791
4.097871541976929,1.3893307,-1.4860038,0.36264452,0.19878304,0.07480199,2.2207234
4.117968559265137,1.6099627,-1.8296462,0.7477898,0.17568281,0.37033513,3.2569234
4.138101100921631,2.4496355,-1.8806624,0.7158094,-0.009190805,0.7239839,3.9048114
4.158208131790161,2.4496355,-1.8806624,0.7158094,-0.009190805,0.7239839,3.9048114
4.178303003311157,1.4883256,1.3422762,-1.3137283,1.8979399,1.5006865,1.5008485
4.198455095291138,-1.9926566,2.6146638,-1.9917856,4.2841353,1.9076577,-1.0799495
4.218491554260254,-3.5443068,3.9756353,-3.926681,8.086734,2.0064468,-4.284076
4.238562345504761,-3.4747608,5.181513,-4.7994986,11.91715,2.6047583,-7.2273507
4.258711814880371,-2.687721,6.089743,-5.807827,16.690762,3.882421,-9.893301
4.278743743896484,-2.2732987,7.199288,-6.77052,21.547693,5.165474,-12.092674
4.299328804016113,-2.2732987,7.199288,-6.77052,21.547693,5.165474,-12.092674
4.319426774978638,-2.2246037,8.37972,-7.7540317,26.06876,6.388838,-14.248295
4.339516878128052,-2.1953087,9.518717,-8.617241,30.109661,7.483203,-16.15975
4.3595991134643555,-2.2400975,10.61327,-9.360654,33.813953,8.493994,-17.72359
4.379729509353638,-2.3677564,11.637073,-9.992841,37.151676,9.423721,-19.005894
4.399813175201416,-2.5118785,12.5458555,-10.52737,40.068623,10.2434845,-20.097088
4.419905662536621,-2.628696,13.332224,-10.966528,42.58956,10.960837,-21.006737
4.439991474151611,-2.713243,13.993133,-11.312742,44.71965,11.57876,-21.737476
4.460097789764404,-2.713243,13.993133,-11.312742,44.71965,11.57876,-21.737476
4.480205535888672,-2.9755788,9.895045,-6.4503145,40.95608,10.017002,-14.791934
4.500280141830444,-4.078995,6.55142,-4.670733,29.69679,8.223994,-9.917767
4.5253119468688965,-3.069199,2.4836972,-3.0733404,18.570463,5.297493,-4.935999
4.547686576843262,-1.4978749,-0.91512084,-1.8229893,8.84199,2.9983463,0.56035185
4.568093538284302,-1.4978749,-0.91512084,-1.8229893,8.84199,2.9983463,0.56035185
4.587916374206543,0.41728696,-2.4886892,-1.4159095,2.8413742,2.1291163,5.249971
4.608000040054321,0.49030045,-1.5983155,-1.8266801,3.0367384,2.5512786,6.021749
4.628070831298828,0.6969642,0.3218077,-0.89382756,2.4684577,1.2178899,2.2315862
4.648157596588135,0.3356358,0.85180473,-1.7950811,2.866661,0.38733265,-0.13200566
4.66823935508728,0.3597603,1.1828151,-2.3692725,4.004035,0.898944,-1.5716823
4.688329696655273,0.57752436,1.3738827,-2.5338469,5.038415,1.2615479,-2.2867444
4.708510160446167,0.57752436,1.3738827,-2.5338469,5.038415,1.2615479,-2.2867444
4.72857141494751,0.96277624,1.299394,-2.437792,5.711257,1.4433575,-2.6086464
4.748786211013794,1.1150689,1.0637656,-2.2278085,5.810727,1.404747,-2.6756442
4.768751382827759,1.1219159,0.7610867,-1.9334555,5.500493,1.1999441,-2.5182517
4.797246217727661,1.1219159,0.7610867,-1.9334555,5.500493,1.1999441,-2.5182517
4.81727933883667,0.87323934,0.32347548,-1.4915622,4.70019,0.7319939,-2.1064978
4.837329149246216,0.6787463,-0.113155775,-1.0590563,4.0343294,0.014047593,-1.7409431
4.857433080673218,0.9545382,-0.36973056,-0.80325204,4.4458857,-0.19225901,-1.6310102
4.8775389194488525,1.027356,-0.6897681,-0.42095038,3.5355053,-0.49630335,-0.80207205
4.897989988327026,1.027356,-0.6897681,-0.42095038,3.5355053,-0.49630335,-0.80207205
4.918078184127808,1.8607432,-1.5639869,-0.5761523,3.7120998,0.10997234,0.108357824
4.938175678253174,2.0734856,-1.3567444,-0.7227788,1.6440433,-0.021659464,1.3697398
4.9582884311676025,2.5957146,-1.25152,-0.7635982,0.5234067,-0.05890873,2.3674977
4.9783244132995605,2.816312,-1.23884,-0.79152614,0.18888834,0.11022717,3.0502114
4.9984259605407715,2.8189096,-1.2270442,-0.73324317,0.2887503,0.2701017,3.5166526
5.018542051315308,2.467357,-1.2859209,-0.6940404,0.46068555,0.34377688,3.8772829
5.038647174835205,1.9455893,-1.4442754,-0.68893266,0.71625113,0.56935334,4.175947
5.058728933334351,1.9455893,-1.4442754,-0.68893266,0.71625113,0.56935334,4.175947
5.07892632484436,1.3411008,-1.7009302,-0.7438973,0.9378819,0.8507714,4.4595895
5.098934888839722,0.763484,-1.9707104,-0.8035568,1.1465483,1.1068547,4.7280707
5.119050025939941,0.32268885,-2.0802345,-0.8883608,1.2113892,1.2515197,4.951911
5.13933801651001,-0.048297424,-2.1719275,-0.9788799,1.0447869,1.3019415,5.119912
5.159262180328369,-0.15592761,-2.1824589,-1.0507333,1.062907,1.4840664,5.333581
5.179354906082153,-0.26593837,-2.2251267,-1.0892255,1.0636882,1.6042696,5.5619397
5.199421167373657,-0.40307578,-2.2118323,-1.1312628,1.0902084,1.6609467,5.744022
5.219537973403931,-0.48565072,-2.2729077,-1.1806452,1.0603763,1.7720578,5.9479723
5.23962664604187,-0.48565072,-2.2729077,-1.1806452,1.0603763,1.7720578,5.9479723
5.25974178314209,-0.52758914,-2.3418138,-1.2437294,1.0789908,1.894779,6.1869216
5.279919862747192,-0.55072254,-2.3925517,-1.3165789,1.1439345,2.0248692,6.4335423
5.299973726272583,-0.57633454,-2.426369,-1.3864124,1.231309,2.154504,6.6686335
5.320050477981567,-0.58643585,-2.4696949,-1.4597403,1.327556,2.2775297,6.896582
5.340169906616211,-0.5893999,-2.5090873,-1.5297663,1.4348024,2.3948438,7.109919
5.360201358795166,-0.5895124,-2.5456693,-1.5980706,1.5500145,2.506101,7.306752
5.380289077758789,-0.5895124,-2.5456693,-1.5980706,1.5500145,2.506101,7.306752
5.400396108627319,-0.6058559,-2.5595858,-1.6246223,1.6169974,2.5668957,7.442385
5.420475482940674,-0.62477285,-2.5701153,-1.6458464,1.6658188,2.6034677,7.5239964
5.440673112869263,-0.6363364,-2.5801713,-1.6638677,1.7017293,2.629022,7.5774
5.461018323898315,-0.642886,-2.5888531,-1.6784749,1.7312993,2.6477377,7.615173
5.480889320373535,-0.6210046,-2.610874,-1.6788161,1.6835917,2.695629,7.6994514
5.5009801387786865,-0.58677524,-2.6230152,-1.6318688,1.5577157,2.7451098,7.807937
5.521040678024292,-0.6075542,-2.6278636,-1.6210302,1.541303,2.758732,7.856183
5.541158437728882,-0.6075542,-2.6278636,-1.6210302,1.541303,2.758732,7.856183
5.561288833618164,-0.62546426,-2.6316082,-1.6214746,1.5378383,2.7691758,7.8853984
5.58131742477417,-0.64156634,-2.6352088,-1.6211255,1.5349461,2.7759058,7.9073544
5.601372241973877,-0.6685982,-2.6543171,-1.6580951,1.6291193,2.7540872,7.8938627
5.621485710144043,-0.65824854,-2.6638937,-1.6585464,1.6217375,2.765595,7.919634
5.641665935516357,-0.665734,-2.6672976,-1.6526122,1.6151003,2.7677295,7.937986
5.661662817001343,-0.67764944,-2.669636,-1.6470373,1.60455,2.7663035,7.948802
5.681950092315674,-0.68322426,-2.6765993,-1.6423771,1.5916058,2.7648346,7.961658
5.702046632766724,-0.68322426,-2.6765993,-1.6423771,1.5916058,2.7648346,7.961658
5.7221150398254395,-0.69478315,-2.6779423,-1.6317455,1.5717012,2.75982,7.9688115
5.742220640182495,-0.71456224,-2.676604,-1.621942,1.5565034,2.746587,7.9622126
5.762343645095825,-0.7296756,-2.6772156,-1.6120181,1.5381762,2.7325313,7.952421
5.78252387046814,-0.7267582,-2.6820912,-1.5958967,1.5120342,2.7222435,7.9515195
5.8025805950164795,-0.72470605,-2.6854947,-1.5768404,1.4883105,2.709526,7.9486256
5.822748184204102,-0.73344874,-2.6828976,-1.5582068,1.4719757,2.6900942,7.932637
5.842964172363281,-0.73344874,-2.6828976,-1.5582068,1.4719757,2.6900942,7.932637
5.862907886505127,-0.6785137,-2.6740339,-1.520338,1.4936123,2.6743786,7.9253683
5.883042573928833,-0.63469833,-2.6526349,-1.4824992,1.529612,2.6625402,7.900626
5.903094291687012,-0.5988009,-2.633338,-1.4651401,1.563294,2.6694028,7.881768
5.9232001304626465,-0.5988521,-2.6223006,-1.4597106,1.5667024,2.674984,7.8661385
5.943293571472168,-0.6009951,-2.6149733,-1.4654249,1.5936425,2.6721258,7.8492146
5.963456153869629,-0.60952455,-2.63121,-1.4666431,1.5228189,2.689324,7.8616977
5.983723163604736,-0.60952455,-2.63121,-1.4666431,1.5228189,2.689324,7.8616977
6.0036091804504395,-0.5616884,-2.6217027,-1.4512255,1.5556798,2.6884274,7.869832
6.0236945152282715,-0.55908245,-2.6134293,-1.451722,1.585646,2.6969752,7.8708425
6.043950796127319,-0.54646605,-2.6207926,-1.4391558,1.5083873,2.727869,7.910085
6.063964128494263,-0.5567387,-2.6064107,-1.4446656,1.5649221,2.7138226,7.8903403
6.084035158157349,-0.60603577,-2.5905712,-1.4582005,1.5794791,2.707269,7.855794
6.104416608810425,-0.6622197,-2.6022944,-1.4779166,1.5211712,2.703822,7.8325405
6.124333143234253,-0.6327242,-2.5995924,-1.4685118,1.5221988,2.6957164,7.825344
6.144484996795654,-0.6327242,-2.5995924,-1.4685118,1.5221988,2.6957164,7.825344
6.164621829986572,-0.64741224,-2.5944633,-1.4712112,1.5247921,2.6966736,7.8152285
6.184900283813477,-0.5980069,-2.6063073,-1.4406106,1.4135662,2.73389,7.877505
6.20482063293457,-0.40250048,-2.5551858,-1.3831835,1.5997568,2.716244,7.8458176
6.2249369621276855,-0.531112,-2.527446,-1.4354599,1.633854,2.7113204,7.773186
6.245008230209351,-0.7172316,-2.5597394,-1.4988124,1.5341235,2.6990736,7.743492
6.265092134475708,-0.6969391,-2.5765955,-1.4783614,1.4736594,2.6829102,7.74466
6.285221338272095,-0.62553006,-2.5707633,-1.4693859,1.561674,2.6738162,7.758747
6.305317640304565,-0.62553006,-2.5707633,-1.4693859,1.561674,2.6738162,7.758747
6.325403690338135,-0.43798476,-2.5035594,-1.3950076,1.644533,2.6906574,7.725257
6.345476150512695,-0.74850553,-2.5215762,-1.4960093,1.5645047,2.7030022,7.691819
6.365557909011841,-0.77191645,-2.555106,-1.4954426,1.4552999,2.6760929,7.6820593
6.38569188117981,-0.6130224,-2.565685,-1.4460406,1.4699651,2.6961815,7.7528296
6.405884265899658,-0.32937053,-2.477722,-1.3332164,1.6553439,2.7108867,7.736415
6.4263505935668945,-0.46276388,-2.4935918,-1.4094844,1.6038184,2.6448681,7.6260414
6.446452617645264,-0.46276388,-2.4935918,-1.4094844,1.6038184,2.6448681,7.6260414
6.466589689254761,-0.70018893,-2.4981174,-1.480673,1.5257307,2.685047,7.619032
6.486658811569214,-0.5356112,-2.506211,-1.4046382,1.5245863,2.6685045,7.6233206
6.506748914718628,-0.33258227,-2.4683836,-1.3314795,1.5329884,2.7301538,7.660867
6.526870250701904,-0.4557636,-2.4932463,-1.3858399,1.5389619,2.6113489,7.5337424
6.546948194503784,-0.7121677,-2.4745295,-1.461247,1.4682693,2.6606638,7.5221143
6.566996097564697,-0.5506721,-2.4808905,-1.3944833,1.4920431,2.6475203,7.5403786
6.587136745452881,-0.5506721,-2.4808905,-1.3944833,1.4920431,2.6475203,7.5403786
6.607219934463501,-0.3444028,-2.4246624,-1.3260481,1.6153439,2.673414,7.5360336
6.627347469329834,-0.48102543,-2.489659,-1.4063399,1.529752,2.6120992,7.447946
6.647358417510986,-0.6948637,-2.4545777,-1.4654648,1.502138,2.6296203,7.4490643
6.667804718017578,-0.3603532,-2.41315,-1.3138216,1.5678498,2.6259286,7.4446106
6.6876420974731445,-0.41842553,-2.4503963,-1.3750496,1.5258565,2.5931242,7.3647275
6.707708358764648,-0.6389303,-2.4681938,-1.4182591,1.4306694,2.5412495,7.3105607
6.728869199752808,-0.6389303,-2.4681938,-1.4182591,1.4306694,2.5412495,7.3105607
6.748983383178711,-0.64736956,-2.4396908,-1.4073508,1.4088029,2.5923998,7.3568726
6.76903510093689,-0.33169326,-2.3935235,-1.2953564,1.560053,2.6111872,7.367246
6.789123296737671,-0.3776561,-2.454287,-1.3717881,1.5494374,2.5410206,7.258343
6.810384035110474,-0.6531174,-2.4855878,-1.4243543,1.4016391,2.450612,7.16174
6.830456495285034,-0.7896562,-2.4314704,-1.4427595,1.2929653,2.5330138,7.178108
6.850537061691284,-0.5606143,-2.4174855,-1.3579991,1.3869096,2.5498278,7.2333994
6.8706042766571045,-0.3403345,-2.35547,-1.2847555,1.5407988,2.5926812,7.258039
6.890726804733276,-0.3403345,-2.35547,-1.2847555,1.5407988,2.5926812,7.258039
6.910788536071777,-0.3720507,-2.4203634,-1.3292825,1.50078,2.4773648,7.133053
6.930886745452881,-0.63171,-2.4677546,-1.4167862,1.3795947,2.417835,7.0669727
6.950962543487549,-0.72618204,-2.4103525,-1.4030137,1.3184963,2.4742048,7.0804424
6.9710533618927,-0.38685122,-2.3564923,-1.2817588,1.4369377,2.533912,7.1332994
6.991132497787476,-0.42211285,-2.4064476,-1.3372222,1.4491966,2.4450524,7.018551
7.011226654052734,-0.6976086,-2.4246721,-1.4011576,1.3312658,2.4155347,6.964142
7.031515836715698,-0.6976086,-2.4246721,-1.4011576,1.3312658,2.4155347,6.964142
7.051943302154541,-0.68800443,-2.3900263,-1.3774889,1.3177615,2.4650505,7.0271897
7.071810245513916,-0.40420124,-2.3382764,-1.2780156,1.4523021,2.5105736,7.0601435
7.091865301132202,-0.39321172,-2.4153476,-1.337136,1.4661294,2.4057868,6.940474
7.112352609634399,-0.7268692,-2.4408605,-1.4147879,1.307067,2.3561795,6.8501654
7.132449626922607,-0.73903996,-2.3885791,-1.3810599,1.2663971,2.3919065,6.874107
7.1529762744903564,-0.42979833,-2.329942,-1.277841,1.39658,2.4649122,6.9349585
7.172781705856323,-0.43952844,-2.3639815,-1.3156583,1.4397645,2.3969147,6.838217
7.193750858306885,-0.7237619,-2.3976858,-1.4039459,1.3470663,2.361439,6.8090625
7.213627338409424,-0.7237619,-2.3976858,-1.4039459,1.3470663,2.361439,6.8090625
7.233967542648315,-0.6652366,-2.3651545,-1.3497587,1.3116382,2.4008436,6.844467
7.254009246826172,-0.4274422,-2.3043587,-1.2675846,1.4181246,2.4644654,6.8900394
7.274671792984009,-0.4702979,-2.357752,-1.3217707,1.415213,2.3706105,6.7599406
7.294756889343262,-0.78980184,-2.361066,-1.3933917,1.2988805,2.3519883,6.7053785
7.314845323562622,-0.7840812,-2.3568234,-1.3758748,1.2540447,2.3779218,6.758539
7.3349409103393555,-0.48238727,-2.3035507,-1.2758993,1.3644025,2.4326563,6.801735
7.355177879333496,-0.48238727,-2.3035507,-1.2758993,1.3644025,2.4326563,6.801735
7.375295639038086,-0.48472664,-2.313216,-1.3048749,1.4225551,2.3926604,6.7144594
7.395408391952515,-0.82682776,-2.3536332,-1.3962466,1.284203,2.3388832,6.6447067
7.4154746532440186,-0.81366175,-2.3446796,-1.3787932,1.2330554,2.3632755,6.694728
7.435558319091797,-0.50507826,-2.2927587,-1.2768695,1.3477548,2.413617,6.733454
7.455641508102417,-0.5055217,-2.2994149,-1.3046037,1.4098066,2.3758574,6.641331
7.4756999015808105,-0.5055217,-2.2994149,-1.3046037,1.4098066,2.3758574,6.641331
7.4958176612854,-0.85378903,-2.340316,-1.3972584,1.267944,2.3186042,6.5673146
7.5159173011779785,-0.83097184,-2.333667,-1.3731905,1.2054001,2.3381736,6.6153526
7.5360119342803955,-0.5245585,-2.2794003,-1.2746494,1.3280443,2.3887165,6.652887
7.5560925006866455,-0.52582866,-2.2878618,-1.30279,1.3897749,2.3467126,6.5517735
7.5762245655059814,-0.8799066,-2.325596,-1.3977516,1.2452796,2.2939336,6.4772935
7.601365089416504,-0.8799066,-2.325596,-1.3977516,1.2452796,2.2939336,6.4772935
7.625771522521973,-0.81999135,-2.321103,-1.3625377,1.206504,2.3000047,6.520339
7.645980358123779,-0.53416353,-2.261613,-1.2705703,1.315833,2.3682997,6.568065
7.6660284996032715,-0.5583877,-2.2820961,-1.3087343,1.3616213,2.3118026,6.451137
7.686326026916504,-0.9093887,-2.3004348,-1.393944,1.2296711,2.2697105,6.385278
7.706626653671265,-0.6806575,-2.2897296,-1.308979,1.2416877,2.2695036,6.4114685
7.726451396942139,-0.44879165,-2.2294219,-1.2292976,1.3557198,2.31357,6.453732
7.747042417526245,-0.44879165,-2.2294219,-1.2292976,1.3557198,2.31357,6.453732
7.767175674438477,-0.5863908,-2.2935789,-1.3215842,1.2908908,2.2282069,6.284314
7.787236213684082,-0.93471473,-2.2813044,-1.3948759,1.1857389,2.2084403,6.217318
7.80731463432312,-0.6276832,-2.2738519,-1.277286,1.2421945,2.1835544,6.23447
7.827406167984009,-0.47920895,-2.2232134,-1.2351599,1.3447462,2.222871,6.2358303
7.847476959228516,-0.78462654,-2.3079813,-1.3631246,1.190262,2.1443644,6.0604687
7.86759090423584,-0.94736457,-2.2753046,-1.3817031,1.1322185,2.1241074,6.0465474
7.887630939483643,-0.5742591,-2.2321484,-1.2501917,1.2472904,2.1606362,6.1021476
7.908216714859009,-0.5742591,-2.2321484,-1.2501917,1.2472904,2.1606362,6.1021476
7.9283363819122314,-0.6620817,-2.2448575,-1.3017123,1.2364048,2.1483538,6.0016937
7.948467493057251,-1.0444801,-2.2607954,-1.3926213,1.0906883,2.1074479,5.9267697
7.9685728549957275,-0.88017327,-2.2729871,-1.3264213,1.0893966,2.0698028,5.9617996
7.988642454147339,-0.6242091,-2.1948056,-1.2478621,1.2030797,2.1755712,6.0330706
8.008710622787476,-0.6241082,-2.1835675,-1.2463722,1.245113,2.1555016,5.977374
8.028784990310669,-1.0280998,-2.2309945,-1.3586458,1.065478,2.0971107,5.8917475
8.048859119415283,-1.0280998,-2.2309945,-1.3586458,1.065478,2.0971107,5.8917475
8.068956136703491,-0.8410633,-2.230293,-1.296565,1.0694842,2.0779002,5.895762
8.089050531387329,-0.60404396,-2.1623487,-1.2146857,1.1810262,2.1297505,5.928818
8.109145641326904,-0.69130987,-2.1902237,-1.2528934,1.1195322,2.0676534,5.7911224
8.12921953201294,-1.0772097,-2.2069151,-1.3484528,0.9613188,2.033023,5.692501
8.14952564239502,-0.8781379,-2.2134755,-1.2820696,0.9949587,1.9925413,5.6862383
8.169413805007935,-0.6665099,-2.1539326,-1.2082115,1.106423,2.0243504,5.7019377
8.190102100372314,-0.6665099,-2.1539326,-1.2082115,1.106423,2.0243504,5.7019377
8.210174560546875,-0.659625,-2.1267667,-1.199669,1.122629,2.0409734,5.6718073
8.230228662490845,-0.87372327,-2.1656044,-1.2659159,1.0140952,2.0026584,5.5840025
8.251317739486694,-0.93371254,-2.1732166,-1.2736671,0.9606443,1.9672827,5.5877934
8.271393537521362,-0.70614415,-2.1124315,-1.1973528,1.0319554,2.016091,5.6046863
8.291471481323242,-0.74620134,-2.1024945,-1.1987121,1.0265009,1.9958818,5.517886
8.31155014038086,-1.0662118,-2.14877,-1.2933526,0.8779318,1.947148,5.4528737
8.332150936126709,-1.0662118,-2.14877,-1.2933526,0.8779318,1.947148,5.4528737
8.35226845741272,-0.79654205,-2.1167307,-1.2079456,0.94493586,1.930265,5.43213
8.372458457946777,-0.84075975,-2.1105728,-1.2167106,0.9520901,1.9252383,5.374518
8.392438173294067,-0.8337977,-2.106251,-1.2093692,0.9470108,1.9036589,5.3504086
8.41256594657898,-0.660349,-2.0529752,-1.1377202,0.9965103,1.902663,5.3460407
8.432637691497803,-1.0684812,-2.136331,-1.2398543,0.6661845,1.8104908,5.069129
8.452726125717163,-1.1055713,-2.1267521,-1.2808604,0.7045299,1.7736934,5.0502925
8.472968101501465,-0.8045009,-2.0632756,-1.1610634,0.849466,1.7650272,5.061226
8.492968559265137,-0.8045009,-2.0632756,-1.1610634,0.849466,1.7650272,5.061226
8.513067722320557,-1.1793166,-2.1060643,-1.2565904,0.679313,1.7873995,4.93134
8.533215761184692,-1.182568,-2.1259985,-1.272515,0.65922207,1.7242699,4.9347777
8.55324387550354,-0.9512839,-2.065955,-1.194747,0.7612242,1.7280362,4.92907
8.573631525039673,-0.99805814,-2.0664558,-1.2020861,0.760073,1.7294455,4.893484
8.593627691268921,-0.94786507,-2.047858,-1.1788661,0.77249855,1.7083476,4.865707
8.61376428604126,-0.93703324,-2.0282962,-1.1618245,0.7593917,1.6986048,4.818142
8.633753299713135,-1.0914835,-2.0464435,-1.1958764,0.65891534,1.6874795,4.7220874
8.653940677642822,-1.0914835,-2.0464435,-1.1958764,0.65891534,1.6874795,4.7220874
8.674371242523193,-1.1949171,-2.0710382,-1.2358364,0.60388535,1.6463484,4.7098355
8.694419860839844,-0.92433125,-1.9855527,-1.1266624,0.7027193,1.5945371,4.6907816
8.714350938796997,-1.2768074,-2.0394437,-1.2109609,0.48972493,1.6346371,4.5126376
8.734640836715698,-1.2912,-2.0629706,-1.242053,0.48316205,1.5601604,4.49562
8.754598379135132,-1.0650129,-2.0040479,-1.1564542,0.5651605,1.5569768,4.487946
8.77469515800476,-0.97813606,-1.9672192,-1.1194036,0.6097973,1.5803277,4.4896255
8.794761419296265,-0.9228018,-1.9141647,-1.0683224,0.62736005,1.5460293,4.4675198
8.815016984939575,-0.9228018,-1.9141647,-1.0683224,0.62736005,1.5460293,4.4675198
8.835135221481323,-1.2190107,-2.026,-1.1641216,0.3598681,1.6046356,4.333833
8.855200290679932,-1.2915565,-2.0136561,-1.1962589,0.41319135,1.4894981,4.293055
8.875518321990967,-1.1258353,-1.9781818,-1.1339688,0.44388348,1.516165,4.284374
8.895494222640991,-0.9735596,-1.9134195,-1.0606191,0.51062715,1.5311356,4.306684
8.915579795837402,-0.7812663,-1.9878281,-1.0520444,0.5305748,1.5391579,4.3752017
8.935693740844727,-0.82478744,-2.0448892,-1.0622239,0.43384504,1.4686333,4.2864075
8.956058025360107,-0.8834196,-2.0016034,-1.0489491,0.36808226,1.4984802,4.187523
8.975897073745728,-0.73410594,-1.9876326,-1.0196922,0.4597,1.5218459,4.243426
8.996247053146362,-0.73410594,-1.9876326,-1.0196922,0.4597,1.5218459,4.243426
9.016358613967896,-0.76168543,-2.0611665,-1.0412071,0.4078087,1.4365513,4.1700835
9.036747932434082,-0.9554328,-2.035613,-1.0486885,0.22307107,1.4074112,3.9843678
9.056640386581421,-1.1143004,-2.0491571,-1.118165,0.23491424,1.4037746,4.005446
9.076714277267456,-1.0164806,-1.8759907,-1.0004501,0.36616287,1.3913553,3.9585686
9.09680724143982,-0.76249105,-1.99939,-1.0164913,0.39613008,1.4075468,4.015482
9.116928339004517,-0.8356878,-2.056804,-1.0263499,0.28838077,1.3785596,3.9219341
9.136991739273071,-0.8716909,-1.9941727,-1.0086327,0.27045935,1.3734543,3.8306067
9.157378435134888,-0.7521362,-1.9982405,-0.9894057,0.33869955,1.39537,3.8614585
9.177435636520386,-0.7521362,-1.9982405,-0.9894057,0.33869955,1.39537,3.8614585
9.19761037826538,-0.8636728,-2.0541682,-1.0116583,0.22032082,1.3362489,3.7467563
9.217663764953613,-0.9355939,-1.9870639,-1.0045732,0.20571119,1.3497992,3.662668
9.237782001495361,-0.7663603,-1.9683878,-0.9689061,0.32391632,1.3312469,3.7033918
9.258198738098145,-0.9243166,-2.0515425,-1.0039506,0.14288336,1.2843422,3.573074
9.278356075286865,-1.1926179,-2.0360808,-1.0708256,0.051810034,1.2828339,3.4611368
9.298391819000244,-1.0437756,-1.8402807,-0.936963,0.20608637,1.2077818,3.451544
9.318552494049072,-0.89986837,-2.025912,-1.0162637,0.22229978,1.2177501,3.4906092
9.338908195495605,-0.89986837,-2.025912,-1.0162637,0.22229978,1.2177501,3.4906092
9.359018087387085,-0.8188247,-1.8984051,-0.9190691,0.30622122,1.2405796,3.505392
9.379111766815186,-0.9539669,-2.0307631,-0.9775856,0.079874255,1.1950294,3.3692772
9.39919638633728,-1.2443706,-2.0844333,-1.0829346,-0.049036257,1.2245433,3.3120265
9.419651508331299,-1.0734681,-1.8314723,-0.91065145,0.12250278,1.1377194,3.3044224
9.439497709274292,-0.8866344,-2.0225785,-0.99395865,0.18110633,1.1477956,3.3569696
9.45954418182373,-0.83058834,-1.9238403,-0.904731,0.22515234,1.1456832,3.3338
9.483438491821289,-0.83058834,-1.9238403,-0.904731,0.22515234,1.1456832,3.3338
9.503563404083252,-0.9856149,-2.0201743,-0.9526299,-0.005988531,1.1108148,3.189325
9.523630380630493,-1.2915998,-2.1125066,-1.0883977,-0.12777516,1.1711998,3.1681697
9.543828010559082,-1.103184,-1.8204699,-0.88160133,0.04391072,1.0612932,3.1661983
9.563891172409058,-0.902741,-2.0218587,-0.9762601,0.12141717,1.0828061,3.2111917
9.584292650222778,-0.902741,-2.0218587,-0.9762601,0.12141717,1.0828061,3.2111917
9.604407787322998,-0.82682025,-1.9184719,-0.8766963,0.17253375,1.0784564,3.2017696
9.624557256698608,-0.9965823,-2.0119772,-0.9213606,-0.06695508,1.0470219,3.056692
9.644632577896118,-1.3288659,-2.1148436,-1.0746922,-0.20191753,1.12382,3.0156798
9.664702653884888,-1.1180614,-1.80468,-0.8460447,-0.031692825,0.98182094,3.0355039
9.68481183052063,-0.90856093,-2.0253456,-0.95646954,0.06721199,1.0245935,3.0754244
9.704890251159668,-0.83214617,-1.9273702,-0.8536181,0.109557845,1.0063173,3.065036
9.724981546401978,-1.0031713,-2.0093732,-0.889439,-0.12831679,0.9791701,2.9276748
9.745285034179688,-1.3538951,-2.121596,-1.0596309,-0.26400787,1.0753032,2.8758605
9.765303134918213,-1.3538951,-2.121596,-1.0596309,-0.26400787,1.0753032,2.8758605
9.785382270812988,-1.1273018,-1.7902573,-0.80681396,-0.10139512,0.90169275,2.9206758
9.805697202682495,-0.9057384,-2.0307755,-0.9327776,0.018120177,0.9699886,2.95178
9.825596570968628,-0.8322517,-1.9568962,-0.8361874,0.047948368,0.9378519,2.9313428
9.845696449279785,-1.0119382,-2.0147192,-0.8577542,-0.18914118,0.9147384,2.805546
9.86582326889038,-1.3682274,-2.1315212,-1.043385,-0.3121099,1.0241125,2.7526548
9.885889291763306,-1.1346625,-1.7766489,-0.76403373,-0.16572297,0.8206718,2.8219063
9.906238794326782,-1.1346625,-1.7766489,-0.76403373,-0.16572297,0.8206718,2.8219063
9.926376104354858,-0.90677184,-2.0354252,-0.90786535,-0.031402938,0.9137579,2.8398378
9.946435928344727,-0.80818826,-1.9964404,-0.81761056,0.014026351,0.89160895,2.8204596
9.966774225234985,-1.0105892,-2.023613,-0.8230325,-0.23212767,0.8664546,2.708947
9.986701488494873,-1.346082,-2.1074438,-1.0069113,-0.32107735,0.9611647,2.7094557
10.006826400756836,-1.1418104,-1.7524093,-0.7101969,-0.22188514,0.7441113,2.7752767
10.027837991714478,-1.1418104,-1.7524093,-0.7101969,-0.22188514,0.7441113,2.7752767
10.047980546951294,-0.92927486,-2.0233731,-0.8838397,-0.08039611,0.84947157,2.780862
10.068025588989258,-0.75499195,-2.015669,-0.7866137,0.0058389083,0.88286626,2.784779
10.088136196136475,-0.94479483,-2.028017,-0.7765398,-0.21108708,0.84546936,2.687809
10.108257293701172,-1.3123657,-2.070156,-0.95420885,-0.3482322,0.8889631,2.663817
10.128325462341309,-1.1164621,-1.6942028,-0.6409475,-0.25305218,0.64064205,2.7596939
10.148400783538818,-0.884108,-1.9399239,-0.8172491,-0.080975525,0.7392186,2.8095767
10.169132709503174,-0.884108,-1.9399239,-0.8172491,-0.080975525,0.7392186,2.8095767
10.189267873764038,-0.8127824,-1.9966215,-0.73253316,-0.093540065,0.75472903,2.739864
10.209344148635864,-0.80362093,-1.9328792,-0.6863628,-0.12907821,0.6864424,2.7499928
10.229408264160156,-0.7264395,-1.9288036,-0.6837619,-0.076115124,0.62864244,2.742431
10.249584674835205,-0.646838,-1.8968579,-0.6296529,-0.031113379,0.59640896,2.764707
10.269636869430542,-0.6914051,-1.875635,-0.59838516,-0.10205942,0.5660207,2.755203
10.289686679840088,-0.90038365,-1.9076103,-0.6757098,-0.2490673,0.5522443,2.6598644
10.30975866317749,-0.888744,-1.9720361,-0.7773109,-0.14005631,0.5728096,2.6316993
10.330085039138794,-0.888744,-1.9720361,-0.7773109,-0.14005631,0.5728096,2.6316993
10.350509643554688,-0.6717268,-1.891939,-0.60997087,-0.053991966,0.5349928,2.7184892
10.370393514633179,-0.6179825,-1.8599281,-0.5512038,-0.071952276,0.47265056,2.7459629
10.390472650527954,-0.80603737,-1.8191377,-0.52075607,-0.31447762,0.41996634,2.7163465
10.410819292068481,-1.4965075,-2.0420802,-0.89024013,-0.6480078,0.6157577,2.4697804
10.430983304977417,-1.7180243,-1.6877491,-0.80921966,-0.74370044,0.39548674,2.4056785
10.451067924499512,-1.188926,-1.880817,-0.7166069,-0.6255344,0.37824222,2.477025
10.47120714187622,-0.9828417,-1.9682192,-0.77829385,-0.38893148,0.5637586,2.5657265
10.49135947227478,-0.6101399,-1.9014488,-0.60667413,-0.1622616,0.6387521,2.7739031
10.511499404907227,-0.6101399,-1.9014488,-0.60667413,-0.1622616,0.6387521,2.7739031
10.531752824783325,-0.6695089,-1.8174921,-0.5253644,-0.19621378,0.50408745,2.859303
10.551724195480347,-0.93081784,-1.7868804,-0.5507522,-0.44887894,0.41482988,2.829438
10.571834802627563,-1.1969808,-2.0058153,-0.8683041,-0.43744665,0.6839782,2.7848828
10.59191107749939,-1.081998,-1.5867687,-0.49177203,-0.57927287,0.39534226,2.8960335
10.61226749420166,-1.031582,-1.785358,-0.72256726,-0.3672339,0.49739838,2.9548924
10.632174015045166,-0.68101746,-1.9046241,-0.6137032,-0.2957353,0.78077507,2.9907832
10.652228832244873,-0.62972414,-1.794043,-0.4811329,-0.27233064,0.5311713,3.0490322
10.672332286834717,-0.62972414,-1.794043,-0.4811329,-0.27233064,0.5311713,3.0490322
10.692748546600342,-0.756698,-1.7065489,-0.4285277,-0.48351085,0.36156386,3.0493338
10.712584018707275,-1.4768603,-1.877956,-0.79977566,-0.7642496,0.5465646,2.8186882
10.732695579528809,-1.4751407,-1.4736884,-0.5342029,-0.9095405,0.24147671,2.7951312
10.752789974212646,-1.4751147,-1.8671125,-0.84798735,-0.7554107,0.46788204,2.8402183
10.772858619689941,-1.1764352,-1.5040416,-0.49300858,-0.84951705,0.2759584,2.992464
10.792949438095093,-1.0935687,-1.6448488,-0.631036,-0.6083878,0.38133097,3.113601
10.813010454177856,-0.7277176,-1.7864405,-0.5417241,-0.46938545,0.643286,3.1203928
10.833137273788452,-0.7277176,-1.7864405,-0.5417241,-0.46938545,0.643286,3.1203928
10.853274583816528,-0.6752774,-1.6752743,-0.41035128,-0.45848143,0.39419672,3.1690784
10.873364210128784,-0.76468587,-1.6081232,-0.41633025,-0.53689456,0.27590653,3.176365
10.893431186676025,-1.0859079,-1.5093914,-0.51408964,-0.58965665,0.19121122,3.1317885
10.913479566574097,-0.9738359,-1.6914746,-0.63109046,-0.4515748,0.55860305,3.0611765
10.933622360229492,-0.593116,-1.66211,-0.4430047,-0.3354401,0.58060956,3.105873
10.953656673431396,-0.61102384,-1.5836257,-0.32367077,-0.4377963,0.35176104,3.069169
10.973937273025513,-0.7840583,-1.5719261,-0.33238178,-0.63147366,0.2806699,2.9788597
10.994061708450317,-0.7840583,-1.5719261,-0.33238178,-0.63147366,0.2806699,2.9788597
11.01415228843689,-1.1775135,-1.5974358,-0.4711981,-0.84588647,0.2662189,2.87111
11.034223318099976,-0.9603,-1.60808,-0.41982207,-0.88159996,0.25162634,2.9053733
11.054622650146484,-0.8128497,-1.5873184,-0.36082503,-0.8431187,0.31783864,2.8996677
11.07485842704773,-0.96744144,-1.4980278,-0.26021692,-1.0689049,0.09596732,2.8607264
11.09486722946167,-1.3145075,-1.5054525,-0.6288477,-0.7194603,0.37573063,2.8449788
11.114935159683228,-1.0310973,-1.5941464,-0.4231834,-0.8780092,0.30239043,2.8527744
11.135318994522095,-0.81702626,-1.5821372,-0.38506004,-0.7917782,0.358415,2.8298671
11.15543246269226,-0.81702626,-1.5821372,-0.38506004,-0.7917782,0.358415,2.8298671
11.175536632537842,-0.9621068,-1.4707373,-0.26471528,-1.0255307,0.12739402,2.809204
11.195684909820557,-1.1089857,-1.9160573,-0.71419704,-0.8892574,0.624109,2.7710357
11.21569275856018,-1.1048254,-1.2719756,-0.2921126,-1.1672838,0.22478381,2.7754276
11.23577880859375,-1.4301018,-2.025255,-0.80901265,-1.312681,0.8062972,2.7953598
11.255865573883057,-1.2808368,-1.3364335,-0.3793477,-1.3293997,0.2961907,2.766701
11.275949954986572,-1.5383923,-1.9961709,-0.8194851,-1.3519205,0.80999124,2.7821872
11.296345233917236,-1.4098741,-1.3382441,-0.41081437,-1.3973038,0.32488522,2.711133
11.316440343856812,-1.4098741,-1.3382441,-0.41081437,-1.3973038,0.32488522,2.711133
11.336578607559204,-1.6465853,-1.9663607,-0.8071081,-1.4213272,0.8918836,2.6542118
11.356614589691162,-1.6359335,-1.0977948,-0.37938324,-1.4767293,0.27010235,2.5840015
11.376757860183716,-1.7602284,-1.9056059,-0.7743861,-1.5429443,0.9099263,2.433771
11.396905660629272,-1.968431,-1.020913,-0.46668258,-1.5705367,0.34229332,2.3548806
11.416937112808228,-1.2963505,-1.8983146,-0.6772911,-1.3791951,0.84538424,2.3467672
11.43714427947998,-1.1535956,-1.1129161,-0.17522065,-1.4500843,0.49568108,2.2825437
11.457221984863281,-1.1535956,-1.1129161,-0.17522065,-1.4500843,0.49568108,2.2825437
11.47730565071106,-1.4983537,-1.8255507,-0.64592916,-1.4178869,1.2032598,2.1188002
11.497382164001465,-1.2269557,-1.3283845,-0.3093063,-1.3671623,0.6871346,2.1357636
11.517499685287476,-1.4767495,-1.8947045,-0.6904997,-1.3217738,1.2947681,2.0506897
11.537616729736328,-1.285124,-1.0302159,-0.15587701,-1.5124576,0.51782954,2.067541
11.55767273902893,-1.4968352,-1.8232211,-0.6767599,-1.3827438,1.2347834,1.9705092
11.578342914581299,-1.2841182,-1.0301193,-0.15298335,-1.5313977,0.50677204,2.001978
11.598340511322021,-1.2841182,-1.0301193,-0.15298335,-1.5313977,0.50677204,2.001978
11.618375778198242,-1.4900129,-1.8154855,-0.67966044,-1.3587197,1.2686368,1.9014426
11.638477325439453,-1.286168,-0.997635,-0.13797995,-1.5295966,0.53115475,1.9362767
11.658543348312378,-1.483784,-1.7950952,-0.67973197,-1.3205172,1.3207583,1.8268548
11.67870283126831,-1.28804,-0.98545,-0.13616955,-1.5028377,0.5880072,1.8632157
11.6987624168396,-1.4774501,-1.7748623,-0.6830409,-1.2610679,1.3964746,1.7382728
11.719025611877441,-1.2941738,-0.96869564,-0.13430108,-1.4607872,0.66319525,1.7717544
11.738956451416016,-1.4719893,-1.7469181,-0.69230705,-1.1792251,1.4890991,1.6205219
11.759045600891113,-1.4719893,-1.7469181,-0.69230705,-1.1792251,1.4890991,1.6205219
11.77948784828186,-1.3062315,-0.94746816,-0.13460661,-1.3974837,0.7570276,1.6475198
