liuyurong129/humanoid-gym/humanoid/data/robot2_action_20250621-222252.csv
timestamp,joint_1,joint_2,joint_3,joint_4,joint_5,joint_6
0.00014472007751464844,0.0,0.0,0.0,0.0,0.0,0.0
0.020258426666259766,0.0,0.0,0.0,0.0,0.0,0.0
0.040311574935913086,0.0,0.0,0.0,0.0,0.0,0.0
0.06044173240661621,0.0,0.0,0.0,0.0,0.0,0.0
0.08051490783691406,0.0,0.0,0.0,0.0,0.0,0.0
0.1006019115447998,-0.86791956,-1.066974,-1.4166197,1.955852,-0.82337785,-0.17524162
0.12069487571716309,-0.86791956,-1.066974,-1.4166197,1.955852,-0.82337785,-0.17524162
0.14087939262390137,-1.4313016,-1.4865816,-1.4805282,4.02502,-1.9100841,-1.166423
0.16089582443237305,-2.1247022,-1.9100807,-1.2828386,4.0120635,-2.4120486,-1.9475086
0.1810622215270996,-2.2576241,-2.0983326,-1.2569442,3.9837267,-2.7751625,-2.1510968
0.2012336254119873,-2.2302134,-2.087087,-1.2545985,4.0016017,-2.855975,-2.1497831
0.22133135795593262,-2.17633,-2.0438592,-1.2344666,4.0311375,-2.8052764,-2.1412728
0.24138092994689941,-2.1132553,-2.0251071,-1.1693417,4.057876,-2.65609,-2.1758335
0.2614471912384033,-2.1132553,-2.0251071,-1.1693417,4.057876,-2.65609,-2.1758335
0.2815406322479248,-2.0393765,-2.0411184,-1.0704951,4.0979095,-2.4229193,-2.2712939
0.30161333084106445,-1.963177,-2.0890272,-0.9434487,4.141813,-2.1305254,-2.4227176
0.3217189311981201,-1.8933485,-2.180474,-0.77992535,4.1847253,-1.7897878,-2.6547887
0.341810941696167,-1.8238277,-2.2720108,-0.6031572,4.2237105,-1.3823135,-2.9569244
0.36193180084228516,-1.7627914,-2.2982109,-0.33587137,4.289351,-0.8717322,-3.276283
0.382082462310791,-1.684838,-2.2792068,0.048831116,4.3337693,-0.051519696,-3.632908
0.4024946689605713,-1.518253,-2.3049712,0.37673786,4.271525,0.94369406,-4.0992327
0.42258524894714355,-1.518253,-2.3049712,0.37673786,4.271525,0.94369406,-4.0992327
0.4427022933959961,-1.364002,-2.070682,0.62818736,4.0483108,1.590924,-4.162791
0.4627707004547119,-1.3236576,-1.8933513,0.7927354,3.994179,2.1131396,-4.2223682
0.48290014266967773,-1.3511587,-1.7708308,0.9026697,3.9404309,2.275961,-4.177884
0.5032272338867188,-1.3687692,-1.7342069,0.9125897,3.9012702,2.3046317,-4.106115
0.5231380462646484,-1.3501214,-1.706056,0.87538415,3.7412918,2.1970105,-3.866833
0.5432605743408203,-1.3991416,-1.871524,0.76565003,3.5572517,1.9910812,-3.6998088
0.5634279251098633,-1.367083,-2.1139889,0.69143355,3.5657737,2.0650544,-3.638104
0.5835726261138916,-1.367083,-2.1139889,0.69143355,3.5657737,2.0650544,-3.638104
0.6036112308502197,-1.330844,-2.5875947,0.61659616,3.6399093,1.804956,-3.8881254
0.6237223148345947,-1.3158275,-2.8810532,0.4705606,3.7845662,1.5264845,-3.8893416
0.6439356803894043,-1.3903627,-2.99648,0.17578873,3.9291482,1.0903875,-4.1211267
0.6641967296600342,-1.5214806,-2.9863617,0.36610565,3.9632876,1.0007583,-3.8839881
0.684110164642334,-1.4295573,-2.906167,0.11481499,3.6497624,0.69170254,-3.8214722
0.7042100429534912,-1.4295573,-2.906167,0.11481499,3.6497624,0.69170254,-3.8214722
0.724301815032959,-1.4093534,-2.9281843,0.12805502,3.5958464,0.75868815,-3.8695648
0.7443985939025879,-1.5123477,-3.009447,0.2683688,3.6338851,0.9257038,-3.6987212
0.7644772529602051,-1.3707747,-3.0735755,0.0061090635,3.4406884,0.6457007,-3.7326117
0.7845635414123535,-1.2485846,-2.997127,-0.12501422,3.8630254,0.76605386,-3.5564282
0.8046708106994629,-1.1973419,-2.8394604,-0.19649804,3.9850347,0.848643,-3.349584
0.8253602981567383,-1.1380138,-2.718842,-0.21758792,3.9357564,0.9053716,-3.2735114
0.8454678058624268,-1.1380138,-2.718842,-0.21758792,3.9357564,0.9053716,-3.2735114
0.8655543327331543,-1.0306981,-2.608025,-0.21639125,3.8688066,1.0947247,-3.2542307
0.8856613636016846,-0.9413633,-2.454514,-0.119403854,3.7486527,1.4643396,-3.32102
0.9059560298919678,-1.2742562,-2.1978078,0.39694542,3.6438842,2.278517,-3.1888459
0.9259107112884521,-1.4175394,-1.9995805,0.6110804,3.5802007,0.8872768,-3.2964435
0.9460268020629883,-0.95926493,-2.0211854,0.65205723,1.9580168,1.1398796,-3.118005
0.9661617279052734,-0.95926493,-2.0211854,0.65205723,1.9580168,1.1398796,-3.118005
0.9862124919891357,-1.1305873,-2.643095,0.51435596,2.540562,1.2179825,-3.7258875
1.0062966346740723,-0.96493757,-2.9475377,0.47801682,2.454074,1.2271416,-3.5861332
1.0264043807983398,-1.0137961,-3.1427445,0.2762934,2.859083,1.2524745,-3.8507318
1.0464997291564941,-1.0853478,-3.1122942,0.29042473,2.9693887,1.3145788,-4.065159
1.0665502548217773,-1.2220681,-3.115868,0.40012583,2.8393357,1.1208122,-3.862486
1.0866410732269287,-1.2220681,-3.115868,0.40012583,2.8393357,1.1208122,-3.862486
1.1067276000976562,-1.2727193,-2.3555489,0.38218445,2.8264618,0.60171306,-3.6567752
1.1269242763519287,-1.1542774,-2.364166,0.38329917,2.0472748,0.6581758,-3.4479103
1.1484692096710205,-1.231302,-2.2223687,0.34207958,2.350772,0.5070042,-3.5438662
1.1685266494750977,-1.0199788,-2.167843,0.35415784,1.8266838,0.57553595,-3.215836
1.1886451244354248,-1.262958,-2.3420453,0.26881358,2.0697827,0.4625516,-3.505483
1.2088844776153564,-1.1856415,-2.3499196,0.34549102,1.9388036,0.4543379,-3.2804012
1.2290523052215576,-1.1856415,-2.3499196,0.34549102,1.9388036,0.4543379,-3.2804012
1.2491233348846436,-1.3307513,-2.2523808,0.37392953,2.2162445,0.23900372,-3.4405792
1.2691938877105713,-0.9680943,-1.969296,0.39833722,1.8608601,0.39744475,-3.1494484
1.2893569469451904,-0.6936851,-2.4310737,0.19807346,2.2925122,1.02264,-3.2997544
1.309380292892456,-1.033939,-2.149111,0.39316395,2.3920143,0.7269491,-3.6699576
1.3294765949249268,-0.8032963,-1.9234903,0.4747687,1.7256886,0.6920641,-3.1948843
1.349543809890747,-0.8032963,-1.9234903,0.4747687,1.7256886,0.6920641,-3.1948843
1.3696424961090088,-0.5901503,-2.3375072,0.3195479,1.9732711,1.3511931,-3.5403512
1.389793872833252,-0.32708776,-2.2315516,0.41672537,2.0108278,1.631437,-3.422377
1.4099023342132568,0.035875175,-2.4498632,0.18409331,1.6632746,1.5679412,-3.193112
1.4302597045898438,-0.39386767,-2.6690059,0.21809706,1.490034,0.8347136,-2.8264647
1.450150489807129,-0.480013,-3.109402,0.1296448,0.6702378,0.58144736,-2.9943779
1.470452070236206,-0.480013,-3.109402,0.1296448,0.6702378,0.58144736,-2.9943779
1.4906296730041504,0.05251732,-3.3337994,0.12515152,0.32607996,1.3524176,-3.2941887
1.5106842517852783,-0.16967788,-3.4269485,0.19691558,0.103461355,1.0423605,-3.4921598
1.530791997909546,0.08988476,-3.2110107,0.16056207,-0.7657106,0.84049815,-3.290273
1.5508613586425781,0.03429715,-3.1713896,0.20412062,-1.6917177,0.23247072,-2.8944159
1.570971965789795,0.2992212,-3.1577034,0.18139486,-2.55791,0.26043075,-2.9676967
1.5912530422210693,0.42043173,-3.095539,0.18598293,-3.5555944,-0.07666198,-3.1047418
1.6113383769989014,0.42043173,-3.095539,0.18598293,-3.5555944,-0.07666198,-3.1047418
1.63142728805542,0.62960947,-2.8475277,0.22275798,-4.3295035,-0.3751565,-2.955992
1.6518347263336182,-0.0759543,-3.1058044,0.25603265,-5.1711993,-0.74073124,-3.1263833
1.671720266342163,0.6160183,-2.8370504,0.24004565,-5.0287,-0.6865075,-2.951907
1.691784143447876,0.33348006,-3.0773866,0.28214604,-5.355686,-0.7228057,-3.3642952
1.7124414443969727,0.33348006,-3.0773866,0.28214604,-5.355686,-0.7228057,-3.3642952
1.7325654029846191,0.1636485,-3.120842,0.282312,-5.502297,-0.8204008,-3.357012
1.7526755332946777,-0.16441046,-3.1639998,0.29835048,-5.4829364,-0.93709785,-3.1691346
1.7730274200439453,-0.36906207,-3.0238342,0.26781866,-5.3008227,-1.1720088,-2.7548983
1.792903184890747,-0.046515334,-3.102881,0.2859709,-5.4382043,-0.89429265,-3.0970738
1.8130176067352295,0.37009466,-3.1085591,0.28933588,-5.369473,-0.7718181,-3.359073
1.8334014415740967,0.37009466,-3.1085591,0.28933588,-5.369473,-0.7718181,-3.359073
1.853311538696289,0.28561568,-3.0988786,0.29738352,-5.350821,-0.9399343,-3.3247356
1.8735613822937012,0.2581305,-3.083152,0.30172893,-5.367594,-0.97293574,-3.2805855
1.8994207382202148,0.315041,-3.0721898,0.30650952,-5.3792615,-0.9449589,-3.3055007
1.9195122718811035,0.315041,-3.0721898,0.30650952,-5.3792615,-0.9449589,-3.3055007
1.9396171569824219,-0.052019525,-3.262808,0.34410295,-5.5301547,-1.0217949,-3.4212089
1.959697961807251,0.031128,-3.1319695,0.3244281,-5.5357,-1.0910274,-3.2109623
1.979797124862671,0.04987086,-3.1158452,0.33122548,-5.5343275,-1.0866791,-3.205778
2.0002403259277344,0.04987086,-3.1158452,0.33122548,-5.5343275,-1.0866791,-3.205778
2.02034330368042,0.14037849,-3.1086326,0.335335,-5.5470557,-1.0368885,-3.2614768
2.0404622554779053,0.1627359,-3.1176567,0.34060475,-5.562502,-1.0369965,-3.3126404
2.0609307289123535,-0.0510708,-3.2777643,0.3658413,-5.6573863,-1.0397389,-3.4466977
2.0811142921447754,0.4228685,-3.1113212,0.34324232,-5.5903773,-0.89377326,-3.425521
2.101240634918213,0.12043233,-3.2679033,0.37079385,-5.627405,-0.9561805,-3.569288
2.1212189197540283,0.8338009,-3.0836763,0.3500335,-5.4864864,-0.6399077,-3.6338122
2.141303539276123,0.8338009,-3.0836763,0.3500335,-5.4864864,-0.6399077,-3.6338122
2.161447286605835,0.9279825,-3.1923833,0.38751665,-5.4379487,-0.43121642,-4.0026684
2.181760549545288,1.1412079,-3.229976,0.40049395,-5.3798747,-0.23794419,-4.252471
2.2017157077789307,1.2808602,-3.1470795,0.40276685,-5.1802096,-0.18213922,-4.1985025
2.2217907905578613,1.3270085,-3.1223307,0.4118397,-5.097732,-0.120344825,-4.2072253
2.241868495941162,1.2145641,-3.3173523,0.41174248,-5.3066645,0.000818904,-4.6132793
2.2620465755462646,1.2145641,-3.3173523,0.41174248,-5.3066645,0.000818904,-4.6132793
2.282166004180908,1.2473425,-3.3599975,0.4014888,-5.2983756,0.062211927,-4.64787
2.3022286891937256,1.2150486,-3.3336544,0.40928474,-5.1890626,0.038599905,-4.528498
2.3229618072509766,1.225036,-3.3241346,0.41239128,-5.152215,0.070010595,-4.510726
2.3430652618408203,1.2463944,-3.318755,0.4192854,-5.146694,0.09915691,-4.520357
2.3631374835968018,1.2702665,-3.310233,0.4282156,-5.154118,0.120770745,-4.5305085
2.383371353149414,1.2955933,-3.2980068,0.43896315,-5.1654935,0.14000314,-4.5359697
2.4035255908966064,1.2955933,-3.2980068,0.43896315,-5.1654935,0.14000314,-4.5359697
2.4236624240875244,1.3228049,-3.2851565,0.4511179,-5.177366,0.1604321,-4.5382876
2.4437036514282227,1.3505421,-3.2721763,0.46441308,-5.1863856,0.18254018,-4.536667
2.463831663131714,0.9842292,-3.1878386,0.5140087,-5.071445,-0.22712892,-4.1463895
2.483907699584961,0.7715913,-3.1400452,0.5192199,-5.084502,-0.34962016,-3.951251
2.503960609436035,0.5969782,-3.1364346,0.53594416,-5.1282907,-0.4123581,-3.8572905
2.5243024826049805,0.5969782,-3.1364346,0.53594416,-5.1282907,-0.4123581,-3.8572905
2.5443029403686523,0.56915295,-3.231684,0.5293139,-5.447404,-0.5706751,-3.9677327
2.564333438873291,0.6828082,-3.2485967,0.5322637,-5.5610647,-0.48565167,-4.1437473
2.584887981414795,0.7815527,-3.236905,0.55134803,-5.441837,-0.32043177,-4.2722216
2.6047780513763428,0.83564705,-3.2590427,0.56935453,-5.428203,-0.26595896,-4.380191
2.6248562335968018,0.8511491,-3.277859,0.5822435,-5.429565,-0.22757882,-4.449941
2.644942283630371,0.8528692,-3.2958694,0.5930539,-5.4286194,-0.19005138,-4.4994802
2.665022373199463,0.8528692,-3.2958694,0.5930539,-5.4286194,-0.19005138,-4.4994802
2.6851329803466797,0.76519126,-3.3084278,0.6109459,-5.393685,-0.24345475,-4.462942
2.7052760124206543,0.69685066,-3.3421915,0.62703896,-5.4185033,-0.23835582,-4.4944434
2.7253174781799316,0.8145598,-3.3677816,0.6330285,-5.4172473,-0.0066241664,-4.6561737
2.7454206943511963,0.89422965,-3.3862047,0.6429413,-5.454532,-0.045021,-4.7138066
2.765486240386963,0.8534908,-3.4115238,0.6604174,-5.4261556,-0.054131452,-4.736697
2.7855608463287354,0.8040354,-3.4371452,0.67524415,-5.39373,-0.060260836,-4.7331667
2.805680513381958,0.8040354,-3.4371452,0.67524415,-5.39373,-0.060260836,-4.7331667
2.825739622116089,0.74220705,-3.4642792,0.6885351,-5.390139,-0.061654393,-4.727147
2.845836639404297,1.1811498,-3.309059,0.6489056,-5.280575,0.031232532,-4.6770763
2.8659331798553467,0.77868426,-3.4268708,0.70655954,-5.278891,-0.0014516753,-4.7236323
2.885974168777466,1.1566262,-3.31748,0.6662322,-5.2263145,0.0667538,-4.687365
2.906062602996826,0.72569966,-3.4532695,0.72625047,-5.2490153,0.028122004,-4.741459
2.9261884689331055,0.72569966,-3.4532695,0.72625047,-5.2490153,0.028122004,-4.741459
2.946244478225708,1.0882671,-3.3506725,0.6871216,-5.2234364,0.07582467,-4.7023506
2.966440439224243,1.1462245,-3.3054414,0.69144607,-5.175904,0.109543376,-4.6977835
2.986429214477539,0.64619184,-3.4735577,0.7532988,-5.2159686,0.045210894,-4.7585516
3.0065064430236816,0.99072945,-3.3894663,0.7151051,-5.2240787,0.076035194,-4.729807
3.0266876220703125,1.0382872,-3.3572202,0.72045535,-5.1945214,0.10355895,-4.739459
3.046950578689575,1.0381703,-3.3521252,0.72781307,-5.1844935,0.11421519,-4.7594604
3.067064046859741,1.0381703,-3.3521252,0.72781307,-5.1844935,0.11421519,-4.7594604
3.087188482284546,1.0552877,-3.3930364,0.73835915,-5.1807375,0.18111748,-4.913431
3.10793399810791,1.1835577,-3.4354305,0.75143486,-5.201625,0.27747196,-5.0222898
3.128009080886841,1.2101924,-3.4777853,0.7590227,-5.422917,0.19490618,-5.145746
3.14811110496521,0.6131096,-3.6511822,0.8090682,-5.8738008,-0.16195184,-5.2242365
3.1682145595550537,0.6131096,-3.6511822,0.8090682,-5.8738008,-0.16195184,-5.2242365
3.188275098800659,0.10420181,-3.6096888,0.8216787,-6.110517,-0.60694975,-4.8549404
3.208522319793701,0.44306517,-3.5710914,0.77095693,-5.921907,-0.36665386,-4.909029
3.2288029193878174,0.4967146,-3.578251,0.7737107,-5.7634506,-0.3024338,-4.992896
3.2489094734191895,0.459108,-3.604226,0.7801916,-5.878641,-0.40399796,-5.1076994
3.268994092941284,0.4439857,-3.5951178,0.78044355,-5.9351583,-0.46050984,-5.209984
3.289309024810791,0.5194316,-3.58771,0.78366315,-5.849264,-0.36477846,-5.3051414
3.3092377185821533,0.5194316,-3.58771,0.78366315,-5.849264,-0.36477846,-5.3051414
3.3293442726135254,0.5840268,-3.5854874,0.79281926,-5.8026266,-0.30832928,-5.425459
3.349433183670044,0.8113544,-3.5011811,0.7948439,-5.6674256,-0.10826189,-5.640489
3.3695125579833984,0.52544653,-3.6394196,0.8077297,-5.692595,-0.16184705,-5.8012424
3.389591693878174,0.8746258,-3.5302267,0.80959356,-5.7003574,-0.07173676,-5.7431726
3.4097180366516113,0.8746258,-3.5302267,0.80959356,-5.7003574,-0.07173676,-5.7431726
3.4297807216644287,0.5851829,-3.6411178,0.8052187,-5.7499523,-0.13841206,-5.856245
3.449875831604004,0.92683434,-3.5320299,0.8135065,-5.7177567,-0.013328735,-5.750392
3.4699440002441406,0.6658397,-3.646766,0.81657284,-5.749168,-0.065366216,-5.886899
3.490049123764038,0.72544694,-3.6486201,0.82561475,-5.797857,-0.024782602,-5.8689184
3.510561943054199,0.79980564,-3.6384783,0.8311226,-5.811771,0.018146332,-5.867299
3.5307583808898926,0.79980564,-3.6384783,0.8311226,-5.811771,0.018146332,-5.867299
3.550771474838257,0.7009479,-3.6829996,0.8407318,-5.8124485,0.031393822,-5.8990974
3.5708348751068115,1.0428171,-3.53444,0.8565284,-5.625991,0.17884666,-5.7183785
3.5909318923950195,0.7269597,-3.656599,0.8598094,-5.739881,0.06684654,-5.8894806
3.611055374145508,1.0746006,-3.5412664,0.86944777,-5.6347775,0.22984594,-5.723436
3.6313581466674805,0.72452354,-3.637672,0.88470966,-5.6707187,0.08818572,-5.8394537
3.651439905166626,0.72452354,-3.637672,0.88470966,-5.6707187,0.08818572,-5.8394537
3.671555757522583,1.0984808,-3.542858,0.8864938,-5.6419644,0.25643665,-5.704308
3.691619634628296,0.73301566,-3.6448355,0.9031041,-5.6829743,0.115500025,-5.8380947
3.7117197513580322,1.0303059,-3.5663178,0.90890384,-5.6548467,0.2147389,-5.6749425
3.7317888736724854,0.7213446,-3.6594195,0.9246784,-5.7214613,0.12025004,-5.8165507
3.7518720626831055,1.1026917,-3.5516875,0.9110041,-5.7017784,0.28971642,-5.7264266
3.772165060043335,0.857893,-3.6166945,0.9110219,-5.7227044,0.20832819,-5.858424
3.792248010635376,0.857893,-3.6166945,0.9110219,-5.7227044,0.20832819,-5.858424
3.812345266342163,0.84580255,-3.6472206,0.9121491,-5.780143,0.26385874,-5.8499784
3.8324244022369385,1.1029036,-3.5765548,0.944971,-5.6827183,0.33230537,-5.6386147
3.85272216796875,0.71870494,-3.6796865,0.9790627,-5.7392383,0.16338605,-5.7309036
3.8726954460144043,0.987098,-3.5994074,0.9653857,-5.755174,0.23984677,-5.6394978
3.8930249214172363,0.62769663,-3.7008953,0.9939166,-5.8201194,0.109140925,-5.73206
3.9133527278900146,0.62769663,-3.7008953,0.9939166,-5.8201194,0.109140925,-5.73206
3.933476686477661,0.9114902,-3.6138964,0.98132044,-5.8182073,0.19209975,-5.645278
3.953559398651123,0.87871885,-3.6000843,0.9899065,-5.792545,0.1425646,-5.6717973
3.973721981048584,0.53928566,-3.7093098,1.0125184,-5.8875117,0.033882793,-5.7423086
3.993776321411133,0.82129765,-3.6212714,1.0041853,-5.879213,0.12278622,-5.655843
4.013884544372559,0.8837402,-3.5748549,1.009127,-5.815448,0.10473805,-5.6609955
4.033923625946045,0.48059702,-3.7039132,1.031346,-5.9249997,-0.037185375,-5.763923
4.054025411605835,0.48059702,-3.7039132,1.031346,-5.9249997,-0.037185375,-5.763923
4.074131727218628,0.8210249,-3.6097064,1.0217226,-5.932141,0.09553974,-5.706012
4.094224452972412,0.4305668,-3.7195454,1.0448705,-5.9820924,-0.066066094,-5.7797527
4.114512205123901,0.82848215,-3.6090083,1.0339872,-5.9783907,0.0996794,-5.743963
4.1344945430755615,0.39674234,-3.7209275,1.056909,-6.007452,-0.09585685,-5.791774
4.15470027923584,0.81368756,-3.6045508,1.0470637,-6.0047507,0.08261686,-5.7656
4.175246238708496,0.37281895,-3.7180777,1.065893,-6.03029,-0.12381763,-5.8095994
4.1953253746032715,0.37281895,-3.7180777,1.065893,-6.03029,-0.12381763,-5.8095994
4.215415000915527,0.77840126,-3.6021926,1.0603648,-6.0278287,0.052272495,-5.777212
4.235547065734863,0.31608868,-3.7191515,1.0773011,-6.060196,-0.16567224,-5.809865
4.2556092739105225,0.7248516,-3.6027524,1.0736463,-6.059383,0.012508091,-5.7806444
4.275692701339722,0.24529506,-3.7217667,1.0887626,-6.096453,-0.2155053,-5.803423
4.295753717422485,0.65900075,-3.604841,1.0866829,-6.0963697,-0.034998838,-5.779397
4.317019939422607,0.65900075,-3.604841,1.0866829,-6.0963697,-0.034998838,-5.779397
4.336909294128418,0.20294358,-3.7191923,1.0938765,-6.135881,-0.25827307,-5.8176527
4.356998682022095,0.6198833,-3.601455,1.0968877,-6.1264057,-0.068788,-5.7856264
4.378085136413574,0.19776227,-3.7086391,1.0979489,-6.1719775,-0.27895778,-5.836882
4.398055553436279,0.60620284,-3.593645,1.1062202,-6.1437945,-0.08271796,-5.7902822
4.418129920959473,0.15804745,-3.7008638,1.1040895,-6.192958,-0.3150093,-5.830101
4.4385435581207275,0.5774205,-3.5877423,1.1155536,-6.165522,-0.09970982,-5.784784
4.459608316421509,0.5774205,-3.5877423,1.1155536,-6.165522,-0.09970982,-5.784784
4.479700088500977,0.14613868,-3.6869392,1.1106371,-6.2111006,-0.3342219,-5.833322
4.49977970123291,0.57431054,-3.5775702,1.1226827,-6.1800036,-0.09874684,-5.7838926
4.5198400020599365,0.12240209,-3.6752594,1.1194394,-6.2203135,-0.3549903,-5.8287554
4.539919137954712,0.5595987,-3.5678287,1.1310345,-6.1944385,-0.104183026,-5.7758684
4.5600292682647705,0.10387005,-3.6607428,1.1281947,-6.2319236,-0.37388617,-5.8242373
4.5802788734436035,0.54998493,-3.5553255,1.1384935,-6.2063527,-0.106130786,-5.764433
4.600395441055298,0.54998493,-3.5553255,1.1384935,-6.2063527,-0.106130786,-5.764433
4.620483160018921,0.08163728,-3.6439278,1.1368488,-6.239141,-0.39487404,-5.81293
4.640556812286377,0.5824821,-3.533722,1.1316762,-6.213339,-0.05530304,-5.7536187
4.660645246505737,0.10988356,-3.6035948,1.1242758,-6.2068334,-0.36914235,-5.804385
4.680752754211426,0.6202514,-3.508553,1.1346565,-6.188642,-0.003239457,-5.718874
4.700818061828613,0.15607716,-3.5721195,1.1300727,-6.1868925,-0.3275861,-5.787448
4.720912218093872,0.15607716,-3.5721195,1.1300727,-6.1868925,-0.3275861,-5.787448
4.741060018539429,0.1266507,-3.596324,1.1187917,-6.3124933,-0.25831193,-5.74198
4.7611188888549805,0.6743698,-3.486573,1.1408175,-6.1919055,0.10573273,-5.6639223
4.781485319137573,0.2448491,-3.53697,1.1376935,-6.1611423,-0.23978704,-5.7638226
4.801376581192017,0.20373608,-3.5458307,1.1250173,-6.2687225,-0.18459779,-5.701332
4.8214476108551025,0.4598775,-3.4884872,1.14745,-6.1788306,-0.013920728,-5.577879
4.841522693634033,0.1413237,-3.5150409,1.1431266,-6.2046437,-0.21015376,-5.629264
4.861971616744995,0.1413237,-3.5150409,1.1431266,-6.2046437,-0.21015376,-5.629264
4.882369041442871,0.4176165,-3.468027,1.1548481,-6.1869664,0.0014451104,-5.5163765
4.920714855194092,0.4176165,-3.468027,1.1548481,-6.1869664,0.0014451104,-5.5163765
4.946040153503418,0.4176165,-3.468027,1.1548481,-6.1869664,0.0014451104,-5.5163765
4.966172456741333,0.123003975,-3.4874587,1.1510458,-6.2067447,-0.1774475,-5.5582733
4.986251354217529,0.32263398,-3.4467747,1.1665117,-6.178866,-0.017637316,-5.42019
5.006366491317749,0.06955446,-3.46056,1.1617466,-6.2199225,-0.16106433,-5.47248
5.026473045349121,0.06955446,-3.46056,1.1617466,-6.2199225,-0.16106433,-5.47248
5.046993732452393,0.45396042,-3.383692,1.1891059,-6.1224136,0.10983854,-5.3005133
5.067389011383057,0.11590637,-3.4055586,1.1796895,-6.1701427,-0.11072261,-5.442053
5.087660074234009,-0.027538288,-3.4416103,1.18324,-6.246414,-0.15788752,-5.316895
5.107702970504761,-0.027538288,-3.4416103,1.18324,-6.246414,-0.15788752,-5.316895
5.127792835235596,0.41027546,-3.351981,1.2133842,-6.149713,0.16595203,-5.176387
5.147876024246216,0.07892682,-3.3724487,1.2079183,-6.186231,-0.08555622,-5.329689
5.167980909347534,-0.030045737,-3.3777885,1.1996169,-6.2473955,-0.07597882,-5.2284727
5.188083648681641,0.42286205,-3.289671,1.2360647,-6.123285,0.27350682,-5.0965056
5.208148717880249,0.12770928,-3.2842264,1.2289319,-6.1300716,0.056775983,-5.236898
5.228379487991333,0.027679693,-3.2861993,1.2274566,-6.174476,0.08230179,-5.1223826
5.248509168624878,0.027679693,-3.2861993,1.2274566,-6.174476,0.08230179,-5.1223826
5.268723487854004,-0.011448849,-3.2700534,1.2382158,-6.1855474,0.13564849,-5.038459
5.28870964050293,-0.0072119124,-3.2560818,1.2530553,-6.1907187,0.22490013,-5.00426
5.308772087097168,0.019144785,-3.232017,1.2650825,-6.1713195,0.30137235,-4.9622636
5.32886528968811,0.023973,-3.1916413,1.275206,-6.126174,0.34344417,-4.8765965
5.348951816558838,0.01619066,-3.1546884,1.2919093,-6.0896964,0.40427566,-4.803515
5.369018793106079,0.014140617,-3.1202757,1.3109509,-6.0551867,0.46627373,-4.7414255
5.389196157455444,0.014140617,-3.1202757,1.3109509,-6.0551867,0.46627373,-4.7414255
5.409224987030029,0.028448831,-3.097399,1.3357167,-6.0313106,0.56177086,-4.714303
5.4293153285980225,2.6269238,1.2955093,-1.4226485,-0.9307796,3.2963932,3.4506247
5.449548721313477,2.970747,1.3578566,-3.4614964,3.1284807,5.1602445,5.9802675
5.469609498977661,0.78372264,0.27649575,-3.681672,4.5366707,3.152931,4.9391074
5.489733934402466,0.6396718,0.79000133,-2.362966,5.1597886,1.9816552,3.928982
5.5097739696502686,-0.15961502,-0.4790482,0.2841402,4.0621295,-0.39117754,-0.0982121
5.530283451080322,-0.15961502,-0.4790482,0.2841402,4.0621295,-0.39117754,-0.0982121
5.550110816955566,-0.7126734,-0.19480832,0.7895741,2.0463414,1.1266736,-1.4189506
5.5701844692230225,-1.025059,-0.89608157,0.65561306,1.2419798,1.452122,-2.2217417
5.590358018875122,-0.37205473,-0.7145085,0.7333425,0.26061156,2.494749,-2.5906222
5.610363721847534,-0.038243104,-1.1182429,1.0051792,-0.33248207,2.7223787,-2.9934947
5.630746841430664,0.1579657,-1.2818488,1.078767,-1.295628,3.029978,-3.1616733
5.651126384735107,0.1579657,-1.2818488,1.078767,-1.295628,3.029978,-3.1616733
5.6712470054626465,0.23232247,-1.8122891,1.0482814,-2.6224165,2.4076588,-3.3812993
5.6913416385650635,0.88033605,-2.5301967,0.9850894,-3.672704,2.2340376,-3.58271
5.71140718460083,0.7517959,-2.213316,1.2704694,-4.3491354,2.1584558,-3.5223858
5.731500625610352,0.37505364,-2.530655,1.4503549,-4.8600593,1.2130513,-4.1101193
5.751689672470093,0.20497395,-2.8321476,1.4772931,-5.2958837,1.1947844,-4.3307037
5.771967649459839,2.7752285,1.1153756,-1.4202718,-0.48365188,3.544913,3.6278028
5.7923479080200195,2.7752285,1.1153756,-1.4202718,-0.48365188,3.544913,3.6278028
5.812443971633911,3.0669632,1.3830453,-3.4801025,3.3980553,5.222528,6.157427
5.832556247711182,0.9293234,0.4711144,-3.4282446,4.6918654,3.283505,5.0777454
5.852603912353516,0.79837656,0.9733029,-2.164734,5.1274858,2.180484,4.085991
5.872710466384888,-0.08578996,-0.26970828,0.2769291,3.9614537,-0.13879251,0.14504495
5.892833709716797,-0.67935526,0.03498836,0.75714654,2.1256526,1.2414626,-1.1447971
5.912897348403931,-0.96321726,-0.5909136,0.61944306,1.3000597,1.6785245,-1.7512566
5.933485269546509,-0.42321944,-0.3327558,0.75627697,0.6894994,2.7664013,-2.0672932
5.953612565994263,-0.42321944,-0.3327558,0.75627697,0.6894994,2.7664013,-2.0672932
5.973977088928223,-0.51511437,-1.0397147,0.9906564,0.31785473,2.0281575,-2.6553555
5.993868112564087,-0.009671021,-1.1926274,1.0414674,-1.26633,3.1033504,-2.9677756
6.0143210887908936,0.21055485,-1.507719,1.2405741,-2.5661976,2.4247155,-3.1754735
6.034419775009155,0.07629241,-2.083743,1.3600998,-4.5194354,2.2704813,-3.353755
6.054505348205566,-0.06597637,-2.663199,1.4949671,-4.9312677,1.2925421,-3.9324863
6.074636697769165,0.45161343,-3.0317254,1.5507215,-5.4231,1.6034234,-4.4783573
6.094837427139282,0.45161343,-3.0317254,1.5507215,-5.4231,1.6034234,-4.4783573
6.11496901512146,0.29018056,-3.0241666,1.42305,-5.5326524,1.1883078,-4.474262
6.135042190551758,-1.2879248,-2.4188187,1.0717154,-5.186725,-0.6156499,-4.904248
6.155725002288818,-1.2361062,-2.1511045,1.1216123,-4.8543754,0.1493628,-4.3812804
6.17584490776062,-1.3538893,-1.9823675,1.2544435,-4.673154,-0.33757135,-4.53993
6.195929288864136,-1.1340859,-1.9320847,1.2564768,-4.9229236,0.03422683,-4.261994
6.216273307800293,-1.691864,-1.7891947,1.3389448,-4.508371,-0.44542998,-4.27304
6.2368388175964355,-1.691864,-1.7891947,1.3389448,-4.508371,-0.44542998,-4.27304
6.256587028503418,-1.1592479,-1.8804951,1.3122653,-4.803588,0.25137216,-4.16247
6.2766358852386475,-1.6747338,-1.815188,1.3490708,-4.553969,-0.37104255,-4.254196
6.297075510025024,-1.0909597,-1.8332418,1.2841173,-4.859154,0.45007932,-3.99562
6.31705641746521,-0.23933099,-2.5560527,1.6254297,-5.111298,1.536987,-3.3131402
6.337018251419067,0.68433845,-2.7924485,1.6993421,-5.16263,2.170151,-3.6592343
6.358160018920898,0.68433845,-2.7924485,1.6993421,-5.16263,2.170151,-3.6592343
6.378259658813477,0.6490338,-2.737368,1.57145,-5.1230536,1.847037,-3.756292
6.398337125778198,0.49536288,-2.788599,1.5506634,-5.2366657,1.8027141,-3.6401708
6.418447017669678,0.63059306,-2.815393,1.5527238,-5.2330146,1.8929802,-3.4402537
6.438517808914185,0.81256044,-2.7365544,1.5505501,-5.1432595,1.9623969,-3.2882042
6.4586217403411865,0.34938633,-2.7009592,1.568965,-5.191628,1.6464909,-3.3351777
6.478705167770386,0.6331959,-2.6996965,1.571601,-5.1647186,1.9030719,-3.084831
6.4990668296813965,2.944004,1.0664725,-1.5644474,-0.0815531,3.8239002,4.054072
6.5191874504089355,2.944004,1.0664725,-1.5644474,-0.0815531,3.8239002,4.054072
6.539281845092773,3.207714,1.1944706,-3.634811,3.4233973,5.1816363,6.2861676
6.559665203094482,1.2271516,0.4713003,-3.4985256,5.0523214,3.467891,5.272852
6.579550743103027,0.90665674,0.9226033,-2.3877392,5.3477287,2.4984505,4.38098
6.599628686904907,1.279707,1.4174103,-2.0253587,5.3944182,2.904328,4.3114367
6.619715213775635,1.4211891,1.4576666,-2.0593152,5.272984,3.0189536,4.486765
6.6401073932647705,1.4211891,1.4576666,-2.0593152,5.272984,3.0189536,4.486765
6.660216331481934,0.24069323,2.4582648,-2.0693338,4.906729,2.108855,3.4152899
6.68029522895813,0.28625876,2.1236587,-1.501362,4.8458767,1.2668214,3.0236738
6.700380086898804,0.5111005,2.4153423,-1.3992853,4.766298,1.3840975,2.9427986
6.720435619354248,0.5504887,2.5102723,-1.4496855,4.7699304,1.4167042,3.0097291
6.740554094314575,0.53332734,2.588974,-1.4383045,4.78851,1.4026504,3.0232384
6.760633945465088,0.52471894,2.6389003,-1.4111001,4.777168,1.3932481,3.0132194
6.780691385269165,0.52220774,2.6710021,-1.3901039,4.7558484,1.3832276,3.0022209
6.800787448883057,0.5187264,2.6969075,-1.3732178,4.7343493,1.3747014,2.99144
6.820883750915527,0.5187264,2.6969075,-1.3732178,4.7343493,1.3747014,2.99144
6.840963125228882,0.5137099,2.7184649,-1.3573085,4.712212,1.366466,2.9801466
6.861053943634033,0.5081863,2.7368217,-1.3418034,4.6892653,1.3583777,2.968358
6.881128549575806,0.50239587,2.7529435,-1.3267833,4.665712,1.3505604,2.9563622
6.901223421096802,0.49631882,2.7674303,-1.3122182,4.6417813,1.342988,2.9442961
6.921353101730347,0.48995864,2.7806587,-1.2980008,4.6175804,1.335609,2.9321795
6.9413816928863525,0.4833504,2.7928708,-1.2840549,4.5931478,1.3283868,2.9200165
6.9620232582092285,0.4833504,2.7928708,-1.2840549,4.5931478,1.3283868,2.9200165
6.982138395309448,0.4765256,2.8042338,-1.2703346,4.568509,1.321296,2.9078152
7.002234935760498,1.1411672,1.7270025,-1.2081124,4.5074077,1.8534026,3.784495
7.022316217422485,1.292625,1.943528,-1.6355969,4.7469487,2.740033,4.0883064
7.042417287826538,0.9398174,1.4477607,-1.7890577,4.506396,2.4580555,4.146798
7.062554359436035,0.87848806,1.3032132,-1.7465154,4.437763,2.3243582,3.9873955
7.0826520919799805,0.8580108,1.1941223,-1.715218,4.339503,2.2929947,3.880276
7.102790355682373,0.8407355,1.127304,-1.7120055,4.2628183,2.2637744,3.824005
7.1232383251190186,0.8407355,1.127304,-1.7120055,4.2628183,2.2637744,3.824005
7.143166780471802,0.8117701,1.0821358,-1.706578,4.2060685,2.2297409,3.778812
7.163302898406982,0.77943283,1.0443984,-1.6940544,4.1473894,2.1904833,3.7315512
7.1833555698394775,0.7489147,1.0094669,-1.6804248,4.088163,2.1518667,3.6844118
7.203786134719849,0.7190159,0.97532946,-1.6675438,4.0296626,2.1140327,3.638532
7.223704099655151,0.68881714,0.94116443,-1.655228,3.9714043,2.0759141,3.5930278
7.24379301071167,0.658334,0.9065444,-1.6432993,3.9132023,2.0373573,3.5471196
7.263822793960571,0.6277061,0.8715224,-1.631756,3.8550632,1.9985676,3.5007572
7.283962965011597,0.6277061,0.8715224,-1.631756,3.8550632,1.9985676,3.5007572
7.304028272628784,0.5969275,0.83603454,-1.6206274,3.7969441,1.959559,3.4539657
7.324330806732178,0.56603897,0.800273,-1.609856,3.7389781,1.9203091,3.4068725
7.344170808792114,0.5350716,0.76436216,-1.5993304,3.681168,1.8807638,3.359573
7.364557266235352,0.5040176,0.728172,-1.589007,3.6233118,1.8408688,3.3120372
7.384593963623047,0.47286594,0.6915968,-1.5789205,3.5653093,1.8006229,3.2642448
7.404601097106934,0.44158876,0.6545167,-1.5691093,3.5070806,1.7600098,3.2161882
7.425252437591553,0.41023505,0.6171851,-1.5594984,3.449285,1.7191243,3.1677423
7.445310354232788,0.41023505,0.6171851,-1.5594984,3.449285,1.7191243,3.1677423
7.465442657470703,0.37883234,0.57979524,-1.549905,3.3920736,1.6779664,3.118759
7.485538005828857,0.34738272,0.54227626,-1.540278,3.3351839,1.6365054,3.0692027
7.505870580673218,0.31583187,0.5044636,-1.5307041,3.2783875,1.5947537,3.0191348
7.525970697402954,0.2982052,0.47528446,-1.523575,3.2276344,1.5633032,2.9920073
7.546200275421143,0.31938627,0.47161227,-1.5286722,3.199403,1.5696859,3.034843
7.566334009170532,0.23630147,0.42720807,-1.536683,3.1445994,1.5231708,2.9396477
7.586766719818115,0.23630147,0.42720807,-1.536683,3.1445994,1.5231708,2.9396477
7.606935024261475,0.35128856,0.45003968,-1.5245379,3.1479826,1.5694462,3.088456
7.6270623207092285,0.1541347,0.36997378,-1.5545566,3.0634468,1.4930488,2.8496602
7.647073030471802,0.30352193,0.38663083,-1.5010148,3.0733945,1.4991868,3.002292
7.667164087295532,0.18241973,0.34299785,-1.5395423,3.0023937,1.4923787,2.8579276
7.687249422073364,0.26877376,0.3397135,-1.5115299,3.0028136,1.491017,2.957756
7.707303285598755,0.21537004,0.31617653,-1.5354325,2.9578521,1.5045663,2.8949935
7.727506160736084,0.21537004,0.31617653,-1.5354325,2.9578521,1.5045663,2.8949935
7.747600317001343,0.23765059,0.29750538,-1.5253202,2.9408748,1.4981308,2.9172103
7.767684698104858,0.22893597,0.27750164,-1.5311521,2.9099422,1.511661,2.8973353
7.7877912521362305,0.21746837,0.24687247,-1.5310642,2.8794053,1.5040483,2.8733203
7.807886362075806,0.21044861,0.21400551,-1.5267887,2.8461351,1.4977995,2.8454387
7.828090667724609,0.20531805,0.1773114,-1.5240958,2.8098955,1.494007,2.8185456
7.848385810852051,0.19961445,0.13683747,-1.5230668,2.7715745,1.4904163,2.7912805
7.868245601654053,0.19306363,0.09291844,-1.522971,2.731391,1.4865967,2.7625215
7.88833475112915,0.19306363,0.09291844,-1.522971,2.731391,1.4865967,2.7625215
7.908429145812988,0.18587117,0.045519456,-1.5235789,2.6890624,1.4828444,2.7319472
7.928623199462891,0.17823638,-0.004882708,-1.5249443,2.6447248,1.4792647,2.699837
7.948733568191528,0.17034583,-0.057209685,-1.5272933,2.5991037,1.4760356,2.6667974
7.96875262260437,0.16195057,-0.10965331,-1.531471,2.5535262,1.4732437,2.6335447
7.988889932632446,0.15283073,-0.16106005,-1.5368274,2.509107,1.4699779,2.5999603
8.008936405181885,0.14333455,-0.21069475,-1.5425078,2.465954,1.4661133,2.5664232
8.029000520706177,0.19774325,0.11964534,-1.5120829,2.4745433,1.5289458,2.668495
8.049386024475098,0.19774325,0.11964534,-1.5120829,2.4745433,1.5289458,2.668495
8.069530010223389,-0.015133727,-0.25585008,-1.5284404,2.3582227,1.4125841,2.433029
8.08952283859253,-0.015133727,-0.25585008,-1.5284404,2.3582227,1.4125841,2.433029
8.109621047973633,0.22992902,0.5401904,-1.4191571,2.51324,1.5534148,2.7355797
8.129687070846558,-0.15261601,-0.13061579,-1.4710437,2.2628558,1.3768915,2.3768356
8.149756908416748,0.07906924,-0.31094116,-1.4544344,2.2304425,1.3324527,2.44282
8.169885396957397,0.2218021,0.4299702,-1.4386626,2.3404715,1.6035472,2.6955965
8.189963817596436,-0.2372713,-0.24588008,-1.4058754,2.0989168,1.2451924,2.2114284
8.210036039352417,0.13919608,0.47516972,-1.3554312,2.2597406,1.5392107,2.6282074
8.230399131774902,-0.016410071,-0.1734875,-1.4011656,2.0907853,1.377536,2.3921978
8.250557899475098,-0.016410071,-0.1734875,-1.4011656,2.0907853,1.377536,2.3921978
8.270597219467163,0.061139118,-0.2509157,-1.5100542,2.0231395,1.4613143,2.444528
8.290676355361938,0.11522712,0.35182273,-1.4836402,2.1627655,1.5937333,2.6283822
8.310840368270874,-0.08606182,-0.25298607,-1.4176332,2.0127459,1.319405,2.2956514
8.330915451049805,0.1186461,0.45797813,-1.3919027,2.1379638,1.6230214,2.5938735
8.351103067398071,-0.13119222,-0.23791875,-1.3953332,1.8987919,1.3465254,2.249418
8.37119722366333,0.086213484,0.40879405,-1.3915652,2.0421665,1.6090715,2.5671446
8.391402244567871,0.086213484,0.40879405,-1.3915652,2.0421665,1.6090715,2.5671446
8.411490678787231,-0.1508453,-0.17122371,-1.5635542,2.0893466,1.2889354,2.3877037
8.431589841842651,-0.019585479,-0.17829077,-1.4055803,1.9440666,1.4026685,2.255363
8.45166301727295,0.029336315,-0.19348173,-1.4630903,1.8250757,1.4673278,2.3445532
8.471948862075806,-0.11713292,0.23527928,-1.6925191,2.304118,1.234709,2.5747745
8.492036819458008,-0.104832575,-0.09559812,-1.3382372,2.0407805,1.4360385,2.0998724
8.512120962142944,-0.018488664,-0.39974254,-1.3965421,1.7641325,1.3782179,2.147354
8.532191276550293,-0.05466396,0.46318692,-1.5875577,2.2293787,1.2597339,2.574574
8.552762269973755,-0.05466396,0.46318692,-1.5875577,2.2293787,1.2597339,2.574574
8.572835445404053,-0.088312045,-0.061461285,-1.2951803,1.9701525,1.4587823,2.0935256
8.592940330505371,-0.053096283,-0.40750116,-1.2629415,1.6643537,1.2525764,1.9773427
8.613090991973877,-0.039176438,0.47637922,-1.5551025,2.107527,1.253311,2.490987
8.633164882659912,-0.09372391,-0.100473896,-1.2038134,1.8992512,1.3674995,1.9659353
8.653239488601685,-0.04501142,-0.4507091,-1.2345066,1.5512362,1.2741019,1.908836
8.673356294631958,-0.05512576,0.4027741,-1.5490938,1.9956948,1.2197906,2.4198763
8.693636655807495,-0.12549545,-0.19624998,-1.1767781,1.7918749,1.3037076,1.8472041
8.713721513748169,-0.12549545,-0.19624998,-1.1767781,1.7918749,1.3037076,1.8472041
8.733828783035278,0.041328173,0.31891418,-1.109964,1.7281064,1.3159323,2.1047666
8.753911972045898,-0.30384195,-0.24606307,-1.419292,1.6893593,1.082718,1.9293476
8.773974895477295,-0.023729939,0.26258075,-1.1347615,1.7479569,1.4393405,2.0820029
8.794333934783936,-0.3116335,-0.12522723,-1.6039889,1.9155887,0.95811784,2.0536404
8.814260005950928,-0.1445872,-0.40361297,-1.195296,1.6727909,1.3011433,1.6793478
8.834901809692383,-0.1445872,-0.40361297,-1.195296,1.6727909,1.3011433,1.6793478
8.85500955581665,-0.1325045,0.446122,-1.3694676,1.9543948,1.0516832,2.1477468
8.875088214874268,-0.10299997,-0.07593043,-1.0182278,1.6781169,1.3159022,1.7301677
8.89524793624878,-0.17213722,-0.23772736,-1.4349227,1.771747,1.0250124,1.9030977
8.915294408798218,-0.014815349,0.3190065,-1.0441264,1.744278,1.4761252,1.9237236
8.93537425994873,-0.46128362,-0.07356997,-1.5690825,1.7658893,0.8377264,1.8695377
8.955466508865356,-0.1700962,-0.4566337,-1.065138,1.5642126,1.2054679,1.5128363
8.975708484649658,-0.16426985,0.41736698,-1.2948798,1.7732362,0.96628845,2.0157163
8.995794296264648,-0.16426985,0.41736698,-1.2948798,1.7732362,0.96628845,2.0157163
9.016050338745117,-2.2506258,1.1792971,-0.32021812,1.6180998,0.23122662,0.6052083
9.036126136779785,-2.7362711,0.44241053,-0.15889405,0.91434634,0.12319999,-0.49546453
9.056170225143433,-2.8921366,-0.47180206,0.20340495,0.3590258,-0.10012231,-1.6344081
9.076263189315796,-2.644094,-1.9835279,0.9449217,-1.1174814,0.8917416,-2.87901
9.096389770507812,-2.6108336,-3.8224728,0.67039305,-1.90807,1.353169,-4.2967424
9.116465330123901,-1.7217684,-3.0891845,0.19717036,-2.46559,-0.10458488,-1.5941068
9.136844158172607,-1.7217684,-3.0891845,0.19717036,-2.46559,-0.10458488,-1.5941068
9.156975269317627,-1.1019263,-2.611629,-0.10614814,-1.9433261,0.4224847,-0.26779523
9.177135944366455,-0.60766864,-2.2101908,-0.21451409,-1.1304383,0.7086238,0.23089787
9.197190761566162,-0.096745476,-1.7638496,-0.27551493,-0.33833054,1.0289739,0.5528501
9.2173171043396,0.35269672,-1.3796057,-0.36920822,0.29102433,1.2277663,0.7204455
9.237411499023438,0.7177086,-1.2063242,-0.4729619,0.55488443,1.3040941,0.76463604
9.257492542266846,1.0448327,-0.8411103,-0.64076495,0.8727766,1.4673557,0.96594024
9.277600288391113,1.2382929,-0.3345701,-0.9750245,1.1467283,1.6314073,1.6630079
9.297658205032349,0.7383214,0.8285549,-1.0941429,1.774886,1.7757106,2.4719403
9.317737579345703,0.7383214,0.8285549,-1.0941429,1.774886,1.7757106,2.4719403
9.33786654472351,-0.3825839,0.20407043,-1.6272899,1.7455393,0.870424,1.7485567
9.357927083969116,-0.07559292,0.2139921,-0.7416998,1.9019885,1.0772238,1.345499
9.378000974655151,0.1382036,-0.054791585,-0.634099,1.2536299,1.3588617,1.3728753
9.398126602172852,-0.1670706,-0.282511,-1.1482989,1.4670296,0.8195974,1.425953
9.418214559555054,0.12940498,0.55721873,-0.6494896,1.6163725,1.4112412,1.685906
9.438241481781006,-0.18185519,-0.26034075,-0.6378826,0.8723947,1.1761537,1.1919755
9.458320140838623,-2.1208923,1.2467438,-0.17397167,1.7010882,-0.83658797,-0.3655102
9.478383541107178,-2.1208923,1.2467438,-0.17397167,1.7010882,-0.83658797,-0.3655102
9.498560667037964,-2.595859,0.3042943,0.41107854,0.8882773,0.098666094,-1.0605868
9.5185706615448,-2.6652083,-1.283806,0.8091275,-0.030415624,0.015224244,-3.2693708
9.538744926452637,-0.9237358,-2.2941842,0.57019126,-0.62600076,0.7833853,-1.4104918
9.55875015258789,-0.71753997,-2.255915,0.0035702707,-0.10560277,1.0102808,-0.65174556
9.57887077331543,-0.19850145,-1.5828007,-0.15386243,0.6530552,1.4990478,0.0070675835
9.598947763442993,0.28593636,-1.2888004,-0.12957452,0.87166345,1.655822,0.03900697
9.61911654472351,0.45255876,-0.85082895,-0.27662247,1.0234054,1.8111377,0.4593257
9.63931941986084,0.45255876,-0.85082895,-0.27662247,1.0234054,1.8111377,0.4593257
9.665041208267212,0.6746086,-0.23420037,-0.54130536,1.1818949,1.986917,1.0749997
9.700714349746704,0.6746086,-0.23420037,-0.54130536,1.1818949,1.986917,1.0749997
9.720790147781372,0.22284947,1.0922678,-0.725676,1.750213,1.5578754,1.821432
9.740848541259766,-0.473386,0.24239327,-1.2118255,1.7880613,0.6219849,1.1879803
9.761804103851318,-0.473386,0.24239327,-1.2118255,1.7880613,0.6219849,1.1879803
9.78206181526184,0.2401848,0.4383921,-0.5438602,1.823052,1.2138529,1.2624274
9.802014350891113,-1.7334877,1.0529946,-0.0633194,1.1567749,0.39822772,0.40976825
9.822191953659058,-2.3044603,0.43050605,0.29841012,0.387356,0.3493372,-0.6347009
9.84227705001831,-2.3044603,0.43050605,0.29841012,0.387356,0.3493372,-0.6347009
9.8624107837677,-2.475618,-0.8442015,0.67193544,0.097785264,-0.11015583,-2.3293407
9.882829666137695,-2.3753917,-2.6404924,1.2224058,-1.65018,1.1106489,-3.8499095
9.902696132659912,-2.7321079,-4.500005,0.7464888,-3.2359834,0.9936464,-4.938324
9.922891616821289,-2.8953931,-4.621423,0.754351,-4.6032715,-0.01989955,-5.465289
9.942962884902954,-2.9184353,-4.6760855,0.8672537,-6.158575,-0.6674599,-5.5171814
9.963313817977905,-2.7818475,-4.701384,0.9235755,-7.0541105,-1.0136474,-5.597678
9.983362913131714,-2.7818475,-4.701384,0.9235755,-7.0541105,-1.0136474,-5.597678
10.003467321395874,-2.5237744,-4.685822,0.92865926,-7.3971963,-1.1557308,-5.689337
10.02357292175293,-2.2451038,-4.624158,0.90809244,-7.4366584,-1.1699358,-5.736286
10.043688535690308,-2.0021243,-4.555129,0.8909147,-7.3413424,-1.1114169,-5.7579126
10.063753604888916,-1.8057156,-4.503345,0.88277066,-7.213143,-1.025203,-5.7826333
10.083829402923584,-1.6460421,-4.4694743,0.87901425,-7.0955706,-0.9386782,-5.8133593
10.10393476486206,-1.510854,-4.447504,0.87644833,-6.995234,-0.85852,-5.846059
10.124232769012451,-1.510854,-4.447504,0.87644833,-6.995234,-0.85852,-5.846059
10.144384622573853,-1.388768,-4.431414,0.873907,-6.908982,-0.78197545,-5.876769
10.164464473724365,-1.2710813,-4.417016,0.8711515,-6.8332806,-0.7044025,-5.9038076
10.18456244468689,-1.1520777,-4.4031973,0.8675632,-6.7639737,-0.62218374,-5.9283657
10.204626560211182,-1.0276268,-4.389686,0.8626038,-6.697376,-0.531846,-5.9516664
10.224748373031616,-0.8980197,-4.3776755,0.856691,-6.631831,-0.43100542,-5.974333
10.244807481765747,-0.7644787,-4.367927,0.85022306,-6.565924,-0.31962365,-5.9970546
10.264927864074707,-0.62954664,-4.359744,0.843996,-6.4980807,-0.20447677,-6.021843
10.285254001617432,-0.4959296,-4.3530903,0.8381456,-6.4308486,-0.08909089,-6.0477285
10.305423498153687,-0.4959296,-4.3530903,0.8381456,-6.4308486,-0.08909089,-6.0477285
10.325496673583984,-0.36447322,-4.347717,0.8325929,-6.3654,0.026508149,-6.073324
10.345627069473267,-0.23603092,-4.3435483,0.8274264,-6.3018575,0.14285296,-6.0974317
10.365690469741821,-0.3216467,-4.337225,0.8285058,-6.2050743,0.058203276,-5.8856945
10.385761260986328,-0.20766102,-4.358704,0.825532,-6.2360764,0.25131732,-6.029893
10.405874252319336,-0.28264427,-4.3199973,0.808791,-6.150005,0.1018806,-5.7213
10.425950050354004,-0.23522733,-4.366866,0.8263879,-6.209043,0.30922455,-5.9423532
10.44605278968811,-0.17634808,-4.345909,0.8042623,-6.153045,0.26957172,-5.8337955
10.466216802597046,-0.23069023,-4.310034,0.79154557,-6.1302056,0.20885271,-5.6495724
10.486383199691772,-0.23069023,-4.310034,0.79154557,-6.1302056,0.20885271,-5.6495724
10.506431341171265,-0.20543276,-4.339775,0.7970942,-6.1629844,0.32643658,-5.765641
10.52651071548462,-0.17998491,-4.3150644,0.7813065,-6.1356034,0.29563826,-5.6839447
10.546619415283203,-0.20657049,-4.293311,0.77337986,-6.1265135,0.27511972,-5.604907
10.566669702529907,-0.1677116,-4.3080816,0.7730358,-6.1403694,0.35447562,-5.6939077
10.58675241470337,-0.16020809,-4.2761497,0.7597041,-6.1055384,0.31252027,-5.602808
10.606878757476807,-0.17659162,-4.2630005,0.7546779,-6.097898,0.31398183,-5.572604
10.626928329467773,-0.13487826,-4.2570906,0.7525855,-6.108027,0.34980726,-5.6067677
10.648358583450317,-0.13487826,-4.2570906,0.7525855,-6.108027,0.34980726,-5.6067677
10.668463945388794,-0.041995037,-4.2191777,0.7518409,-6.1230903,0.34965044,-5.568038
10.688567638397217,0.017217886,-4.18764,0.7479001,-6.0932508,0.38291198,-5.55723
10.708695888519287,0.11682774,-4.1471853,0.7503171,-6.077752,0.42384773,-5.5494623
10.728739738464355,0.1802044,-4.109019,0.746543,-6.01081,0.46675682,-5.544625
10.748808145523071,0.25638342,-4.0610547,0.7481644,-5.9638066,0.51159763,-5.5232735
10.768937587738037,0.2776904,-4.026253,0.74290293,-5.8664784,0.5378645,-5.5162797
10.78900671005249,-0.29583085,-4.021903,0.7938702,-5.9376297,0.37177354,-5.273781
10.809086084365845,0.009844553,-4.133094,0.73458964,-5.8182697,0.56643605,-5.702873
10.829177141189575,0.009844553,-4.133094,0.73458964,-5.8182697,0.56643605,-5.702873
10.849317073822021,0.3001654,-3.9613185,0.7368956,-5.8890433,0.5644804,-5.379073
10.869372367858887,-0.48003495,-4.0377917,0.7683259,-5.747358,0.2564233,-5.2577024
10.889462947845459,0.104264274,-3.9936004,0.7675002,-6.04239,0.61459273,-5.4752636
10.909571170806885,-0.54636824,-4.039027,0.75050914,-5.7468967,0.20086426,-5.203747
10.929657936096191,0.15464427,-3.94632,0.77313703,-6.068049,0.6544698,-5.4505005
10.949968814849854,-0.51826715,-3.9930935,0.7548636,-5.7432103,0.21742696,-5.141412
10.969842672348022,0.1464056,-3.9023895,0.7763867,-6.0472836,0.6799228,-5.345069
10.990424633026123,0.1464056,-3.9023895,0.7763867,-6.0472836,0.6799228,-5.345069
11.010540246963501,-0.52113056,-3.9449139,0.7603321,-5.720659,0.23726016,-5.057781
11.030714511871338,0.118300214,-3.8576288,0.77774966,-6.0181274,0.70980024,-5.228987
11.05071210861206,-0.5370227,-3.894981,0.76629066,-5.6928463,0.25499558,-4.968951
11.070964813232422,0.08850373,-3.809697,0.7783791,-5.9876914,0.7409221,-5.1157303
11.091273784637451,-0.55879843,-3.842127,0.77239513,-5.663141,0.2686694,-4.8788223
11.111243724822998,0.06317176,-3.7581425,0.77944255,-5.95699,0.773431,-5.0083585
11.13148546218872,-0.5825963,-3.7858443,0.7786239,-5.6314754,0.27981842,-4.788534
11.151898384094238,-0.5825963,-3.7858443,0.7786239,-5.6314754,0.27981842,-4.788534
11.17197871208191,0.0407374,-3.7034774,0.7812561,-5.924715,0.80655825,-4.9033136
11.192087411880493,-0.54244244,-3.722508,0.77882785,-5.591787,0.31177312,-4.7199836
11.212193965911865,0.020295154,-3.6424592,0.7814806,-5.8714066,0.834933,-4.791543
11.232386350631714,-0.6423087,-3.6588876,0.7906922,-5.5530214,0.2962926,-4.6045585
11.25248670578003,0.0017868392,-3.5850906,0.7867559,-5.850271,0.87569624,-4.6986494
11.272565841674805,-0.46239412,-3.58591,0.7815329,-5.4950943,0.37804088,-4.5758576
11.292625904083252,0.02364112,-3.5100334,0.7890489,-5.763,0.914115,-4.614233
11.31273078918457,0.02364112,-3.5100334,0.7890489,-5.763,0.914115,-4.614233
11.332979917526245,-0.68620896,-3.5102696,0.7988143,-5.451002,0.31883946,-4.4340563
11.353237628936768,-0.038654674,-3.452916,0.7922139,-5.746566,0.9392826,-4.4817004
11.373109102249146,-0.6752378,-3.433858,0.7973523,-5.416119,0.35047448,-4.3358307
11.393545866012573,-0.089353666,-3.3820016,0.7945408,-5.681825,0.9534643,-4.329321
11.41368556022644,-0.35752106,-3.318937,0.7953669,-5.29343,0.5455775,-4.2457795
11.43373990058899,0.04239298,-3.2471979,0.8370922,-5.5050626,1.1893314,-4.206398
11.453917741775513,-0.78344667,-3.2069273,0.80138195,-5.247378,0.36722526,-4.175643
11.473966836929321,-0.78344667,-3.2069273,0.80138195,-5.247378,0.36722526,-4.175643
11.494089603424072,-0.07291983,-3.1717348,0.8417055,-5.444967,1.2467299,-3.9369135
11.51418924331665,-0.8660623,-3.0745478,0.794028,-5.1718283,0.39998096,-3.9998538
11.534252643585205,-0.059838284,-3.001983,0.9003893,-5.2158375,1.5880928,-3.5459979
11.554543733596802,-0.30813378,-2.9281087,0.8075476,-4.9209332,0.75977045,-3.9619858
11.574542999267578,0.09046139,-2.87271,0.93243754,-4.998511,1.6334047,-3.6988025
11.594673871994019,-0.8390324,-2.6780686,0.7951858,-4.7576427,0.4853766,-3.8178732
11.614707708358765,0.021034252,-2.5915926,0.99336797,-4.614008,2.1079443,-3.063826
11.634755611419678,-0.8425633,-2.252026,0.8325645,-4.316213,0.65631425,-3.411031
11.65483832359314,-0.8425633,-2.252026,0.8325645,-4.316213,0.65631425,-3.411031
11.674930095672607,-0.28434402,-2.5825477,0.968102,-4.634267,1.5511204,-3.2305439
11.695029973983765,-0.8099959,-2.4327703,0.92120904,-4.4468856,0.73942417,-3.6588676
11.715087175369263,-0.19049953,-2.6395798,0.91196084,-4.746154,1.3596961,-3.4641752
11.735180616378784,-0.80541503,-2.361877,0.87707496,-4.4228168,0.70196885,-3.5673883
11.755267858505249,-0.18701302,-2.5325174,0.9213464,-4.6691146,1.4191113,-3.3047984
11.77535104751587,-0.8858024,-2.2253792,1.0623211,-4.62816,0.2377547,-3.3293483
11.795385122299194,-0.8858024,-2.2253792,1.0623211,-4.62816,0.2377547,-3.3293483
11.815879106521606,-0.5661053,-2.1789272,1.0331985,-4.6527696,0.4536674,-3.255533
11.83578372001648,-0.54777515,-2.1468704,1.0967342,-4.606402,0.39350092,-3.2633677
11.855943202972412,0.05281354,-1.9802507,1.1337651,-4.367415,1.1494882,-3.322558
11.875967264175415,0.15010287,-1.7970515,1.1899465,-3.9229147,1.128059,-3.080089
11.896073818206787,-0.29356456,-1.6036223,1.2512003,-3.770499,0.8115732,-2.8467002
11.916147232055664,-0.505628,-1.6398216,1.307553,-3.714646,0.9820628,-2.8739495
11.937193632125854,-0.016597498,-1.6639,1.2379817,-3.6061385,1.5667645,-2.923038
11.957321643829346,-0.016597498,-1.6639,1.2379817,-3.6061385,1.5667645,-2.923038
11.97739315032959,0.124800935,-1.6381254,1.2917119,-3.508178,1.365444,-2.8661342
11.99746561050415,-0.13330303,-1.4122595,1.3544142,-3.4889908,1.1307988,-2.6117716
