liuyurong129/humanoid-gym/humanoid/data/robot2_actual_20250621-220425.csv
timestamp,joint_1,joint_2,joint_3,joint_4,joint_5,joint_6
0.00014829635620117188,0.0,0.0,0.0,0.0,0.0,0.0
0.020251750946044922,0.0,0.0,0.0,0.0,0.0,0.0
0.040302276611328125,0.0,0.0,0.0,0.0,0.0,0.0
0.060805320739746094,0.0,0.0,0.0,0.0,0.0,0.0
0.08061623573303223,0.0,0.0,0.0,0.0,0.0,0.0
0.10068678855895996,-0.0033332631050361997,-0.0033333327516850354,-0.003333319299500954,0.003333333333333334,-0.0033333268711819054,-0.0033337813861376315
0.12143659591674805,-0.006666596101180913,-0.006666666081981183,-0.00666665186318352,0.006666666666666668,-0.0066666601381836455,-0.0066671196073367234
0.14151954650878906,-0.01333326228547601,-0.013333328951469067,-0.013333317798485126,0.013333325898232462,-0.013333320313220421,-0.013333794608557251
0.16162443161010742,-0.019999928376834467,-0.019999992010456664,-0.01999998375968,0.019999980492481643,-0.0199999785695808,-0.02000047288247676
0.18185186386108398,-0.023333261737944287,-0.023333321912722506,-0.023333317093013332,0.023333297596906846,-0.023333301984135427,-0.023333802849003778
0.2018413543701172,-0.02999992776606281,-0.029999985283491584,-0.029999983069855334,0.02999994435752451,-0.02999995702917756,-0.030000483114757642
0.22191882133483887,-0.036666593717680884,-0.03666664878190737,-0.03666664905421162,0.036666587924881616,-0.036666610771440906,-0.0366671659198943
0.24196386337280273,-0.04333325960452404,-0.043333312396527573,-0.04333331504006196,0.043333228793315054,-0.04333326345148649,-0.04333385083761528
0.2620716094970703,-0.04666659199797786,-0.04666664570103537,-0.04666664769018297,0.04666656212664839,-0.04666659650406978,-0.04666721063989065
0.2821791172027588,-0.053333257779817206,-0.053333309418987486,-0.053333313669516144,0.05333320080676366,-0.05333324837654973,-0.05333389908756562
0.30230116844177246,-0.05999992354362311,-0.05999997324417965,-0.05999997964521853,0.05999983783109777,-0.05999989973047225,-0.06000058821735059
0.32257509231567383,-0.0666665893080544,-0.06666663717927888,-0.06666664562006147,0.06666647375959568,-0.06666655086197602,-0.0666672775391612
0.3426320552825928,-0.06999992279774409,-0.06999996795037852,-0.0699999789533948,0.06999977585152774,-0.06999986900363118,-0.07000060268809162
0.36301159858703613,-0.07666658859482288,-0.07666663213584986,-0.07666664493250919,0.07666641140380613,-0.07666652063516591,-0.07666729135463818
0.38287901878356934,-0.08333334050985217,-0.08333330031659358,-0.08333332963226298,0.08333307807047279,-0.07715774969121554,-0.08333332503345955
0.40294384956359863,-0.0900000211473083,-0.08999996454086233,-0.08324359899836996,0.08999970865270786,-0.07126646244302491,-0.08999973368069138
0.42308592796325684,-0.09333335469809244,-0.09333329542331095,-0.07991026566503663,0.09333301132322908,-0.06793310918529455,-0.09333305844705847
0.4431891441345215,-0.10000002019732855,-0.09999995955364502,-0.07324359827510649,0.09999965031153521,-0.06126642189390049,-0.09999974559934607
0.46327638626098633,-0.10666668569081747,-0.10666662367047708,-0.06657693089388994,0.10666629251773406,-0.05459973442114498,-0.10666643039937912
0.48346996307373047,-0.11333335235748412,-0.11333329033714373,-0.05991026422722328,0.11333295918440071,-0.04793306775447831,-0.11333309706604582
0.503450870513916,-0.12000001902415078,-0.11999995700381029,-0.053243597560556605,0.11999962585106556,-0.041266401087808866,-0.11999976373271243
0.5235698223114014,-0.12333608235290663,-0.12333035086679354,-0.04999240215762512,0.12285735909088973,-0.03801862286941469,-0.12289171493521302
0.5436291694641113,-0.13008697558040627,-0.12969887749690767,-0.0439595403801997,0.1269002286530465,-0.031610386771220036,-0.12713087013397692
0.5647385120391846,-0.1367936636599642,-0.13627317697282532,-0.03801708472918813,0.13000531425237694,-0.026190784192529796,-0.1310561028413063
0.5848679542541504,-0.140148222529411,-0.13955920158478993,-0.035124953345121016,0.13104607906988894,-0.023727615249572565,-0.1320272626174793
0.6053369045257568,-0.14686856864660958,-0.14605868739567032,-0.02937646598874587,0.1327136611458174,-0.01866334324751323,-0.13375213156689852
0.6251304149627686,-0.15360454744723748,-0.1524501732185539,-0.023704835079009733,0.13376394283186463,-0.013299308763374925,-0.13771634435087582
0.6452052593231201,-0.15699824419146968,-0.15551462185653545,-0.020982044286066086,0.1337137311287284,-0.010414454293793288,-0.13972097395555802
0.6653332710266113,-0.16379896792163842,-0.16161431297516773,-0.015566274010822334,0.13326131834904323,-0.004693029216281876,-0.14310992695472927
0.6853911876678467,-0.1706202712720589,-0.16767047849850453,-0.010156866348567944,0.13271012964622872,0.0011315665146682738,-0.14495257975129558
0.7060391902923584,-0.17406141184202792,-0.17064292533990927,-0.0074543572681446445,0.13161086207367728,0.005074170141648351,-0.14787684693643682
0.7261574268341064,-0.18096777531659713,-0.1765515616315606,-0.0020422046795621125,0.12915427019898607,0.013125756253910463,-0.15252777411045518
0.7462453842163086,-0.18828943233821552,-0.1810564879594471,0.0034260072420378047,0.1312698051412147,0.028478542817477515,-0.15540392531387517
0.7667627334594727,-0.1953548055322759,-0.18659979632226587,0.00922617002735513,0.13348967124125558,0.039738158500257574,-0.1585509590486472
0.7868611812591553,-0.1988341344518125,-0.1895408973883419,0.012090425810356043,0.13368018539127674,0.04411537889891363,-0.1615555514278516
0.806962251663208,-0.20582635294464918,-0.19536608514312265,0.017775653784488976,0.1333250529398377,0.05355043504892446,-0.16759585070398797
0.8273649215698242,-0.20935419292694551,-0.19821878689386097,0.02058793726857767,0.13272852562561369,0.05883435554025236,-0.17041789265084312
0.8475081920623779,-0.21702615208940462,-0.20215090496069385,0.02635413800025363,0.1388051599880166,0.08053872869204845,-0.17528878629952044
0.8678317070007324,-0.22421438435410232,-0.20763973574444294,0.03241373515537478,0.14316952554880752,0.09479556099866199,-0.1808886175719906
0.88775634765625,-0.23186900457923845,-0.2120472197535649,0.038501229263765695,0.15142395297812966,0.11783808192121085,-0.1853207713954522
0.9078619480133057,-0.235413243182799,-0.21502052819096923,0.041451364786776294,0.15125715703451623,0.1240473407552877,-0.18941124844121437
0.9279499053955078,-0.24292853118726923,-0.2202503478656009,0.04743614552997483,0.15365346651172146,0.14853324849118726,-0.19310573371873122
0.9480359554290771,-0.25044773118171343,-0.22576229617534319,0.053210706046827344,0.15065871506571063,0.17513587667614727,-0.1959172543453498
0.9681847095489502,-0.25404108829431576,-0.22870324948594692,0.056171222210284165,0.1491625680440206,0.1835953213673554,-0.1984490697003383
0.9886224269866943,-0.26135411437774875,-0.23434741444675025,0.0615229525347394,0.13542691626980632,0.19923510240426562,-0.19332672230241593
1.0084373950958252,-0.2683866391120049,-0.2400643201805027,0.06734730300300062,0.12729194609621444,0.20633746450048143,-0.18494756578015814
1.0288429260253906,-0.271981616376792,-0.24288561202216635,0.07005818021504331,0.11975930866244128,0.21076736481362776,-0.17913118780472773
1.0487287044525146,-0.27924641836028397,-0.2483917344353604,0.06893695492818114,0.10934716563249203,0.2211596892392406,-0.17112257705069786
1.0688080787658691,-0.2865838603108706,-0.25332934404338286,0.06152053735450654,0.11017121028009143,0.2286659930615361,-0.17266802253913094
1.0893638134002686,-0.2902345124802552,-0.2555965178324995,0.05786615838969583,0.11401984550751354,0.22923502960819217,-0.176368793409696
1.1095147132873535,-0.297548682392225,-0.26023719297152326,0.05044256605959665,0.12064488086795902,0.23023830291646838,-0.182817408890664
1.1296000480651855,-0.30489467557878336,-0.26502003216150316,0.04286388123266745,0.12558131480469245,0.2316526463180378,-0.18781719549956216
1.149899959564209,-0.31229017390661723,-0.269927919050989,0.035150583364843724,0.1289753875626403,0.23413343266754966,-0.1915231994541922
1.1698169708251953,-0.3149143796814241,-0.2724119628023257,0.03124212824551267,0.13043276274213156,0.23484573853125823,-0.19314753686306424
1.1899073123931885,-0.31423604923766896,-0.2773624513594947,0.023276072459771778,0.1345666979600543,0.23123067683248358,-0.19724897477526693
1.209984302520752,-0.3081235644491772,-0.28233905616998806,0.01510135054545263,0.14040240350466848,0.22287745348889174,-0.20265461466492596
1.2300682067871094,-0.3052256564819403,-0.2839290390453536,0.011886794747947101,0.1436808651619893,0.21851893565049868,-0.2053974532484742
1.2501907348632812,-0.2994394655395585,-0.286958004844415,0.005587880493437192,0.14988330225507626,0.20966025926752557,-0.2105111161926313
1.2702600955963135,-0.29403303130320224,-0.29012428817070296,-0.0012104845274467841,0.1828970990557506,0.21999840537971285,-0.24086608142783383
1.2906997203826904,-0.28815752847472215,-0.29484059981215543,0.002489482335532831,0.1992755976930406,0.22262117228446798,-0.25624528715711414
1.3108010292053223,-0.2852357817955981,-0.2971712132916096,0.005072539099509665,0.20723410433101513,0.22448002063761283,-0.26375890560488274
1.3308815956115723,-0.27954947698978544,-0.3014720849620452,0.010372993232125316,0.22634578120164311,0.23009003656575375,-0.28128730635131616
1.3509705066680908,-0.27669170050255276,-0.30368690301178203,0.013073259939392054,0.2351021125092811,0.2338214206640598,-0.2892256627272399
1.3710603713989258,-0.27100592579017835,-0.308122232692579,0.018495420328301513,0.2514298144446123,0.2433341549265645,-0.3031950861214577
1.3912932872772217,-0.2653847299122925,-0.3125217487963194,0.02394015929910389,0.25338336198792777,0.25575009448556985,-0.31810947667953016
1.4113121032714844,-0.25979073526984564,-0.316986545424981,0.02741860968468814,0.2530808087180647,0.27128056150380075,-0.3311993144204249
1.4313793182373047,-0.2569572991744587,-0.31934291314759866,0.023564014205175565,0.25170576333617833,0.27982982962348973,-0.33669728715530006
1.4514477252960205,-0.2512197761729021,-0.324270069636602,0.01580473549993382,0.24600431636940576,0.2976311842530474,-0.3384977605800124
1.4715540409088135,-0.24573501145149704,-0.3287932778256882,0.008544589333623169,0.24357002695699345,0.3241326434997917,-0.3369738445886587
1.4917657375335693,-0.24298701828613448,-0.3311201974638104,0.004978108130801686,0.24196876146168114,0.3387211203259688,-0.33596791413567484
1.5119221210479736,-0.23746004741613722,-0.3359570632588688,-0.0021367822643521195,0.24964221680992502,0.36946599952077763,-0.33196236120754724
1.531968593597412,-0.23207567569721665,-0.34063802341780214,-0.009165460705275606,0.2652275337117996,0.39803530504711415,-0.3347587637432575
1.5520572662353516,-0.2266205029138334,-0.3455652451411554,-0.01622759508351737,0.2794581257715684,0.42612852403817875,-0.33639965825507007
1.5721511840820312,-0.22386938917873722,-0.3481187753945679,-0.019766146718308057,0.2860812426165399,0.4400651421074305,-0.3368050431135714
1.5922107696533203,-0.21761412009845876,-0.3472777058192491,-0.027035347612043178,0.2909474260625161,0.45451407210943745,-0.3293913930852865
1.6123576164245605,-0.2112051813351412,-0.34009500172465285,-0.0344283319827601,0.2934907258330777,0.4665720000707842,-0.31985742809357115
1.6329467296600342,-0.20799429762839677,-0.33652851542802786,-0.03810050059662303,0.2947022182393299,0.472682681968228,-0.3150498016851676
1.6527979373931885,-0.2148845134136532,-0.32946652466386234,-0.04549095240533161,0.29537527444275935,0.4860940075680252,-0.30410123748800705
1.672882318496704,-0.22160863252076082,-0.3227042015533509,-0.052558832998851654,0.29867510435204875,0.4944898916774514,-0.29486394234754104
1.6933770179748535,-0.2283569218640739,-0.31591891298778185,-0.05931799438529907,0.3034988479069108,0.5048633714187076,-0.28700401720500707
1.713547706604004,-0.22502523264120977,-0.3125827970601781,-0.06265344818111236,0.3068279211514059,0.5082274522377873,-0.2836703214286625
1.7335805892944336,-0.21835856691914396,-0.30591613159859254,-0.06932011769563878,0.31349458781806416,0.5148941209052319,-0.27700370613802733
1.7536966800689697,-0.2116919000568479,-0.29924946545830855,-0.07598678436230544,0.3201612401746049,0.521560781171432,-0.27033702844614005
1.773979902267456,-0.20835856672334416,-0.2959161321254303,-0.07932011769563876,0.3234945734952938,0.524894114499212,-0.26700369510306665
1.7941303253173828,-0.20169190005667426,-0.2892494654587722,-0.08598678436230542,0.330161240161717,0.5315607811657722,-0.2603370284362122
1.8141884803771973,-0.195025233390002,-0.28258279879212034,-0.09265345102897207,0.3368279068279601,0.5382274478322538,-0.2536703617692184
1.8343040943145752,-0.18835856688972522,-0.2759161326400672,-0.0993201185587944,0.3434945691742124,0.5448941132929174,-0.24700370676314284
1.8545053005218506,-0.1916919001221229,-0.2725827995747266,-0.10265345189212773,0.3468278943103014,0.5482274435595118,-0.2436703672023792
1.8748161792755127,-0.1916919000498506,-0.26591613308912876,-0.10932011855879438,0.3534945557760042,0.5548941074830344,-0.23700369639503444
1.894751787185669,-0.18638905860006236,-0.25924946676856314,-0.11598678522546103,0.3601612118074927,0.561560769552369,-0.2303370214882348
1.9148917198181152,-0.1846165014238902,-0.25591613343522984,-0.11932011855879436,0.36349454514082574,0.5648941028857022,-0.2270036881549012
1.9350507259368896,-0.17794983479961954,-0.24924946691918407,-0.12598678550018988,0.3701612107972084,0.5715607693430725,-0.22033702525547458
1.955111026763916,-0.18423038739764586,-0.24258280025252044,-0.13265345216685653,0.37682787746377766,0.5782274360096962,-0.21367035858873204
1.9751968383789062,-0.177563720655873,-0.2359161337720551,-0.1393201188335232,0.383494538159095,0.5848940997903445,-0.20700368720938933
1.9953358173370361,-0.18423038732238695,-0.2292494671057718,-0.14598678550018984,0.3901612048131024,0.5915607664513848,-0.20033702053285055
2.0153849124908447,-0.18089705399273054,-0.22591613376127404,-0.14932011883352317,0.3934945386128648,0.5948940998174176,-0.19700368751982247
2.035487174987793,-0.18089705376142862,-0.2192494676734908,-0.15598678550018982,0.400161185494226,0.601560757727112,-0.19033700542928894
2.055593490600586,-0.1808970539867181,-0.21258280044407618,-0.16265345216685648,0.4012728218195523,0.6082274331187877,-0.18367035406464613
2.0756568908691406,-0.18089705390349506,-0.20591613398802258,-0.16932011883352313,0.3996505479291054,0.6148940964992242,-0.17700368163879435
2.0957515239715576,-0.18423038723682844,-0.20258280065468945,-0.17265345216685693,0.39999010028913373,0.618227429832558,-0.1736703483054681
2.1158676147460938,-0.17756372065426254,-0.19591613377066222,-0.17932011883352358,0.3933234414077581,0.6248940998283632,-0.16700368769956736
2.1359338760375977,-0.18423038709516767,-0.18924946772311016,-0.18598678550019024,0.38665675220814033,0.6315607571707562,-0.16033700344682497
2.1560723781585693,-0.177563720348557,-0.18258280104760755,-0.19265345168225892,0.37999007865020695,0.6382274205845704,-0.15367032376181733
2.1772890090942383,-0.18089705368189032,-0.17924946771427422,-0.19598678501559225,0.3766567453168736,0.6415607539179037,-0.150336990428484
2.1973938941955566,-0.18423038701521902,-0.1759161343809549,-0.19932011834892557,0.37332341198301555,0.6448940872510356,-0.14700365709474117
2.2178354263305664,-0.177563720355162,-0.16924946769386395,-0.20598678501562068,0.366656746088188,0.651560754204302,-0.1403369910294861
2.2376065254211426,-0.1808970536937262,-0.1659161344232872,-0.20932011850710996,0.36332341275485464,0.6482274210335623,-0.1370036601227295
2.2579421997070312,-0.18756372043592492,-0.15924946834848205,-0.21598678665695412,0.3566567460881879,0.6415607558753166,-0.13033701620418528
2.2778115272521973,-0.19423038718437086,-0.1525828023571761,-0.22265345504360792,0.3566567460881879,0.6348940909522712,-0.1236703764693369
2.2987043857574463,-0.19756372051764928,-0.1492494690240225,-0.22598678837694125,0.35999007941467587,0.6315607576165309,-0.12033704313068809
2.318831443786621,-0.20423038727651874,-0.14258280299028275,-0.23265345665045353,0.3666567460813426,0.6248940926159189,-0.11367040182630554
2.3389227390289307,-0.2108970538830742,-0.149249469396041,-0.23932012255139778,0.3733234111836172,0.6182274245742222,-0.10700372182182818
2.359076976776123,-0.21756372215027606,-0.14957505600880155,-0.23265348610638087,0.3799900532564758,0.6115607804256699,-0.10033751787918171
2.3791260719299316,-0.22089705632320047,-0.1529083868886116,-0.22932015277304754,0.3833234792707807,0.6082274826295664,-0.10367092292480543
2.3995134830474854,-0.22756372205059175,-0.1595750562005033,-0.2226534861063809,0.38999004705855983,0.6082274434270913,-0.11033751304453142
2.419377088546753,-0.2342303882500913,-0.1662417241603155,-0.21598681943971423,0.3966566653619128,0.614894090573251,-0.11700414221471012
2.43943190574646,-0.24089705480212334,-0.172908392068384,-0.20932015415350608,0.40332330696036,0.621560748411946,-0.12367081089372471
2.4595320224761963,-0.24423038787492546,-0.1762417261027816,-0.20598682082017275,0.4066566140363154,0.6248940707172417,-0.1270041237791236
2.4796335697174072,-0.25089705419619523,-0.1829083936865352,-0.1993201541535061,0.4133232463473845,0.6315607226620211,-0.13367076363447924
2.499702215194702,-0.2575637202859118,-0.1895750618668515,-0.19265348748683944,0.4199898563209589,0.6382273645673915,-0.14033738597055367
2.5197906494140625,-0.26089705361924503,-0.1929083952001851,-0.18932015415350611,0.4233231896542817,0.6415606979007201,-0.14367071930387873
2.5402204990386963,-0.26759950287421685,-0.19957509109752394,-0.18296992892590233,0.4284599908928471,0.6472259937856534,-0.14908776956548594
2.560044765472412,-0.27435441228963325,-0.2062373784795472,-0.17706819840534438,0.4315818238569804,0.651287928514797,-0.15283541559680347
2.5806148052215576,-0.27774001687410527,-0.20956629798689225,-0.1741843716436356,0.432935641748049,0.6529481761785059,-0.15451933942799517
2.600738048553467,-0.2845689036356361,-0.2162074212966912,-0.16885982083877232,0.434151256288922,0.6542549664078052,-0.15658076477881072
2.6208202838897705,-0.2913798454482659,-0.22283018765095022,-0.1632686470518698,0.4370935584202015,0.656429145090997,-0.16003759038718277
2.6409146785736084,-0.298196488525501,-0.22944712663126443,-0.15773951035087014,0.4402623891694942,0.6576486801088209,-0.1635766042623507
2.6610443592071533,-0.29494937527336507,-0.23275003223866178,-0.1550737934206097,0.44174922897497304,0.6574572116074489,-0.16519831232174126
2.681093215942383,-0.288456593451409,-0.23935727957553754,-0.14981761207211142,0.4442862477917809,0.6565342662015646,-0.16805343737460463
2.701139450073242,-0.2819681166035168,-0.24596635427937005,-0.1447043343437155,0.44606525813880915,0.6546240547114502,-0.17023376560251702
2.7215592861175537,-0.27872659759348234,-0.24927018944597604,-0.1422084778157648,0.4466562283613059,0.6532748259837866,-0.1710588126797123
2.742064952850342,-0.2722302297740037,-0.25588246156853306,-0.1371683398164642,0.44778217041958557,0.6507375217428628,-0.17267113364539702
2.761960029602051,-0.2657205429777089,-0.2625064873492684,-0.13219074678029955,0.44828308479415807,0.6475169991935733,-0.17373010699916894
2.7819080352783203,-0.25919273354705497,-0.2691458392252262,-0.12726620430698743,0.44815327335311317,0.6436051175320647,-0.17422689460330615
2.8020381927490234,-0.2559205422715598,-0.2724723654456885,-0.12482059380076994,0.4478541701634935,0.6413901966348292,-0.17426507014249298
2.8220877647399902,-0.24935593107012408,-0.2791410799464425,-0.11993977831708616,0.44020600251927144,0.6365543516644329,-0.1739943689373497
2.842317581176758,-0.2428745152395279,-0.2858317238963579,-0.1150057458652393,0.42363966490460553,0.6348141158826739,-0.17225019272792763
2.8623952865600586,-0.23962807958749655,-0.28919251018313674,-0.11253075117727449,0.4148261274051934,0.6339711994151913,-0.17095958013863283
2.8824751377105713,-0.2331338258562195,-0.2959547123165806,-0.10767052621924592,0.3951567813822797,0.6320050044036032,-0.16674672465742296
2.9025678634643555,-0.22661947445293407,-0.3027702460406798,-0.10273048478597,0.3735527423117081,0.6311186339686868,-0.16109878718263787
2.922678232192993,-0.2233587691258315,-0.29952234081028306,-0.10020072333012302,0.36242858330922634,0.63130440912341,-0.15807439908735535
2.942758560180664,-0.21679284824832948,-0.29294479299949155,-0.1011194611890142,0.3464003096261788,0.6351350103727548,-0.1571968377273624
2.96287202835083,-0.21015892152556898,-0.28630077186981095,-0.10804342815773385,0.343674251511784,0.6412418418412199,-0.15502734912940586
2.982954740524292,-0.20683795776336797,-0.28298135002599883,-0.11149161984978133,0.3456840472087995,0.64432994648252,-0.15064186745959468
3.0031611919403076,-0.2001853925803104,-0.27633342317197523,-0.11830686763105619,0.35065184397921234,0.6506898614449489,-0.14262734286601683
3.0231773853302,-0.19352178654597244,-0.2696727059087676,-0.1250171179233009,0.3568248381213718,0.6572688128508972,-0.13557207598452375
3.043259382247925,-0.18685511107017938,-0.26300606927807557,-0.13168383669827333,0.3634908909116387,0.6639353875330021,-0.12890550482428628
3.0633933544158936,-0.18352177264311312,-0.2596727509835157,-0.1350171803143538,0.3668236667499964,0.667268584490859,-0.1255717374146999
3.083735704421997,-0.1768550968352835,-0.2530061173791744,-0.14168391036383074,0.37348977176418324,0.6739351702882187,-0.11890534198195782
3.103666305541992,-0.1701884165906838,-0.24633949314098624,-0.1483506688337822,0.38015586331325657,0.6806017903275807,-0.11223932187346883
3.123694896697998,-0.16352173218883825,-0.23967287954157532,-0.1550174854962487,0.38682238109350714,0.6872686112067892,-0.1055745495960646
3.1438231468200684,-0.1601883901689858,-0.23633957003077802,-0.15835088637192904,0.3901556472818905,0.6906020172803964,-0.10224206791001367
3.163909673690796,-0.15352171628224243,-0.22967293702197006,-0.16501764305974803,0.39682225229785784,0.6972687799985928,-0.09557657777479589
3.1840708255767822,-0.146855051756122,-0.22300629430850885,-0.17168436639305992,0.40348891896452455,0.7039355025216589,-0.08891070418088892
3.204113721847534,-0.1401883860738085,-0.21633963980449178,-0.178351061804105,0.41015558563118704,0.7106021978587527,-0.08224443638185731
3.2242536544799805,-0.13685505274037343,-0.2130063064714757,-0.18168439513743834,0.41348891895216366,0.7139355311870585,-0.07891110303880626
3.2443082332611084,-0.13018838606279537,-0.20633963983894954,-0.188351061804105,0.42015558427474375,0.720602197302531,-0.07224443531545661
3.264397382736206,-0.1235217193852637,-0.19967297320646057,-0.19501772847077165,0.42682224957690884,0.727268863403832,-0.06557776757663396
3.285292148590088,-0.12018838603159934,-0.19633963993737627,-0.19835106180410497,0.4301555803189017,0.7306021956550806,-0.06224443220805983
3.305643320083618,-0.11352171932457049,-0.18967297339892997,-0.20501772847077163,0.4368222417624347,0.7372688601239364,-0.05557776144124365
3.3254973888397217,-0.10685505266002097,-0.1830063067256005,-0.21168439513743828,0.43015557536890525,0.743935526907531,-0.04891109498896543
3.345708131790161,-0.10018838599301472,-0.17633964006009828,-0.21835106180410493,0.4234889086536176,0.7506021935544873,-0.04224442828423523
3.365736246109009,-0.096855052659352,-0.17300630672792178,-0.22168439513743826,0.42015557527174985,0.7539355268684351,-0.038911094912933174
3.385780096054077,-0.09018838599231727,-0.16633964006258392,-0.22835106180410492,0.4134889085490389,0.7576315649493743,-0.032244428202458306
3.40618634223938,-0.08352171932337456,-0.15967297338385353,-0.23501772843958046,0.4068222418345531,0.7546246658593342,-0.025577761108225298
3.4260520935058594,-0.0835217186091573,-0.15300632087787383,-0.2416844306759235,0.4001555751678864,0.7479580367379683,-0.01891155895833354
3.446122884750366,-0.08685505137203144,-0.14967299914940585,-0.2450177934584445,0.39682224183455306,0.7446247344516863,-0.015578614535061415
3.466237783432007,-0.08018838417932597,-0.14300634321021463,-0.25168448766368406,0.39015557516788635,0.7379580967687853,-0.008912316152814983
3.486368179321289,-0.08685505030009308,-0.136339678653898,-0.2583511543303508,0.38348881876925883,0.7312913983020548,-0.0022455795462644926
3.5064451694488525,-0.0801883836334219,-0.12967301198724906,-0.2650178209970175,0.37682215210184145,0.7246247316351297,0.004421087120987066
3.5264763832092285,-0.08352171620754964,-0.1263396927595825,-0.26168452493016003,0.3734888187685081,0.721291437298855,0.007753906205659727
3.5466017723083496,-0.09018838322259955,-0.1263396785520286,-0.2616844875395859,0.3734888187685081,0.7146247316129117,0.007754427906919747
3.566662549972534,-0.09685504921147473,-0.13300636777839786,-0.2616845469359877,0.3801554854351748,0.7079581272797456,0.0010869280497470372
3.587003231048584,-0.10352171560571509,-0.1396730541044007,-0.25501793148313034,0.3868221521018415,0.7012915147341565,-0.005580461015236526
3.6070752143859863,-0.10685504897398908,-0.14300639734664258,-0.25168462369115585,0.39015548543517486,0.69795820852498,-0.008914156013296488
3.6271579265594482,-0.11352171508033547,-0.14967307691119489,-0.24501798248814793,0.39682203319301695,0.6912915256084758,-0.015581092222287153
3.647268533706665,-0.12018838229625113,-0.15633975439585965,-0.23835134295016497,0.40348869985968366,0.6846248880350169,-0.022248146549067017
3.667343854904175,-0.12685504968721603,-0.16300643151043198,-0.23168470162193355,0.4101553584735203,0.6779582455064331,-0.028915170504849298
3.6874325275421143,-0.13018838394478313,-0.16633977515505818,-0.2283513936053142,0.41348869180685366,0.6746249394445252,-0.03224886777891124
3.707707405090332,-0.13685505184586083,-0.17300645366430897,-0.22168475579311991,0.42015535847352037,0.6712471916350026,-0.038915950055215934
3.7276556491851807,-0.14352171967136024,-0.17967313145686567,-0.21501811485743436,0.42682200791039204,0.67454054399987,-0.04558297342324476
3.7477166652679443,-0.1501883853132802,-0.18633979576271567,-0.208351443183163,0.43348867457705875,0.6745405391201595,-0.05224957660370599
3.7678098678588867,-0.1535217202833518,-0.18967314044886913,-0.20501813651055878,0.4368220079103921,0.6712072344880076,-0.05558328784710915
3.7880208492279053,-0.16018838856368578,-0.19633981969885125,-0.19835149740090477,0.4434886470893165,0.677873918459449,-0.06225032134769861
3.8081352710723877,-0.1668550480118936,-0.20300649830236897,-0.19168485926371148,0.4501553214000103,0.6845406266279231,-0.06891749506028048
3.82820463180542,-0.17375023147668484,-0.20968342746168964,-0.18570859129684547,0.4467755115680441,0.6958755077569639,-0.0684981696710929
3.848299980163574,-0.17726628076648787,-0.21302226784425576,-0.18290432943525442,0.4424918342582298,0.7028000277609974,-0.06648357358315388
3.8683769702911377,-0.18404063417046188,-0.21969968230618084,-0.17655017554317912,0.443890429075696,0.7119264442982813,-0.07035947736208313
3.888453960418701,-0.19084016778522503,-0.22640218753697627,-0.17030643904465867,0.4434323166321092,0.7219773912533145,-0.08449996729703245
3.9096367359161377,-0.19419804975975666,-0.2297414721569845,-0.16705180775391548,0.44565090013567027,0.7260221228470962,-0.09202455106460694
3.929579019546509,-0.20086471779235826,-0.23640815476204483,-0.16038517693232374,0.452317566802337,0.7326888263233423,-0.09869168679092158
3.949826240539551,-0.20753138699543444,-0.24307485100734547,-0.1537185761827967,0.4589842334690037,0.7393555604162184,-0.10535920706999757
3.9699666500091553,-0.2141980548654791,-0.24974153338502847,-0.1470519434373742,0.46565088939905663,0.7460222565029769,-0.11202629756558916
3.9901084899902344,-0.2175313881007474,-0.25307486700337845,-0.14371861010404088,0.4689842117670113,0.7493555845750413,-0.11535962222992965
4.010159730911255,-0.2241980560838251,-0.25974154961581297,-0.13705197809930858,0.47565087843367754,0.756022286260258,-0.12202672506712117
4.030238151550293,-0.23086472264805574,-0.2664082165820751,-0.13038531143264193,0.48231753371297553,0.7626889472522117,-0.12869338272135353
4.050603151321411,-0.2341980573115273,-0.2697415668705733,-0.1270520141521592,0.4856508670463089,0.7660223165157385,-0.1320271584242196
4.070720434188843,-0.24086472539245835,-0.2764082522506831,-0.1203853868633972,0.4923175337129756,0.7726890221386373,-0.1386943024978914
4.090808629989624,-0.2475313932657069,-0.283074937167012,-0.1137187575090389,0.4989841886325278,0.7793557193207451,-0.1453614063908446
4.110947132110596,-0.2541980625258804,-0.28974164042591827,-0.10705216634397882,0.5056508552991944,0.7860224595284594,-0.1520289682469018
4.13097357749939,-0.2608647303438426,-0.296408326299063,-0.1003855381067698,0.5123175099146853,0.7926891567216181,-0.15869607403390995
4.151050806045532,-0.2641980635680159,-0.2997416599660248,-0.09705220477343647,0.5156508310676269,0.7960224834113194,-0.16202939771263025
4.171194076538086,-0.2708647315295918,-0.3064083474265237,-0.09038557997098522,0.5223174977342935,0.8026891899456763,-0.1686965470524559
4.191236734390259,-0.27753139925447257,-0.3130750342158881,-0.08371895270041359,0.5289841520083726,0.8093558867298022,-0.17536365273458973
4.212059497833252,-0.2775314112394478,-0.3197417200696649,-0.07705231654623415,0.5356508186750392,0.8160225760288696,-0.18203061127963607
4.232178449630737,-0.2741980790179705,-0.323075074012612,-0.07371902334916217,0.5389841520083725,0.8193559462284966,-0.18536439057846862
4.252297401428223,-0.2675314144628827,-0.32974178249807296,-0.06705243747038642,0.5456508186750391,0.826022686371124,-0.1920319468007243
4.272392749786377,-0.26086472689709833,-0.3364084591173981,-0.060385754323141416,0.5523173988730051,0.8326883984452884,-0.19869840438482753
4.292456388473511,-0.2575313934490822,-0.33974179314254993,-0.057052421066791745,0.5556507065908635,0.8360217184513503,-0.20203171737145947
4.312527418136597,-0.25512713964873523,-0.3464084732527142,-0.050385754849904894,0.5623169291640238,0.8426880992856465,-0.2086980205192762
4.332935094833374,-0.25262999464470476,-0.3530751422715753,-0.04371909895636171,0.5689832402688062,0.8493549047272206,-0.2153644544434055
4.3528313636779785,-0.24596339884926444,-0.35974180954563784,-0.03705249012293602,0.5689817815075543,0.8560223508134781,-0.2220301917091501
4.3728954792022705,-0.24263007518668392,-0.363075142368277,-0.03371916453287865,0.5656482743229547,0.85935579856986,-0.22536341749916666
4.392985105514526,-0.23596340430836898,-0.36974182753610446,-0.027052504588993668,0.5589811077901263,0.8660221812842495,-0.23202976044530205
4.413092374801636,-0.22929673724632227,-0.363075182384715,-0.03371921124196057,0.5656477744567929,0.8726888807220354,-0.225363504886964
4.43326997756958,-0.22263006948474634,-0.35640853803966116,-0.04038591873083418,0.57231442861949,0.8793555740283415,-0.21869724549069752
4.453399181365967,-0.2192967349817896,-0.3530752265110214,-0.043719292576761805,0.5756477619528233,0.8826889415823083,-0.2153643242398732
4.473450422286987,-0.21263006552460817,-0.3464086030242909,-0.05038603928738647,0.5823144286194899,0.8893556767286893,-0.20869846626419697
4.493595123291016,-0.20596339551214599,-0.33974197892408753,-0.05705278462494093,0.5889810952861565,0.8960224117994376,-0.2020325871839929
4.513773679733276,-0.19929672499841078,-0.33307535416139017,-0.06371952851323796,0.5956477619528231,0.902689146642736,-0.19536668647412678
4.5338616371154785,-0.19596338956992415,-0.32974204151637443,-0.06705289989068405,0.5989810952861564,0.9060225139319883,-0.19203372785768869
4.553955793380737,-0.18929671840140222,-0.32307541566890047,-0.07371964146709008,0.605647761952823,0.9126892481526153,-0.18536779382983928
4.574382066726685,-0.18263004685837164,-0.31640878903873965,-0.08038638141421,0.6123144286194896,0.9193559817740449,-0.17870183708611406
4.5942583084106445,-0.175963383520493,-0.3097421179431174,-0.08705303818662945,0.6092356525290766,0.9260226379472783,-0.1720350624420151
4.614720821380615,-0.17263005087842795,-0.3064087869203406,-0.09038637507352712,0.6059023191957433,0.9293559740431401,-0.16870175898520073
4.634580850601196,-0.16596337814421225,-0.2997421573236529,-0.09705311089415337,0.5992356525290767,0.9360227056474042,-0.16203575299754838
4.654623031616211,-0.15929670485881006,-0.2930755265619416,-0.10371984556001519,0.5925689858624101,0.9426894367259777,-0.15536973383798364
4.674744129180908,-0.15596336802802724,-0.2897422107585015,-0.10705321247607893,0.5892356525290768,0.946022802054971,-0.15203671939538893
4.69490122795105,-0.14929675595093017,-0.2830755218486926,-0.11371984335751847,0.582569231873052,0.9526894437800085,-0.14536976223560535
4.714949131011963,-0.14263010900629708,-0.27640882893933455,-0.12038648480163561,0.575902708406708,0.9524289741030602,-0.13870289311469017
4.735014915466309,-0.13751163844296474,-0.26974217987221205,-0.12705318677832914,0.5692360417400414,0.9457623419890078,-0.13203656312336984
4.755102157592773,-0.13379380320432782,-0.26307553162950303,-0.1337198907452774,0.5625693750733748,0.9390957121664832,-0.12537025546784986
4.775444746017456,-0.13046046832044186,-0.259742209276394,-0.1370532457704907,0.5592360417400415,0.9357623998951328,-0.12203712871275532
4.807429075241089,-0.12712713498701866,-0.2564088759434682,-0.14038657910465902,0.5559027084067082,0.9324290665626332,-0.11870379538754947
4.8516786098480225,-0.12712713498701866,-0.2564088759434682,-0.14038657910465902,0.5559027084067082,0.9324290665626332,-0.11870379538754947
4.871731758117676,-0.12046046663128013,-0.249742221587817,-0.14705324577132567,0.5492355381140552,0.925762140202198,-0.1120367441142325
4.891785144805908,-0.1271271294883366,-0.2430755739153566,-0.15371995213486384,0.5425688714473886,0.9190955138386714,-0.10537047147846833
4.9120776653289795,-0.12379379686848671,-0.23974223858969862,-0.15705328103615376,0.5392355381140553,0.9157621757997565,-0.10203709259172106
4.933164119720459,-0.11951131923728665,-0.23307558981078927,-0.16371998555288714,0.5325688714473887,0.9090955479127262,-0.09537080611335767
4.953498840332031,-0.11865708945385832,-0.22974227280666246,-0.16705335382552636,0.5292355381140554,0.9057622506478866,-0.09203782740043959
4.97347354888916,-0.1253237529036922,-0.22307562411676504,-0.1737200593669048,0.5225688714473888,0.8990956243766878,-0.08537155929126691
4.993554353713989,-0.1186570836620773,-0.21640897262766656,-0.18038675923786796,0.5159022047807222,0.8924289924358776,-0.0787052369032678
5.013674736022949,-0.12532374791440745,-0.21616121157036017,-0.18705345682386626,0.5092355381140556,0.8857623582211498,-0.07203889482910622
5.033770561218262,-0.12199041392630729,-0.212827882002655,-0.19038679855285506,0.5059022047807223,0.882429033692859,-0.06870565006156978
5.053861618041992,-0.11918330062168608,-0.2128278906160141,-0.19705348445848833,0.4992355381140557,0.8757623872262742,-0.0659738534048182
5.073915719985962,-0.11632356206018607,-0.21282791479594904,-0.2037202062787039,0.492568871447389,0.8690957784794017,-0.06984899691901252
5.094012260437012,-0.11299022586903885,-0.2094945963882839,-0.2070535740323435,0.4892355381140556,0.8657624813084177,-0.07318270453451907
5.11411190032959,-0.10632355848651516,-0.20282793318190903,-0.21372024069901016,0.48256871756486447,0.8590957476966185,-0.07984925268328658
5.134171009063721,-0.09965689615707822,-0.20949457601468555,-0.22038684365954295,0.4759019034686994,0.8524289508739714,-0.08651510119482628
5.154245376586914,-0.10632355422095761,-0.2028279515214184,-0.21372027745110223,0.4692352368020327,0.8457623897121479,-0.09318289561790664
5.174702405929565,-0.10299022054897354,-0.2003566489292764,-0.2103869487758919,0.4725685701353661,0.842429061272147,-0.09651628160718065
5.194536924362183,-0.10325299763920524,-0.19479914594563472,-0.20372028210922524,0.4740522145649681,0.8357623072084348,-0.10318279025898117
5.214625358581543,-0.10325299975672476,-0.1947991231996284,-0.20372022707722312,0.4757209841813021,0.8290955620382763,-0.10984879236048892
5.234706163406372,-0.09658633004229815,-0.2014658192726659,-0.20372029508934758,0.4757209841813021,0.8224289682378996,-0.11651624110398104
5.255062580108643,-0.09325299521046745,-0.20479916747232918,-0.2003869961123742,0.47238765084796874,0.819095671554443,-0.11984997233095285
5.275290489196777,-0.09991965945648706,-0.21146584374623295,-0.19372032944570755,0.4657205690465126,0.8124288251365699,-0.12651631657178314
5.29534387588501,-0.10658632349054992,-0.21813254038656207,-0.187053731999852,0.4590539023798459,0.8057622309781142,-0.13318380075862787
5.315428972244263,-0.11325298867548343,-0.22479922683816528,-0.18038711078488115,0.4657205690465126,0.7990956115472171,-0.1398510097572391
5.335660934448242,-0.11658632193882826,-0.2281325612654681,-0.17705377994397947,0.46905390237984596,0.795762280806323,-0.14318437292625266
5.355594873428345,-0.12325298729397312,-0.23479925866892357,-0.17038718245395132,0.47572056904651266,0.7890956859784528,-0.14985186952111793
5.375725030899048,-0.12991965354274418,-0.24146594209232733,-0.16372055307916195,0.4823872357131794,0.7824290579976877,-0.15651898492095892
5.395819902420044,-0.13658632018888017,-0.24813262587645057,-0.15705392396530757,0.4890539023798461,0.775762430188372,-0.16318610495502184
5.4161176681518555,-0.13991965389445402,-0.25146597550235467,-0.15372062588469765,0.49238723571317944,0.7724291331971236,-0.16651986501831603
5.436234712600708,-0.14658632114435352,-0.2581326586424248,-0.14705399461200128,0.4990539023798461,0.7657625029332052,-0.17318696064999192
5.45630669593811,-0.15325298781102212,-0.26479932530912753,-0.14038732794541123,0.5057205690465127,0.7593532250387134,-0.1798536273175906
5.476388454437256,-0.15991965447768877,-0.27146599197579424,-0.13372066127874457,0.5123872357131793,0.76601989170538,-0.18652029398425735
5.4964799880981445,-0.16325298833521865,-0.2747993238963404,-0.13038732794541125,0.5157206227311458,0.762686588355423,-0.18985367007104537
5.516551733016968,-0.16991965729066572,-0.2814660130023005,-0.12372070725085954,0.5223872893978124,0.7626866344020128,-0.19652088892499994
5.536941766738892,-0.17658632615211345,-0.2881326996897194,-0.11705408115799182,0.529053956064479,0.7693533413763362,-0.20318803999731
5.557739734649658,-0.1799196615350473,-0.29146605215361593,-0.11372078617075594,0.5323872893978123,0.7726867124326934,-0.20652182556279575
5.57789421081543,-0.18658633038029335,-0.29813273989224526,-0.10705416129473762,0.5390539560644789,0.7793534197984243,-0.21318897922687874
5.597973823547363,-0.1932529991020151,-0.304799424463869,-0.10038752969138613,0.5457206227311455,0.7726867868799286,-0.21985605200069447
5.618043661117554,-0.19991967146598633,-0.31146613090237973,-0.09372093981366733,0.5523872893978121,0.7793535263970605,-0.226523601260094
5.638389587402344,-0.20325300498612295,-0.31479946580796747,-0.0903876095122642,0.5557206227311454,0.7826868626016285,-0.2298569693089094
5.658329725265503,-0.20991967449202106,-0.3214661552477733,-0.08372098638957425,0.562387289397812,0.7893535701128098,-0.23652413023630153
5.678706407546997,-0.21658634198000193,-0.3281328483248603,-0.07705436066235707,0.5690537890959867,0.7960201667933681,-0.2431911223836945
5.699084997177124,-0.21991967790681416,-0.3314662037769125,-0.0737210687050679,0.57238712242932,0.7993535378975064,-0.24652491393842377
5.7192301750183105,-0.22658634729710908,-0.3381328947077049,-0.06705444695968579,0.5790537890959866,0.8060202450007393,-0.253192072274833
5.739429712295532,-0.23325301612344,-0.3447995806210398,-0.060387815667707616,0.57238712242932,0.8126869428331978,-0.25985912193694816
5.7593982219696045,-0.2399196852664372,-0.35146627682408405,-0.053721203529885825,0.5790537890959866,0.8193536572411323,-0.2665263786206752
5.77980899810791,-0.24325301855155318,-0.3547996069079742,-0.050387864102837236,0.5757204557626533,0.822686985179905,-0.26985964546051383
5.79972243309021,-0.24991968747941698,-0.36146630255271234,-0.0437212506147616,0.5690537890959867,0.8293536973388094,-0.27652688135749953
5.819793462753296,-0.24991971116254402,-0.36813299448911885,-0.037054616358783966,0.5623871224293201,0.8360203810050579,-0.28319379486375534
5.839879512786865,-0.2465863790240148,-0.37146635040594234,-0.033721324813907896,0.5590537890959868,0.8393537487385232,-0.2865275724124582
5.859999656677246,-0.23991971409537063,-0.37813306203799407,-0.027054741780651263,0.5523871224293202,0.8460204831930976,-0.29319512613709103
5.880327939987183,-0.23325304631382304,-0.3847997563460198,-0.02038811699630657,0.5457202861695967,0.8526870787999056,-0.29986210071799185
5.900201320648193,-0.22658637958349775,-0.37813313301874335,-0.01372153229608333,0.5390536195029301,0.8593538095822691,-0.30652963128574906
5.920309066772461,-0.22325304706196977,-0.3812174591467385,-0.017054778002016574,0.5357202861695968,0.8560204069887377,-0.30986204204010886
5.940426349639893,-0.2165863779300869,-0.3806601115077941,-0.017054843280850628,0.529053242299255,0.8560202441556602,-0.30986243209095443
5.960464715957642,-0.2099197122638519,-0.3739934402005516,-0.017054833507594225,0.5223865756325884,0.8560202360139859,-0.3031956599931182
5.980598211288452,-0.20658637867518648,-0.37066012851813956,-0.020388208943392376,0.5190532422992551,0.8526869359778021,-0.29986277458071287
6.000715255737305,-0.19991971315648935,-0.36399350230022076,-0.027054953665419674,0.5123865756325885,0.8593536644414839,-0.29319693607179126
6.020837306976318,-0.19325304426242723,-0.35732686142526104,-0.03372166121961726,0.505719738581512,0.8660202727779931,-0.2865305718642702
6.040889739990234,-0.18658637281073176,-0.35066023835279303,-0.040388416761903155,0.5123864052481786,0.8726870130334086,-0.2798648560239263
6.061159372329712,-0.17991970256554074,-0.3439936121172321,-0.047055164503363896,0.5190530719148452,0.8793537476294486,-0.273199043634205
6.081233501434326,-0.17658636725487356,-0.34066029887704863,-0.05038853801729318,0.5223864052481785,0.8826871150948641,-0.26986613070226656
6.101660251617432,-0.1699196962842247,-0.3339936721215601,-0.05705528428074474,0.5290530719148451,0.8893538502701519,-0.2632002909478976
6.121503591537476,-0.1632530257147576,-0.32732704086101555,-0.06372202108176256,0.5352848854470849,0.896020578149645,-0.25653434497748895
6.141707420349121,-0.15658636601372639,-0.32066035492295425,-0.07038864646087513,0.5345601842927674,0.9026872059134758,-0.24986724445557387
6.1618523597717285,-0.15325302990573528,-0.3173270405738536,-0.07372201769727474,0.5312268509594341,0.9060205731852413,-0.24653429589761547
6.181845664978027,-0.14658635714613985,-0.3106604111122687,-0.08038875949372093,0.5245601842927675,0.9126873074858239,-0.23986838966712698
6.201991558074951,-0.13991968372247907,-0.30399378065227994,-0.08705550039781243,0.5178935176261009,0.9193540413934258,-0.23320247113980408
6.222066402435303,-0.13325300969902296,-0.29732714923365267,-0.0937222404562338,0.5112268509594343,0.9260207748610635,-0.22653654053003813
6.242480754852295,-0.12991967347493635,-0.2939938253150355,-0.09705559422360517,0.507893517626101,0.9278404487760502,-0.22320341384803705
6.262407541275024,-0.1232530038744628,-0.28732716881719433,-0.10372229530298073,0.5012270627248744,0.9261449664896536,-0.21653725811894287
6.282445430755615,-0.11666020775955148,-0.2805736295189013,-0.11034333819837644,0.49720485932124436,0.9202885087931018,-0.2116833191990432
6.302617788314819,-0.1134200877440366,-0.27713072378820786,-0.11361873857544032,0.4971812932631966,0.9179409904055987,-0.2106211380977035
6.323081016540527,-0.10675341784108754,-0.2704640722903783,-0.1202854382053566,0.4905146265965299,0.9112743548266576,-0.20395480793238355
6.342933893203735,-0.10008675039538875,-0.2637974106591049,-0.12695210751728656,0.48384780954731554,0.9046076239284501,-0.19728805332942415
6.3629889488220215,-0.09342008255343416,-0.25713074962364935,-0.13361878664375001,0.47718114288064883,0.8979409691774901,-0.19062151618051795
6.383096694946289,-0.09008674920242717,-0.25379741637632913,-0.13695212016932484,0.4738478095473155,0.894607636029309,-0.18728818486619056
6.403177261352539,-0.08342008253575385,-0.2471307497096953,-0.14361878683606535,0.46718114288064877,0.8879409693627137,-0.18062151820030373
6.423662185668945,-0.08008674618978769,-0.24379743238927432,-0.14695215641227327,0.4638478095473154,0.8846076712153317,-0.17728857143968388
6.443696022033691,-0.07342007369557767,-0.23713079742570603,-0.15361889539302,0.4571811428806487,0.8779410750539552,-0.17062268257721205
6.463783025741577,-0.06675340410742803,-0.23046414732262258,-0.1602855980237443,0.4505144351624922,0.8712744267132598,-0.16395637661490545
6.483852863311768,-0.060086734064283664,-0.22379750013105146,-0.16695231012875103,0.44384776849582547,0.8646078048122962,-0.15729021065003468
6.503918409347534,-0.05342006469892478,-0.2171308495083191,-0.17361901233618696,0.43718106083829494,0.8579411569173989,-0.15062390891631733
6.524250030517578,-0.05008673068965503,-0.21379752019052808,-0.17695235520484132,0.4338477275049616,0.8546078330370271,-0.14729068261932943
6.5442187786102295,-0.043420059191978055,-0.20713088326668325,-0.18361909299596063,0.4271810608382949,0.8479412369889533,-0.14729148753863427
6.564507246017456,-0.03675339072891962,-0.20713089532067464,-0.18731725470204222,0.4205144939021871,0.8412746528469397,-0.15395863277869246
6.584599018096924,-0.03342005485072767,-0.21046424422000476,-0.1876456066242869,0.41718116056885374,0.8379413569991685,-0.1572924035558763
6.605116844177246,-0.040086716996235124,-0.21713093620167662,-0.1809789747128818,0.41051402378960206,0.8312745503870433,-0.16395911286475442
6.624952793121338,-0.04675337844278649,-0.22379763468586916,-0.17431238569839627,0.41718069045626877,0.8246079592830362,-0.17062669395759608
6.645061016082764,-0.05342004114469168,-0.2304643300877764,-0.16764578800942495,0.4238473571229355,0.8179413599831805,-0.17729417739980224
6.665104389190674,-0.06008670441762903,-0.2371310260166468,-0.1609791905558307,0.4305140237896022,0.8112747611287684,-0.1839616682023379
6.68522834777832,-0.06342003628126341,-0.24046437418455668,-0.1576458919263292,0.43384735712293554,0.8079414618539569,-0.18729541639363745
6.705587387084961,-0.07008670049097854,-0.24713107093985623,-0.1509792948810702,0.44051402378960225,0.8012748635794068,-0.1939629184179353
6.725470066070557,-0.0767533653844171,-0.2537977682723428,-0.1443126981479256,0.44718069045626896,0.7946082656314403,-0.2006304280491312
6.745919466018677,-0.08342003101400426,-0.2604644662050125,-0.13764610176150843,0.45384735712293567,0.7879416679611744,-0.20729794539173754
6.766030788421631,-0.08675336412253626,-0.26379781540412184,-0.1343128037098338,0.457180690456269,0.7846083692146958,-0.2106317069883979
6.786135196685791,-0.09342003097413278,-0.2704644994287591,-0.12764617512011986,0.46384735712293573,0.7779417397685777,-0.21729883738521566
6.806493759155273,-0.10008669830999023,-0.2771311838168304,-0.12097954677996495,0.47051402378960244,0.7712751104043002,-0.22396597215631509
6.826420307159424,-0.10342003253142536,-0.28046453384960945,-0.1176462492853121,0.4738473571229358,0.7679418118478716,-0.2272997437376888
6.8465025424957275,-0.11008670173279965,-0.28713123445424654,-0.11097965468699242,0.4805140237896025,0.7612752147844408,-0.23396729303668073
6.866931676864624,-0.11675337019836916,-0.2937979196546381,-0.10431302695493182,0.4871806904562692,0.754608585513053,-0.24063443721464858
6.8867833614349365,-0.1234200395763628,-0.3004646282712049,-0.09764645610436688,0.4938472825662501,0.7524450690234344,-0.24730221377757772
6.907362699508667,-0.12675349064700947,-0.30379799600463847,-0.09431317977859058,0.4971746097066492,0.753501198697975,-0.250631975444671
6.927562952041626,-0.13342009497829582,-0.31046467708158965,-0.0876466363208828,0.503840944379418,0.7468349032252357,-0.25730003330083245
6.9476189613342285,-0.14008672663864943,-0.3171313440049679,-0.0809800384692016,0.500464593291951,0.7401687987922722,-0.2639668718311556
6.967792272567749,-0.1467533738253594,-0.3237980373715438,-0.07431346696673632,0.5071310305020872,0.7468355985959305,-0.27063460355913277
6.987899303436279,-0.15008669560223564,-0.327131387803072,-0.0709801940244775,0.5104642214307296,0.750169013375854,-0.2739686020660176
7.007981538772583,-0.15675333967618418,-0.33379808506351033,-0.06431363960768419,0.5171306312881638,0.7568358404319957,-0.2806364988363123
7.0280303955078125,-0.163420004382477,-0.340464771845445,-0.05764705226121286,0.5228605897974749,0.7568360932283886,-0.28730344529846524
7.0480968952178955,-0.16675334203793782,-0.3437981239140667,-0.054313754868818724,0.525018271662454,0.7535027910507508,-0.2906372006969987
7.068231582641602,-0.1734200173102599,-0.3504648184383402,-0.04764714026667194,0.5183516049957874,0.7601695011590853,-0.29730446792454623
7.088319301605225,-0.18008668921885027,-0.35713151036592805,-0.04098052233724221,0.5169532669292934,0.766836208901812,-0.30397170637819987
7.108704566955566,-0.18675336019591687,-0.36379819789776596,-0.03431389584701686,0.5102866002626268,0.7735029086200106,-0.3106388404384762
7.128974914550781,-0.18342002604870078,-0.36713152291602547,-0.03447165375001544,0.5136199335959601,0.7768362280567672,-0.31397197686805656
7.149109601974487,-0.17675336503950004,-0.3671315521784426,-0.03794704197177589,0.5201761462923231,0.7835029400348572,-0.3206392908422548
7.169234275817871,-0.1702433299257429,-0.36031156207276066,-0.044453656115447056,0.5237548235746075,0.789577757051364,-0.32316817524858027
7.1892664432525635,-0.16382801264838615,-0.35339869164231247,-0.050895272026447363,0.5226106011937709,0.7958305127416099,-0.3204368688741272
7.209647178649902,-0.160631062763844,-0.3499297346794282,-0.054107993255773694,0.5222906360003937,0.7988458001212403,-0.3192386048632753
7.229761600494385,-0.15410066013242552,-0.3431263070193432,-0.06067071843879053,0.5277551329226431,0.8056354348058219,-0.314746507817172
7.249911308288574,-0.14767970608562886,-0.3362080932582916,-0.06714896728696391,0.5267767282987227,0.8125712885654855,-0.31216163444769957
7.269937992095947,-0.14119673143836747,-0.3293491828786093,-0.0736776683550284,0.5299212950832054,0.8195689038827764,-0.3086947499496883
7.2900474071502686,-0.1379736040786695,-0.32589931777485726,-0.07693211515674858,0.5294069133133745,0.8232571547079708,-0.3073909029675043
7.310107469558716,-0.13152362320263866,-0.3190010123506986,-0.08344821375118401,0.5285629796530712,0.8307506342961941,-0.30491128526670486
7.330227851867676,-0.12496570443266333,-0.31221710953282805,-0.09004003522639488,0.5249102865441206,0.8378827849236321,-0.30040727096538256
7.350341796875,-0.12163237047912152,-0.30888379552082657,-0.09337340733999414,0.5215769532107873,0.8412161543169452,-0.2970743637008626
7.370434522628784,-0.11496575167686816,-0.30221708505605993,-0.10004006424395959,0.5149107947972971,0.8478814161331811,-0.2904078791685063
7.390497207641602,-0.1082991458122533,-0.29555036011184027,-0.10670672087087055,0.5082448654384595,0.8545462324408732,-0.2837414959610218
7.410573720932007,-0.10163245690318459,-0.28888372569112136,-0.1133733957648114,0.5015777621507522,0.8612111063927216,-0.2770742258551835
7.430907487869263,-0.09496586936610882,-0.28221704658719593,-0.12004003587051526,0.4949116275432645,0.8545444663698448,-0.27040744216754503
7.451025009155273,-0.09163253499622034,-0.2788837104419885,-0.12337336940971128,0.491578527829578,0.8512106789532683,-0.26707420849223995
7.4714014530181885,-0.08496586521823392,-0.272217067868388,-0.1300400881693161,0.4849118611629113,0.844544062799288,-0.26040812017475257
7.491252183914185,-0.07829919648723316,-0.2655504193912176,-0.13670679195566235,0.4782451519730242,0.8378774126496341,-0.2537418354563307
7.5113465785980225,-0.07496586222579454,-0.26221709001566945,-0.14004012528899568,0.4749116619927714,0.8345440076009174,-0.2504083799683918
7.531425714492798,-0.06829919350429332,-0.2555504443153939,-0.14670683837202442,0.4682449953261047,0.827877386693729,-0.24374224388124066
7.551547050476074,-0.061632524913250684,-0.24888379818211015,-0.15337355098178335,0.461578328659438,0.8212107655988393,-0.2370761085079391
7.5716118812561035,-0.05496585540621945,-0.24221716325386206,-0.16004028929446834,0.4549116619927713,0.8145441703231735,-0.23041027855491203
7.591702699661255,-0.05163252169227717,-0.2388838341258134,-0.16337363220871876,0.4515783286594379,0.8112108465813526,-0.22707705816851476
7.611782789230347,-0.04496585335638924,-0.23221718697953997,-0.17004034359728515,0.4449116619927712,0.8045442247807906,-0.22041092222146752
7.63187313079834,-0.03829918512003974,-0.22555053935626618,-0.17670705436534806,0.4382449953261045,0.7978776025409632,-0.21374478511726985
7.651917457580566,-0.03163251697112484,-0.21888389129517793,-0.1833737645874958,0.4315783286594378,0.791210979905724,-0.21257099622616377
7.672001123428345,-0.028299182538498478,-0.21555057223845947,-0.1867071316621422,0.42824499532610444,0.787877680768654,-0.2145145129348671
7.692111968994141,-0.021632514531722727,-0.20888392325055177,-0.19337384052565731,0.42157832865943773,0.7812110569652227,-0.22118170340342616
7.712179660797119,-0.014965848863459967,-0.2155505753006155,-0.20004047225256966,0.414911661992771,0.7745443545345534,-0.22784793572264453
7.732609748840332,-0.00829917848166403,-0.20888394751385245,-0.19337390031096752,0.4082449953261043,0.767877783153498,-0.23451580581134557
7.752671480178833,-0.011632513116673592,-0.2122172588302548,-0.19004051358624388,0.40491166199277095,0.7645443962333978,-0.23784845642054953
7.772841691970825,-0.018299178202454643,-0.21888395166660937,-0.18337391053466678,0.39824499532610425,0.7578777928442073,-0.244515944367221
7.792846441268921,-0.02496584320082129,-0.22555064701383476,-0.17670731376332616,0.39824499532610425,0.7512111947466991,-0.25118352467988175
7.8129072189331055,-0.03163250904773669,-0.23221733941814982,-0.1700407090819586,0.40491166199277095,0.744544588745365,-0.25785100595397537
7.833202600479126,-0.0349658422224401,-0.23555068576224433,-0.16670740675428203,0.4082449953261043,0.741211285801792,-0.2611847481421087
7.8534417152404785,-0.04163250910254192,-0.24221737874512225,-0.16004080214415428,0.414911661992771,0.7345446800001373,-0.2678522356633882
7.873470783233643,-0.04829917673090367,-0.24888407213620267,-0.15337419762085522,0.42157832865943773,0.727878074273427,-0.2745197274288852
7.8934571743011475,-0.054965844572860675,-0.25555075604167465,-0.1467075704169283,0.42824499532610444,0.7212114462448133,-0.2811869200881325
7.913565158843994,-0.05829917820787881,-0.25888409304446475,-0.143374245423035,0.4315783286594378,0.7178781210711076,-0.2845203648442685
7.9336488246917725,-0.0649658467177846,-0.2655507773031877,-0.13670761835741926,0.4382449953261045,0.7112114930305632,-0.2911875610326382
7.953718900680542,-0.07163251582584959,-0.27221746187057155,-0.1300409914330039,0.4449116619927712,0.7045448649452449,-0.2978547601651562
7.974083185195923,-0.07829918557762926,-0.27888414676456497,-0.12337436467924352,0.4515783286594379,0.6978782367867242,-0.3045219623148581
7.994162321090698,-0.08163252184984471,-0.28221749471883806,-0.12004106295860746,0.4549116619927713,0.6945449337368161,-0.3078557199486174
8.014263391494751,-0.08829920089505518,-0.28888416359069374,-0.11337442768527853,0.46157749308703455,0.6878784072566839,-0.3145193523956123
8.034355640411377,-0.0949659059003533,-0.2955508389472456,-0.10670781521087734,0.46824228674875357,0.6812126286685278,-0.3211817518501616
8.054431200027466,-0.10163260348443819,-0.3022175257504666,-0.10004119707171512,0.47490673062089733,0.6745466692186066,-0.3278439858841897
8.074519395828247,-0.10496593619174273,-0.3055508763658055,-0.09670791018981018,0.4782400107646846,0.6778800588055421,-0.3311779314954482
8.094614028930664,-0.11163261815168653,-0.31221756199682016,-0.09004130651135027,0.48490570997549065,0.6778804452177,-0.33784276095728577
8.114709377288818,-0.11496596794656962,-0.3155509040260378,-0.08670799928272134,0.4882378886483539,0.6745473809128617,-0.3411733268424851
8.135207414627075,-0.11829931900681538,-0.3188842453028993,-0.08337469383929742,0.49157002653990595,0.6712143162888407,-0.3445036627696713
8.15606141090393,-0.1216326592061659,-0.32221758407376344,-0.08004137168361151,0.4949028403844933,0.6678811571777242,-0.34783663918024116
8.176132678985596,-0.12829929337068027,-0.3288842773303009,-0.07337482064691106,0.5015691816110962,0.6745480606190213,-0.35450477594861646
8.196491241455078,-0.13496593570114337,-0.33555096574081805,-0.06670824689634547,0.5082355939009536,0.6812149123621715,-0.36117260191722567
8.216415166854858,-0.141632573631535,-0.34221765619856753,-0.06004168743560558,0.5149019611211316,0.6878817897026488,-0.3678405764939303
8.236478567123413,-0.14496589336173818,-0.34555100078193335,-0.05670840584668536,0.5173858544965588,0.6912152228880061,-0.37117452867312406
8.256558895111084,-0.1516325555408247,-0.3522176829128201,-0.05004180034475088,0.5162873873433687,0.6978820881751282,-0.3778412914845677
8.276890516281128,-0.1582992370703045,-0.3588843611542678,-0.043375159949035035,0.509619523245394,0.7045489491007293,-0.3845071021186796
8.296844959259033,-0.1616325784344579,-0.362217700632115,-0.040041840512106144,0.5062855514275778,0.7078823740301207,-0.38783997714162916
8.316944360733032,-0.1682992210321916,-0.36888438741363705,-0.033375280626134145,0.4996186496708846,0.7145493011165337,-0.39450788012303545
8.337101697921753,-0.16163256782420268,-0.3755510770800356,-0.026708655191646183,0.4929519830042179,0.7212159976760121,-0.40117502502503466
8.357246160507202,-0.15496779698916627,-0.3822162814426382,-0.020041108201133622,0.4862977587471943,0.7278624050044926,-0.40784909704165756
8.377214670181274,-0.14986842573048986,-0.3879549115405643,-0.026054679556983613,0.5156901452133158,0.7342795852667588,-0.43176059098436625
8.397334098815918,-0.14654476322821436,-0.38461227017114263,-0.027955020350441635,0.5125885921461134,0.7375455136782182,-0.4285940893353493
8.417449474334717,-0.13989053770582677,-0.37793338621665235,-0.032996132489122844,0.5128849357704779,0.7441186403823328,-0.4221394027908732
8.438982725143433,-0.13323274330335072,-0.37125792491659265,-0.03965525298403106,0.5130976967742574,0.7507159435307618,-0.41562403782687274
8.459068775177002,-0.12990049088127884,-0.3679235126661844,-0.04298766539950473,0.5097903288932015,0.7540404760346076,-0.4123090550008134
8.479133367538452,-0.12323383147907108,-0.3612568854066993,-0.049654409280573485,0.5153529926936238,0.7607072062272912,-0.4056433108695893
8.499222755432129,-0.11681880632520539,-0.3543212369865298,-0.05606529964764269,0.5163610148918647,0.7666868760491503,-0.40455308330110273
8.519283294677734,-0.11041320563284167,-0.34738167804984454,-0.06251367073064985,0.5172013572716548,0.7735438307913624,-0.40341370955813344
8.539381980895996,-0.10723587568414897,-0.3438874680603458,-0.06571982215968421,0.5180283105186352,0.7766209139105306,-0.4030906113181614
8.55954122543335,-0.10073632671022316,-0.3370475871997725,-0.07225300267380898,0.5157998312897524,0.7830159105310499,-0.39963061875518374
8.57979941368103,-0.09406965690407486,-0.3303809538940319,-0.07891970860124106,0.5091326995896313,0.7896823371064005,-0.3929640363145218
8.599984407424927,-0.09073632494369133,-0.3270476400061412,-0.08225308096993532,0.505799366256298,0.7930157054138828,-0.38963115718435165
8.620062589645386,-0.08406965860294223,-0.32038099358042743,-0.0889197862593444,0.4991326545273927,0.7996823827121996,-0.3829649037342768
8.6401526927948,-0.07740299174299692,-0.3137143409742226,-0.09558648237077053,0.492465987860726,0.7932767860746838,-0.37629858465946053
8.660266637802124,-0.07073632564365893,-0.30704769713555463,-0.1022531966189517,0.4857993211940593,0.7866101634331605,-0.36963248047706365
8.680298328399658,-0.06406966006733336,-0.30038106623935396,-0.10891993844568988,0.47913265452739257,0.7799435668525141,-0.362966711153144
8.700398206710815,-0.06073632730983974,-0.2970477504379224,-0.11225330890963219,0.4757993211940592,0.7766102683896585,-0.3596338252372501
8.720837831497192,-0.054069661844586905,-0.29038111811763834,-0.11892004889661541,0.4691326545273925,0.769943671039552,-0.35296805028537265
8.74074387550354,-0.047402996430931356,-0.28371448482805506,-0.12558678757483965,0.4624659878607258,0.7632770730195493,-0.34630227035323996
8.760847091674805,-0.04406966313347568,-0.2803811526871886,-0.1289201235088935,0.45913265452739244,0.7599437421854464,-0.3429689693993326
8.780888557434082,-0.0374029977661341,-0.27371451791795104,-0.1355868601043156,0.4524659878607257,0.7532771429294622,-0.3363031801095685
8.800980567932129,-0.030736330434259797,-0.26704787060005697,-0.14225356082159732,0.4457991687671044,0.746610439175132,-0.32963682694307905
8.821075677871704,-0.02406966507635243,-0.26038123382816253,-0.14892029444681984,0.4391325021004377,0.7399438378733416,-0.32297102184631266
8.841478109359741,-0.017402999703120377,-0.2537145960452601,-0.1555870265074092,0.432465835433771,0.7332772353843059,-0.3163052073822876
8.86141324043274,-0.014069667006996153,-0.2503812767737003,-0.15892039193618956,0.42913250210043763,0.7299439336627391,-0.3129722963428222
8.881479501724243,-0.007403001588804416,-0.24371463746967958,-0.16558712156341499,0.4224658354337709,0.7232773292051932,-0.3063064660709063
8.90160322189331,-0.0074030028217080615,-0.23704800192202619,-0.16558719409842895,0.4157991687671042,0.7166107345852804,-0.29964077699531666
8.921931743621826,-0.010736337037978798,-0.23371468223342418,-0.16225389254848732,0.41246583543377086,0.7132774327773964,-0.2963078746411222
8.942018508911133,-0.004069670621414901,-0.2270480156376043,-0.16892055922775268,0.41913250210043757,0.7066107663026967,-0.2896412084011623
8.962104320526123,-0.010736340053863057,-0.22038137658504778,-0.16225395667082823,0.41246583543377086,0.6999441643837215,-0.29630875580571897
8.982212543487549,-0.017403005481489556,-0.22704803321626638,-0.16892060015598465,0.40579916876710415,0.6932774740524349,-0.30297510391368854
9.002305746078491,-0.02073634033012708,-0.23038138171635267,-0.16558730250334447,0.4024658354337708,0.6899441763307576,-0.3063089387845272
9.022376298904419,-0.0274030097855713,-0.23704807403246989,-0.15892069625097216,0.4024658354337708,0.6832775692239833,-0.31297646218619735
9.042455673217773,-0.034069679820789074,-0.2437147641042813,-0.15225408404867036,0.4091325021004375,0.676610955878983,-0.31964390370303425
9.062520265579224,-0.04073635068850126,-0.2503814544982458,-0.14558747185107607,0.4157991687671042,0.669944342380737,-0.3263113469610486
9.0825777053833,-0.04406968645249031,-0.25371479982272166,-0.14225416576641323,0.41913250210043757,0.66661103556186,-0.3296450692716399
9.10271668434143,-0.05073636205270355,-0.24704817206532245,-0.13558758682625396,0.41246583543377086,0.6599444539475455,-0.33631299007951243
9.12283730506897,-0.05740302427244403,-0.2537148203352124,-0.12892087858817483,0.40579916876710415,0.6532777466625506,-0.34297905862080275
9.142885684967041,-0.06406969284081047,-0.26038150201372423,-0.1222542379045239,0.39913237985007416,0.6466110493346102,-0.34964600947797353
9.163305521011353,-0.07073636617585972,-0.26704819115965933,-0.11558762218847848,0.39246571318340745,0.6399444300429432,-0.3563134289695733
9.183401823043823,-0.07406969513711942,-0.27038153597547926,-0.11225428885514516,0.3891319996148788,0.6432775856291637,-0.35964645991151256
9.203566074371338,-0.08073636585254025,-0.27704823574233267,-0.10558770143049424,0.3891319996148788,0.6432776596790983,-0.3663143352193097
9.223591089248657,-0.08740303705105475,-0.2837149136194281,-0.09892105954340319,0.3891319996148788,0.6432776814124411,-0.3729813635944523
9.243841171264648,-0.09073637408521612,-0.28704825813454454,-0.09558775143843115,0.38579866628154547,0.6466110370226867,-0.37631507011271426
9.263935804367065,-0.09740304192092267,-0.29371494387858466,-0.0889211102419977,0.39246507307681766,0.6399442949947225,-0.3829819105326139
9.284082174301147,-0.10406971619721236,-0.3003816132665858,-0.08225446904652861,0.38579868748236257,0.6332777725993329,-0.3896491763897943
9.30413818359375,-0.11073639178320267,-0.30704830357734,-0.07558785549027452,0.3924653541490293,0.6266111510412357,-0.39631663800468037
9.324188470840454,-0.10406972643982713,-0.31371499166966466,-0.06892121488075412,0.39913175182541394,0.6332776571980133,-0.40298346413799463
9.344297409057617,-0.1007363889385322,-0.3103816686664273,-0.06558788154742079,0.3957981034385628,0.6366108316143944,-0.3996498790656355
9.364448308944702,-0.09406972237369256,-0.3037150015677709,-0.06558788036065413,0.3957981034385628,0.6366108304548117,-0.39298319463636316
9.384490966796875,-0.08740306059688696,-0.2970483477309022,-0.07225457316174559,0.3957980890517231,0.6366108188757941,-0.38631689299864624
9.404987096786499,-0.08406973238416045,-0.29371502620732465,-0.0755879323952814,0.39246475571838974,0.6399441743945478,-0.3829839391622738
9.425084352493286,-0.07740307522023868,-0.28704838472511146,-0.08225465510098155,0.39913142238505644,0.646610889885597,-0.3763180960813904
9.445159435272217,-0.0707364162075081,-0.2803817211119749,-0.08892134826857062,0.3924650415209236,0.6532777085076885,-0.3696520399141163
9.465261459350586,-0.06406975732694818,-0.2737150780557626,-0.0955880678970414,0.3857983748542569,0.6599444223441243,-0.36298614251927264
9.48531460762024,-0.05740309737093755,-0.2670484346551951,-0.1022547874932694,0.3791317081875902,0.6666111364632427,-0.35632024420463976
9.505475759506226,-0.05406976701310516,-0.2637151128342802,-0.10558814729390634,0.3757983748542568,0.6699444936174066,-0.3529872947376023
9.52550745010376,-0.04740310558097691,-0.2570484689667897,-0.11225486692744362,0.3691317081875901,0.6766112080916369,-0.3463213952479571
9.558757066726685,-0.04740310558097691,-0.2570484689667897,-0.11225486692744362,0.3691317081875901,0.6766112080916369,-0.3463213952479571
9.57881236076355,-0.04406977452276971,-0.25371514692600533,-0.11558822677058823,0.36579837485425676,0.6799445654022052,-0.3429884452486699
9.59890341758728,-0.03740311175954397,-0.24704850264378653,-0.1222549465337422,0.35913170818759005,0.6866112801460641,-0.3363225447939601
9.619010210037231,-0.03073644710508499,-0.2403818473689462,-0.1289216424309114,0.3555008672102073,0.6799446551124722,-0.32965632153361274
9.639050960540771,-0.027403136599031153,-0.23704853941796683,-0.1322550237029083,0.35216753387687394,0.6766113575773076,-0.3263235933052656
9.659169912338257,-0.020736472973465463,-0.23038189364491204,-0.1389217411758951,0.34550086721020723,0.6699447372311942,-0.3196576746967719
9.67923355102539,-0.014069809112201894,-0.22371524685751965,-0.14558845668860596,0.3388342005435405,0.6632781151035869,-0.3129917372813484
9.699322700500488,-0.007403145018923138,-0.21704859907900137,-0.1522551702512874,0.3321675338768738,0.6566114911732216,-0.30632578058897975
9.719916343688965,-0.004069812886677077,-0.2137152748254735,-0.15558852630519998,0.32883420054354046,0.6532781785269605,-0.30299279487342395
9.73999571800232,0.002596855865242556,-0.20704862856026118,-0.1622552152100822,0.3221671224694652,0.6466113958634782,-0.29632614915968175
9.760344743728638,0.009263524565625464,-0.2003819814171176,-0.16892190316205663,0.3155000580735174,0.6399446203806741,-0.28965950473449187
9.780274152755737,0.01593019713087751,-0.1937153364398928,-0.17558856982872328,0.3088326164013167,0.6332777091740688,-0.28299223422866643
9.800338745117188,0.022596861374475356,-0.18704869254651307,-0.17801548450574217,0.30216594973465,0.626611095940383,-0.2763265234650169
9.820430278778076,0.019263530648262923,-0.18371536912676048,-0.17468215117240884,0.29883226243653777,0.6232776569493997,-0.27705451481029525
9.840556621551514,0.012596869842546637,-0.183715358198431,-0.17014141777618724,0.29883188528176563,0.6166108258213665,-0.2810420902736581
9.860607385635376,0.00593019808738922,-0.19038205481380355,-0.1657215586121258,0.30549855194843234,0.6099442288429957,-0.2877100402818777
9.880642652511597,-0.0007364795516473042,-0.19704877479284733,-0.1590550284670687,0.31216521861509905,0.6032776853387092,-0.2943789729598857
9.900822639465332,-0.004069819154563432,-0.20038213483190861,-0.15572176286183442,0.3154985519484324,0.5999444132959576,-0.29771343358914126
9.920936107635498,-0.010736499995686582,-0.20704885502989717,-0.14905523063742016,0.3221652186150991,0.5932778685498099,-0.3043823433833422
9.941067457199097,-0.01740317709092123,-0.21371555528434127,-0.14238864710846552,0.3288318852817658,0.5866112774255534,-0.311050401858392
9.961485147476196,-0.02406985569975258,-0.22038225568526731,-0.13572206284613722,0.33549855194843253,0.5799446856028534,-0.31771845075854904
9.981534719467163,-0.027403191542625306,-0.22371559576873495,-0.13238874590938177,0.3388318852817659,0.5766113671739793,-0.3210520597525626
10.001611232757568,-0.034069872084293316,-0.2303822963841688,-0.1257221608556493,0.3454985519484326,0.5699447744261098,-0.32772009728483625
10.02173399925232,-0.04073656430084307,-0.23704901784254007,-0.11905562380432708,0.3521652186150993,0.5632782244898591,-0.334388940708879
10.042205810546875,-0.044069911514786064,-0.2403823787338608,-0.11572235500252866,0.35549855194843266,0.5599449490030639,-0.33772335728151737
10.061980247497559,-0.05073659718471092,-0.2470490800812591,-0.10905576860412805,0.36216521861509937,0.5532783538160966,-0.3443913701563767
10.082051038742065,-0.05740329892843063,-0.25371580254656034,-0.10238922806656724,0.3688318852817661,0.559945130770094,-0.3510601208375375
10.102137327194214,-0.0640699859529331,-0.2603824947363026,-0.0957226291138327,0.37549868504723966,0.5532785947533231,-0.3577280061705569
10.122217416763306,-0.06740331815620827,-0.2637158307864061,-0.09238929578049937,0.3788319377157453,0.5499452215795685,-0.36106127654573383
10.142368078231812,-0.07407003023369188,-0.27038255875913414,-0.08572276285194384,0.385498604382412,0.5499453351342942,-0.36773010398118067
10.16237998008728,-0.08073672531306858,-0.2770492660871603,-0.07905618539670264,0.3921652710490787,0.5566120782541993,-0.37439821373979937
10.18246603012085,-0.08740341486820653,-0.28371597036322893,-0.07238959352742644,0.3988318469115191,0.5632787589937897,-0.38106599953562836
10.202538967132568,-0.09073674251875144,-0.28704931636544767,-0.06905626019409311,0.4021648168640322,0.566611890142685,-0.3843990456912121
10.222638607025146,-0.09740339726336827,-0.29371600934576303,-0.06238959352742645,0.4088307321683425,0.5732781305651548,-0.3910651168328035
10.242729187011719,-0.10407005125340203,-0.3003827036432158,-0.05572292686075978,0.41549661484567546,0.5799443409713856,-0.39773115979348816
10.262784242630005,-0.10188715960977976,-0.30704938944035404,-0.049056260194093114,0.4202930891865491,0.5866105527636315,-0.40439742679437324
10.282872676849365,-0.09874872777375487,-0.3103827273105421,-0.0457229358827085,0.4236264225198825,0.5899438931848736,-0.40773088904747284
10.302961587905884,-0.09925747086191442,-0.31704940021440076,-0.03905628349651793,0.4236264225198825,0.5966105727290166,-0.4143977825419556
10.323044300079346,-0.10592413493713093,-0.32371606550653426,-0.03428225629311117,0.4232020197231173,0.5966105723000232,-0.421064435214151
10.34310269355774,-0.10592413583399617,-0.33038272179099587,-0.036318942931826935,0.42248672387269526,0.5966105472197989,-0.42773065309683317
10.363774538040161,-0.10263861575892728,-0.3336448071744612,-0.03957284105587933,0.4216825802877215,0.5999876885566179,-0.4331038567009534
10.383882761001587,-0.09623024684808866,-0.3266409273978591,-0.04587075294693609,0.4372560453651706,0.6038261286761654,-0.43327149891187766
10.403974294662476,-0.0900015134822908,-0.31940297128054557,-0.05191394770727163,0.4466077747846453,0.6064377721513468,-0.43897426008175117
10.424022912979126,-0.08333760273871597,-0.31273303470768377,-0.05857781817805121,0.44001526154761367,0.6130846008328134,-0.4323643231506955
10.444106817245483,-0.08000426940538265,-0.3093997013743504,-0.06191115151138454,0.4366819282142803,0.6164179341661467,-0.42903098981736215
10.464209794998169,-0.07333761770629352,-0.30273306093786895,-0.06857787249826686,0.4300152615476136,0.6230846471203716,-0.4223651009476394
10.484275102615356,-0.06667096442938857,-0.29606641996062694,-0.07524459311368702,0.4233485948809469,0.6297513605356659,-0.41569921019838757
10.504378080368042,-0.06333763723671056,-0.2927330992825443,-0.07857795330386769,0.42001526154761354,0.6330847174054445,-0.41236626416140637
10.52450442314148,-0.05667098181232205,-0.28606645757285953,-0.08524467349127965,0.41334859488094683,0.6397514314488516,-0.4057003708671992
10.544562339782715,-0.050004325087795,-0.2793998154230834,-0.09191139347364644,0.4066819282142801,0.6464181458696361,-0.39903447607722536
10.564644575119019,-0.04333766715733024,-0.2727331728678174,-0.09857811330927399,0.4000152615476134,0.6530848606337994,-0.3923685799388734
10.584712505340576,-0.03667100810663132,-0.26606652993854824,-0.10524483305185899,0.3933485948809467,0.659751575706513,-0.3857026825876901
10.604818105697632,-0.033337678185842545,-0.2627332083427087,-0.10857819290387538,0.39001526154761335,0.6630849333474558,-0.38236973349635384
10.624916076660156,-0.026671014117372563,-0.2560665551321161,-0.11524488608420552,0.386609432697482,0.6630849392429471,-0.37570340104771854
10.645001411437988,-0.02000434904132902,-0.24939987192333615,-0.12191151079170512,0.3832109189432545,0.6564182305116657,-0.3690360858975265
10.665445804595947,-0.01667101854913782,-0.24606654968533487,-0.12524486975425445,0.37987758560992113,0.6530849211023664,-0.36570312988275133
10.68572449684143,-0.010004357289853869,-0.23939990436500902,-0.13191158612769346,0.3732109189432544,0.6464183009353706,-0.359037202941776
10.705678939819336,-0.003337695667973323,-0.232733257932966,-0.13857830042281907,0.3665442522765877,0.6397516789277546,-0.35237125540578806
10.72571873664856,0.00332896630840196,-0.22606661041744994,-0.14524501265579876,0.359877585609921,0.6330850550573784,-0.3457052868160124
10.745821714401245,0.009995640751159319,-0.21939996720879779,-0.1519116793224654,0.3532101056200974,0.6264180739115549,-0.3390379828595424
10.766076803207397,0.013328977822772418,-0.21606664527286593,-0.15524501265579874,0.34987637626172735,0.6230845903955551,-0.3357043397734305
10.786100625991821,0.013328980121488872,-0.20940000815054285,-0.1619117261552785,0.34320932071866883,0.6164178235377382,-0.32903813359253453
10.806154489517212,0.006662320284688294,-0.20273336286987453,-0.16857839282194514,0.33654190819786994,0.6097508861236529,-0.3223708859916592
10.826228857040405,-4.339938121498792e-06,-0.1960667167259735,-0.1752450594886118,0.32987452448156546,0.6030839660886724,-0.3157036623485841
10.846301794052124,-0.0033376796723587924,-0.19273341146644518,-0.17857846326733795,0.3265411911482321,0.5997506986069336,-0.31237149315690477
10.86638331413269,-0.01000434860243879,-0.19940008772905282,-0.18524515428965455,0.3198745244815654,0.5930840538913822,-0.3057052385858877
10.886476039886475,-0.016671022813715214,-0.1927334602321098,-0.17857858788567776,0.3132078578148987,0.5997508124181938,-0.29904026573269626
10.906538963317871,-0.010004364352784463,-0.18606680844458595,-0.18524531931487756,0.3198748898049026,0.5930843222382204,-0.2923749729259257
10.926622867584229,-0.006671033012797801,-0.18273346846686175,-0.1885786526482109,0.31654179012045097,0.5897510647437391,-0.28904181941473267
10.947064876556396,-4.373451676686294e-06,-0.17606683684055757,-0.1931522094535395,0.30987512345378426,0.5830844819926314,-0.28237669395596954
10.966921329498291,0.006662287980470451,-0.16940019720423827,-0.1909350638428583,0.30320845678711755,0.5764178806480691,-0.27571125364293936
10.987645626068115,0.009995615863588042,-0.16606688761747235,-0.18760179219036954,0.2998751234537842,0.5730846041474827,-0.27237900000311394
11.00766396522522,0.01666228152417599,-0.15940022311935073,-0.19426846420865695,0.3065417901204509,0.5664179427959829,-0.26571242904671727
11.027708053588867,0.023328936860264295,-0.15273359978208959,-0.18760190994706913,0.2998751234537842,0.5597513815675238,-0.2590477631517946
11.047873258590698,0.01666226790211992,-0.15940027414581892,-0.18093526334961307,0.2932084567871175,0.5530847331910336,-0.26571479623193495
11.06790542602539,0.013328928604228536,-0.16273362956732873,-0.1776019878837603,0.2960206718021466,0.5497514531105219,-0.26904918577048575
11.08797001838684,0.006662254580233897,-0.1694003187381755,-0.17093537934807002,0.30188499864900614,0.5430848397230503,-0.2757169118629942
11.108058214187622,-4.426110858323472e-06,-0.17606702308691785,-0.1642688088081597,0.30855166531567285,0.5364182613838862,-0.2823853369149811
11.128464460372925,-0.006671098061414513,-0.18273371602106195,-0.15760218969692966,0.315218093269544,0.5297515532074593,-0.28905269401010536
11.148584842681885,-0.010004439945769385,-0.18606706815924454,-0.15426890328573292,0.31855142660287733,0.5264182630209046,-0.29238688822857767
11.168653011322021,-0.016671122079958956,-0.179400433017254,-0.14760231482418895,0.3118847599362106,0.519751668097201,-0.2990549954064694
11.18873381614685,-0.023337791384831906,-0.18606710406543883,-0.14093565900860588,0.3052180932695439,0.5130850108355769,-0.3057218672009397
11.20882248878479,-0.03000446663328149,-0.1927337891302352,-0.13426903412824723,0.29855137512024904,0.5064183622817056,-0.31238928583800624
11.228901386260986,-0.030036890206142593,-0.19606713413163143,-0.1309357007949139,0.3018843601826793,0.5097515630697209,-0.31572235668093956
11.248988151550293,-0.026732750070892347,-0.19606715598394092,-0.12426907693123557,0.30188422110503693,0.5164182142459225,-0.322389725403356
11.269080877304077,-0.02339942754192349,-0.19273384127868107,-0.12093578965546488,0.2985508877717036,0.5197515878313044,-0.3257239152818575
11.28937554359436,-0.03006609494882302,-0.19940050963715372,-0.11426912756138384,0.29188422110503687,0.5130849249037415,-0.33239067474234707
11.30935788154602,-0.03339942737821478,-0.2027338459181822,-0.11093579422805051,0.28855080153028173,0.5115250529120496,-0.33572394283059465
11.32957148551941,-0.033399433274822185,-0.2094005455132162,-0.1042691720629839,0.28188374519661463,0.5134543227191433,-0.34239112839690017
11.34956407546997,-0.026732774805203835,-0.2094005688159128,-0.09760254761217416,0.27521688959338186,0.5173513381272522,-0.3490584482222218
11.369953155517578,-0.023399451861890946,-0.2060672531125612,-0.0942692589388416,0.2718835562600485,0.5178587225026845,-0.35239262122170134
11.390029668807983,-0.030066119249166474,-0.21273392157993018,-0.0876025973444557,0.2652168895933818,0.5111920597196913,-0.35905939131761544
11.41011905670166,-0.03673279370003416,-0.21940061019965362,-0.08093597153453372,0.2585500536721406,0.5178586942952039,-0.3657267051294365
11.430229663848877,-0.03006613541556101,-0.22606730230018723,-0.07426934938836277,0.26521649796685115,0.5245253111506095,-0.37239403548121136
11.450316429138184,-0.023399478727115803,-0.21940066043690856,-0.06760273064903424,0.25854966281874364,0.5311919571150618,-0.37906145987267215
11.470443964004517,-0.026732807224910095,-0.22273398540615832,-0.07093604235597227,0.261882996152077,0.5278586068868398,-0.38239439360921423
11.490500926971436,-0.02673283102028222,-0.22830102473936656,-0.07093614077355358,0.261882996152077,0.521192016772038,-0.3890628829800147
11.51058292388916,-0.02673282849956573,-0.23364466640170922,-0.06426947410688692,0.25521605301498623,0.5145252717025861,-0.395729343708385
11.530810356140137,-0.030066174409749888,-0.2369780225030982,-0.06093620099479906,0.2518827196816529,0.5111919841476589,-0.3990638271512924
11.550953388214111,-0.036732836795220165,-0.24364467969042145,-0.059068945326648824,0.24521605301498622,0.5178586307829051,-0.4057299877972659
11.571111917495728,-0.04339951228217095,-0.2503113664621534,-0.05240232126272419,0.23854927922830002,0.5245252937358172,-0.4123973765203278
11.591105222702026,-0.036732862811987385,-0.24651002089448676,-0.04573572487358944,0.24521594589496667,0.5311920095627072,-0.41906535283889496
11.611438274383545,-0.030066195356201232,-0.23984335150933753,-0.05240238369206732,0.23854927922830002,0.5378586702212212,-0.41239853367249785
11.631486415863037,-0.02673287150627259,-0.23651003964205347,-0.055735775803602026,0.24188261256163335,0.5411920463036457,-0.4090662939354268
11.651587963104248,-0.020066224577943347,-0.22984341031291608,-0.062402541187911484,0.2485492792283,0.5478587855238887,-0.402401431620318
11.671683073043823,-0.013399577775197426,-0.22317678288101436,-0.06906931079125066,0.2552159458949667,0.5545255301001758,-0.3957366258491478
11.691741228103638,-0.006732931086142867,-0.21651015740110216,-0.07573608471833908,0.2618826125616334,0.5611922802583332,-0.389071876859476
11.711836814880371,-0.0033996077799014904,-0.21317684540917717,-0.07906947333390073,0.2652159458949668,0.564525657499471,-0.38573952368260006
11.731927633285522,0.00326705038706764,-0.2065101902693968,-0.08573616715685131,0.26689391171029675,0.571192345276042,-0.37907331416787743
11.75200343132019,0.00993371070891743,-0.19984353763769672,-0.09240286983168063,0.26022724504363004,0.5778590410016565,-0.37240727150693215
11.772131204605103,0.01660037172317783,-0.1931769027179713,-0.09906959460802837,0.2535602862448837,0.5845256660582276,-0.36574139115012566
11.792232751846313,0.01993370559685326,-0.18984357178860942,-0.1024029279413617,0.2502268793304275,0.5878589782568245,-0.362408001175864
11.812323570251465,0.026600364040652805,-0.1831769244518754,-0.10906965354177024,0.24356024879174198,0.5907156075602995,-0.35574241321439887
11.83236312866211,0.03326702564837773,-0.17651028836628468,-0.1157363802965313,0.23689328807672375,0.5869531170672102,-0.34907658326179086
11.852467775344849,0.039933681662509345,-0.1698436632408332,-0.12240316076943848,0.2302266214100571,0.5802865404213086,-0.3424119207410382
