liuyurong129/humanoid-gym/humanoid/data/robot1_actual_20250621-222252.csv
timestamp,joint_1,joint_2,joint_3,joint_4,joint_5,joint_6
0.00014472007751464844,0.0,0.0,0.0,0.0,0.0,0.0
0.020258426666259766,0.0,0.0,0.0,0.0,0.0,0.0
0.040311574935913086,0.0,0.0,0.0,0.0,0.0,0.0
0.06044173240661621,0.0,0.0,0.0,0.0,0.0,0.0
0.08051490783691406,0.0,0.0,0.0,0.0,0.0,0.0
0.1006019115447998,0.0033333333315266264,-0.0033333334135024545,0.003333333333333334,0.0033334394793954206,0.003331708033714634,0.0033332327162752117
0.12069487571716309,0.006666661616519734,-0.0066673536972828105,0.006666666666666668,0.0066667919591096554,0.0066644625551019274,0.0066665469403096
0.14087939262390137,0.013333181614269564,-0.013334717516633713,0.013333157707104524,0.013333454688233175,0.013330257023486872,0.01333321914965273
0.16089582443237305,0.019999640653944724,-0.020002093085376812,0.01999964451353787,0.020000095194783043,0.019995722791515562,0.019999885598084445
0.1810622215270996,0.023332975047151767,-0.023335595624168256,0.023332977846871203,0.02333343092237769,0.023328560728851238,0.023333215868283456
0.2012336254119873,0.0299996502478638,-0.030003153507583806,0.02999964451353787,0.030000048524574212,0.029993052491512642,0.02999992426235302
0.22133135795593262,0.036666322746105484,-0.036670173512203946,0.03666631118020454,0.0366667107301398,0.03665826476303919,0.036666592743831244
0.24138092994689941,0.043332997661328684,-0.04333720449462083,0.04333297784687121,0.04333336750186653,0.04332318437559429,0.04333326586167147
0.2614471912384033,0.04666633610591645,-0.046670724569878475,0.04666631118020454,0.04666669371293385,0.04665552886333218,0.04666660427592771
0.2815406322479248,0.05333301515256359,-0.05333777484335908,0.05333297784687121,0.05333334143254907,0.05331997558624562,0.05333328511577835
0.30161333084106445,0.0599996913337764,-0.06000469015256649,0.05999964451353788,0.06000000332334494,0.05998491822152565,0.05999995353169178
0.3217189311981201,0.0666663631072365,-0.0666714639587893,0.06666631118020454,0.0666666848288435,0.06665050683844126,0.06666660465307754
0.341810941696167,0.07333303605732873,-0.07333824430479365,0.07333297784687119,0.07333336698465215,0.07331594658144472,0.07333325486428352
0.36193180084228516,0.07666637302755343,-0.0766716371449825,0.07666631118020452,0.07666670823503216,0.07664860745790071,0.07666657968010193
0.382082462310791,0.08333304133371006,-0.08333833447816713,0.0766663111802045,0.08333335882089105,0.08331519274505354,0.08333326127015375
0.4024946689605713,0.0899997293416714,-0.0900053061086935,0.06999964451353785,0.08999999424280261,0.08997918436391115,0.08999996255509449
0.42258524894714355,0.09333306915396797,-0.09333872062150905,0.06666631118020452,0.09333334434632924,0.09331153637580802,0.09333328826899101
0.4427022933959961,0.09999975035620161,-0.10000555719065775,0.05999964451353786,0.10000005814441552,0.09997608492753575,0.09999993871973394
0.4627707004547119,0.10666643384212429,-0.10667240426488273,0.053332977846871195,0.1066667919847084,0.10664042355267976,0.10666658822114725
0.48290014266967773,0.11333306149752595,-0.11333888363142099,0.04666632661865898,0.11333342758819205,0.11331047611663889,0.11333320769660551
0.5032272338867188,0.11666639242353995,-0.11667221715874421,0.04333299310550429,0.11666676092152538,0.11664380944489587,0.11666654176188572
0.5231380462646484,0.12340395682586454,-0.12001810340062372,0.03683200416524271,0.12037994148630873,0.11964618431304357,0.12634841041095035
0.5432605743408203,0.13043499226691663,-0.12237699943689899,0.02998165630303675,0.12450142053836817,0.12248351101074345,0.13563227671463055
0.5634279251098633,0.13380593808504793,-0.12301114631049129,0.026747330828754783,0.12557232950917724,0.12417530578150315,0.141248333847393
0.5835726261138916,0.127164016385164,-0.12406793377828544,0.02024807033651914,0.12713732957743576,0.13277295747806342,0.1528799679851158
0.6036112308502197,0.12044000844732704,-0.12492697024396401,0.013704998749070984,0.12924554213561099,0.14193798974282842,0.16395692466619738
0.6237223148345947,0.11427328347218738,-0.1269808542219518,0.019454800220976728,0.1350980099796364,0.1478271829281922,0.17142078714324527
0.6439356803894043,0.1111741096108221,-0.12784263628196868,0.015662496849290195,0.13794293212399758,0.150855724238202,0.1752319161615682
0.6641967296600342,0.10506379771969238,-0.1296654198275749,0.014560472305966651,0.14440101280355847,0.1558494271794579,0.1821193797567187
0.684110164642334,0.09896455622460212,-0.13126229683216015,0.02004725320121621,0.1511331152563892,0.1601596942186681,0.18875622214411947
0.7042100429534912,0.09590923246984744,-0.132006894983634,0.022780019286003494,0.15456707631538522,0.1620517547824784,0.19201698848255136
0.724301815032959,0.08974823835696513,-0.13309995433914285,0.014928145824040211,0.16107098244037668,0.16673689842793007,0.19887258690990198
0.7443985939025879,0.0835717078236968,-0.1337975520531124,0.020129015135773143,0.16777585261989186,0.17284870573249222,0.187481930729784
0.7644772529602051,0.0773878619604928,-0.13634033253279132,0.025669533190299472,0.1754661192319812,0.17538581650392712,0.19323237662667578
0.7845635414123535,0.07426536559755126,-0.1377951359064821,0.028503980238001433,0.17934114005369428,0.17633235286609594,0.19609279542821498
0.8046708106994629,0.06794384834437935,-0.14076442418977528,0.03429363521763201,0.18693002056074307,0.17811650192774656,0.2019850774864873
0.8253602981567383,0.06152936006289857,-0.14386735693083064,0.04023063859143781,0.19433222566150274,0.17981630912325755,0.20807432140723678
0.8454678058624268,0.05828803046932357,-0.1454974269433147,0.04325453776780084,0.19796521903982828,0.1806883511353043,0.21118883960591894
0.8655543327331543,0.0517455220721324,-0.1489202346432556,0.04939994681621409,0.20511782202125076,0.18258044931106132,0.21366949638291516
0.8856613636016846,0.058430753035818996,-0.15184659611299406,0.04230232947648824,0.21183868450020663,0.18520183298249457,0.21033739484756445
0.9059560298919678,0.05506969133143483,-0.1520471512524599,0.04521452035663997,0.2150407483754262,0.18679898554244032,0.201233171680856
0.9259107112884521,0.048127850037501675,-0.15102449329547216,0.044242931571280265,0.22107476832882186,0.19156394476097183,0.16250833287257074
0.9460268020629883,0.041252055672431676,-0.15014126655286314,0.04314980243308391,0.22795159879239174,0.19494894473772392,0.11697053823570552
0.9661617279052734,0.03778591937981808,-0.1500901218870474,0.04597743820043197,0.23146957919392047,0.19675997625404107,0.0967317553169366
0.9862124919891357,0.03068854339903906,-0.14852850859541325,0.03815652030813246,0.23839600102236946,0.20068122203605146,0.042007934362839144
1.0062966346740723,0.023793487207594857,-0.1485599875140835,0.04368986529393859,0.24620300268951967,0.20247865879138582,0.0035568388872463004
1.0264043807983398,0.020318879636723977,-0.14859682322471063,0.046474758097452704,0.25014007986655556,0.20324070307641917,-0.016260261955263453
1.0464997291564941,0.013246961820672882,-0.14814944300231322,0.045369752485296934,0.2579565172095887,0.20484489138048026,-0.06194032002750226
1.0665502548217773,0.006289964194686474,-0.14807059065705735,0.04417782446922214,0.2663067551568634,0.20493888797725707,-0.10343162335252573
1.0866410732269287,0.0025805084484594866,-0.14801931495339102,0.04713517560389403,0.2695189975780303,0.20872209007771664,-0.1361297736710533
1.1067276000976562,-0.0050257777575442135,-0.14696328722109728,0.039634269313567984,0.2760276392756544,0.216687653084862,-0.20781099114571672
1.1269242763519287,-0.012603652032299463,-0.14694552417047177,0.045604941349253414,0.2828147097323029,0.22461420637698443,-0.271517363384642
1.1484692096710205,-0.02058483125279799,-0.14578345512981483,0.0383043870722745,0.2896336259663734,0.23364781238094115,-0.3444052212753893
1.1685266494750977,-0.024544556017154735,-0.14571408816592613,0.04135843263814365,0.29327502256175,0.2311235477059433,-0.3759371653070148
1.1886451244354248,-0.03256142231895212,-0.14538049407212045,0.0407980544393143,0.3009471488657841,0.2267783051553238,-0.4637506425851612
1.2088844776153564,-0.04064529890880092,-0.14495191398369808,0.040249444570409756,0.3084768402383032,0.22048724119780364,-0.5335984703716702
1.2290523052215576,-0.04454828033743747,-0.14520949471498593,0.04328520219595524,0.3122641548275117,0.2169995231087138,-0.5660690836926112
1.2491233348846436,-0.05268624401499553,-0.14495198862483552,0.036007992835012596,0.32051325704103517,0.2251185033954885,-0.6385436498549631
1.2691938877105713,-0.06125163900912765,-0.1458629429770809,0.041912405231735124,0.3278387214326323,0.23805715977893602,-0.6288929905865621
1.2893569469451904,-0.06530920092335706,-0.14668098393830337,0.04498384893029826,0.3320097306383901,0.2447926997278318,-0.6164401850859893
1.309380292892456,-0.0742037138097991,-0.14642206254613988,0.044188536315537146,0.3423168521223789,0.25920366732995237,-0.6638593520290055
1.3294765949249268,-0.08295109180556769,-0.146537793083257,0.043532483411235,0.35262966434732906,0.2675370689875031,-0.7170624240689204
1.349543809890747,-0.08737902220502627,-0.1467982054364723,0.04653134553533782,0.3578831980967169,0.2721725517728915,-0.7232667348028604
1.3696424961090088,-0.09672026229474336,-0.1464117728971845,0.03923898198704521,0.3688988851044236,0.2838141527433232,-0.7514924088947037
1.389793872833252,-0.10642773072794638,-0.14578618085174583,0.045009096561703696,0.3795089564800876,0.29215788073398724,-0.7200171959000019
1.4099023342132568,-0.11155549156549939,-0.14502390371443533,0.041242314438235804,0.38521409878546237,0.29791756449518597,-0.701642725052048
1.4302597045898438,-0.12168260949966711,-0.1439887224006386,0.04066089843983545,0.3966256242910662,0.30775198027517436,-0.6669836095728701
1.450150489807129,-0.1314444832349526,-0.14422354013030614,0.04588100250120986,0.40617183684189073,0.31709426373204774,-0.6550595714003307
1.470452070236206,-0.13632218829622902,-0.14452767307307327,0.04848423337975524,0.41052167164984854,0.32304767645665877,-0.6535184393782985
1.4906296730041504,-0.14704613567573463,-0.14484099505974363,0.04181627593008638,0.41896380492287255,0.3315159114300627,-0.6393468737949756
1.5106842517852783,-0.15796028342621246,-0.14500181920332253,0.0468699890998707,0.430360651734425,0.3530398647055893,-0.6180850435448418
1.530791997909546,-0.16960573680777827,-0.14492686605131486,0.043023341851813744,0.4428564082084021,0.37403168816774063,-0.5972161706847614
1.5508613586425781,-0.1754272329202512,-0.1446944732857073,0.04531057628330712,0.4489283802481808,0.3827167173583185,-0.59529179659215
1.570971965789795,-0.18658948052517088,-0.14466672982383924,0.050081351438036034,0.4613989385504473,0.39389000832052645,-0.5851778142418941
1.5912530422210693,-0.1919984409311894,-0.1451545238611581,0.05259351208813183,0.4669517653317282,0.4006362282321581,-0.5788901922106204
1.6113383769989014,-0.2030740870667811,-0.14601602508681402,0.05779947337225314,0.4813867640665324,0.4162416128798067,-0.5624588816011596
1.63142728805542,-0.20079474935564756,-0.1458289160071576,0.06280510449322288,0.4961325513928686,0.41632166501586293,-0.5464658185027336
1.6518347263336182,-0.20644288735047275,-0.14620176043874072,0.06523167559789839,0.5012555431588435,0.4255015573657229,-0.5391393047546116
1.671720266342163,-0.21131791185863447,-0.1467814959404876,0.0700063040256061,0.5106790721192291,0.4419668994806991,-0.5289485601104106
1.691784143447876,-0.20958737732414684,-0.14638678738024807,0.07465085902771523,0.5208541003140226,0.44922550237830483,-0.5186139856440259
1.7124414443969727,-0.20866835300745462,-0.1460470795201291,0.07692124539931236,0.5248489071505721,0.4517616332039546,-0.5116439753122485
1.7325654029846191,-0.2063702535076158,-0.14530945156203426,0.081361092225488,0.5287990661933394,0.45239178154815435,-0.49645021566436354
1.7526755332946777,-0.21696405177954017,-0.14582522704076728,0.08566841291627939,0.525436144207769,0.4642973011754782,-0.46354691587233776
1.7730274200439453,-0.2224704239751315,-0.14582556105136074,0.08776004340311096,0.5243031419829778,0.4678912647360306,-0.45070517538064847
1.792903184890747,-0.23363860398976533,-0.14573386924095386,0.09182567520821089,0.5189421849359821,0.4769136186521792,-0.42111175709146875
1.8130176067352295,-0.2450896695211899,-0.14565895997290557,0.0958397496260644,0.5123458516719778,0.48895543664827956,-0.39506964413660517
1.8334014415740967,-0.2508921281292139,-0.14574037592889993,0.09788672708980915,0.5094615486015984,0.49612140659935894,-0.37520569316264685
1.853311538696289,-0.26264313381198445,-0.14595367426571104,0.10202439814352383,0.5043563145206602,0.5112445441806488,-0.3355839704689048
1.8735613822937012,-0.2745640957030764,-0.1462675355741651,0.1062266690777508,0.5001888526687267,0.5273933854477693,-0.2971417776794187
1.8994207382202148,-0.27407416934321804,-0.14624007259864993,0.10830085840601976,0.4980760366429481,0.5347578910354123,-0.278088061848068
1.9195122718811035,-0.2736041003098376,-0.14624252789434267,0.1103765392025629,0.49635912974322893,0.5430856008765158,-0.26198380997733206
1.9396171569824219,-0.2796480527868392,-0.14649302567381695,0.11250009860156668,0.4949384872541084,0.5531547899841466,-0.24418957014769255
1.959697961807251,-0.2917665596355014,-0.1470190068191015,0.11683494622402561,0.4922337836887167,0.5711934667181578,-0.19719909854976486
1.979797124862671,-0.30397744211512057,-0.14775124268886727,0.12124397578511695,0.49058589646725803,0.5903399087328862,-0.15287577753411574
2.0002403259277344,-0.3101041109734805,-0.14815002552615134,0.12347787635335669,0.48998128183155465,0.5996040452808894,-0.1313845874016682
2.02034330368042,-0.32161722568211487,-0.14903185500278138,0.12797841428780396,0.48934866859400405,0.6188526175855368,-0.08849822711044687
2.0404622554779053,-0.3212080287348028,-0.14953185225443547,0.1323785112408592,0.48924269781790214,0.6388235793277353,-0.04771461723283919
2.0609307289123535,-0.33362788855770653,-0.1506703520320496,0.1369248016898811,0.4897824689141895,0.6617064012861713,-0.010246855086374733
2.0811142921447754,-0.33351773062726237,-0.1509800998830981,0.1391747169944933,0.4904873944478389,0.6726096242108068,0.008367439049578502
2.101240634918213,-0.33960587565900097,-0.1519213046653507,0.1437103408353974,0.49254169213606075,0.6961274113783523,0.043431873872616614
2.1212189197540283,-0.34544030091508554,-0.15304968283212356,0.1483313444956954,0.49551237502213197,0.7197876250628663,0.05917323429361091
2.141303539276123,-0.34515800515710815,-0.15346204606684752,0.15064891155243737,0.4980321916523299,0.7300089360820883,0.06124722026166969
2.161447286605835,-0.34407246699651917,-0.15442235164701143,0.1553940603491908,0.5043934808739333,0.7454200114239401,0.05198986859628077
2.181760549545288,-0.3429606424242628,-0.15543082774742895,0.16016003425685835,0.5106650858835826,0.7613009561312503,0.04552089592730862
2.2017157077789307,-0.3424375109886708,-0.1560141126767466,0.1625437264636353,0.5134929687633407,0.7707879490363395,0.042518480909548725
2.2217907905578613,-0.3413433992253276,-0.156364716101931,0.16735559584811477,0.5224421702703256,0.7791892100069694,0.03410887559492667
2.241868495941162,-0.3400548372443299,-0.1560232840613731,0.17224357648543565,0.5348457744472616,0.776728454916716,0.023104489360569223
2.2620465755462646,-0.3394059878204825,-0.15585410435459265,0.17469319341022882,0.5413296807765492,0.7757671739853899,0.017385985299640846
2.282166004180908,-0.33790597459218236,-0.15576158714575405,0.17968229776979355,0.5550594727431322,0.7762154036633023,0.005335617111258046
2.3022286891937256,-0.3362254481946842,-0.15592608428246837,0.18476501727003328,0.5698865783384424,0.7795660728888295,-0.007569904347627549
2.3229618072509766,-0.3345526645948965,-0.1561435155033953,0.18986799662696396,0.5856951439964726,0.7843224303548506,-0.021200839111093748
2.3430652618408203,-0.3337149866052413,-0.1562818937415287,0.19242835560975335,0.5939765743653772,0.787294792969266,-0.02829239044915725
2.3631374835968018,-0.3320244265526327,-0.15664194165696846,0.19756991521467687,0.6112998767734459,0.7945665245961427,-0.043024663671980656
2.383371353149414,-0.3302906445938712,-0.15715028699787648,0.20274446803700935,0.6296256094652345,0.8037635505028417,-0.058467878552627195
2.4035255908966064,-0.3293969842304739,-0.15747565748760511,0.20534651836487464,0.6391523840308704,0.8091306080612714,-0.06644200121425917
2.4236624240875244,-0.3275357485473075,-0.1582968369299121,0.2105840850536396,0.6588966520763637,0.8215096663349978,-0.08285926925777892
2.4437036514282227,-0.3251634698573784,-0.15971773925281196,0.21590780964142472,0.6777618821230376,0.8393164615157819,-0.09850385481521191
2.463831663131714,-0.32364911706630406,-0.1607952686971565,0.2186334947230627,0.6863270519979413,0.8507369152921821,-0.1056411959921524
2.483907699584961,-0.32032698910007046,-0.1633463348003986,0.2241725706406703,0.7032290133431626,0.8748396665327354,-0.11964738889174656
2.503960609436035,-0.31676058353250813,-0.1662500652021091,0.22973955021034206,0.7195391082752006,0.9006135483071599,-0.1330682281029696
2.5243024826049805,-0.31509218994706834,-0.16765252093127583,0.23243896209869974,0.7277758907269596,0.9145534228946446,-0.1397551571215815
2.5443029403686523,-0.3118567866654051,-0.17049488541062435,0.23784915488903702,0.7453890181215911,0.941673364960598,-0.15382129946247314
2.564333438873291,-0.30845334118345913,-0.17356096435775892,0.2433740910384063,0.7641103123185895,0.9678494438882297,-0.16851707700704527
2.584887981414795,-0.3047876652262552,-0.1769180108584428,0.24900570287121998,0.7830355209357216,0.9935265666331262,-0.1831799666207775
2.6047780513763428,-0.3028537499450024,-0.17870510914871057,0.251854982679322,0.7924126247174547,1.0062028969982868,-0.19038386615123334
2.6248562335968018,-0.29878964419399573,-0.18248285734401232,0.25761856944817507,0.810943985578871,1.031113372198189,-0.20450405033056787
2.644942283630371,-0.29448307511246996,-0.18650262579202156,0.2634626561619541,0.8291742864577247,1.0554413115228065,-0.21824247828089377
2.665022373199463,-0.2922506867244834,-0.18857648344957242,0.2663887008205728,0.8378792148545762,1.0686539861826063,-0.22474830485667818
2.6851329803466797,-0.2876112994537828,-0.19289940283098625,0.2723018413201873,0.8549022732750926,1.0941595363010728,-0.23738617968524386
2.7052760124206543,-0.28276982102094117,-0.19746900520300856,0.2782934440536543,0.871574637840856,1.115636125996271,-0.24972251735198409
2.7253174781799316,-0.28040810543125794,-0.19957596625157745,0.2811903483495017,0.8799669876924217,1.1270881848394696,-0.2558077657399666
2.7454206943511963,-0.2754344149592809,-0.2038621708157695,0.28694400838670436,0.8949707466513623,1.149040283201106,-0.2668367157374173
2.765486240386963,-0.27031168082930557,-0.20834432919578577,0.29268200190222976,0.905906934450788,1.1700600831821464,-0.2753407919033866
2.7855608463287354,-0.265019273320306,-0.21298579461783543,0.2984431664187261,0.9158879273151626,1.1915015944042382,-0.2832807508730282
2.805680513381958,-0.26231315511416475,-0.21533680501489125,0.30133144984670207,0.9207421286499027,1.2023607405611563,-0.2871555967162608
2.825739622116089,-0.27010016233369427,-0.2199595865425754,0.30707823464684175,0.9306753163518129,1.2282205841184657,-0.2948922746359599
2.845836639404297,-0.2645138287115655,-0.22480355493185666,0.31293185579231997,0.9408538722672146,1.2502244092647805,-0.30280273387821066
2.8659331798553467,-0.2683166547786832,-0.2271620494057917,0.31584385161613465,0.9460366753546877,1.2632312830322074,-0.306736656186264
2.885974168777466,-0.26924698158252086,-0.23195892067324358,0.3216952842920866,0.9562343790247202,1.287108786386992,-0.3145440366067985
2.906062602996826,-0.2700268316194046,-0.23683815929136967,0.32760002190864507,0.9665554302658953,1.3112900005242087,-0.3223447073065227
2.9261884689331055,-0.2736937310839608,-0.23925724048979327,0.3305544099944821,0.9719071450844693,1.3245623209001147,-0.32628476550828317
2.946244478225708,-0.2809824397495552,-0.24414094173106962,0.3365014099145982,0.9828507354364046,1.3508862593374273,-0.334201607652244
2.966440439224243,-0.27492294451961324,-0.2491717726325278,0.3425197734879973,0.9940015642674879,1.3740961446194042,-0.3422149638896334
2.986429214477539,-0.2819531836817255,-0.2541083206703025,0.3485427566799641,1.0053778008617806,1.401571483551662,-0.3501609151158681
3.0065064430236816,-0.28544225611681756,-0.25657911483526863,0.3515640669685168,1.011156824463197,1.4153214022653455,-0.35414442359397097
3.0266876220703125,-0.29236062690130826,-0.261545164831681,0.3576342843196195,1.0227535723882115,1.4423598321906512,-0.36207436800771436
3.046950578689575,-0.29923323542152985,-0.2664823446486745,0.3637047133163036,1.0341089804003625,1.4684857754319847,-0.36986223151690745
3.067064046859741,-0.302912933489419,-0.268577546243243,0.36675175501246915,1.0381654294731513,1.4784065524473446,-0.37289782406694605
3.087188482284546,-0.31116648346621484,-0.27244170794880307,0.3723589682474605,1.0436461114706241,1.4928617529195156,-0.37859539031544825
3.10793399810791,-0.3194787663332987,-0.2763149158427132,0.3778652741118615,1.0492671440688908,1.5069812776359561,-0.38448443904337554
3.128009080886841,-0.317357166371141,-0.27816567687245575,0.3804948872311686,1.0512084063843214,1.5114184998636435,-0.3873015453898128
3.14811110496521,-0.3128390861885554,-0.28185075825170114,0.38563307517680206,1.0547153767395128,1.5169328413700258,-0.39323451319910163
3.1682145595550537,-0.31033295268936134,-0.2837580894678944,0.38822816243435465,1.0567718960365278,1.5193308773711092,-0.3962545554577471
3.188275098800659,-0.3179165605367503,-0.2874644775019888,0.3934583378907223,1.0625615259830175,1.5278964001697197,-0.4026942344972235
3.208522319793701,-0.32572836025575386,-0.2907730057780621,0.39868665661414554,1.0691923821131741,1.5367050163783667,-0.4093711197619855
3.2288029193878174,-0.33399773729815785,-0.2938458533424552,0.40380909588173364,1.0753548573570841,1.5441814675035541,-0.41601409035160336
3.2489094734191895,-0.33833242962271654,-0.2952043210170616,0.40633647109847254,1.0782978813944124,1.547567236409166,-0.41933316932197906
3.268994092941284,-0.3473871260827326,-0.29755880622645337,0.41132117316978595,1.084473810964759,1.554245691385973,-0.4260735808683309
3.289309024810791,-0.35673434310382723,-0.29975428404774235,0.4162626750414269,1.091021426880802,1.5605661769534438,-0.4329402712252319
3.3092377185821533,-0.36149741010032393,-0.3008553595153105,0.4187631721666354,1.0943294728939927,1.5636003833330847,-0.43638416942501135
3.3293442726135254,-0.37126941406603303,-0.30308399279720094,0.42399264783634266,1.1011261511543302,1.5701163287211939,-0.4432230577723898
3.349433183670044,-0.3701640954065229,-0.3040307440340568,0.42660037348016416,1.1035176492233127,1.572973809861913,-0.4464659439235222
3.3695125579833984,-0.3743120926818895,-0.30600754591177387,0.4318749914134765,1.1090969275487075,1.5791125799097523,-0.45304592736823585
3.389591693878174,-0.37859159162841827,-0.30805094477148764,0.4371550048764089,1.1146662414257333,1.5849381313175832,-0.4596528200788601
3.4097180366516113,-0.3776887436736411,-0.30878638416465315,0.4397659034363845,1.1175003458639468,1.5872253316859104,-0.46269536783503223
3.4297807216644287,-0.38790964704944864,-0.31079280006839705,0.44528930123178684,1.1258321462568468,1.5941335729904966,-0.46914626469781257
3.449875831604004,-0.3863188120101994,-0.31242750678968056,0.45040720035785037,1.130204328330793,1.597127873980025,-0.4750722159988571
3.4699440002441406,-0.3873800474456413,-0.31335664457579687,0.45301953048561583,1.1326988043630992,1.5990544440177477,-0.47808688844754016
3.490049123764038,-0.39005363457007575,-0.31529717012397895,0.4582561461771753,1.1380619869908033,1.6025809389590173,-0.48415841949429933
3.510561943054199,-0.39076250418701297,-0.31731687649261925,0.46340554696836966,1.1429178060113463,1.6048395747896271,-0.4901759840848049
3.5307583808898926,-0.3899264068411266,-0.31831145281077194,0.4659437705182333,1.1450079373802018,1.6055535481778334,-0.4931503313105548
3.550771474838257,-0.39988516681545316,-0.3209200594324655,0.4714572736433485,1.1524764897044837,1.6119409181420954,-0.4995473693549791
3.5708348751068115,-0.39771591271735884,-0.32313805535948115,0.4766561781325369,1.1582615208718903,1.613962053829403,-0.5057866078028499
3.5909318923950195,-0.4026567421543283,-0.3244521552856944,0.4793712262985791,1.1618941465404897,1.6162327621318995,-0.5090002821825327
3.611055374145508,-0.4060850680150237,-0.3270561630240235,0.48478721099003774,1.1698824334925346,1.6223221563450578,-0.5156677483075535
3.6313581466674805,-0.4099558983009354,-0.32976170392815896,0.49010377887927514,1.1765790386821458,1.6268578241755376,-0.5222192715171506
3.651439905166626,-0.4146085281619978,-0.3311733897791161,0.4928579131694196,1.18111578357237,1.6302573773141402,-0.5255495076083103
3.671555757522583,-0.4122204860383778,-0.33383069054223397,0.4980556708480054,1.1875137621214322,1.6349959450411893,-0.5323043886399769
3.691619634628296,-0.42186621546873976,-0.3369509435902892,0.5034030638762413,1.195127277420953,1.64045130906931,-0.5392374046343801
3.7117197513580322,-0.42063368711478066,-0.3383618694506136,0.5059892484605683,1.1982179035195322,1.6428588796031074,-0.5426288516129137
3.7317888736724854,-0.42471600275187815,-0.34133099375357845,0.5112479335379,1.2046758644991138,1.6471731529354674,-0.549389903347211
3.7518720626831055,-0.4284751262491646,-0.3442395990119334,0.5166338706692227,1.2131803495594218,1.652814557200886,-0.5562850071978396
3.772165060043335,-0.42655534802858025,-0.34710860480405714,0.5218332744362725,1.2196834862034995,1.6567336366897891,-0.5630517156076652
3.792248010635376,-0.4256863421800345,-0.3485871076284954,0.5244145021230309,1.2226026041055829,1.658359994200952,-0.566418833228269
3.812345266342163,-0.43537537639627394,-0.35198942793919963,0.5297626345368676,1.2308284434074417,1.6630476339073559,-0.573396416855835
3.8324244022369385,-0.43249919871390524,-0.3553336760695487,0.5347116355668459,1.2367904924065205,1.6668720273148732,-0.5803481448603365
3.85272216796875,-0.4371994839269544,-0.3571581809225614,0.5373246717650928,1.2405824828203889,1.6690850898558542,-0.5838573326323608
3.8726954460144043,-0.44020329176230133,-0.36065889888817443,0.5424276926452241,1.2479132365481724,1.6737693866207455,-0.59087845945788
3.8930249214172363,-0.44354899741620624,-0.3642580638695364,0.5474485492545084,1.2541671332107394,1.6773446947328565,-0.5978455525442131
3.9133527278900146,-0.4480858129817904,-0.36611348326147214,0.5500701593561249,1.2582867582787798,1.6798454717964688,-0.6013737589155008
3.933476686477661,-0.4548978119024526,-0.3698116368452736,0.5552985152360658,1.2667096496203902,1.6852670876654714,-0.6084470732249272
3.953559398651123,-0.45207425204064855,-0.3734197385190171,0.5601579510422601,1.2723697926688908,1.688880762133999,-0.6154514260696201
3.973721981048584,-0.461356438546296,-0.3773292173394716,0.565352238541718,1.280045767963768,1.693039094036637,-0.6224949691554894
3.993776321411133,-0.46581789336637885,-0.37928502024616084,0.5679902985196308,1.2844059756497517,1.6956452249642442,-0.6260360008968973
4.013884544372559,-0.46880812266849586,-0.38306978426241256,0.5730546381884628,1.2921805049188166,1.700845997758496,-0.6331508201388584
4.033923625946045,-0.4721449915899518,-0.386994199429404,0.5780297649037388,1.29873223766453,1.7044350353752624,-0.6402346338323861
4.054025411605835,-0.4765914462260013,-0.3890454140622467,0.5806843449200481,1.3031129029291402,1.7070439537382487,-0.643774440097342
4.074131727218628,-0.47387999262677793,-0.3928565116249707,0.5854294578771181,1.3090338898600238,1.7105155598816737,-0.6509080636445483
4.094224452972412,-0.4828656077177418,-0.3971089633774379,0.5907062337938525,1.3173310199910664,1.7148416013180838,-0.6579832593539059
4.114512205123901,-0.48135579346496293,-0.3990371741493943,0.5931024393467789,1.3207918922512611,1.716958366311372,-0.6615656635819032
4.1344945430755615,-0.4845367818900897,-0.4031831718892072,0.5980738982485041,1.3277290859391482,1.7204785115777197,-0.6686886660009377
4.15470027923584,-0.48750002024994576,-0.40731418161849947,0.6031020853710705,1.3356792406991098,1.7250125094621966,-0.6758350745147341
4.175246238708496,-0.49066437310631184,-0.4115235849698954,0.6080666706440695,1.3429331922152272,1.7288247854350793,-0.6829714967267233
4.1953253746032715,-0.4951294476190065,-0.41377289196441436,0.6107185256844045,1.3472009626324808,1.7308739906560113,-0.6865044083636422
4.215415000915527,-0.4922618550977353,-0.41780718303690023,0.6154161337857698,1.354156026233758,1.734997761869938,-0.693714596568947
4.235547065734863,-0.5011976387009354,-0.42239149436330214,0.6207107166426881,1.362642263917605,1.7388949043901407,-0.7007663231931532
4.2556092739105225,-0.49961166301328114,-0.4244304990622315,0.623091547425624,1.3666295203042447,1.74132803153111,-0.7043650181584243
4.275692701339722,-0.5026985888928628,-0.42886564673382277,0.628058953018858,1.3741084058798665,1.7449708332430456,-0.7114873773226849
4.295753717422485,-0.5055258340209028,-0.4333172838896496,0.6330997945038997,1.3824972678339649,1.7492063697144815,-0.7185901366123405
4.317019939422607,-0.5041704894685837,-0.4354402120563682,0.635422011721943,1.3860103020012848,1.751220945596323,-0.7221924805292492
4.336909294128418,-0.5131496180884049,-0.4402358194998367,0.6407230381068008,1.394545516323618,1.7545167061679152,-0.729213370425325
4.356998682022095,-0.5098461681548703,-0.4445303735294532,0.6455230891180631,1.403207644601082,1.7595550426846933,-0.7363629602780571
4.378085136413574,-0.5188274806884944,-0.4494442293928497,0.6508385235663687,1.4117667914021497,1.7624481790724174,-0.7433573619765363
4.398055553436279,-0.5170748535744479,-0.4516469673668535,0.6532838057454216,1.4164443490372476,1.7652763565004947,-0.7469006175942751
4.418129920959473,-0.5198519159720192,-0.4563576171623843,0.6583615687265055,1.4252560043197353,1.769075931919605,-0.7539325739788754
4.4385435581207275,-0.5225918086652749,-0.46116441193759644,0.6634825563406527,1.434239627982348,1.7728525971238474,-0.7609339159911596
4.459608316421509,-0.5208325958460652,-0.4634453871663796,0.6659325135974844,1.4389503782711084,1.7754751508505968,-0.7644459571104649
4.479700088500977,-0.5298020373471765,-0.46858016647856776,0.6713013181775932,1.4476917172803274,1.7774934570069272,-0.7713753309131911
4.49977970123291,-0.5263531593060108,-0.4732271913330789,0.6761998695159407,1.457311366885928,1.7823540009200762,-0.7783796916828012
4.5198400020599365,-0.5353051810133368,-0.4784837452135576,0.6815877867064538,1.4660425221668634,1.7839117587420563,-0.7852788345260637
4.539919137954712,-0.5336039487254611,-0.4808704117932257,0.6840370832332963,1.4708826289108914,1.7861384878013562,-0.7887599576622263
4.5600292682647705,-0.5363602866257228,-0.48594054931742614,0.6891830108905947,1.4800823761664557,1.788995867992973,-0.7956668921999897
4.5802788734436035,-0.5408269194859102,-0.48864258582241205,0.691893375200678,1.4844497766269302,1.7894792752693924,-0.7990954706776915
4.600395441055298,-0.5374639958987135,-0.4935502702655843,0.6967770111027073,1.4941925001063434,1.793571837897711,-0.8060028332378609
4.620483160018921,-0.5464346347390163,-0.4990162056417902,0.702346843078325,1.5037329884304351,1.793818351573374,-0.8127051194434178
4.640556812286377,-0.5432774418574856,-0.5039537574379177,0.7073598770934978,1.5148903560392422,1.7972969171341386,-0.8194828507929467
4.660645246505737,-0.5477432451294587,-0.5067371707168415,0.710155786372209,1.5196510777848542,1.7972291060293843,-0.8228174911912545
4.680752754211426,-0.5506225812276705,-0.5120978374371218,0.7154839979226829,1.530003319274795,1.7984692386976158,-0.8295185237886904
4.700818061828613,-0.5473452834755934,-0.5172694304767883,0.7205636100878495,1.5410319419921041,1.8010465789375154,-0.836193185930314
4.720912218093872,-0.5456530150589604,-0.5198900162219791,0.7231143026662014,1.5462694985167955,1.8020224293668174,-0.839506445110181
4.741060018539429,-0.554480552699119,-0.5256538420506042,0.7287549635108227,1.555443407053478,1.800892692325813,-0.8461352588709273
4.7611188888549805,-0.55151044312998,-0.5308006319822935,0.7336827625874569,1.5665788656902426,1.8033416171890537,-0.8527115450816801
4.781485319137573,-0.5484589662022427,-0.5358075575693662,0.7386121187323385,1.5782503775687844,1.8062728217701105,-0.8592563938577804
4.801376581192017,-0.5516237356876399,-0.5384920541894449,0.7412734855287186,1.583616765182156,1.8067056525098262,-0.8625274896130715
4.8214476108551025,-0.5530338716378604,-0.5437234914143285,0.7463660762748745,1.5950156516614766,1.8085506640775308,-0.8690349351442312
4.841522693634033,-0.5543903942683451,-0.5489697599107453,0.7514910585297991,1.6065537165158332,1.8103663984320009,-0.8755113629681436
4.861971616744995,-0.5569643462784506,-0.5516715428823484,0.7541671581809022,1.6121428513217058,1.8107751811846653,-0.8787467610584417
4.882369041442871,-0.5539467435051201,-0.5568399341136507,0.7590927576449648,1.6244988359491312,1.8134062296928788,-0.885153405670732
4.920714855194092,-0.5539467435051201,-0.5568399341136507,0.7590927576449648,1.6244988359491312,1.8134062296928788,-0.885153405670732
4.946040153503418,-0.5539467435051201,-0.5568399341136507,0.7590927576449648,1.6244988359491312,1.8134062296928788,-0.885153405670732
4.966172456741333,-0.5589477748711729,-0.562307983374784,0.764430033597356,1.6358562533367027,1.8141496067656628,-0.8915811651698196
4.986251354217529,-0.5558221785312778,-0.5675730636940928,0.7693969198463639,1.6484309847545335,1.8165502196945393,-0.8979306219874381
5.006366491317749,-0.5647258865278016,-0.5732487735886336,0.7749895673246318,1.659327930113625,1.8161034537327585,-0.9043479176202409
5.026473045349121,-0.5647258865278016,-0.5732487735886336,0.7749895673246318,1.659327930113625,1.8161034537327585,-0.9043479176202409
5.046993732452393,-0.5615054379045223,-0.5786254368516226,0.7799890381992584,1.6718445493432057,1.8180409251919984,-0.9106699618702614
5.067389011383057,-0.5598512201830276,-0.5812630454387918,0.7825363626972981,1.6782579494841017,1.8192989479379529,-0.9137482252686088
5.087660074234009,-0.5625481746197604,-0.5868291758107735,0.7879254656282358,1.6899256550859643,1.820062484551937,-0.9199856638516747
5.107702970504761,-0.5669198662212858,-0.5897600771871019,0.7907681370182013,1.6951984581006203,1.8195332537523454,-0.92315067987738
5.127792835235596,-0.5635072656532166,-0.5952313555393546,0.7959023374042243,1.707982198459611,1.8214719373112223,-0.9292832990582082
5.147876024246216,-0.5600276677834968,-0.6007501560341236,0.8010342765908777,1.7207711756005668,1.8233121380360757,-0.9354166537055542
5.167980909347534,-0.5643335726933593,-0.603738771390576,0.8038910168489315,1.7260063335895066,1.8225892745051764,-0.938586870263692
5.188083648681641,-0.5668326769663495,-0.6095944623602993,0.8093492601967183,1.737588073639667,1.822373711825636,-0.9448368800000563
5.208148717880249,-0.5632247273213357,-0.6153161771681211,0.814512817285339,1.7501961852014276,1.8235364190949321,-0.950988921728353
5.228379487991333,-0.5613897472658734,-0.6182050579122669,0.8171029209547378,1.7564737855152277,1.8240451094025614,-0.9540614536704731
5.248509168624878,-0.5576544142440186,-0.62404003212592,0.8223023738311978,1.768968043316786,1.8249052170547868,-0.9602014506395573
5.268723487854004,-0.5537581085807816,-0.6299707644060395,0.8275662247611829,1.7812293624476145,1.8253588863645973,-0.9663505703174381
5.28870964050293,-0.5497843987272751,-0.6359716954842314,0.832855984538203,1.793416379739751,1.825590184764599,-0.9724906580655258
5.308772087097168,-0.5478182077996661,-0.6389841698615601,0.8354853251857286,1.7995800864226899,1.8257391637322413,-0.9755442043582535
5.32886528968811,-0.5438106935303288,-0.6450652581762479,0.8407711598563505,1.8118246949730896,1.8258468955310676,-0.9816532090297311
5.348951816558838,-0.5397042360793564,-0.6512180709554601,0.8460926852154926,1.8239581296993224,1.8257043151655397,-0.9877667974312229
5.369018793106079,-0.5355125997200164,-0.6574265461212442,0.8514472985421724,1.8359983496957308,1.825320583025981,-0.9938646553320278
5.389196157455444,-0.5333489331457272,-0.6605605538412104,0.8541554146520314,1.8419097625034744,1.8249552404366325,-0.9969240107681273
5.409224987030029,-0.5290952003458558,-0.6668427564044811,0.8595246958768472,1.8539795795108738,1.8243957227192822,-1.0030032380871206
5.4293153285980225,-0.5231394161922287,-0.6602092362770483,0.8656997336107815,1.8618068438491977,1.8195042635980403,-0.9962669631440001
5.449548721313477,-0.5200443408614216,-0.6567960665383101,0.8622745312079729,1.859213695063501,1.8168132610167165,-0.9928614194827411
5.469609498977661,-0.513761154341937,-0.6500482582987485,0.8554045453380332,1.8535040089778179,1.8112665160328199,-0.9861050586915162
5.489733934402466,-0.5073785962056903,-0.6433110724405225,0.8485839096541156,1.847547034544578,1.8054865447989852,-0.9793782342196279
5.5097739696502686,-0.5008178008477178,-0.6366148076298357,0.8418589391282749,1.8411441406774487,1.7991648907526414,-0.9726900460283319
5.530283451080322,-0.49748447601508305,-0.6332815256798501,0.8385255911286976,1.8378108624306633,1.795831675162628,-0.9693567073528746
5.550110816955566,-0.4908178075647251,-0.6266149199512181,0.8318588649930266,1.831144265887571,1.7891651041967853,-0.9626900553424207
5.5701844692230225,-0.48609749209580466,-0.619134020956739,0.8241318984492866,1.8295659479278996,1.7896969168901502,-0.9556100465293261
5.590358018875122,-0.48389948042416564,-0.6153272342906004,0.8201945501270757,1.8292482579231417,1.7905607005144022,-0.9520351208682302
5.610363721847534,-0.47932755237305713,-0.6077786439282852,0.8124203090676947,1.834805001234034,1.7916811181814405,-0.9449196533746911
5.630746841430664,-0.47516794838888315,-0.6002471727053242,0.8045624336424307,1.8448149024185305,1.791569686522361,-0.9378288867406048
5.651126384735107,-0.4735308455493983,-0.596522865884757,0.8004600739013702,1.847931685820165,1.791246142766859,-0.9343531751412042
5.6712470054626465,-0.4707663931621246,-0.5889311348716797,0.7917841549551998,1.8543019916614742,1.7892438820778653,-0.9408309876264788
5.6913416385650635,-0.46940290171513716,-0.5941500453765831,0.7957623975612041,1.8629306290093979,1.7898333483338453,-0.9470355718611323
5.71140718460083,-0.4650794858905631,-0.6000753842967242,0.8012936882060782,1.8723404817515246,1.788187053723925,-0.953333680100181
5.731500625610352,-0.46277338292488485,-0.6030191658857657,0.8041614916375557,1.8778203016443946,1.7878798720140223,-0.9564134054446396
5.751689672470093,-0.4580617883746936,-0.6089242782385739,0.8098687361048358,1.889540049821181,1.7875506558648298,-0.9626351870669493
5.771967649459839,-0.4523432736841664,-0.6085587006999933,0.8160518064171827,1.8988100089253495,1.7840425334175274,-0.9624254101241801
5.7923479080200195,-0.4490251505451477,-0.6052281217949846,0.8193769070746661,1.9021619399756717,1.7807363234048332,-0.9590911514988391
5.812443971633911,-0.4424767212166625,-0.5985539479060441,0.812670608687747,1.8957948354084122,1.7743225357616,-0.9524174994771495
5.832556247711182,-0.4359744827494084,-0.5918347816605612,0.8059000542183199,1.888998949632889,1.7678899886271697,-0.9457341278987638
5.852603912353516,-0.42948588190602605,-0.5851043026984852,0.7991298961884168,1.8821922683695897,1.7625585494425926,-0.9390469441306254
5.872710466384888,-0.4261525453222414,-0.581770972346885,0.7957965640783885,1.8788589428499598,1.7603026980094363,-0.9357136123079096
5.892833709716797,-0.4194858564679695,-0.5751043255639667,0.7891299123976367,1.8721923179609121,1.754939048840573,-0.9290469450361741
5.912897348403931,-0.4133764808536964,-0.5682079210916239,0.7821295059273624,1.8650936359255927,1.7481192219674833,-0.9223056954605786
5.933485269546509,-0.4082188148216652,-0.5609121638127947,0.7745686703497278,1.8572716850824817,1.7410315417802604,-0.9154322290851454
5.953612565994263,-0.40488546517684,-0.5575788505034399,0.7712353438067594,1.85393839379505,1.7376982320531005,-0.9120989044308879
5.973977088928223,-0.4000638216756723,-0.550102413537237,0.7634932071698414,1.8592251239856263,1.7304687223556807,-0.9051423131416003
5.993868112564087,-0.3949888779104937,-0.5427344925176121,0.7559169448931198,1.864750276377558,1.723316097616017,-0.898220651650385
6.0143210887908936,-0.3896497492376262,-0.5486918886471974,0.7485382960160889,1.8728754689643932,1.7202769530252402,-0.9047842246738693
6.034419775009155,-0.38702043808223857,-0.5515113513003014,0.7514726224979345,1.8785178130741407,1.7208165766602834,-0.9081192116775588
6.054505348205566,-0.3880113359680546,-0.557450440999319,0.7575703710429196,1.888447902378982,1.7195944688282077,-0.9147782345669178
6.074636697769165,-0.3890388906324254,-0.5634199986767897,0.7636471036609872,1.8983317078662099,1.7180901685280456,-0.921447410798485
6.094837427139282,-0.38645977694805655,-0.56625407332373,0.7665443632264015,1.9040241530825406,1.718509990711337,-0.9247820182133251
6.11496901512146,-0.3898397885004239,-0.5721481299419051,0.77251415607831,1.9144231120775417,1.7177442240878766,-0.9314591243736873
6.135042190551758,-0.39797605780131723,-0.5779212372290948,0.7783382914198271,1.9257656508708625,1.7181152919922134,-0.9381433056172263
6.155725002288818,-0.40527691374984526,-0.5840294992234895,0.7847116662516619,1.9350515331605398,1.715099103684908,-0.9447773003603797
6.17584490776062,-0.4090416307868064,-0.5868933098493941,0.7818116942915277,1.9404197518345119,1.7144744633641673,-0.9480711872117217
6.195929288864136,-0.4101196091514533,-0.5925745811105225,0.7822308888055721,1.951698741548999,1.7139437543930613,-0.9546414000376054
6.216273307800293,-0.4109368741019238,-0.598225860803496,0.7832202356789414,1.9626842425241817,1.712580190055942,-0.9613138501620415
6.2368388175964355,-0.41460801895392524,-0.6012469421640491,0.78127754875427,1.967469812706504,1.7110212596653889,-0.9646436335806711
6.256587028503418,-0.4094354118729232,-0.6067015007183344,0.787088993860561,1.9783793809078203,1.7097904480100745,-0.9579347647877711
6.2766358852386475,-0.41645474761050244,-0.6128943465359569,0.7802770375837498,1.9867958612969618,1.7051542520552039,-0.964605688450367
6.297075510025024,-0.413853189797634,-0.6157158218972328,0.7831669101585478,1.9919256165526509,1.704023366443999,-0.961267832407716
6.31705641746521,-0.41492764454345227,-0.6216170246826667,0.7891803288990756,2.00131315600651,1.700540100658136,-0.9612594104008739
6.337018251419067,-0.4165971646141029,-0.6268956306168272,0.7947620436441422,2.012602005368253,1.6992494107642924,-0.9680568918385138
6.358160018920898,-0.41448335869793107,-0.6293090195381226,0.7973183719463749,2.019293034892095,1.6997146079749617,-0.9715092159108223
6.378259658813477,-0.41021997105217817,-0.6341557145574924,0.802432180877345,2.0327302497111663,1.7009022808978382,-0.9784180401665529
6.398337125778198,-0.4134603276579464,-0.6392445288482038,0.8078794756210749,2.0448381251493277,1.7007235836824766,-0.9852366022603665
6.418447017669678,-0.4214919953585205,-0.6445638396306218,0.8135680298261425,2.056030698784013,1.6995397792533014,-0.9920237332117614
6.438517808914185,-0.41921294333018705,-0.6468988391225046,0.8161563452179176,2.0629102602085267,1.7003581851826983,-0.9954575086409779
6.4586217403411865,-0.42094912662956374,-0.6519054554710852,0.8215760756151965,2.075522596990744,1.700655421408063,-1.0022898859610532
6.478705167770386,-0.42360668956541847,-0.6569771894290131,0.8270006430393722,2.088167869403185,1.7007465718300951,-1.0090704100907688
6.4990668296813965,-0.4190830067633321,-0.6560301671228871,0.8328509979382047,2.09834361502611,1.6982040480709024,-1.0091393276778715
6.5191874504089355,-0.4157894518887968,-0.6526590430161117,0.8361506113698092,2.1017333428518143,1.694930500279611,-1.0058052626500102
6.539281845092773,-0.4091228491918145,-0.6459920644708568,0.8294839447031426,2.0950657950516427,1.6882629811932437,-0.9991384155142291
6.559665203094482,-0.4024561241715201,-0.6393256777094066,0.822817278036476,2.088399914254337,1.694930391033556,-0.9924719178734053
6.579550743103027,-0.3991227904942466,-0.6359923460360024,0.8194839447031427,2.0850665855587853,1.698263728844343,-0.9891385855173899
6.599628686904907,-0.3924633492122258,-0.62931421956263,0.8128136589626085,2.0784018318782507,1.7049249921441652,-0.9824707882083057
6.619715213775635,-0.3857967093254735,-0.6226474929723157,0.8061469861146111,2.071735119763806,1.7114325361376135,-0.975804114685683
6.6401073932647705,-0.38246337600980634,-0.6193141828693619,0.8028136476069601,2.0684018186394892,1.714289277500113,-0.9724707867797879
6.660216331481934,-0.3757966930635608,-0.6126475528484877,0.7961469895283557,2.061735220145643,1.7191742781461754,-0.9658041275196545
6.68029522895813,-0.3691452508431402,-0.6059749057255871,0.7894646111343661,2.0550408993684304,1.7231342868097685,-0.9591355162550862
6.700380086898804,-0.3624805007076965,-0.5993075758582036,0.7827960582113758,2.048370589374739,1.7263392900397705,-0.9524684843936336
6.720435619354248,-0.3558138058791075,-0.5926409377735047,0.7761294131667635,2.041703993472504,1.7289347686372836,-0.9458018244198833
6.740554094314575,-0.3524804576271674,-0.5893076159381171,0.7727960922217073,2.0383706930770993,1.7300412586078266,-0.9424684945190719
6.760633945465088,-0.34581376381888396,-0.5826409708286749,0.766129448393809,2.0317040877548957,1.7319333608471723,-0.9358018343905248
6.780691385269165,-0.33914707281808826,-0.5759743237089638,0.759462802766638,2.0250374772555557,1.73346596710448,-0.9291351740776532
6.800787448883057,-0.3358137285469887,-0.5726409996235939,0.7561294790116049,2.021704170059463,1.734119343149949,-0.9258018438274259
6.820883750915527,-0.32914701770859073,-0.5659743761197069,0.7494628504731521,2.015037617324254,1.7352365596679553,-0.9191351908822918
6.840963125228882,-0.32248031315972375,-0.5593077509113991,0.7427962165399623,2.0083710555037753,1.736141513671761,-0.9124685376117511
6.861053943634033,-0.3158136145140331,-0.5526411244931608,0.7361295771137996,2.0017044854201154,1.736874535145308,-0.9058018840490175
6.881128549575806,-0.31248026718689886,-0.5493078108896031,0.7327962554495073,1.99837119757622,1.7371870369707125,-0.9024685571864624
6.901223421096802,-0.3058135760303907,-0.542641182878592,0.7261296085708527,1.991704616840614,1.7377214208693126,-0.8958019033661799
6.921353101730347,-0.2991468888970438,-0.5359745536818791,0.7194629574898828,1.985038030021359,1.7381542787671462,-0.8891352494994084
6.9413816928863525,-0.2924802050807164,-0.5293079231392283,0.7127963028471103,1.9783714378077644,1.738504900018224,-0.882468595660211
6.9620232582092285,-0.28914686421797703,-0.5259746073238476,0.7094629743820372,1.975038139880003,1.7386543777221983,-0.8791352687670428
6.982138395309448,-0.2824801854592514,-0.519307983366878,0.7027963119175219,1.9683715666115476,1.7389100740130616,-0.8724686205382048
7.002234935760498,-0.27581349752753465,-0.5126414290053254,0.6961296452508553,1.9617051669244905,1.732243731797859,-0.8658020083138057
7.022316217422485,-0.26914680399630425,-0.5059748994416313,0.6894629785841887,1.9550388173452902,1.7337177424557655,-0.8591354092322222
7.042417287826538,-0.26248011660151027,-0.49930834118801337,0.6827963119175221,1.9483724004499536,1.7349116440991723,-0.8524687958660365
7.062554359436035,-0.2591467735409738,-0.49597505904459727,0.6794629785841888,1.9450391838834353,1.735420615003058,-0.849135487548674
7.0826520919799805,-0.25248008862677507,-0.4893084890065829,0.6727963119175222,1.9383727354341425,1.736290939780975,-0.8424688678506475
7.102790355682373,-0.24581340523495832,-0.482641911673843,0.6661296452508556,1.9317062677594714,1.7369958835443369,-0.8358022443191659
7.1232383251190186,-0.24248006407824643,-0.4793086204101833,0.6627963119175223,1.928373027148823,1.737296405084805,-0.8324689312037082
7.143166780471802,-0.23581338278195382,-0.47264203295867,0.6561296452508557,1.921706533221025,1.7378102836510194,-0.8258023024363056
7.163302898406982,-0.2291467027631591,-0.465975439291979,0.6494629785841891,1.9150400234249485,1.7382265088667095,-0.8191356704895789
7.1833555698394775,-0.2224800239311816,-0.4593088398168071,0.6427963119175225,1.908373498990885,1.7385636359900658,-0.8124690355914095
7.203786134719849,-0.21914668493309902,-0.45597553802349494,0.6394629785841892,1.9050402316505306,1.7387073530214814,-0.8091357171024558
7.223704099655151,-0.21247979411131615,-0.44931014305491707,0.6327963119175226,1.8983762085736005,1.7389561634859048,-0.8024696482087371
7.24379301071167,-0.20581291757606243,-0.4426446814960001,0.626129645250856,1.8917120074391114,1.7391575158599542,-0.7958035443708097
7.263822793960571,-0.19914605476061606,-0.4359791556221365,0.6194629785841894,1.8850476368235993,1.7393204346712108,-0.7891374068593783
7.283962965011597,-0.19581262829058535,-0.4326463694399166,0.6161296452508561,1.8817153909112079,1.7393898237154746,-0.7858043259389901
7.304028272628784,-0.18914581729302138,-0.4259805685505548,0.6094629785841895,1.8750504293111272,1.7395080017183804,-0.7791380574480299
7.324330806732178,-0.18247898591858935,-0.41931489391828547,0.6027963119175229,1.8683856753902695,1.7396039228391638,-0.7724718420997256
7.344170808792114,-0.17581216601906938,-0.4126491644068877,0.5961296452508563,1.8617207834281717,1.7396814708539017,-0.7658055980391987
7.364557266235352,-0.17247876018304173,-0.4093162798643771,0.592796311917523,1.858388288263248,1.7397144758535803,-0.7624724656581072
7.384593963623047,-0.16581195636944887,-0.4026504727484942,0.5861296452508564,1.851723204541617,1.7397708111013637,-0.7558061810080716
7.404601097106934,-0.1591451625551286,-0.3959846169236778,0.5794629785841898,1.8450580026831698,1.7398163134957223,-0.7491398709020057
7.425252437591553,-0.1524783781820222,-0.3893187147183327,0.5727963119175232,1.8383926900536847,1.7398530484500903,-0.7424735365851313
7.445310354232788,-0.14914498936672688,-0.3859857469285851,0.5694629785841899,1.835059994409616,1.7398686640638137,-0.7391403607280608
7.465442657470703,-0.14247821815080688,-0.37931977934223693,0.5627963119175233,1.8283945287007144,1.7398952823455889,-0.7324739923600474
7.485538005828857,-0.13581137791366849,-0.37265431820201483,0.5561296452508567,1.8217298961985244,1.7399182711374375,-0.7258078339587769
7.505870580673218,-0.12914447585775737,-0.3659893292001777,0.5494629785841901,1.8150660129542946,1.7399380718691841,-0.7191418664133614
7.525970697402954,-0.12581103138679164,-0.3626568023680145,0.5461296452508568,1.811733995864521,1.7399464267691271,-0.71580886532603
7.546200275421143,-0.11914415497384931,-0.3559916863364314,0.5394629785841902,1.8050698181834393,1.739960550969494,-0.7091428298376675
7.566334009170532,-0.11247729450711358,-0.34932649012926226,0.5327963119175236,1.7984054587118552,1.7399717880191932,-0.702476751658595
7.586766719818115,-0.10914386997581633,-0.3459938630517128,0.5294629785841903,1.7950732142665695,1.7399765031858039,-0.6991436971987119
7.606935024261475,-0.10247703177824423,-0.3393285530721223,0.5227963119175237,1.7884086026098647,1.7399844247029783,-0.6924775587929807
7.6270623207092285,-0.0958102073707329,-0.3326631714110368,0.5161296452508571,1.7817438357790296,1.7399906646643357,-0.6858113827136156
7.647073030471802,-0.08914339594424264,-0.3259977212743355,0.5094629785841905,1.7750789235699784,1.7399955527528936,-0.6791451708892691
7.667164087295532,-0.08580999485452684,-0.32266497149982576,0.5061296452508572,1.7717464158803655,1.739997575297859,-0.6758120521621918
7.687249422073364,-0.07914320145046623,-0.3159994244241535,0.4994629785841906,1.7650813029405257,1.7400009192415251,-0.6691457902294586
7.707303285598755,-0.0724764191407037,-0.30933381641637925,0.4927963119175239,1.758416067067932,1.7400034854169117,-0.6624794971551642
7.727506160736084,-0.06914303192615266,-0.3060009904521166,0.4894629785841905,1.755083405608054,1.7400045270555198,-0.6591463394883917
7.747600317001343,-0.06247626495459662,-0.2993352963243943,0.4827963119175238,1.748418000555458,1.7400062107112355,-0.6524800029619646
7.767684698104858,-0.05580950738472253,-0.29266954815189494,0.4761296452508571,1.7417524922357364,1.7400074536598658,-0.6458136395583728
7.7877912521362305,-0.04914275859314013,-0.28600374851152205,0.4694629785841904,1.735086887780343,1.7400083476637176,-0.6391472508823706
7.807886362075806,-0.04580938730264148,-0.2826708301690578,0.46612964525085704,1.7317540516206447,1.7400086875288685,-0.6358140475524341
7.828090667724609,-0.0391426505753422,-0.27600495794269064,0.45946297858419033,1.7250883154624133,1.7400091922261731,-0.6291476238461556
7.848385810852051,-0.03247626394435916,-0.26933824878588936,0.4527952083084182,1.7184216487957464,1.7400074394839007,-0.6224811169466896
7.868245601654053,-0.025809855416664227,-0.2626715276345339,0.4461274982447427,1.7117549821290796,1.7400060213977881,-0.6158146002558875
7.88833475112915,-0.022476643347046965,-0.2593381625805219,0.44279366487801713,1.7084216487957462,1.740005417414272,-0.6124813383696733
7.908429145812988,-0.01581020445047181,-0.2526714234723675,0.43612603941607875,1.7017549821290794,1.7400043855999496,-0.6058148078086779
7.928623199462891,-0.009143746962157768,-0.24600467230677758,0.4294584663528703,1.6950883154624126,1.7400035509871727,-0.5991482685707475
7.948733568191528,-0.0024771256124053146,-0.23933888389890143,0.42279136518718347,1.6884225493320622,1.7400061167816656,-0.5924818873121777
7.96875262260437,0.0008562570002722683,-0.23600645275841284,0.4194580318538501,1.685090077944225,1.7400086936077632,-0.5891487679932103
7.988889932632446,0.00752301217019483,-0.2293415229977168,0.4127913651871834,1.6784250241524976,1.7400129700619933,-0.5824824980441072
8.008936405181885,0.01418975470420112,-0.22267650642761122,0.4061246985205167,1.6717598306361545,1.74001627382303,-0.5758161885147401
8.029000520706177,0.020856485487437404,-0.21601140673505498,0.39945803185385,1.665094506869544,1.7400188012326097,-0.5691498419164573
8.049386024475098,0.024189846736521508,-0.2126788268355295,0.3961246985205166,1.6617617989564728,1.7400198246242868,-0.565816655472834
8.069530010223389,0.02752320535906438,-0.20934622748102774,0.3927913651871833,1.6584290617927449,1.7400207108482664,-0.5624834606566339
8.08952283859253,0.030856561452955646,-0.2060136090973291,0.3894580318538499,1.655096296415761,1.7400214749984364,-0.5591502577525796
8.109621047973633,0.03752326643271974,-0.19934831690751226,0.3827913651871832,1.6484306850182067,1.7400226899069013,-0.552483828787635
8.129687070846558,0.04418996240499439,-0.19268295352157952,0.3761246985205165,1.641764972458425,1.7400235619699853,-0.5458173707276182
8.149756908416748,0.05085665005717006,-0.18601752207703265,0.3694580318538498,1.6350991659691532,1.7400241657560431,-0.5391508856210039
8.169885396957397,0.05418996714644391,-0.18268428316476154,0.36612469852051643,1.6317659032281853,1.7366926069451765,-0.535817554421858
8.189963817596436,0.06085671240757363,-0.1760189758635372,0.3594580318538497,1.6251000915939298,1.7340240466107448,-0.5291511115913385
8.210036039352417,0.06752336013291092,-0.1693528975550812,0.352791365187183,1.6184337921917187,1.731292761922352,-0.5224845028933697
8.230399131774902,0.07419005204611015,-0.16268695657826862,0.3461246985205163,1.6117675439433223,1.7291646738499873,-0.5158179370242746
8.250557899475098,0.07752338134582125,-0.15935408611500274,0.34279136518718295,1.6084344647861304,1.730250609989317,-0.5124846501619236
8.270597219467163,0.08419003600085266,-0.15268831345248504,0.33612469852051624,1.6017682636406358,1.732107548431259,-0.5058180617140858
8.290676355361938,0.09085667108528936,-0.1460220890142665,0.32945803185384953,1.5951018038820846,1.7254451644865343,-0.4991514082496254
8.310840368270874,0.09752334967188749,-0.13935600848758437,0.3227913651871828,1.5884354056132284,1.728211908552329,-0.49248480008625567
8.330915451049805,0.10085665562668082,-0.13602267371451343,0.31945803185384947,1.5851020610102118,1.724880791736076,-0.48915144222798773
8.351103067398071,0.10752333370100145,-0.12935656159987313,0.31279136518718276,1.5784356286978767,1.7230792918539515,-0.4824848270792779
8.37119722366333,0.11419001103159519,-0.12269092951917202,0.3090702157623899,1.5717693576070746,1.721126152396454,-0.4758182370366474
8.391402244567871,0.11752333420535904,-0.11935796338913401,0.3087211812800764,1.568436147971789,1.717794692997753,-0.4724849152874218
8.411490678787231,0.12418995256717844,-0.11269106735246834,0.3020545146134097,1.5617693644260096,1.7220169201263822,-0.46581818564456584
8.431589841842651,0.13085657869384765,-0.1060249759258743,0.295387847946743,1.55510283894796,1.725257807545547,-0.4591515014506894
8.45166301727295,0.13752325967453458,-0.09935901183272344,0.3020545146134097,1.548436378068333,1.7185914242245193,-0.45248487437293283
8.471948862075806,0.1441898744980881,-0.09269224770966013,0.295387847946743,1.5417696333992137,1.7226629649866216,-0.4458181457983242
8.492036819458008,0.14752318417341495,-0.0893591825405506,0.29205451461340964,1.538436336454861,1.72439906450455,-0.4424847910966738
8.512120962142944,0.15418984802450583,-0.08269313612488867,0.29205451461340964,1.5317697957490157,1.7226269324878678,-0.4358181312186652
8.532191276550293,0.16085647361415137,-0.07602641518080286,0.29205451461340964,1.5251030771439469,1.7213674718378689,-0.42915141578514304
8.552762269973755,0.16418977992278586,-0.07269333113463146,0.2887211812800763,1.5217697530353922,1.723233219143687,-0.4258180510085416
8.572835445404053,0.17085639065800587,-0.0660268593601267,0.2820545146134096,1.5151030452868046,1.7165713630257606,-0.4191513160127548
8.592940330505371,0.17752306753849123,-0.05936082678380506,0.2887211812800763,1.508436470521486,1.70990418556238,-0.41248466136050627
8.613090991973877,0.18418968079033324,-0.05269402813134236,0.2820545146134096,1.5017697196242774,1.7063497636260605,-0.40581792479981343
8.633164882659912,0.18752299933726013,-0.04936070059893586,0.2787211812800762,1.4984363673767187,1.703017669121595,-0.4024845717513684
8.653239488601685,0.1941896720251574,-0.04269460585738717,0.2787211812800762,1.4917697470291844,1.6963504531823193,-0.39581790852475013
8.673356294631958,0.2008563073957348,-0.03602804782839335,0.2787211812800762,1.485103045406498,1.6896863904102437,-0.3891511968703899
8.693636655807495,0.2075229627857442,-0.02936188204237836,0.27351071047186226,1.4784363741718478,1.6830204061808984,-0.3824845070114947
8.713721513748169,0.210856278656633,-0.026028847960145665,0.27182128674446976,1.4751030186908558,1.679688331787311,-0.37915114312421383
8.733828783035278,0.21752293196606393,-0.01936243907685239,0.2730430666982546,1.4684363313374347,1.6730225667503724,-0.3724844513324866
8.753911972045898,0.224189560182925,-0.012695752494579248,0.2663764000315879,1.4617696121534023,1.679692437429214,-0.36581772608418817
8.773974895477295,0.23085622980104153,-0.006029574703034158,0.2730430666982546,1.4551029240674362,1.6730249527978827,-0.3591510529221768
8.794333934783936,0.2341895356626855,-0.002695913756377358,0.26970973336492127,1.4517695802014576,1.6763609897213643,-0.35581768324036417
8.814260005950928,0.24085619663950153,0.003970302832444281,0.26970973336492127,1.4451028653602473,1.6763608146111073,-0.3491509977241796
8.834901809692383,0.244189508385959,0.007303465714734951,0.2730430666982546,1.4417694871900895,1.6730290135677515,-0.34581762702883256
8.85500955581665,0.2508561341564004,0.013970127007125301,0.2663764000315879,1.4351027706302806,1.6663657136894734,-0.33915089457903375
8.875088214874268,0.2575227987238946,0.02063648131104367,0.27056695309354123,1.428436058699243,1.6596986679121342,-0.3324842168983477
8.89524793624878,0.2641894157484035,0.027303297315327088,0.2639002864268745,1.4217693639717963,1.6663696931148682,-0.32581747147029444
8.915294408798218,0.26752277207777597,0.0306363087756498,0.2672336197602079,1.4184359934472006,1.6630338168271803,-0.3224841691012382
8.93537425994873,0.27418940555849813,0.037302936549245956,0.2672336197602079,1.4117692887496334,1.6630364711940517,-0.3158174467269309
8.955466508865356,0.2808560649305426,0.043969175486207615,0.2672336197602079,1.4051025133692765,1.663036130713745,-0.3091507617188478
8.975708484649658,0.28752269356624693,0.05063583398808351,0.2672336197602079,1.398435817180622,1.6563725725203837,-0.3024840316467432
8.995794296264648,0.290855997168853,0.05396907384174402,0.2639002864268745,1.39510243639246,1.6530414568084568,-0.2991506478066333
9.016050338745117,0.2841892807934147,0.06063573982506564,0.2572336197602078,1.3884357351644225,1.6463788419742134,-0.29248389815332015
9.036126136779785,0.277522556552977,0.06730228084943274,0.2505669530935411,1.3817689903202952,1.6397165439855481,-0.29915046740227963
9.056170225143433,0.27085583398154905,0.0739688489592604,0.24390028642687445,1.3751022551122767,1.6330541490624453,-0.3058170400113034
9.076263189315796,0.26752248860890265,0.07063560103420244,0.24056695309354112,1.3784356140137308,1.6297220129668688,-0.309150355431068
9.096389770507812,0.2608558181067235,0.0639687248000635,0.24056695309354112,1.3851022052790036,1.623055105417149,-0.31581700924815037
9.116465330123901,0.25418910362785613,0.05730197324592643,0.24723361976020777,1.391768807921073,1.6163920588332483,-0.3224835912075362
9.136844158172607,0.2508557471923817,0.05396859402272892,0.2505669530935411,1.3951021093056086,1.613060461365914,-0.325816882328686
9.156975269317627,0.24418903603863784,0.0473018275276154,0.2572336197602078,1.4017687122227962,1.6063971088433764,-0.33248346531595513
9.177135944366455,0.23752232724002614,0.04063504930951012,0.2639002864268745,1.4084353155606117,1.5997335421576224,-0.3391500497881149
9.197190761566162,0.23085562087978742,0.03396825815227716,0.27056695309354123,1.4151019196662882,1.5930697565306688,-0.3458166363339165
9.2173171043396,0.22418891704683386,0.027301452809307347,0.27723361976020794,1.4217685249811387,1.5864057472680286,-0.3524832255433006
9.237411499023438,0.2208555661075375,0.023968044420213337,0.2805669530935413,1.4251018282565522,1.5830736573278201,-0.3558165213322684
9.257492542266846,0.21418881454991542,0.017300784996763137,0.287233619760208,1.4317683130894852,1.5764125832505398,-0.3558163292375566
9.277600288391113,0.21418876557613742,0.010633265562362519,0.2939002864268747,1.438434792430518,1.5697482708269903,-0.34914953237429763
9.297658205032349,0.2208553860519883,0.010632585461137423,0.3005669530935414,1.438434651352464,1.5630841153100923,-0.3424827471653921
9.317737579345703,0.22418868050639815,0.013965202418958466,0.3039002864268748,1.4351011767295672,1.5597526474861234,-0.3391493078912821
9.33786654472351,0.23085525927095596,0.020631602980386878,0.29723361976020807,1.4284343988997423,1.5530923457137953,-0.3324824456044002
9.357927083969116,0.23752181095182032,0.027297261592850678,0.29056695309354136,1.4217674531277253,1.546432745369784,-0.32581549194488846
9.378000974655151,0.244188476260914,0.03396380641643765,0.29472670662134237,1.4151007618918638,1.5397659473096894,-0.31914881628118386
9.398126602172852,0.24752179027122032,0.037297321528959884,0.291393373288009,1.4117674657935761,1.5431011239940755,-0.3158154498208219
9.418214559555054,0.25418838279246725,0.04396366832660175,0.2847267066213423,1.4051006822820302,1.5431061838528424,-0.30914860879804634
9.438241481781006,0.2608550200811284,0.05062964494038953,0.2847267066213423,1.3984337967387919,1.536440301956438,-0.3024818430845556
9.458320140838623,0.26085497001473307,0.05729586600826245,0.2847267066213423,1.3917669745076675,1.5297764882537301,-0.3024817113043596
9.478383541107178,0.2575215764056671,0.06062884610078274,0.28139337328800895,1.388433506227822,1.5264469532262321,-0.30581489472224344
9.498560667037964,0.2508547927338661,0.06729485727677637,0.27472670662134224,1.3817665784931474,1.5197876559044359,-0.3124812685549321
9.5185706615448,0.24418807205427154,0.060627910617097346,0.26806003995467553,1.3769499268799688,1.5131243492639872,-0.3191477947445518
9.538744926452637,0.23752137050400168,0.05396079574661704,0.27472670662134224,1.3836164013846017,1.5064591616492728,-0.32581434366805806
9.55875015258789,0.23418799138146976,0.050627114188659825,0.2780600399546756,1.3869495846417126,1.5031283755235818,-0.3291475421673153
9.57887077331543,0.22752123916456113,0.04395971345271208,0.2847267066213423,1.3936159502723524,1.4964663010786723,-0.33581394674394427
9.598947763442993,0.2208544951869592,0.03729226022508092,0.291393373288009,1.4002823166421352,1.4898035490923207,-0.335813696330962
9.61911654472351,0.21418775973472695,0.03062475109287562,0.2980600399546757,1.406948686112803,1.4831401064956804,-0.32914679288388066
9.63931941986084,0.21085439528581576,0.027290974685991808,0.3013933732880091,1.4102818728887372,1.4798081235814324,-0.3258133468839352
9.665041208267212,0.21418774433602691,0.023957482291464098,0.30472670662134244,1.4069485011805807,1.476473310622767,-0.3224800393546522
9.700714349746704,0.21418774433602691,0.023957482291464098,0.30472670662134244,1.4069485011805807,1.476473310622767,-0.3224800393546522
9.720790147781372,0.2208544080911036,0.023956776919239336,0.31139337328800915,1.4002816191364758,1.469805357166462,-0.31581330592631407
9.740848541259766,0.22752105643876497,0.030622894288781517,0.31139337328800915,1.3936147681011377,1.4698054632383313,-0.30914654279603415
9.761804103851318,0.23085436012348506,0.03395575353732269,0.3080600399546758,1.390281256652262,1.4731398602357488,-0.30581309044549715
9.78206181526184,0.23752097754460558,0.04062214347745122,0.3013933732880091,1.3836144685664338,1.4664760766451612,-0.29914627055420556
9.802014350891113,0.23085425847498067,0.04728858517478173,0.29472670662134237,1.3769476954192985,1.4598126017929098,-0.29247944456419467
9.822191953659058,0.2241875331177165,0.05395450462808867,0.28806003995467566,1.3702806905215632,1.453148283974389,-0.2991458735710047
9.84227705001831,0.2241875331177165,0.05395450462808867,0.28806003995467566,1.3702806905215632,1.453148283974389,-0.2991458735710047
9.8624107837677,0.2175208135028599,0.06051307065836362,0.28139337328800895,1.3636139126245561,1.4464847662215097,-0.3058123757501836
9.882829666137695,0.2108541216414035,0.05384611503876777,0.27472670662134224,1.3702804417153969,1.4398191338228294,-0.3124789340340238
9.902696132659912,0.20752080788358065,0.05051261423688598,0.2780600399546756,1.3736137013544447,1.4364840194541029,-0.3158122936176124
9.922891616821289,0.20085411545148724,0.04384516844019734,0.2847267066213423,1.3802800087933713,1.4298172258420436,-0.3224787723897896
9.942962884902954,0.19418743204292824,0.0371776601308083,0.291393373288009,1.3869463122637147,1.423149711905846,-0.3291452666129268
9.963313817977905,0.18752075793904166,0.030510086328793245,0.2980600399546757,1.3936126149627366,1.41648146562417,-0.335811778319744
9.983362913131714,0.18418742446364808,0.027176273948443613,0.3013933732880091,1.3969457671104724,1.4131470644256934,-0.33914504137997364
10.003467321395874,0.17752076484615745,0.020508596370177806,0.3080600399546758,1.4036120753391397,1.4064776991506671,-0.34581158326096134
10.02357292175293,0.17085411525437721,0.013840845863226118,0.3147267066213425,1.4102783921472306,1.3998075744713159,-0.35247814801953364
10.043688535690308,0.16418747599542688,0.007173019388496777,0.3213933732880092,1.4169447218050009,1.3931366798386002,-0.35914473798111635
10.063753604888916,0.16085416033979155,0.00383907670306037,0.32472670662134256,1.420277892872073,1.3898009405317133,-0.36247804316987686
10.083829402923584,0.1541875371805137,-0.002828869505609367,0.3313933732880093,1.4269442504950054,1.3831288714925396,-0.36914467554260183
10.10393476486206,0.14752092517149346,-0.009496899449323184,0.338060039954676,1.433610633021542,1.3764560067155607,-0.3758113394427029
10.124232769012451,0.14418760925069188,-0.012830458670111379,0.34139337328800934,1.4369439300375686,1.373121088051302,-0.37914469842848975
10.144384622573853,0.13752098039091076,-0.019497602138169846,0.34806003995467605,1.4436105319894925,1.3664510375027898,-0.3858114251822171
10.164464473724365,0.1308543560879003,-0.026164784177806436,0.35472670662134276,1.4502771459398658,1.3597806604555123,-0.39247816541146713
10.18456244468689,0.12418773650935024,-0.03283200630368658,0.36139337328800947,1.4569437743947509,1.353109951202238,-0.3991449202567071
10.204626560211182,0.11752112182858304,-0.039499270053067546,0.3680600399546762,1.4636104200157956,1.3464389040756108,-0.40581169093426805
10.224748373031616,0.11418781638080885,-0.04283291802523972,0.37139337328800953,1.4669437501388103,1.3431032520306985,-0.40914508261283644
10.244807481765747,0.10752120938595587,-0.04950024715888717,0.37806003995467624,1.4736104268492973,1.3364316874009334,-0.4158118795028947
10.264927864074707,0.10085460775082705,-0.0561676218940116,0.38472670662134295,1.4802771280869675,1.3297597705876296,-0.4224786956426035
10.285254001617432,0.09418801167179125,-0.0628350438782051,0.39139337328800966,1.4869438570915126,1.3230874957971355,-0.4291455325652791
10.305423498153687,0.09085471577898858,-0.06616877311276183,0.394726706621343,1.490277233066811,1.3197512223372518,-0.4324789593277731
10.325496673583984,0.084188128416786,-0.0728362691337843,0.4013933732880097,1.496944010182997,1.3130783996142665,-0.4391458305300916
10.345627069473267,0.07752154713051582,-0.07950381667251132,0.40806003995467643,1.5036108239477008,1.3064052042154561,-0.44581272681976225
10.365690469741821,0.07085497213947976,-0.0861714174989759,0.41472670662134314,1.5102776782405227,1.299731630164154,-0.45247965012421965
10.385761260986328,0.0675216870749307,-0.08950523845843165,0.4180600399546765,1.513611121850549,1.296394699259344,-0.45581312254403794
10.405874252319336,0.06085512195163399,-0.09617292261734746,0.4247267066213432,1.5202780446381652,1.289720545887017,-0.4624800902657872
10.425950050354004,0.05418850027797374,-0.10284001096325666,0.4313933732880099,1.5269448338306681,1.2830506083770523,-0.4691468929038851
10.44605278968811,0.04752188149824238,-0.10950712443765312,0.4380600399546766,1.5336116452230881,1.276380504756427,-0.4758137091440616
10.466216802597046,0.04418857325974538,-0.11284069115845025,0.44139337328801,1.5369450599655208,1.2730453873799454,-0.4791471227886745
10.486383199691772,0.03752195916099664,-0.11950784517415886,0.4480600399546767,1.5436119088930251,1.2663750191766023,-0.4858139618406709
10.506431341171265,0.030855348336189522,-0.12617502745089737,0.4547267066213434,1.5502787856249278,1.2597044698954238,-0.4924808175834591
10.52651071548462,0.02418874091144909,-0.13284223900758937,0.4613933732880101,1.5569456925180034,1.2530337356978296,-0.49914769129506825
10.546619415283203,0.017522137015672394,-0.13950948089168677,0.4680600399546768,1.5636126320464354,1.2463628126680386,-0.505814584336379
10.566669702529907,0.014188836432125915,-0.1428431135418619,0.4713933732880102,1.5669461148551473,1.243027279095739,-0.5091480385545433
10.58675241470337,0.0075222380769457515,-0.1495104029456537,0.4780600399546769,1.5736131082420686,1.2363560653013226,-0.5158149633327184
10.606878757476807,0.0008556354342665975,-0.1561776522774672,0.4846749034022939,1.5802800995738897,1.2296851883466575,-0.5224818796573161
10.626928329467773,-0.0058110940963005415,-0.1628437779454656,0.48941048328692494,1.5869464478152466,1.223022664253185,-0.5291483094203469
10.648358583450317,-0.009144373940892913,-0.16617774512604294,0.4910144657905231,1.59028018517246,1.2196862270514692,-0.5324819576101947
10.668463945388794,-0.015811027963001278,-0.1728445638825925,0.4934320139211831,1.5969469622570238,1.2130188674189684,-0.5391487097631088
10.688567638397217,-0.022477678467872467,-0.17951137324391725,0.493197402232007,1.603613734658605,1.2063511923842074,-0.5458154518754075
10.708695888519287,-0.029144339640066463,-0.1861781004497979,0.49225981126946583,1.6102804594336002,1.1996842427752425,-0.5524821635752666
10.728739738464355,-0.035811002218075254,-0.19284479997360246,0.48911889834687233,1.6169471578939336,1.1930173243727218,-0.5591488522167309
10.748808145523071,-0.03914429504172517,-0.1961784733317273,0.48786704936759284,1.6202807649549427,1.1896814491355086,-0.562482376294692
10.768937587738037,-0.03914430681616149,-0.2028450449298392,0.48409631978770745,1.6269473453225676,1.183015520228905,-0.5691489840875759
10.78900671005249,-0.03914422427034272,-0.20951238627069238,0.4850499941723604,1.6336146085510819,1.176343681675474,-0.5758160627812203
10.809086084365845,-0.045810932258856074,-0.21617878327634288,0.4847661207552108,1.6402810976373214,1.1696799947073473,-0.5824826761010529
10.829177141189575,-0.04914420282215497,-0.21951262592390738,0.48143278742187745,1.6436149207047808,1.1663427573013672,-0.5858163466905182
10.849317073822021,-0.042477430402641084,-0.2261802028441551,0.4857914304666356,1.6502826092697884,1.1596699676904474,-0.5924838085235193
10.869372367858887,-0.04914406344770467,-0.23284713761942807,0.4791247637999689,1.6569495664491867,1.153001203443835,-0.599150676173488
10.889462947845459,-0.042477287904808876,-0.2395146708510358,0.4857914304666356,1.6636171716530743,1.1463277195095307,-0.6058179840932875
10.909571170806885,-0.04581066498482897,-0.2428476552976066,0.48245809713330223,1.6669501213231646,1.142997124669878,-0.6091510582271374
10.929657936096191,-0.0458105860207362,-0.2495149474608373,0.48245809713330223,1.6736175020160824,1.1363254748087765,-0.6158182087780045
10.949968814849854,-0.04581056504449944,-0.25618178055830965,0.48245809713330223,1.6802843649821508,1.1296574980145722,-0.6224850144613292
10.969842672348022,-0.04581048256080889,-0.26284910130862915,0.48245809713330223,1.6869518323185275,1.1229855672219715,-0.6291522226494685
10.990424633026123,-0.042477079237817884,-0.2661829924941354,0.4857914304666356,1.6902858727121577,1.119647773507278,-0.6324860399776017
11.010540246963501,-0.04914375869823725,-0.2728495567683203,0.4791247637999689,1.696952418390156,1.112981911127098,-0.6391526267592712
11.030714511871338,-0.04247700869626529,-0.27951688984573636,0.4857914304666356,1.703619966330415,1.1063098176086137,-0.6458198895314672
11.05071210861206,-0.0491436878050486,-0.2861834564909448,0.4791247637999689,1.71028650781274,1.0996439438064316,-0.6524864738773466
11.070964813232422,-0.04581030157452896,-0.28951721747832027,0.48245809713330223,1.7136204364997039,1.0963070847955703,-0.6558202092950757
11.091273784637451,-0.04581031716730039,-0.29618375471627584,0.48245809713330223,1.7202869182140696,1.0896414726922177,-0.6624867536389981
11.111243724822998,-0.045810226903543444,-0.3028511645082706,0.48245809713330223,1.726954673137294,1.0829686480848175,-0.6691541574162346
11.13148546218872,-0.04581024182133234,-0.309517704045594,0.48245809713330223,1.7336211493787372,1.076303027758368,-0.6758206983102564
11.151898384094238,-0.049143537667006874,-0.31285135289100385,0.4791247637999689,1.7369549670467712,1.0729670726109293,-0.6791543612971286
11.17197871208191,-0.043554359924965695,-0.31951878434315456,0.4857914304666356,1.7436228222316126,1.0662939944741177,-0.6858218343214109
11.192087411880493,-0.05022103772416229,-0.3261853574004925,0.4791247637999689,1.7502893541075748,1.0596280904733666,-0.6924884132321885
11.212193965911865,-0.04355428150365683,-0.3328528114223725,0.4857914304666356,1.7569573054287795,1.052954766392625,-0.6991559556459536
11.232386350631714,-0.05022095848325003,-0.33951938910431756,0.4791247637999689,1.763623839459822,1.0462888307806877,-0.7058225362944186
11.25248670578003,-0.0488640500654409,-0.3428532172530848,0.48245809713330223,1.7669580066238766,1.042951262050983,-0.709156437357595
11.272565841674805,-0.05097623256176968,-0.3495197616847795,0.48245809713330223,1.7736244664900975,1.0362856300381742,-0.715822966719261
11.292625904083252,-0.05097614183316525,-0.3561872959796461,0.48245809713330223,1.7802926532455885,1.0296115053096546,-0.7224906745722186
11.31273078918457,-0.04764277313446434,-0.35952097413548806,0.4857914304666356,1.783626605840233,1.0262752179627892,-0.7258244357267525
11.332979917526245,-0.05430944870521653,-0.3661875582471537,0.4791247637999689,1.7902931422636328,1.0196092414525408,-0.7324910185577351
11.353237628936768,-0.0489396214102326,-0.37285434803280726,0.4857914304666356,1.7969600315978205,1.0129415018660581,-0.7391578375856314
11.373109102249146,-0.05560628941168685,-0.3795210010927466,0.4791247637999689,1.8036266739374442,1.0062749510184077,-0.7458244877368443
11.393545866012573,-0.05801734620454118,-0.3861878954676832,0.4857914304666356,1.810293769499435,0.9996062883040248,-0.752491450379847
11.41368556022644,-0.061350683419688586,-0.38952118410106396,0.48245809713330223,1.8136270188109413,0.9962733455131813,-0.7558247260980958
11.43373990058899,-0.06135065789369921,-0.39618815827401266,0.48245809713330223,1.820294273327228,0.9896039540085257,-0.7624917981928538
11.453917741775513,-0.06135067338177315,-0.4028546274182626,0.48245809713330223,1.8269605580553627,0.9829390272199209,-0.7691582015663831
11.473966836929321,-0.0646840042988446,-0.4061879924303199,0.4791247637999689,1.830293952988227,0.9796054123589456,-0.7724915774502256
11.494089603424072,-0.05824632447146666,-0.41285492065582163,0.4857914304666356,1.8369611319960042,0.972936402863723,-0.7791585989645181
11.51418924331665,-0.06491299731104189,-0.41952149929751303,0.4791247637999689,1.8436276253178046,0.9662705183391168,-0.7858251457970179
11.534252643585205,-0.07157965962448676,-0.42618823413617346,0.4857914304666356,1.850294427661512,0.9596032352422328,-0.7924919066423384
11.554543733596802,-0.07824633221251637,-0.4328548027501577,0.4791247637999689,1.8569608981385404,0.9529374484722705,-0.7991584372499164
11.574542999267578,-0.07491299600444341,-0.4361881892433032,0.48245809713330223,1.860294338903497,0.9496036296897536,-0.8024918455063251
11.594673871994019,-0.07491299635701623,-0.44285484810214004,0.48245809713330223,1.8669609897266854,0.9429370334982816,-0.8091585011662796
11.614707708358765,-0.07491299552480493,-0.4495215335032641,0.48245809713330223,1.8736276946183759,0.9362701946590266,-0.8158251945737583
11.634755611419678,-0.07491300452602473,-0.45618796504002207,0.48245809713330223,1.8802938750626912,0.9296056775754252,-0.822491519692189
11.65483832359314,-0.07824633646754221,-0.4595213381121642,0.4791247637999689,1.883627290513031,0.9262719776866389,-0.8258249107868957
11.674930095672607,-0.07157966852180107,-0.466188046629643,0.4857914304666356,1.8902940436111633,0.9196049220893528,-0.8324916383288334
11.695029973983765,-0.07824634183957833,-0.4728544648319794,0.4791247637999689,1.8969601921407635,0.9129405482630634,-0.8391579390544074
11.715087175369263,-0.07157966925178473,-0.4795214392052557,0.4857914304666356,1.903627501611173,0.9062709954599054,-0.8458250621908415
11.735180616378784,-0.07491300426984582,-0.48285465316213766,0.48245809713330223,1.9069605859427703,0.902938775841093,-0.849158218965122
11.755267858505249,-0.07491300222459013,-0.4895216280923986,0.48245809713330223,1.913627898490865,0.8962691903235573,-0.855825347104282
11.77535104751587,-0.074845988808399,-0.49493190002428217,0.48771981129418046,1.9246325958032928,0.9063631521365769,-0.8661385084817529
11.795385122299194,-0.07804024999672379,-0.4976164557805674,0.4900407359865046,1.9294596751578776,0.9122513137667855,-0.8707215363748256
11.815879106521606,-0.08444876865156258,-0.5030511956020359,0.4958145615339602,1.9388429302084413,0.9225929982000162,-0.8796277707324729
11.83578372001648,-0.09075369643150585,-0.5083171984418955,0.5015273700876302,1.9481024017175572,0.9349413270226663,-0.8884402521465631
11.855943202972412,-0.09743165866512943,-0.5132076383831513,0.506435548550284,1.961089567381745,0.9505080098992243,-0.9003360458257168
11.875967264175415,-0.09451957022658604,-0.5155271044233736,0.5087471744508025,1.9738461870293575,0.9631376285889579,-0.9043583590716401
11.896073818206787,-0.08812960827957131,-0.5204816013028799,0.5138046210289174,1.9924702687291702,0.9846187264221364,-0.9069548327342508
11.916147232055664,-0.08771371399898387,-0.5258375968966473,0.519443683758721,2.0029724119084693,0.9987025475667507,-0.9032560314422088
11.937193632125854,-0.09390149440859501,-0.5312448541495562,0.525021537705111,2.0146649977586777,1.0127225287967938,-0.9004091969790224
11.957321643829346,-0.09672190518145825,-0.5338520117437182,0.5275546975534072,2.0218420657863954,1.0209612633737333,-0.9000459683095949
11.97739315032959,-0.09062042911471165,-0.5390366549297881,0.5325270266406865,2.049373400615156,1.0476487175885443,-0.9084111223946872
11.99746561050415,-0.08415065760775202,-0.5442294457285654,0.537763629415866,2.0748096700201915,1.075369942375097,-0.9149396966746126
