liuyurong129/humanoid-gym/humanoid/data/robot1_action_20250621-220827.csv
timestamp,joint_1,joint_2,joint_3,joint_4,joint_5,joint_6
0.0002884864807128906,0.0,0.0,0.0,0.0,0.0,0.0
0.020296335220336914,0.0,0.0,0.0,0.0,0.0,0.0
0.040349721908569336,0.0,0.0,0.0,0.0,0.0,0.0
0.06042218208312988,0.0,0.0,0.0,0.0,0.0,0.0
0.08055448532104492,0.0,0.0,0.0,0.0,0.0,0.0
0.1006309986114502,-1.445524,-0.14851642,-0.13415945,-0.08327578,-0.34466222,0.94909227
0.12074661254882812,-1.445524,-0.14851642,-0.13415945,-0.08327578,-0.34466222,0.94909227
0.14083409309387207,-1.2720308,0.24009737,-0.11489037,-0.23681903,-0.76401484,1.9275625
0.1609501838684082,-0.78377664,-0.11344662,-0.24789625,-0.37734637,-0.26423436,1.9218085
0.18104147911071777,-0.8845731,-0.18899806,-0.054290436,0.028828561,-0.32294738,2.2726002
0.20113611221313477,-0.91236055,-0.41200775,0.09725545,0.19707803,-0.2994014,2.4081457
0.22145843505859375,-1.2764323,-0.5913716,0.30887908,0.34898734,-0.45362297,2.18503
0.2413172721862793,-1.8445852,-0.50633293,0.13052653,0.14818896,-0.58388305,2.20037
0.2614438533782959,-1.8445852,-0.50633293,0.13052653,0.14818896,-0.58388305,2.20037
0.2815110683441162,-1.4345281,-0.69136333,0.18890768,0.37223604,-0.68345493,2.33025
0.30159544944763184,-1.6109155,-0.5673437,0.07644142,0.2644561,-0.6692811,2.3277876
0.32219743728637695,-1.5204067,-0.6272069,0.20627284,0.4132198,-0.5684713,2.2159986
0.3422553539276123,-1.9327044,-0.4203092,0.2383684,0.2937655,-0.70455897,1.966264
0.36234402656555176,-1.6341586,-0.53313625,0.26391342,0.43325296,-0.8629528,2.115465
0.3824656009674072,-1.9056761,-0.33961076,0.15398037,0.20679475,-0.8392271,1.968571
0.40249109268188477,-1.9056761,-0.33961076,0.15398037,0.20679475,-0.8392271,1.968571
0.42262721061706543,-1.5383961,-0.4733913,0.19202971,0.33936298,-0.839417,2.1079628
0.4426915645599365,-1.8381722,-0.21849711,0.11133312,0.043758407,-0.75441647,1.8527308
0.46281862258911133,-1.4994197,-0.2918927,0.038784027,0.15394966,-0.717178,1.9980617
0.48302698135375977,-1.3507118,-0.17129183,0.12659515,0.19064006,-0.5354489,1.765538
0.5034525394439697,-1.5266826,-0.10698728,0.14091742,0.085788086,-0.4776357,1.6157184
0.5233139991760254,-1.5087347,-0.05513051,0.048617348,-0.08854537,-0.46869954,1.460341
0.5433802604675293,-1.6749715,0.44088063,-0.110631526,-0.5854907,-0.54920524,1.1889629
0.5638644695281982,-1.6749715,0.44088063,-0.110631526,-0.5854907,-0.54920524,1.1889629
0.5840559005737305,-0.8613929,0.123616785,-0.47303885,-0.6104046,0.08848032,1.6518342
0.6040608882904053,-0.4792706,-0.14214334,-0.3674019,-0.4906071,0.35650754,1.6680198
0.6241929531097412,-0.6381563,-0.13436642,-0.1302223,0.010551988,0.37128597,1.9166257
0.644481897354126,-0.86915046,-0.42706123,0.14233457,0.41289613,0.20368636,1.9271612
0.6646032333374023,-1.3936079,-0.4505783,0.29480457,0.3707211,0.18756068,1.7387824
0.6846752166748047,-1.9420494,-0.2641673,0.18999627,0.12190919,-0.014173504,1.7017515
0.7047576904296875,-1.3571802,-0.44513634,0.26900747,0.32945195,-0.41774455,2.1003468
0.7251670360565186,-1.3571802,-0.44513634,0.26900747,0.32945195,-0.41774455,2.1003468
0.7450928688049316,-1.7091599,-0.24191612,0.06572874,-0.0010650428,-0.339117,1.700942
0.7655692100524902,-1.3957716,-0.3004406,0.16428863,0.35805535,-0.7330144,1.9199481
0.7855334281921387,-1.5594416,0.026160955,-0.03429237,-0.2577314,-0.42852545,1.6211576
0.8054873943328857,-0.976732,-0.15609711,-0.2254659,-0.19569507,-0.033680264,1.6958983
0.825584888458252,-0.8450312,-0.1947793,-0.019881882,0.14409328,0.07377203,1.773668
0.8458342552185059,-1.0517306,-0.32150486,0.24105571,0.30285645,-0.032360602,1.8030164
0.8661139011383057,-1.0517306,-0.32150486,0.24105571,0.30285645,-0.032360602,1.8030164
0.8860507011413574,-1.7017266,-0.052664638,0.103811204,-0.13762628,0.027591746,1.6627314
0.9062888622283936,-1.1558475,-0.14702335,-0.0045427606,-0.073472664,0.17712924,1.4775717
0.9263045787811279,-1.2048469,0.38611165,-0.020627603,-0.26326627,-0.07158175,1.3365977
0.9463772773742676,-0.80366695,-0.16214667,-0.12946036,-0.30743706,-0.17052314,1.4251328
0.9664595127105713,-0.7792062,-0.11765655,-0.006691873,0.16919897,-0.15899405,1.5121696
0.9874849319458008,-0.7792062,-0.11765655,-0.006691873,0.16919897,-0.15899405,1.5121696
1.0075793266296387,-0.93887013,-0.0036838353,0.06890431,-0.056992747,0.050897177,1.1098199
1.02764892578125,-1.4546571,0.37407354,-0.02368009,-0.50454456,-0.06142575,0.84948665
1.048046350479126,-0.7232281,-0.20500293,-0.21829686,-0.25968972,0.17142962,1.4615512
1.0679373741149902,-0.55242306,-0.118749425,0.005954057,0.23762663,0.21760745,1.58218
1.0880491733551025,-0.87467766,-0.25529888,0.21132924,0.17354965,0.18899778,1.2405872
1.1081340312957764,-1.5298548,0.094213456,0.061037943,-0.21511197,0.17194502,1.2316976
1.1281707286834717,-1.0412693,-0.021297649,-0.049615577,-0.12536225,0.19473074,1.1545074
1.1484947204589844,-1.0412693,-0.021297649,-0.049615577,-0.12536225,0.19473074,1.1545074
1.1689426898956299,-0.97364855,0.36907062,-0.14107561,-0.42981803,0.26764148,1.0168436
1.1888220310211182,-0.69966775,-0.18073975,-0.13256668,-0.29770952,0.038058426,1.1149642
1.2089674472808838,-0.82359815,-0.38634115,0.17426749,0.40933514,-0.15221722,1.3833096
1.229038953781128,-1.2339042,0.0800021,0.055670634,-0.24415225,0.03735685,1.2862167
1.2491028308868408,-0.86839557,-0.14081526,-0.13626747,-0.2327565,0.3454342,1.2176774
1.269186019897461,-0.7823173,0.028420687,-0.06476731,-0.35819122,-0.008536268,1.7293437
1.2892675399780273,-0.29958168,-0.4765964,-0.042444922,-0.023919582,0.29587314,1.708271
1.309403657913208,-0.69275844,-0.5883169,0.27908927,0.41856587,0.10696831,1.7603557
1.3295173645019531,-0.69275844,-0.5883169,0.27908927,0.41856587,0.10696831,1.7603557
1.3496716022491455,-1.3856428,-0.3260235,0.3151809,0.16749695,0.11418496,1.4796443
1.369708776473999,-1.06904,-0.5412608,0.35232127,0.4309222,-0.2540919,1.7188311
1.389746904373169,-1.1459975,-0.2911414,-0.04212731,0.10047189,0.0886987,1.6471913
1.409907579421997,-0.90710115,-0.7636622,0.44650057,0.61789155,-0.31942567,1.9565489
1.4299430847167969,-1.5749712,-0.34517208,0.47009307,0.45196664,-0.42847753,1.3541589
1.4503862857818604,-1.5543272,-0.3212834,0.22955775,0.36120015,-0.76694614,1.6289785
1.470217227935791,-1.5543272,-0.3212834,0.22955775,0.36120015,-0.76694614,1.6289785
1.49031662940979,-1.1827943,-0.322553,0.0053594112,-0.0021089474,-0.7730213,1.9183617
1.5104131698608398,-0.68082345,-0.49641374,0.22006722,0.5084518,-0.567529,1.9461908
1.5305001735687256,-0.908716,0.11666739,0.1384036,-0.14578497,-0.22009099,1.3393478
1.5505492687225342,-0.48895112,0.10250446,-0.15540056,-0.19279608,0.18442465,0.9924092
1.5708107948303223,-0.09970859,0.05044198,-0.13687631,-0.04345276,0.19334257,0.7060692
1.5908114910125732,-0.4973525,-0.53342974,0.01779572,0.20187896,0.132709,0.8128741
1.611177682876587,-1.0558419,0.24580583,0.18051463,0.077883005,0.21521203,0.8616471
1.6311511993408203,-1.0558419,0.24580583,0.18051463,0.077883005,0.21521203,0.8616471
1.6512572765350342,-0.76492655,0.09304109,0.21847342,-0.011052986,-0.26034436,0.56580174
1.671872615814209,-0.83079404,0.62820184,-0.21065778,-0.56395775,-0.031192813,0.22419134
1.6920149326324463,-0.83079404,0.62820184,-0.21065778,-0.56395775,-0.031192813,0.22419134
1.7123689651489258,-0.106891185,0.062339157,-0.29038078,-0.5232073,0.1159645,0.75710315
1.7322862148284912,0.06520493,-0.34155804,-0.15412319,-0.33354908,0.16695467,1.0352793
1.7523550987243652,-0.32007787,0.10655168,0.028862208,-0.30206406,0.28642017,1.535943
1.7724404335021973,-0.20955314,-0.4899579,0.064317085,-0.10669358,0.19059706,1.3041508
1.7925443649291992,-0.6885277,-0.027907446,-0.034645304,-0.4454453,0.17981482,1.6433983
1.8126661777496338,0.011756451,-0.41755947,-0.009244308,-0.02032391,0.40034392,1.5680196
1.832664966583252,-0.5365834,-0.59369063,0.3166498,0.44257095,0.14760736,1.5800321
1.8528141975402832,-0.5365834,-0.59369063,0.3166498,0.44257095,0.14760736,1.5800321
1.8728537559509277,-1.2508593,-0.30296823,0.39258862,0.2578416,0.04191311,1.2862067
1.8929815292358398,-1.2121762,-0.43771467,0.0979297,0.07573384,-0.18311161,1.761203
1.9130489826202393,-0.5284803,-0.44571736,-0.34665674,-0.39546672,0.045881268,2.0009937
1.9331605434417725,-0.29369095,-0.77992225,0.0375856,0.27189323,0.26674184,1.8889778
1.9532890319824219,-0.5037651,-0.6664185,0.29694712,0.41577762,0.13830452,1.7797222
1.9733235836029053,-0.9082823,-0.2455901,0.25543547,0.25681317,0.12829943,1.2416499
1.99371337890625,-0.97392845,-0.16339913,0.036051653,-0.0024932483,0.06746738,1.5938056
2.0138158798217773,-0.97392845,-0.16339913,0.036051653,-0.0024932483,0.06746738,1.5938056
2.0338990688323975,-0.40058187,-0.2854058,0.20364042,0.36877412,-0.05332953,1.2501938
2.0541019439697266,-0.8850248,0.22243673,-0.07996608,-0.30386576,0.029009853,1.0320916
2.0741021633148193,-0.20050237,-0.26715684,-0.09455904,0.0045669517,0.23593803,1.1740425
2.094200372695923,-0.4701986,-0.37458304,0.24206221,0.38723236,0.00048207864,1.3868775
2.114298105239868,-0.741405,0.2724131,0.100638404,-0.18455726,0.21948849,0.9513255
2.134345054626465,-0.4511153,-0.101019606,-0.070818454,-0.049654465,0.3548027,0.7740819
2.154911756515503,-0.4511153,-0.101019606,-0.070818454,-0.049654465,0.3548027,0.7740819
2.1750242710113525,-0.3224294,0.38836452,-0.1277841,-0.29436675,0.3179488,0.61818844
2.1950795650482178,-0.22890945,-0.5096719,-0.039841086,-0.20449433,0.05212697,0.94862056
2.215182304382324,-0.5746949,0.34662035,0.0153347105,-0.32752684,-0.020030033,1.2403917
2.2356679439544678,-0.0075906506,0.026868626,-0.067386076,-0.28858843,-0.15709245,0.91781
2.255831718444824,-0.23589449,-0.21585642,0.073212,-0.062012002,-0.42910233,0.8071552
2.275883674621582,-0.6912868,0.75018,-0.25604677,-0.8602222,-0.2732317,0.87657857
2.2959227561950684,0.48091877,0.10652909,-0.25576988,-0.87869275,-0.06855711,1.3162992
2.3159923553466797,0.48091877,0.10652909,-0.25576988,-0.87869275,-0.06855711,1.3162992
2.3364181518554688,0.55780804,0.025672033,-0.066759385,-0.7840668,-0.32676086,1.3336434
2.3564040660858154,0.46132985,-0.12149316,0.015336528,-0.48641002,-0.4803007,1.3729589
2.376422882080078,0.24481268,0.37950274,-0.049463853,-0.49098018,-0.33211616,0.718615
2.396556854248047,0.1395478,-0.10688716,-0.10724501,-0.33744058,-0.21646768,0.7459311
2.416654348373413,-0.24178374,0.25419953,-0.06352575,-0.4447052,-0.145206,0.7154842
2.4367151260375977,-0.14045171,-0.3170416,0.018498808,-0.22075841,-0.38764712,0.97552663
2.4567952156066895,-0.4046464,0.46797702,-0.25750586,-0.8963844,-0.13998708,1.1577802
2.4771900177001953,-0.4046464,0.46797702,-0.25750586,-0.8963844,-0.13998708,1.1577802
2.4972846508026123,0.3787563,-0.1621505,-0.19430052,-0.69909495,0.07431772,1.3946362
2.5173773765563965,0.1898228,-0.49915197,0.26273322,-0.15262607,-0.15301546,1.7374382
2.537656307220459,0.003327177,-0.45548692,-0.0065810904,-0.05912143,0.1723127,1.5287728
2.557605504989624,-0.2682796,-0.11343223,0.025195695,-0.4702446,0.1011927,1.8762004
2.5776543617248535,-0.0040441146,-0.4475994,0.043229602,-0.20678395,0.16349462,1.4266479
2.5977447032928467,-0.28282005,0.025504202,-0.16560954,-0.5481347,0.22981134,1.493753
2.618136167526245,0.12730211,-0.48642388,0.0011215508,-0.2630592,0.25895438,1.5362766
2.6385819911956787,0.12730211,-0.48642388,0.0011215508,-0.2630592,0.25895438,1.5362766
2.6587257385253906,-0.35726961,-0.3945513,0.18287694,0.27555552,0.028170224,1.3398705
2.6787939071655273,-0.9658687,-0.14921558,0.18971463,-0.10111521,-0.06680407,1.1763802
2.6989035606384277,-0.5937915,-0.26854032,0.03938624,0.12526384,-0.13555548,1.0224833
2.718971014022827,-0.35845193,0.23051766,-0.32363486,-0.3769366,0.2653556,1.1261482
2.7390668392181396,-0.15969437,-0.65146583,-0.08143133,-0.044302754,0.39563435,1.1963761
2.7591493129730225,-0.5933525,-0.20272785,0.10997198,-0.046819113,0.30323225,1.5755486
2.7792179584503174,-0.408942,-0.5814626,0.09415193,0.15672542,0.15425286,1.4739592
2.799428939819336,-0.408942,-0.5814626,0.09415193,0.15672542,0.15425286,1.4739592
2.819493532180786,-0.6561797,-0.113651216,0.08222653,-0.038467526,0.19981901,1.0658492
2.8395087718963623,-0.6344037,0.08070424,-0.13210516,-0.41892636,0.07611668,0.88951135
2.859635829925537,-0.27109876,-0.043617457,-0.2502356,-0.33198863,0.049566176,1.2196164
2.8797695636749268,0.035147354,-0.15430346,-0.12958138,-0.24173966,0.25322,1.1278329
2.8998615741729736,-0.20218499,-0.32813442,0.07223588,0.13489993,-0.041779224,0.9969627
2.9200594425201416,-0.8181745,0.25354573,-0.04309854,-0.4956149,-0.0377074,0.8835133
2.940180540084839,-0.8181745,0.25354573,-0.04309854,-0.4956149,-0.0377074,0.8835133
2.9602482318878174,-0.15674269,-0.17718929,-0.14732893,-0.16023034,0.034538787,0.9802988
2.980327844619751,-0.37517333,-0.15188347,0.10844823,0.14056115,-0.22257745,0.9756631
3.0004007816314697,-0.583215,0.7082614,-0.0787862,-0.73937744,-0.003013987,0.41987652
3.0205016136169434,0.08757498,0.07696059,-0.27231812,-0.60439324,-0.07101624,0.71868867
3.040571451187134,0.047955744,-0.017160863,-0.17236552,-0.44736522,-0.25416008,0.5835737
3.060685873031616,-0.31954002,0.48976514,-0.13227591,-0.7047676,-0.3220484,0.62109303
3.080761432647705,-0.31954002,0.48976514,-0.13227591,-0.7047676,-0.3220484,0.62109303
3.1008799076080322,-0.033074014,0.05510907,-0.21790767,-0.67813915,-0.3070787,0.7010149
3.1212193965911865,-0.0251849,-0.09115133,-0.16485512,-0.3231104,-0.12208027,0.7382581
3.1411776542663574,-0.25418225,0.7033831,-0.12848283,-0.7982808,-0.11123538,0.54449916
3.161280393600464,0.077816054,-0.022868961,-0.21191412,-0.7904925,-0.40065044,0.9196603
3.1813647747039795,0.10939856,-0.07660836,-0.15690139,-0.36802799,-0.1145729,0.9843749
3.2016944885253906,-0.09762416,0.41147342,-0.08390769,-0.5447063,-0.09520817,0.64245635
3.221851110458374,-0.09762416,0.41147342,-0.08390769,-0.5447063,-0.09520817,0.64245635
3.24198579788208,-0.17333135,-0.14931692,-0.071852505,-0.41279268,-0.49045548,0.74255043
3.262019157409668,-0.1899331,0.16354123,-0.40424597,-0.6159638,-0.38119376,1.4050462
3.2821109294891357,0.23017934,-0.4369541,-0.07174058,-0.42831844,-0.036289845,1.5914474
3.302212953567505,-0.0164852,-0.3796783,0.16954614,-0.06969909,-0.05593324,1.6532362
3.3223235607147217,-0.14944583,-0.44394186,0.07888505,-0.097630665,0.048635464,1.5791187
3.3423917293548584,-0.23396862,-0.18483678,-0.21145886,-0.49834543,0.08562638,1.8446541
3.362468719482422,-0.025740117,-0.45404783,0.16878757,-0.12624888,-0.030370887,1.8448021
3.3826897144317627,-0.025740117,-0.45404783,0.16878757,-0.12624888,-0.030370887,1.8448021
3.402792453765869,-0.20010388,-0.15668495,0.17913371,-0.1734543,-0.29605246,1.4104359
3.4228641986846924,-0.19890113,0.24810705,-0.40670353,-0.8169224,-0.2559791,1.7269058
3.442939043045044,0.3643323,-0.15914851,-0.112234175,-0.7303006,-0.1602214,1.7390275
3.463050127029419,0.26736847,0.07748285,0.09209412,-0.5238686,-0.29537952,1.8178127
3.483131170272827,0.042786837,0.14496803,-0.045950867,-0.5212151,-0.70829415,1.1327283
3.503206253051758,-0.062227085,1.0269743,-0.3860246,-1.3002298,-0.5952381,0.95677394
3.523623466491699,0.66754174,0.43595293,-0.3666916,-1.5132617,-0.5945622,1.5728428
3.5437204837799072,0.66754174,0.43595293,-0.3666916,-1.5132617,-0.5945622,1.5728428
3.5638058185577393,0.83943295,0.5289756,-0.2497198,-1.4177,-0.7641599,1.5585239
3.584153890609741,0.79297894,0.5036075,-0.21986076,-1.3447037,-0.864138,1.5676136
3.604053497314453,0.73756766,0.39065424,-0.1873696,-1.2443424,-0.8052919,1.6899078
3.6242082118988037,0.71053636,0.3147001,-0.1389299,-1.0970403,-0.88776267,1.6532853
3.6445555686950684,0.5749126,0.118490964,-0.05396788,-0.8569498,-0.7554629,1.8165476
3.664511203765869,0.5168332,0.7447151,-0.2639721,-1.0282348,-0.663558,1.0133977
3.6845099925994873,0.49658725,0.17252037,-0.21307746,-1.0250605,-0.7490438,1.43013
3.704923629760742,0.49658725,0.17252037,-0.21307746,-1.0250605,-0.7490438,1.43013
3.7250356674194336,0.43168285,0.03741078,-0.17956793,-0.68835205,-0.5123007,1.4487398
3.7451226711273193,0.25544468,0.22735003,-0.12409794,-0.5439821,-0.45262307,0.9920667
3.7652788162231445,-0.14566055,0.31069043,-0.14970225,-0.5612732,-0.49007836,0.73580617
3.7853877544403076,-0.119109705,0.2667695,-0.31218335,-0.72219133,-0.28791684,1.1195064
3.805417060852051,0.083479196,-0.35620764,-0.09607665,-0.41356957,-0.21321133,1.4977925
3.8254973888397217,-0.08595199,-0.019391388,-0.18803145,-0.44349828,-0.07396601,1.4760807
3.8458874225616455,-0.08595199,-0.019391388,-0.18803145,-0.44349828,-0.07396601,1.4760807
3.8658335208892822,-0.013575255,-0.5103654,0.069594674,-0.07841642,0.028243419,1.4890995
3.885910749435425,-0.2864121,-0.25727338,-0.25373268,-0.4383381,0.19498636,1.6680892
3.9062700271606445,-0.1049854,-0.61829746,0.15368772,0.18763761,0.14604937,1.609344
3.926297664642334,-0.36207876,-0.5659555,0.3294163,0.2938723,-0.1766524,1.4178786
3.9463629722595215,-0.69746006,-0.35735944,0.10286861,0.22048996,-0.14420319,1.2085264
3.9664037227630615,-0.7385199,-0.39650464,0.11155167,0.0874677,-0.17935298,1.3788803
3.986724615097046,-0.5034418,-0.51543117,0.25046343,0.353839,-0.34093934,1.161758
4.006618499755859,-0.5034418,-0.51543117,0.25046343,0.353839,-0.34093934,1.161758
4.0267205238342285,-0.8288518,-0.30738682,0.14712048,0.24464723,-0.47538927,1.0955389
4.048429012298584,-0.6956968,-0.19784798,0.0048134625,-0.10691176,-0.36910182,1.2612295
4.068891763687134,-0.6956968,-0.19784798,0.0048134625,-0.10691176,-0.36910182,1.2612295
4.088724851608276,-0.32118848,-0.21186905,-0.13382567,-0.10143034,-0.17994605,1.1298878
4.108799457550049,-0.07569596,0.3459609,-0.26266885,-0.46179712,-0.11287698,1.3973565
4.128870725631714,0.21916217,-0.35110867,0.0055460334,-0.3706667,-0.31799904,1.3451331
4.1492204666137695,-0.043507606,0.70656455,-0.27231804,-0.8665968,-0.44460955,1.1663191
4.16912055015564,0.43889323,0.20151272,-0.1609308,-0.98436034,-0.37244913,1.5555599
4.1891868114471436,0.7109818,0.64291155,-0.23940974,-1.0209631,-0.41590628,1.0137963
4.209445476531982,0.52501106,0.43080214,-0.2922365,-1.0006394,-0.48991564,0.90284055
4.229538917541504,0.52501106,0.43080214,-0.2922365,-1.0006394,-0.48991564,0.90284055
4.249628067016602,0.37010345,0.34769943,-0.27204847,-0.8448435,-0.5183192,0.85159194
4.269704818725586,0.19437177,0.25416395,-0.23504525,-0.662144,-0.53961724,0.82084113
4.290285110473633,0.054236736,1.0215806,-0.29090858,-1.1774693,-0.4864169,0.79561466
4.310405731201172,0.45775998,0.3745282,-0.38984108,-1.2485272,-0.6196207,1.1027689
4.330477714538574,0.47403064,0.48446038,-0.3105182,-1.0836483,-0.54632646,1.0526162
4.350824356079102,0.45695502,0.40196523,-0.3036934,-1.0082083,-0.5421493,0.95693666
4.370682954788208,0.45695502,0.40196523,-0.3036934,-1.0082083,-0.5421493,0.95693666
4.390790224075317,0.32685181,0.23577431,-0.2595204,-0.79011714,-0.5229759,0.8722988
4.410871982574463,0.1021803,0.375096,-0.25445044,-0.75625217,-0.5046439,0.98959476
4.430949449539185,0.17375274,-0.064738244,-0.19518495,-0.4984973,-0.215453,1.1380303
4.451380968093872,-0.22911644,0.19746932,-0.06783666,-0.77364707,-0.40600455,1.6266425
4.471487522125244,0.14624573,0.08609241,-0.26824707,-0.6650447,-0.14265725,1.1535809
4.491551876068115,0.13478151,-0.23593111,-0.037524596,-0.37230706,-0.08440843,1.2770817
4.511637210845947,-0.2788565,0.21793458,-0.16642918,-0.72783154,-0.21036774,1.3658566
4.531904220581055,-0.2788565,0.21793458,-0.16642918,-0.72783154,-0.21036774,1.3658566
4.552046775817871,0.013850764,-0.21990755,-0.10025427,-0.35840192,-0.10321453,1.1916289
4.57214879989624,-0.1566153,0.17905945,-0.26222143,-0.8176537,-0.23002693,1.6947885
4.592238903045654,0.35826352,-0.2481865,-0.04526642,-0.45544305,-0.089277714,1.5090928
4.612341642379761,-0.14132744,0.060026705,0.0139620155,-0.23930216,-0.25159892,1.1322725
4.632410526275635,-0.028975211,0.49488905,-0.38830972,-0.9220952,0.015454795,0.9440391
4.652509450912476,0.17143667,-0.25686345,-0.09059805,-0.56124365,-0.15334234,1.3077855
4.672621488571167,-0.13240927,0.4380059,-0.2332753,-0.864307,-0.39804754,1.4264014
4.693264961242676,-0.13240927,0.4380059,-0.2332753,-0.864307,-0.39804754,1.4264014
4.71327805519104,0.3616546,-0.015628487,-0.1567248,-0.6487861,-0.2737333,1.4650707
4.733648300170898,0.16452724,0.36194792,-0.056037486,-0.61583537,-0.53552485,1.3186762
4.753549337387085,0.14337024,0.5890498,-0.28951144,-0.9124783,-0.6590551,0.8764472
4.782635688781738,0.14337024,0.5890498,-0.28951144,-0.9124783,-0.6590551,0.8764472
4.802692174911499,0.33280367,1.0651536,-0.4866718,-1.5082566,-0.61594415,1.0338507
4.822786092758179,0.65780044,0.411496,-0.39874017,-1.515243,-0.47810766,1.508904
4.842845678329468,0.71693635,0.44265196,-0.27345723,-1.3379118,-0.6588632,1.4233601
4.863096475601196,0.59113073,0.37507585,-0.2387783,-1.1820673,-0.7724423,1.3968577
4.8830437660217285,0.47367874,0.23638949,-0.21681121,-0.98026335,-0.70464575,1.438304
4.903126239776611,0.33540034,0.19597408,-0.22061735,-0.7344995,-0.6319345,1.1501012
4.9234864711761475,0.13319801,0.4385185,-0.40520304,-1.0555018,-0.509173,1.3564279
4.943594932556152,0.13319801,0.4385185,-0.40520304,-1.0555018,-0.509173,1.3564279
4.963695764541626,0.32423648,-0.06411746,-0.17960674,-0.85795474,-0.32101485,1.5997915
4.983781099319458,0.19424978,0.24954411,-0.14615521,-0.6808065,-0.26732087,1.4197063
5.003900527954102,-0.05617988,-0.13018173,-0.10821137,-0.49265993,-0.21926126,1.2039585
5.023979187011719,-0.09658794,0.28148475,-0.27661014,-0.8000003,-0.2065129,1.2482061
5.044072866439819,0.06817378,-0.4038502,-0.05149219,-0.29852873,-0.08619529,1.3136494
5.064164161682129,0.06817378,-0.4038502,-0.05149219,-0.29852873,-0.08619529,1.3136494
5.084419250488281,-0.17460974,-0.04246156,-0.36097342,-0.6981802,0.08684565,1.6053932
5.1043994426727295,-0.035403043,-0.5172758,0.10171544,-0.10629992,-0.07979712,1.5691261
5.124617099761963,-0.13366035,-0.23212437,0.000870429,-0.13507678,0.023483116,1.2584047
5.144649028778076,-0.17282514,-0.036681786,-0.20388463,-0.48452225,-0.025389198,1.4846029
5.164698839187622,0.041466355,-0.24989559,0.10145722,-0.16211772,-0.039072018,1.5218351
5.184777498245239,-0.19695202,-0.0060890317,0.19115576,-0.21192542,-0.42505193,1.3440995
5.204923629760742,0.036286984,0.4646862,-0.38158733,-0.8329694,-0.35249722,1.3629012
5.225400447845459,0.036286984,0.4646862,-0.38158733,-0.8329694,-0.35249722,1.3629012
5.245517015457153,0.31281158,-0.00089371204,-0.11491287,-0.75667113,-0.29682812,1.5219424
5.265578031539917,0.31692442,0.7280226,-0.19838147,-0.7626828,-0.4406369,1.0479964
5.285688400268555,0.45544243,0.381134,-0.28609896,-0.9416588,-0.57749176,1.0854788
5.306092262268066,0.37512258,0.597721,-0.31349948,-0.9605284,-0.62498045,0.96298695
5.326173305511475,0.3128811,0.30972126,-0.29754102,-0.84886146,-0.6032923,0.95028466
5.346304893493652,0.17041236,0.697971,-0.3389559,-1.0915418,-0.7519898,1.0981123
5.366402626037598,0.3287401,0.15674606,-0.23304176,-0.9348622,-0.60753566,1.507169
5.386784791946411,0.47437853,0.7103183,-0.30355754,-1.0350149,-0.60463417,1.0571923
5.406919717788696,0.47437853,0.7103183,-0.30355754,-1.0350149,-0.60463417,1.0571923
5.426978826522827,0.3730868,0.29332,-0.3204553,-0.93848944,-0.575528,0.9666322
5.447198390960693,0.2330927,0.5236058,-0.42167267,-1.0800396,-0.5444243,1.2523351
5.467165231704712,0.35045734,0.061901063,-0.1912012,-0.929474,-0.41057867,1.5726349
5.487256765365601,0.33118257,0.6508436,-0.25702393,-0.89524263,-0.4335898,1.0857453
5.5073325634002686,0.27806735,0.04933086,-0.19221985,-0.73438555,-0.59401625,1.152498
5.527420997619629,0.15823269,0.7269876,-0.65169877,-1.2499524,-0.3866589,1.5112953
5.5474841594696045,0.52902126,0.18050328,-0.27736434,-1.2355096,-0.18726015,1.6387632
5.568260431289673,0.52902126,0.18050328,-0.27736434,-1.2355096,-0.18726015,1.6387632
5.588425874710083,0.41440183,-0.08097845,-0.052803427,-0.7475607,-0.4632859,1.4161665
5.608487606048584,-0.019232765,0.562662,-0.4822939,-1.2938275,-0.5502191,1.4300001
5.628592491149902,0.45772126,0.09542358,-0.30035073,-1.053871,-0.27050242,1.5186954
5.648676872253418,0.16629544,-0.20127332,0.029740915,-0.543912,-0.30643618,1.6205468
5.668754816055298,-0.1663172,0.30357793,-0.26657856,-1.0117964,-0.37579507,1.5179906
5.689204692840576,0.24878007,-0.037948832,-0.19649214,-0.6739897,-0.27008852,1.3741305
5.709113121032715,-0.12269378,-0.13675205,0.0814842,-0.32963556,-0.4108393,1.4768324
5.729804515838623,-0.12269378,-0.13675205,0.0814842,-0.32963556,-0.4108393,1.4768324
5.749874830245972,0.13202533,0.56202877,-0.5292434,-0.9925023,-0.2555329,1.4410577
5.769927740097046,0.29942292,-0.105323136,-0.07158415,-0.8155777,-0.20905131,1.5795927
5.79002571105957,0.10687104,0.32660165,-0.09099814,-0.5999305,-0.35382828,1.3502395
5.810124635696411,0.15028211,0.93476474,-0.39861292,-1.3373461,-0.65997064,0.9810163
5.830200433731079,0.45030117,0.36968353,-0.35278302,-1.2975429,-0.5718658,1.462542
5.8502984046936035,0.5789385,0.42071924,-0.32879627,-1.1215483,-0.5940474,1.2206635
5.870384454727173,0.35473493,0.31172153,-0.2968099,-0.88964397,-0.6076865,1.0295463
5.890934705734253,0.35473493,0.31172153,-0.2968099,-0.88964397,-0.6076865,1.0295463
5.911032199859619,0.13146146,0.5868726,-0.3548933,-1.0672351,-0.73693144,1.1570854
5.93116021156311,0.22444057,0.058892503,-0.2631188,-0.7755404,-0.5443042,1.4204283
5.951233148574829,-0.06947055,0.5456461,-0.44868004,-1.2911628,-0.60508573,1.7198973
5.9713006019592285,0.4866707,0.08138695,-0.27962753,-1.0265249,-0.29842934,1.6300855
5.991510629653931,0.038339242,-0.10344842,0.06495726,-0.53517413,-0.4442036,1.699878
6.0115227699279785,0.13822275,0.22664332,-0.15415621,-0.6233865,-0.3169748,1.287296
6.031770467758179,-0.038168967,0.04155509,-0.16727802,-0.5726652,-0.27928454,1.0583866
6.051883220672607,-0.038168967,0.04155509,-0.16727802,-0.5726652,-0.27928454,1.0583866
6.072129249572754,-0.03450927,0.507687,-0.2581741,-0.80615836,-0.3214673,1.0920897
6.092123508453369,0.050002605,-0.15986554,-0.1400189,-0.4121004,-0.26687643,1.1613271
6.11220383644104,0.008793791,0.31632605,-0.27479416,-0.64587486,-0.16009161,1.2645259
6.132287502288818,0.12480053,-0.25851786,-0.018240549,-0.27298617,-0.08285843,1.2592592
6.152367830276489,-0.36299872,0.26597705,-0.07263571,-0.5599241,-0.27098516,1.165551
6.1725146770477295,-0.098961115,-0.053588197,-0.15381369,-0.42980555,-0.30440646,0.8529475
6.192538261413574,-0.17968789,0.48731354,-0.27383703,-0.6119088,-0.16416281,1.0574228
6.213045597076416,-0.17968789,0.48731354,-0.27383703,-0.6119088,-0.16416281,1.0574228
6.233194351196289,0.13544816,-0.2546063,-0.047131516,-0.30288935,-0.16243982,1.2075481
6.253257989883423,-0.42802718,0.36877146,-0.05692192,-0.533968,-0.3634055,1.176096
6.273348093032837,-0.010679691,0.18867972,-0.2720506,-0.55531853,-0.31542367,0.8292225
6.2933502197265625,0.0918958,0.6532682,-0.27097398,-0.85566664,-0.20093793,0.6622117
6.313442945480347,0.097131684,0.07367453,-0.25136414,-0.6205274,-0.3787905,0.6804797
6.333516836166382,-0.23687424,0.6888114,-0.3319008,-0.94902086,-0.5091967,1.0990789
6.353620290756226,-0.23687424,0.6888114,-0.3319008,-0.94902086,-0.5091967,1.0990789
6.37378191947937,0.32206658,0.05228813,-0.28835732,-0.79307115,-0.31827432,1.2807467
6.393816232681274,0.07802743,-0.1916254,0.0575179,-0.3619296,-0.33561352,1.5251269
6.413887977600098,0.0066874037,0.3472778,-0.42094752,-0.95620763,-0.15544389,1.3673091
6.433948040008545,0.23598304,-0.18675709,-0.092024714,-0.5598514,-0.07437998,1.3118773
6.4540488719940186,-0.14475869,0.3524283,-0.21538335,-1.034572,-0.32524016,1.3389566
6.474144697189331,0.23692864,0.28922614,-0.30920827,-0.8929851,-0.2474607,1.0855539
6.494243860244751,0.3422664,0.2516006,-0.21063817,-0.8825854,-0.50023234,1.1424267
6.514780521392822,0.3422664,0.2516006,-0.21063817,-0.8825854,-0.50023234,1.1424267
6.53489875793457,0.24065627,1.0761176,-0.41281962,-1.3389804,-0.5756519,0.6994006
6.555017948150635,0.5096472,0.40903845,-0.44178647,-1.406176,-0.5919628,1.1307018
6.57514214515686,0.5517884,0.41598085,-0.3651045,-1.1313422,-0.55920035,0.97645277
6.5951926708221436,0.34600577,0.7429669,-0.43270317,-1.3521937,-0.6953988,1.039751
6.615360736846924,0.40556225,0.19786012,-0.35904765,-1.2000911,-0.46376982,1.3651845
6.635425329208374,0.4383681,0.25106055,-0.2671584,-0.90254754,-0.45089576,1.0295
6.6555116176605225,0.08158134,0.62721527,-0.41399106,-1.1650491,-0.5193605,0.9050937
6.675917625427246,0.08158134,0.62721527,-0.41399106,-1.1650491,-0.5193605,0.9050937
6.696343660354614,0.3317555,0.010454744,-0.33969617,-0.85299605,-0.27995107,1.2039053
6.716277360916138,-0.039848328,-0.25302345,-0.009139165,-0.3667671,-0.2533705,1.5252366
6.73637580871582,-0.055351935,0.08232802,-0.33077163,-0.79634845,-0.07877436,1.5041304
6.756454706192017,-0.038601503,-0.3920016,0.09345325,-0.31867585,-0.13545947,1.527113
6.7765960693359375,-0.092336476,0.026319638,-0.2605306,-0.7313271,-0.060973007,1.4731169
6.796642541885376,-0.051332437,-0.28295553,-0.018002175,-0.38563716,-0.042849917,1.3800318
6.816812515258789,-0.021125458,0.1541867,-0.31968713,-0.8601295,-0.07753953,1.4619119
6.837195158004761,-0.021125458,0.1541867,-0.31968713,-0.8601295,-0.07753953,1.4619119
6.857275724411011,0.21422301,-0.28241968,0.053421095,-0.37799,-0.06058721,1.3958597
6.877338647842407,-0.19815215,0.267625,-0.08284657,-0.7628437,-0.28416947,1.2022128
6.897470951080322,0.005656258,0.050847903,-0.19784644,-0.51812536,-0.26275167,0.8744339
6.917570352554321,0.17597881,0.548033,-0.41148034,-0.8679453,-0.13010758,1.0984836
6.937739372253418,0.25172395,-0.14248633,-0.04561214,-0.5928143,-0.21502772,1.3284261
6.958128929138184,-0.021390676,0.5599687,-0.21299875,-1.0273921,-0.471922,1.3020923
6.97799015045166,0.381124,0.48920384,-0.35935855,-1.0406924,-0.3881863,1.1439097
6.998007297515869,0.5246194,0.2811326,-0.24050987,-0.95645547,-0.5558373,1.1259277
7.018317222595215,0.5246194,0.2811326,-0.24050987,-0.95645547,-0.5558373,1.1259277
7.038457155227661,0.5246194,0.2811326,-0.24050987,-0.95645547,-0.5558373,1.1259277
7.058507442474365,0.36886713,1.1626624,-0.41491073,-1.4081805,-0.7139838,0.7909033
7.078589677810669,0.61581385,0.52890134,-0.46737152,-1.5267175,-0.71780837,1.147512
7.098670482635498,0.6589807,0.5308515,-0.39899498,-1.2989036,-0.60259116,1.0434685
7.118785381317139,0.6589807,0.5308515,-0.39899498,-1.2989036,-0.60259116,1.0434685
7.139230012893677,0.5159,0.52219236,-0.37547344,-1.163097,-0.6230401,0.91535074
7.159153699874878,0.39959955,0.718001,-0.44132012,-1.3505262,-0.7170696,1.0073361
7.179224729537964,0.42009252,0.22087866,-0.35587806,-1.200609,-0.48999777,1.3435595
7.199303388595581,0.46911702,0.33237,-0.28519106,-0.97836995,-0.49711117,1.0484071
7.219403266906738,0.17594266,0.64031076,-0.49510646,-1.2985723,-0.5354685,0.9760048
7.239453315734863,0.3365862,0.07503685,-0.364037,-1.0803975,-0.31773058,1.284617
7.259795665740967,0.06861821,-0.037015915,-0.11608297,-0.74278265,-0.37062922,1.6174309
7.280172348022461,0.06861821,-0.037015915,-0.11608297,-0.74278265,-0.37062922,1.6174309
7.300117254257202,0.0559531,-0.093525894,-0.27742034,-0.6674378,-0.10994579,1.3604269
7.3202478885650635,-0.046257995,-0.20562297,-0.06932698,-0.47832498,-0.019824002,1.3091323
7.340317010879517,-0.04001279,0.10527,-0.29964375,-0.9608314,-0.09607902,1.4880495
7.360454559326172,-0.17196876,-0.2528715,0.07964826,-0.36759275,-0.35302094,1.4333789
7.380509853363037,-0.16271001,-0.08011952,-0.019284762,-0.4954158,-0.21647158,1.2365825
7.400584936141968,-0.16271001,-0.08011952,-0.019284762,-0.4954158,-0.21647158,1.2365825
7.420740127563477,-0.123987675,0.056787997,-0.25052986,-0.8493942,-0.24232411,1.4312186
7.441073656082153,-0.052733824,-0.15674539,-0.05101338,-0.51078653,-0.23964873,1.393024
7.460973501205444,0.13364054,0.43027678,-0.41588145,-1.0613792,-0.23026353,1.4836679
7.481053829193115,0.20672056,-0.088693574,0.1196042,-0.5243396,-0.43562806,1.4830294
7.501181602478027,0.1345729,0.67774117,-0.41936207,-1.231302,-0.51508856,1.1763597
7.521270275115967,0.51390743,0.22385204,-0.30484253,-1.1430987,-0.36189976,1.3259232
7.5413243770599365,0.51390743,0.22385204,-0.30484253,-1.1430987,-0.36189976,1.3259232
7.561557769775391,0.47838566,0.24962804,-0.18018305,-0.8218533,-0.5473477,1.0670877
7.581505537033081,0.29666096,1.1752235,-0.3999173,-1.336434,-0.65921843,0.64189583
7.601593971252441,0.5783495,0.45978,-0.4388908,-1.4426707,-0.6688245,1.0955739
7.6216721534729,0.62440073,0.51012635,-0.37301818,-1.2229799,-0.61566925,1.015609
7.642053842544556,0.50926805,0.75410473,-0.45217377,-1.3965509,-0.73542666,1.0657842
7.6620707511901855,0.4910023,0.25730774,-0.34872538,-1.25441,-0.4899039,1.3859231
7.682058811187744,0.48895183,0.19358668,-0.23034665,-0.8999847,-0.50419855,1.1357589
7.703024864196777,0.48895183,0.19358668,-0.23034665,-0.8999847,-0.50419855,1.1357589
7.723177194595337,0.17043462,0.57668006,-0.60130584,-1.3188698,-0.5029198,1.2054584
7.743255376815796,0.47231194,0.061693996,-0.3479154,-1.1125443,-0.19651346,1.4308577
7.763352394104004,-0.023077026,-0.10476448,0.16120674,-0.3876897,-0.613401,1.4800556
7.783422231674194,0.05151012,0.26146367,-0.37425005,-0.7546562,-0.16184106,1.2252018
7.803507089614868,0.11289923,-0.4862113,0.19699425,-0.15957966,-0.09572454,1.1855664
7.823586463928223,-0.19772434,-0.15119162,0.059438474,-0.26946336,0.13564509,1.1306202
7.843819856643677,-0.13073051,-0.20282353,-0.023979217,-0.5816063,0.112062424,1.4309864
7.863846063613892,-0.13073051,-0.20282353,-0.023979217,-0.5816063,0.112062424,1.4309864
7.884054899215698,-0.10353431,-0.19447508,-0.09086692,-0.84850997,0.020362433,1.6582649
7.904062509536743,-0.03185007,-0.38852113,0.04689253,-0.4456199,0.15834111,1.3330765
7.924131870269775,-0.003770261,-0.09194946,-0.14411713,-0.78073335,0.09456909,1.4200234
7.944217920303345,0.0052186335,-0.2946856,-0.0028882623,-0.5079731,0.1408687,1.2482262
7.964306354522705,0.07756582,0.08248812,-0.2340551,-0.8931494,0.0031874068,1.3505104
7.9844231605529785,0.07485531,-0.1341604,-0.15001568,-0.6056671,-0.065328196,1.3633265
8.004494428634644,0.07485531,-0.1341604,-0.15001568,-0.6056671,-0.065328196,1.3633265
8.024636030197144,0.23615597,0.3660585,-0.32598087,-0.8981423,-0.14340879,1.3953443
8.044717073440552,0.2561157,-0.070820495,0.1917752,-0.42122853,-0.49426755,1.4516954
8.064761877059937,0.15959483,0.8091599,-0.3762318,-1.1306145,-0.637202,1.1746991
8.084860801696777,0.5359953,0.3467706,-0.2713609,-1.1699599,-0.49500498,1.4233949
8.104933023452759,0.6316192,0.70621085,-0.32569173,-1.1539001,-0.65931463,1.1034255
8.124990701675415,0.60031646,0.5453212,-0.35844344,-1.1369348,-0.66833735,1.0977316
8.14511775970459,0.60031646,0.5453212,-0.35844344,-1.1369348,-0.66833735,1.0977316
8.165253639221191,0.6469424,0.86575663,-0.3902632,-1.3094525,-0.73163617,1.0165243
8.185306787490845,0.5688124,0.3965402,-0.3830406,-1.205187,-0.66848433,1.1174097
8.20536732673645,0.5440208,0.7663598,-0.46839362,-1.4023108,-0.7675216,1.179791
8.225445747375488,0.56476307,0.3271846,-0.33881584,-1.3019378,-0.5190153,1.4481418
8.245500564575195,0.6131159,0.4824024,-0.3119522,-1.133591,-0.5471449,1.1707995
8.266197681427002,0.6131159,0.4824024,-0.3119522,-1.133591,-0.5471449,1.1707995
8.286202669143677,0.38922897,0.4173309,-0.33288535,-0.9914961,-0.5999488,0.9206758
8.30629825592041,0.4157665,0.77038074,-0.506318,-1.3622705,-0.5230313,1.0951827
8.326343059539795,0.25345653,0.12568375,-0.24482808,-0.91565657,-0.59196794,1.3664136
8.346463918685913,0.2542591,0.5947206,-0.5070354,-1.247842,-0.4892144,1.3321626
8.366533994674683,0.21917824,0.03547457,-0.18450366,-0.9298275,-0.4996139,1.5226979
8.386613130569458,0.29141614,0.6351304,-0.5897914,-1.1735553,-0.27229846,1.420135
8.407041072845459,0.23174807,0.2616092,-0.22374004,-1.0905513,-0.35131648,1.6382763
8.4272940158844,0.23174807,0.2616092,-0.22374004,-1.0905513,-0.35131648,1.6382763
8.447275400161743,0.37130207,0.45149377,-0.32412523,-1.0896505,-0.38703343,1.295218
8.467357397079468,0.29929695,0.45297924,-0.33851445,-1.179551,-0.4739506,1.5558395
8.487407445907593,0.5371585,0.5148635,-0.35737532,-1.2708756,-0.53533006,1.4738929
8.507503509521484,0.5308834,0.49668488,-0.3988364,-1.3645719,-0.5610436,1.4654648
8.527648210525513,0.5236652,0.45332804,-0.44371745,-1.4215269,-0.5227006,1.5828488
8.547734260559082,0.6053606,0.5135344,-0.42795333,-1.4487975,-0.49574068,1.5201333
8.568471431732178,0.6053606,0.5135344,-0.42795333,-1.4487975,-0.49574068,1.5201333
8.588859558105469,0.5936817,0.51836836,-0.45022035,-1.4947351,-0.49770495,1.5075233
8.608772277832031,0.5941015,0.47144195,-0.50445306,-1.5431433,-0.43188673,1.6483164
8.6288743019104,0.62374437,0.4344813,-0.38170978,-1.456597,-0.40400118,1.5941787
8.648972034454346,0.49131548,0.33769473,-0.33136123,-1.3140979,-0.41344675,1.5460169
8.669068813323975,0.31206748,0.39926687,-0.5130257,-1.3350397,-0.3114616,1.6113975
8.689190149307251,0.5271075,0.21043977,-0.24022472,-1.1542798,-0.304355,1.6404064
8.709271907806396,0.23891155,0.5565866,-0.4527108,-1.3515098,-0.31251913,1.7589962
8.72983455657959,0.23891155,0.5565866,-0.4527108,-1.3515098,-0.31251913,1.7589962
8.749922275543213,0.55671936,0.27015278,-0.40986085,-1.2828445,-0.24016929,1.9232535
8.770288944244385,0.2639399,0.17091992,-0.10873759,-1.0177853,-0.41967785,1.8717573
8.790178537368774,0.2574673,0.5412288,-0.59330755,-1.1291205,-0.3900795,1.7201109
8.810757875442505,0.5738487,0.2614487,-0.31282786,-1.1360005,-0.17150697,1.8059778
8.830883741378784,0.17687903,0.3103371,-0.26425257,-1.0831218,-0.31166086,1.7054453
8.850937604904175,0.37397924,0.28004012,-0.36329576,-1.0591679,-0.14261141,1.699738
8.871026039123535,0.24352372,0.13496038,-0.05086708,-0.86857283,-0.3498238,1.7375357
8.891102075576782,0.24352372,0.13496038,-0.05086708,-0.86857283,-0.3498238,1.7375357
8.911251544952393,0.14803673,0.26633334,-0.2231867,-0.8892838,-0.30625072,1.5617309
8.93128228187561,0.19342819,0.26623875,-0.40701172,-1.029653,-0.19311038,1.6642601
8.951756954193115,0.30519822,0.1936672,-0.16627342,-0.86381793,-0.3367626,1.7982607
8.971952199935913,0.13622284,0.39217022,-0.18351528,-1.0157086,-0.37200543,1.6269534
8.991968870162964,0.49048254,0.4439197,-0.4191634,-1.1535448,-0.1995483,1.5949347
9.01207947731018,0.549912,0.04617344,-0.07356009,-0.9448584,-0.31579563,1.6669781
9.032263278961182,0.15137503,0.31483158,-0.26034322,-0.9948399,-0.12515292,1.5941925
9.052367687225342,0.15137503,0.31483158,-0.26034322,-0.9948399,-0.12515292,1.5941925
9.072482109069824,0.2700848,0.18726751,-0.32470104,-0.96230125,-0.056549016,1.55547
9.092541217803955,0.2374197,0.17022672,-0.1384047,-0.9008019,-0.16626252,1.6679175
9.112804889678955,0.20739187,0.33545843,-0.34502333,-0.97514474,-0.26066056,1.6602461
9.1328284740448,0.5671213,0.060151458,-0.15256038,-0.9000268,-0.091566294,1.6487236
9.152903079986572,0.18503703,0.29884085,-0.2394911,-0.99804854,-0.012180466,1.5904572
9.172981023788452,0.18503703,0.29884085,-0.2394911,-0.99804854,-0.012180466,1.5904572
9.193084001541138,0.28286064,0.18667957,-0.24968553,-0.883965,-0.05392788,1.5641322
9.213170051574707,0.24078926,0.35059205,-0.1917078,-1.0087068,-0.120123476,1.6088896
9.233301877975464,0.41199568,0.26499268,-0.21435905,-0.921183,-0.25526008,1.3322277
9.253693103790283,0.33455995,0.51520336,-0.34247506,-1.1855177,-0.15360802,1.3413725
9.273621082305908,0.43191388,-0.0139479935,-0.16630323,-0.89055127,-0.35948458,1.5168946
9.29366397857666,0.2195662,0.62564206,-0.5776893,-1.5471686,-0.32025877,1.686374
9.313834428787231,0.2195662,0.62564206,-0.5776893,-1.5471686,-0.32025877,1.686374
9.33386754989624,0.921907,0.8746152,-0.46255207,-1.657384,-0.29050016,1.7767553
9.353933811187744,0.8687017,0.49178317,-0.37075186,-1.6692703,-0.39312947,1.6990867
9.374362707138062,0.825083,0.42739037,-0.3652303,-1.5262668,-0.41336194,1.6407123
9.394287586212158,0.72561926,0.31589064,-0.33661783,-1.3843743,-0.38415474,1.6305811
9.41457200050354,0.58994365,0.30797496,-0.366622,-1.325329,-0.24817637,1.7028122
9.434706926345825,0.58994365,0.30797496,-0.366622,-1.325329,-0.24817637,1.7028122
9.45479154586792,0.48974833,0.070358306,-0.07745072,-1.0035106,-0.3344238,1.8379619
9.485912799835205,0.16799091,0.33784786,-0.347305,-1.0918167,-0.26209602,1.6995378
9.520739793777466,0.16799091,0.33784786,-0.347305,-1.0918167,-0.26209602,1.6995378
9.545133829116821,0.16799091,0.33784786,-0.347305,-1.0918167,-0.26209602,1.6995378
9.565218687057495,0.4579635,0.005587399,-0.17274782,-0.88320684,-0.1461929,1.7968581
9.58534049987793,0.17113689,0.25294122,-0.2460261,-1.0472857,-0.012514804,1.6605065
9.605406522750854,0.1717129,0.25219598,-0.2866199,-1.0033916,-0.31860715,1.8226991
9.625627040863037,0.4351124,0.82669723,-0.50338495,-1.2604587,-0.3331112,1.6805997
9.645603656768799,0.4351124,0.82669723,-0.50338495,-1.2604587,-0.3331112,1.6805997
9.665700912475586,0.89391685,0.43985382,-0.32119173,-1.4689336,-0.32068032,1.6798823
9.685832262039185,0.8055963,0.5038198,-0.4334386,-1.480413,-0.21176288,1.4465532
9.705859422683716,0.5708722,0.0168349,-0.23704347,-1.11491,-0.25931215,1.5615232
9.725950717926025,0.19229221,0.1931234,-0.28623533,-0.97767425,-0.123391286,1.7860434
9.746033430099487,0.2563136,0.1920658,-0.16449848,-1.0177022,-0.25795588,1.7645442
9.766244649887085,0.2563136,0.1920658,-0.16449848,-1.0177022,-0.25795588,1.7645442
9.786375999450684,0.2743237,0.48363498,-0.37695557,-1.1075405,-0.3219645,1.7406421
9.806558847427368,0.85756385,0.21998456,-0.2613283,-1.1293522,-0.22298643,1.6094649
9.82658576965332,0.27972278,0.38638923,-0.37676463,-1.2534053,-0.18719512,1.870395
9.84669041633606,0.6507002,0.08665463,-0.12755263,-1.0064398,-0.16644041,1.9109972
9.866762638092041,0.29505143,0.39494434,-0.28729004,-1.1869832,-0.03558742,1.7237661
9.886894226074219,0.41410515,0.1644341,-0.23109165,-1.069371,-0.10900876,1.7450776
9.906901121139526,0.29827067,0.36465845,-0.18530375,-1.1075356,-0.20987082,1.7840776
9.927034854888916,0.29827067,0.36465845,-0.18530375,-1.1075356,-0.20987082,1.7840776
9.9499351978302,0.51274216,0.2504008,-0.2137754,-1.0419096,-0.26865038,1.4929883
9.98031997680664,0.3160406,0.56481767,-0.42269543,-1.2197634,-0.1841102,1.6409345
10.000358819961548,0.3160406,0.56481767,-0.42269543,-1.2197634,-0.1841102,1.6409345
10.020490407943726,0.743196,0.06348999,-0.23332062,-1.1285162,-0.13608879,1.6774108
10.04060411453247,0.23966813,0.31401676,-0.22468367,-1.131137,-0.18803138,1.7421584
10.060652732849121,0.34150955,0.20145091,-0.2540881,-1.0622479,-0.12777099,1.767303
10.080806016921997,0.28511372,0.30378887,-0.09604871,-1.1141034,-0.401719,1.8547544
10.100907802581787,0.550851,0.47892955,-0.39786565,-1.2587119,-0.25249472,1.7974093
10.120909929275513,0.7327757,0.20403972,-0.25594217,-1.2779489,-0.29383248,1.7797143
10.141470432281494,0.7327757,0.20403972,-0.25594217,-1.2779489,-0.29383248,1.7797143
10.16159987449646,0.4551914,0.5855483,-0.41859633,-1.3962237,-0.2618851,1.8647759
10.181674718856812,0.66693515,0.41411772,-0.3045916,-1.4218482,-0.3486263,1.986031
10.201727628707886,0.8339045,0.3490375,-0.3198337,-1.3897256,-0.33055606,1.7840943
10.221994638442993,0.7786442,0.2861645,-0.38860083,-1.3370544,-0.17565124,1.6137943
10.242023229598999,0.3074113,0.17386916,-0.12568557,-0.9317499,-0.44906294,1.8929379
10.262105464935303,0.5721213,0.71267986,-0.37051812,-1.3230418,-0.29896936,1.5613844
10.282206773757935,0.5721213,0.71267986,-0.37051812,-1.3230418,-0.29896936,1.5613844
10.302328109741211,0.5726348,0.3382726,-0.386886,-1.3418578,-0.29694995,1.7898495
10.322407007217407,0.8023529,0.23190907,-0.36442766,-1.3018429,-0.123948246,1.671977
10.342501163482666,0.30487433,0.15949273,-0.109377146,-0.9581189,-0.42610952,1.9351363
10.362555742263794,0.32914457,0.73820794,-0.42996055,-1.2523651,-0.37484822,1.7405882
10.382671594619751,0.86011636,0.44885662,-0.27648544,-1.3222154,-0.3279734,1.8831098
10.402743577957153,0.7006288,0.41565403,-0.4253695,-1.426509,-0.21274006,1.5703859
10.423271656036377,0.7006288,0.41565403,-0.4253695,-1.426509,-0.21274006,1.5703859
10.443364143371582,0.56548387,-0.12504387,-0.14623117,-0.9645509,-0.2363976,1.7132845
10.463609218597412,0.17886263,0.13155994,-0.1613386,-0.94125116,-0.054864924,1.7414694
10.483567714691162,0.11980817,0.22397497,-0.1751818,-0.99012125,-0.27662233,1.8635399
10.503643035888672,0.33207956,0.66829956,-0.34023154,-1.2713461,-0.38112953,1.8169818
10.523727893829346,0.8955265,0.45413324,-0.25314635,-1.3237635,-0.33699712,1.9107566
10.543847799301147,0.7635894,0.49513444,-0.46158576,-1.4795431,-0.1857392,1.5314972
10.563899040222168,0.7635894,0.49513444,-0.46158576,-1.4795431,-0.1857392,1.5314972
10.584077596664429,0.6074127,-0.074962094,-0.18631631,-1.0726706,-0.22030944,1.7217567
10.604097366333008,0.2578927,0.1926113,-0.20210786,-1.0650878,-0.057906415,1.7816222
10.624253511428833,0.24213272,0.37769672,-0.24681377,-1.1814587,-0.28909346,1.9358969
10.644294023513794,0.6790856,0.45140406,-0.3316279,-1.3106033,-0.16002795,1.8490233
10.664342641830444,0.7146087,0.012605131,-0.12668622,-1.1188769,-0.22069791,1.8260014
10.68447756767273,0.3678426,0.330811,-0.27900615,-1.2800225,-0.078457996,1.8547909
10.704494953155518,0.5470536,0.2479594,-0.15814972,-1.2030951,-0.26523122,1.9790466
10.725102186203003,0.5470536,0.2479594,-0.15814972,-1.2030951,-0.26523122,1.9790466
10.74526047706604,0.36781207,0.6454544,-0.28504807,-1.2929304,-0.46786556,1.957171
10.765315294265747,1.0645361,0.6358043,-0.33246064,-1.5336487,-0.42760408,1.8078763
10.785488605499268,0.782248,0.30273545,-0.26482093,-1.4315248,-0.43636194,1.9816351
10.805514812469482,0.74520516,0.6904403,-0.39362437,-1.5852045,-0.35678306,2.0101883
10.825568675994873,0.970799,0.53373206,-0.32017013,-1.6552931,-0.43584043,2.0704436
10.845648050308228,0.99446654,0.40197352,-0.3324259,-1.5648378,-0.38305047,1.9551575
10.865708351135254,0.99446654,0.40197352,-0.3324259,-1.5648378,-0.38305047,1.9551575
10.885804653167725,0.8688674,0.11922625,-0.24267247,-1.374858,-0.35702,2.0031788
10.905914783477783,0.3673866,0.46816888,-0.35948974,-1.2733597,-0.5083705,1.9903543
10.926279067993164,1.0193181,0.28810516,-0.22982877,-1.2745515,-0.31090346,1.940526
10.94616174697876,0.57029754,0.40304354,-0.36833957,-1.3918904,-0.13677743,2.0435293
10.966229915618896,0.53871477,-0.075800896,-0.012049407,-0.92256427,-0.3069173,2.007415
10.986368656158447,0.41761073,0.25597367,-0.28013247,-1.1860434,-0.07201372,1.8846791
11.00643515586853,0.41761073,0.25597367,-0.28013247,-1.1860434,-0.07201372,1.8846791
11.02654218673706,0.12366597,0.10257056,-0.021232903,-0.8621069,-0.52539194,1.8790984
11.046624898910522,0.43467554,0.5341886,-0.344428,-1.1263047,-0.24103275,1.7727456
11.066691875457764,0.66836476,0.0013258904,-0.20142847,-1.1223464,-0.17510241,1.7849574
11.086792707443237,0.2560567,0.11433843,-0.21173343,-1.0224122,-0.10250686,1.8713412
11.10689640045166,0.3744834,0.2612147,-0.20177531,-1.0557901,-0.117591694,1.9048188
11.126975536346436,0.50293064,0.5274824,-0.23055997,-1.3617331,-0.2810149,1.9462497
11.147145509719849,0.50293064,0.5274824,-0.23055997,-1.3617331,-0.2810149,1.9462497
11.167224407196045,0.46962813,0.26231638,-0.1868276,-1.2943608,-0.43512473,1.9563453
11.187339305877686,0.7094285,0.7713064,-0.4153154,-1.5351856,-0.30247515,1.9912412
11.207406997680664,1.0304301,0.59718704,-0.38735944,-1.7573549,-0.42068046,2.0471337
11.22748351097107,0.9949256,0.50617945,-0.3839978,-1.7033175,-0.44056186,2.0432565
11.247568607330322,0.9247644,0.4850606,-0.35485268,-1.6464006,-0.43253192,2.120024
11.267658472061157,0.87276727,0.36453596,-0.28604192,-1.4963962,-0.4295405,2.094066
11.287723779678345,0.87276727,0.36453596,-0.28604192,-1.4963962,-0.4295405,2.094066
11.30783224105835,0.8040557,0.28055376,-0.30730575,-1.5010712,-0.39415705,2.0939093
11.327919483184814,0.50515836,0.5727327,-0.23310107,-1.231427,-0.7307936,2.0600042
11.348000526428223,0.94888127,0.5885385,-0.5501462,-1.6944407,-0.26496318,1.697346
11.36807370185852,0.81462157,0.0627199,-0.42358512,-1.4674565,-0.120941356,1.8120399
11.388162851333618,0.39521402,-0.12011751,-0.114241004,-0.8891771,-0.23363718,2.1433587
11.40848183631897,0.13243519,0.08517778,-0.25032777,-0.8551886,-0.074679896,2.0372677
11.428383111953735,0.015520097,0.025295392,0.002693206,-0.74652356,-0.36543313,1.9460268
11.448640823364258,0.015520097,0.025295392,0.002693206,-0.74652356,-0.36543313,1.9460268
11.468755006790161,0.16536513,0.33349696,-0.22840989,-0.92555505,-0.29146132,1.8311772
11.488852977752686,0.42278826,0.13369802,-0.2650527,-1.0433646,-0.06390995,1.7484863
11.50892424583435,0.2823049,0.02659364,-0.12421326,-0.81079125,-0.14612822,1.8674889
11.529052257537842,0.13672957,0.039100677,-0.081989914,-0.67093474,-0.1297089,1.7981002
11.549137830734253,0.16205162,0.05194053,-0.09439334,-0.6491596,-0.06767744,1.7677686
11.569362878799438,0.12058024,0.012665033,-0.0969803,-0.60838187,-0.035697985,1.7766335
11.589364528656006,0.12058024,0.012665033,-0.0969803,-0.60838187,-0.035697985,1.7766335
11.609724998474121,0.11274688,0.0049274415,-0.092773914,-0.58543575,-0.0006178878,1.7904336
11.629676580429077,0.1009184,-0.008119568,-0.08929978,-0.5608118,0.015720885,1.7826011
11.64974331855774,0.16083467,0.04003437,-0.13927525,-0.61835635,0.06197762,1.7515161
11.669812202453613,0.09920323,0.03865871,-0.17544512,-0.6205101,0.08255319,1.7500274
11.689887046813965,0.13938442,0.1279957,-0.16726036,-0.6779878,0.07344052,1.6644874
11.709958791732788,0.11080782,0.13866052,-0.2482236,-0.75638133,0.08477695,1.781342
11.730371475219727,0.3377823,-0.107641295,-0.1286677,-0.6678478,0.072709784,1.8868313
11.750524759292603,0.3377823,-0.107641295,-0.1286677,-0.6678478,0.072709784,1.8868313
11.770596027374268,-0.030669898,0.031047493,-0.120452926,-0.6557627,0.004059639,1.8806772
11.7906494140625,0.022960275,0.21175507,0.061886042,-0.6843571,-0.40400252,1.8438697
11.81082010269165,0.5907563,0.6548456,-0.36967215,-1.1952807,-0.26651812,1.5130045
11.830937623977661,0.6000908,0.33146754,-0.39435968,-1.3905292,-0.3450083,1.8560727
11.850992441177368,0.88140076,0.33244786,-0.46289974,-1.4941133,-0.1754688,1.773129
11.871076583862305,0.6721661,0.06888799,-0.42977315,-1.3290235,-0.050777767,1.7088158
11.891189098358154,0.6721661,0.06888799,-0.42977315,-1.3290235,-0.050777767,1.7088158
