liuyurong129/humanoid-gym/humanoid/data/robot2_action_20250621-221106.csv
timestamp,joint_1,joint_2,joint_3,joint_4,joint_5,joint_6
0.00034618377685546875,0.0,0.0,0.0,0.0,0.0,0.0
0.020403623580932617,0.0,0.0,0.0,0.0,0.0,0.0
0.040485382080078125,0.0,0.0,0.0,0.0,0.0,0.0
0.06056571006774902,0.0,0.0,0.0,0.0,0.0,0.0
0.08067798614501953,0.0,0.0,0.0,0.0,0.0,0.0
0.10080099105834961,0.0,0.0,0.0,0.0,0.0,0.0
0.12086224555969238,-0.70788586,0.24196145,0.23717225,0.43358323,-0.9981458,0.043643378
0.1409451961517334,-0.46383145,0.3093751,-0.62861353,1.4902903,-0.44952294,-0.53936213
0.16105437278747559,-0.49903807,0.34658858,-0.3049734,0.85933286,-0.6260526,-0.43454543
0.18108129501342773,-0.507002,0.43080226,-0.29374477,0.73441243,-0.94754636,-0.0044959416
0.2016124725341797,-0.507002,0.43080226,-0.29374477,0.73441243,-0.94754636,-0.0044959416
0.2217092514038086,-0.4171597,0.2977655,-0.017606119,0.33208734,-0.93324506,0.46233547
0.24211430549621582,-0.41146162,0.008805558,0.061449744,-0.00046416372,-0.6859064,0.8238878
0.2621004581451416,-0.44181636,-0.111404136,-0.25279635,0.4254025,-0.28874037,0.8038194
0.28210926055908203,-0.5874927,0.13059917,0.15032381,0.05053682,-0.777333,1.1030828
0.3022007942199707,-0.41819426,-0.29747158,-0.12350566,-0.1041752,-0.12131843,0.9872176
0.32232046127319336,-0.6925478,-0.01080662,0.24430957,-0.22969633,-0.58180165,1.2246706
0.34238195419311523,-0.6506458,-0.066532806,-0.09231239,0.02650825,-0.28225967,1.0577718
0.3624727725982666,-0.6506458,-0.066532806,-0.09231239,0.02650825,-0.28225967,1.0577718
0.3826282024383545,-0.6923083,0.17196345,0.22676748,-0.18352404,-0.7111659,1.2415315
0.4030160903930664,-0.4886969,-0.24811527,-0.15671669,-0.12292623,0.04799439,0.90886754
0.4253096580505371,-0.728818,0.12561968,0.27747068,-0.16023427,-0.64337647,1.1604759
0.4455902576446533,-0.728818,0.12561968,0.27747068,-0.16023427,-0.64337647,1.1604759
0.46553802490234375,-0.50534743,-0.2533018,-0.18764448,-0.016321354,0.17287922,0.7422538
0.48563647270202637,-0.7232311,0.15699652,0.1941434,0.03415907,-0.55282533,0.91236275
0.5057711601257324,-0.4149141,-0.19336484,-0.2941678,0.34583467,0.29584643,0.4390885
0.5258595943450928,-0.6128833,0.23939282,0.03490556,0.4854359,-0.472793,0.5105835
0.545921802520752,-0.20948401,-0.04776603,-0.62979287,1.1928991,0.47731277,-0.16921276
0.5661716461181641,-0.515737,0.45326212,-0.30623764,0.9032896,-0.34815922,-0.0545977
0.5863018035888672,-0.515737,0.45326212,-0.30623764,0.9032896,-0.34815922,-0.0545977
0.6064860820770264,-0.46344426,0.6460284,-0.2818223,0.66772306,-0.68167806,0.29046112
0.626518964767456,-0.42739066,0.6199523,-0.06799507,0.18576843,-0.8620014,0.7768254
0.6465981006622314,-0.4198844,0.49450627,0.33852714,-0.2411944,-0.8681841,1.3454291
0.6666858196258545,-0.40163097,0.1418359,0.0628782,-0.15255219,-0.24573615,1.3848693
0.6867566108703613,-0.31090665,-0.15732992,-0.32855177,0.34421733,0.61165714,0.8785535
0.7068376541137695,-0.5551679,0.29667294,0.0050958153,0.44406742,-0.23434769,0.86948603
0.7269027233123779,-0.19897263,-0.013357893,-0.5814258,0.9834165,0.67332447,0.22263455
0.7470662593841553,-0.19897263,-0.013357893,-0.5814258,0.9834165,0.67332447,0.22263455
0.7671477794647217,-0.4702494,0.38390985,-0.22230959,0.70688003,-0.13262334,0.22513464
0.7872879505157471,-0.43944296,0.51338315,-0.19552745,0.4752186,-0.49447998,0.38700908
0.8077337741851807,-0.35157874,0.4945157,-0.060476862,0.2632863,-0.44801912,0.6060052
0.8280911445617676,-0.36068752,0.43001977,0.12891524,0.1037033,-0.41000667,0.84796196
0.8480453491210938,-0.14694758,0.08834757,-0.3301364,0.7217501,0.43152598,0.4987793
0.8682215213775635,-0.5724607,0.11971989,0.17879128,0.11113287,-0.07187531,0.51246625
0.888385534286499,-0.21010704,-0.16594309,-0.46928045,1.026465,0.6919224,-0.08911731
0.90848708152771,-0.21010704,-0.16594309,-0.46928045,1.026465,0.6919224,-0.08911731
0.9285721778869629,-0.5414211,0.32940236,-0.2638717,0.8441561,0.023342304,-0.18293968
0.9486589431762695,-0.5090848,0.40038666,-0.20532277,0.4149953,-0.11908448,0.01996512
0.968817949295044,-0.47673395,0.4420512,-0.12353702,0.25354558,-0.1889384,0.29209244
0.9888536930084229,-0.45193815,0.42782483,0.0006073173,0.077175416,-0.26548144,0.5256238
1.008943796157837,-0.16646294,0.17605528,-0.5067836,1.0242368,0.6279565,0.07912741
1.0291271209716797,-0.16646294,0.17605528,-0.5067836,1.0242368,0.6279565,0.07912741
1.049243688583374,-0.45400643,0.20644543,-0.11884784,0.43464935,0.08055637,0.12364987
1.0693066120147705,-0.44557145,0.16469368,-0.015683526,0.1801247,-0.1579467,0.4476377
1.0894136428833008,0.12776664,-0.2634375,-0.56479365,1.1012133,1.1302958,-0.101887845
1.1094863414764404,-0.3331381,0.18325666,-0.1816532,1.1704637,0.20673761,-0.38989
1.1295654773712158,-0.46544713,0.3165082,-0.30632,0.7676561,0.25514087,-0.37763107
1.149651288986206,-0.4157543,0.32214126,-0.21042538,0.57055086,0.023043633,-0.084526114
1.1697354316711426,-0.315541,0.3482639,-0.15995523,0.39843446,-0.29085514,0.40894186
1.18984055519104,-0.315541,0.3482639,-0.15995523,0.39843446,-0.29085514,0.40894186
1.2099230289459229,-0.2705234,0.23600683,-0.0095858965,0.08733771,-0.092943065,0.73964703
1.230017900466919,0.070699796,-0.2153432,-0.33971786,0.7095528,0.83584034,0.43520913
1.2500975131988525,-0.33979645,0.06941795,0.15050226,0.6748851,-0.09815473,0.37467566
1.2701725959777832,0.050979953,0.01677832,-0.6665911,1.8923951,0.8352227,-0.22368357
1.2902517318725586,-0.25276384,0.39860728,-0.44282272,1.4393955,-0.01757171,-0.4216156
1.310333013534546,-0.0544944,0.37612197,-0.47755247,1.1854755,-0.15936887,-0.1349588
1.3309967517852783,-0.0544944,0.37612197,-0.47755247,1.1854755,-0.15936887,-0.1349588
1.3511087894439697,-0.005707222,0.3011794,-0.4041929,0.9925237,-0.208675,0.07010006
1.3711943626403809,0.026200604,0.1912233,-0.18404222,0.8727004,-0.097497225,0.14407293
1.3912639617919922,0.036327552,0.05878462,-0.14828314,0.97650605,-0.004360564,-0.006087445
1.411346435546875,-0.31651878,0.30788097,-0.04346568,0.79651827,-0.2949015,0.03773106
1.4315991401672363,-0.1309474,0.30218276,-0.525973,1.1210775,0.63385034,-0.36177415
1.4515924453735352,-0.21426587,0.27817932,-0.44337493,1.2217997,0.41309014,-0.5859758
1.471709966659546,-0.18143602,0.23192778,-0.4408884,1.0590279,0.45263657,-0.5228219
1.4917802810668945,-0.18143602,0.23192778,-0.4408884,1.0590279,0.45263657,-0.5228219
1.5118677616119385,-0.19424798,0.20454097,-0.39578444,1.0595499,0.3555847,-0.53019786
1.5319085121154785,-0.20147191,0.14807877,-0.36085615,0.9291369,0.35050508,-0.4585338
1.5520167350769043,-0.2146709,0.11762616,-0.2940388,0.80065393,0.27310506,-0.28825542
1.5721192359924316,-0.16793992,0.20441487,-0.31608674,0.9164387,-0.09788065,-0.0007196745
1.592188835144043,-0.04216786,0.0951633,-0.33902916,0.8164748,0.1423457,0.0797609
1.6123006343841553,-0.07033299,0.027780488,-0.03808888,1.08387,-0.33084327,0.21142644
1.6323432922363281,0.24258167,-0.107991055,-0.5307968,1.9053432,0.19841814,-0.17428507
1.652904748916626,0.24258167,-0.107991055,-0.5307968,1.9053432,0.19841814,-0.17428507
1.673032522201538,0.10749237,0.119760066,-0.531676,1.7971829,-0.18672872,-0.19568191
1.6931064128875732,0.037614148,0.18683824,-0.42907122,1.1847311,-0.19130284,-0.049471967
1.7131898403167725,0.104483485,0.09404342,-0.20313598,0.9559091,-0.1283438,0.034678183
1.7332847118377686,-0.016096909,0.30490857,-0.24425812,1.2653716,-0.442004,0.024643935
1.7533643245697021,-0.08065462,0.23920783,-0.3196539,0.79498416,-0.23968905,0.10300625
1.7734425067901611,0.061072227,0.0029796213,-0.04455372,0.7200673,-0.060531408,0.0928374
1.7935707569122314,0.19775547,-0.22176024,-0.4061535,1.8845677,0.32018414,-0.28397885
1.8140764236450195,0.19775547,-0.22176024,-0.4061535,1.8845677,0.32018414,-0.28397885
1.834244728088379,0.03548823,0.09832567,-0.59924436,1.8742026,-0.046943143,-0.49540982
1.8543014526367188,0.08726899,0.30457678,-0.5874746,1.8160077,-0.32133383,-0.53766584
1.8743743896484375,0.27912596,0.29928392,-0.53282994,1.9636658,-0.15363918,-0.85781944
1.894463062286377,0.11210744,0.41655496,-0.4580942,1.9445537,-0.05017457,-1.25081
1.9145512580871582,0.021396112,0.4485031,-0.64622325,2.3523989,0.13864082,-1.681298
1.9346544742584229,0.20142566,0.3750796,-0.82319844,2.8495388,0.3815494,-2.1356387
1.9556427001953125,0.20142566,0.3750796,-0.82319844,2.8495388,0.3815494,-2.1356387
1.9757847785949707,0.45919132,0.26346767,-0.98814815,3.621645,0.7128247,-2.6526983
1.9958322048187256,0.7328019,0.18329677,-1.1671758,4.544484,1.1337378,-3.142718
2.0159194469451904,0.93702734,0.22168255,-1.3821484,5.561294,1.4835659,-3.5451643
2.036036252975464,0.96060854,0.4478974,-1.6201743,6.568228,1.7479607,-3.9244497
2.0562102794647217,0.8145514,0.8374343,-1.8975565,7.6483836,1.9765866,-4.369087
2.0761752128601074,0.6085718,1.323022,-2.2430727,8.943453,2.2281225,-4.899045
2.096349000930786,0.6085718,1.323022,-2.2430727,8.943453,2.2281225,-4.899045
2.116398811340332,0.38375345,1.8646015,-2.6299057,10.438888,2.524079,-5.4878554
2.1365132331848145,0.16104047,2.4416585,-3.0263715,12.084182,2.8877127,-6.130619
2.156845808029175,-0.059665043,3.0174954,-3.4077153,13.792623,3.285498,-6.794012
2.1769561767578125,-0.3515142,3.5548172,-3.7414932,15.182061,3.672153,-7.3919954
2.197178602218628,-0.616921,3.9942858,-4.027687,16.303759,4.044125,-7.8793674
2.2171785831451416,-0.7896076,4.358315,-4.2705545,17.511137,4.339522,-8.353007
2.237199068069458,-0.93846947,4.693192,-4.480362,18.600573,4.6084633,-8.794138
2.2572953701019287,-0.93846947,4.693192,-4.480362,18.600573,4.6084633,-8.794138
2.2774112224578857,-1.0702165,4.991829,-4.666771,19.576395,4.853517,-9.189501
2.2974801063537598,-1.1722599,5.2459197,-4.832558,20.449343,5.0779133,-9.540285
2.317568302154541,-1.2561098,5.466192,-4.978508,21.222574,5.2816105,-9.845638
2.337646722793579,-1.3301815,5.6584444,-5.1049185,21.89534,5.461616,-10.108629
2.3579461574554443,-1.3960165,5.8251104,-5.213523,22.474615,5.61767,-10.334015
2.377876043319702,-1.4536601,5.9688425,-5.306675,22.971317,5.751737,-10.526827
2.3979647159576416,-1.503429,6.0925136,-5.386666,23.396864,5.866556,-10.6917715
2.41908860206604,-1.503429,6.0925136,-5.386666,23.396864,5.866556,-10.6917715
2.4392383098602295,-1.5460216,6.198917,-5.4555554,23.76183,5.9648757,-10.833078
2.459271192550659,-1.5822865,6.2906017,-5.5151224,24.075603,6.049199,-10.954451
2.479355812072754,-1.6130801,6.369828,-5.5668893,24.34633,6.1217217,-11.05909
2.4994328022003174,-1.6391903,6.438566,-5.612152,24.581013,6.1843414,-11.149735
2.5195200443267822,-1.6613251,6.498508,-5.651999,24.785593,6.23868,-11.228706
2.539597988128662,-1.6801089,6.551095,-5.687349,24.965105,6.2861147,-11.297963
2.5596799850463867,-1.6960717,6.597552,-5.7189693,25.123781,6.3278055,-11.359149
2.5797903537750244,-1.7096728,6.6389084,-5.747502,25.26517,6.364725,-11.413641
2.6001083850860596,-1.7096728,6.6389084,-5.747502,25.26517,6.364725,-11.413641
2.6200122833251953,-1.7212945,6.6760316,-5.773484,25.392244,6.397693,-11.462592
2.6400954723358154,-1.7312673,6.709649,-5.7973595,25.507486,6.4273925,-11.506961
2.66015362739563,-1.7398688,6.74037,-5.8195014,25.612951,6.45439,-11.547546
2.6802897453308105,-1.747326,6.768697,-5.8402157,25.71036,6.4791594,-11.585011
2.700495958328247,-1.7538358,6.7950525,-5.859759,25.801138,6.5020943,-11.619906
2.7204902172088623,-1.7595605,6.819789,-5.878343,25.886469,6.523523,-11.652691
2.740541458129883,-1.7646364,6.8431964,-5.896144,25.967329,6.5437117,-11.683744
2.7606453895568848,-1.7646364,6.8431964,-5.896144,25.967329,6.5437117,-11.683744
2.7807276248931885,-1.7691747,6.865516,-5.913306,26.044538,6.5628877,-11.713383
2.800804376602173,-1.7732688,6.8869514,-5.92995,26.118773,6.581237,-11.741867
2.820868968963623,-1.7770001,6.9076676,-5.9461784,26.190586,6.5989137,-11.769411
2.8412771224975586,-1.7804314,6.927803,-5.962072,26.260443,6.6160455,-11.796196
2.8611764907836914,-1.7836176,6.947472,-5.9776974,26.328726,6.6327376,-11.82237
2.8813180923461914,-1.7866038,6.9667697,-5.9931135,26.395752,6.649077,-11.848056
2.901801586151123,-1.7866038,6.9667697,-5.9931135,26.395752,6.649077,-11.848056
2.921935796737671,-1.7894269,6.9857745,-6.008367,26.461784,6.6651382,-11.873354
2.9419877529144287,-1.7921172,7.0045524,-6.023496,26.527037,6.6809793,-11.898352
2.962083101272583,-1.7946998,7.023158,-6.038535,26.591698,6.6966524,-11.923115
2.9822347164154053,-1.7972006,7.041633,-6.0535054,26.655914,6.7121987,-11.947699
3.0022497177124023,-1.7996393,7.06001,-6.0684237,26.7198,6.727653,-11.972143
3.022308111190796,-1.8020324,7.0783157,-6.083308,26.783445,6.743041,-11.996481
3.0427589416503906,-1.8043905,7.096572,-6.098171,26.846914,6.758383,-12.020742
3.0628502368927,-1.8043905,7.096572,-6.098171,26.846914,6.758383,-12.020742
3.082916259765625,-1.8067232,7.114797,-6.113022,26.910276,6.7736926,-12.044949
3.102992296218872,-1.80904,7.1330056,-6.1278696,26.973576,6.788987,-12.0691185
3.123081684112549,-1.8113436,7.151209,-6.1427217,27.036848,6.804276,-12.093269
3.143173933029175,-1.8136402,7.169418,-6.1575847,27.10013,6.8195686,-12.117411
3.163271903991699,-1.8159343,7.1876388,-6.172461,27.163446,6.834872,-12.141556
3.183380603790283,-1.8182293,7.2058806,-6.187357,27.22682,6.850193,-12.165715
3.204110622406006,-1.8182293,7.2058806,-6.187357,27.22682,6.850193,-12.165715
3.224337100982666,-1.820525,7.224148,-6.2022753,27.290274,6.8655386,-12.189892
3.24454665184021,-1.8228275,7.242445,-6.2172194,27.353815,6.88091,-12.214096
3.264442205429077,-1.8251375,7.2607775,-6.2321906,27.41746,6.8963127,-12.238328
3.2844886779785156,-1.8274566,7.2791457,-6.2471905,27.48122,6.9117494,-12.262594
3.3045902252197266,-1.8297864,7.2975545,-6.2622204,27.5451,6.9272223,-12.286899
3.324673891067505,-1.8343683,7.324208,-6.277567,27.637327,6.9432087,-12.314274
3.3447508811950684,-1.8489991,7.3757534,-6.2958727,27.807722,6.9632597,-12.35537
3.365262269973755,-1.8759342,7.440999,-6.321858,28.005999,6.9927053,-12.415983
3.385366678237915,-1.8759342,7.440999,-6.321858,28.005999,6.9927053,-12.415983
3.4054558277130127,-1.9059912,7.511997,-6.353771,28.225218,7.030688,-12.488603
3.4256398677825928,-1.9369732,7.5851316,-6.38923,28.454779,7.0749965,-12.567589
3.4456098079681396,-1.9680506,7.657801,-6.426251,28.685572,7.12287,-12.648782
3.4657185077667236,-1.9985267,7.728163,-6.463382,28.911062,7.1719937,-12.729267
3.4858226776123047,-2.0278325,7.795014,-6.499635,29.126945,7.220702,-12.807097
3.505894422531128,-2.0555553,7.857667,-6.5343933,29.330675,7.2678905,-12.881065
3.5259673595428467,-2.0555553,7.857667,-6.5343933,29.330675,7.2678905,-12.881065
3.546055793762207,-2.0814567,7.915802,-6.567305,29.520994,7.3128786,-12.950508
3.5661468505859375,-2.105432,7.969369,-6.5982,29.697523,7.3552938,-13.015141
3.5862605571746826,-2.1274734,8.018494,-6.627037,29.8605,7.3949795,-13.074939
3.6063826084136963,-2.147645,8.063407,-6.653861,30.010534,7.4319263,-13.130056
3.6264491081237793,-2.1660452,8.10441,-6.678769,30.148483,7.4662237,-13.18075
3.646526575088501,-2.182808,8.141836,-6.701893,30.27534,7.498019,-13.227348
3.667088508605957,-2.182808,8.141836,-6.701893,30.27534,7.498019,-13.227348
3.687201976776123,-2.198073,8.176028,-6.723381,30.392134,7.527501,-13.270206
3.7078537940979004,-2.2119823,8.207326,-6.743391,30.499899,7.5548706,-13.3096895
3.7282135486602783,-2.2246804,8.236057,-6.7620745,30.599634,7.5803366,-13.346155
3.748528480529785,-2.2363052,8.2625265,-6.779583,30.692274,7.6041026,-13.379948
3.768672227859497,-2.2363052,8.2625265,-6.779583,30.692274,7.6041026,-13.379948
3.788713216781616,-2.2469778,8.287009,-6.796053,30.7787,7.626363,-13.411385
3.8087878227233887,-2.2568169,8.309764,-6.811616,30.859701,7.6473,-13.44076
3.828871488571167,-2.2659268,8.331019,-6.826389,30.93599,7.6670785,-13.468341
3.848952531814575,-2.2744021,8.350982,-6.840478,31.008207,7.685854,-13.494366
3.8690359592437744,-2.2823305,8.369828,-6.853978,31.076931,7.7037582,-13.5190525
3.8890950679779053,-2.289781,8.387722,-6.8669734,31.14266,7.7209167,-13.542586
3.909818410873413,-2.289781,8.387722,-6.8669734,31.14266,7.7209167,-13.542586
3.929959297180176,-2.2968245,8.404805,-6.8795385,31.205833,7.7374334,-13.565137
3.95003604888916,-2.3035173,8.421196,-6.891739,31.26684,7.753406,-13.586849
3.970338821411133,-2.309907,8.437001,-6.9036303,31.32601,7.7689166,-13.60785
3.9905619621276855,-2.31602,8.452296,-6.9152737,31.383684,7.784071,-13.628257
4.01062273979187,-2.3219285,8.467195,-6.926691,31.440035,7.798875,-13.648152
4.030692100524902,-2.3276577,8.48175,-6.9379277,31.49529,7.8133974,-13.667625
4.050751447677612,-2.3332238,8.4960165,-6.949018,31.549654,7.82769,-13.6867485
4.070859909057617,-2.3332238,8.4960165,-6.949018,31.549654,7.82769,-13.6867485
4.091022729873657,-2.338655,8.510048,-6.9599895,31.603287,7.8417997,-13.705584
4.111140251159668,-2.3439703,8.523888,-6.9708643,31.656324,7.855758,-13.724181
4.131180286407471,-2.3492026,8.537586,-6.9816613,31.708868,7.8695755,-13.742591
4.151265382766724,-2.3543391,8.55115,-6.992406,31.761051,7.8833127,-13.760853
4.171376705169678,-2.3594055,8.564623,-7.003111,31.812963,7.8969855,-13.778996
4.191433906555176,-2.3644123,8.578023,-7.0137873,31.864672,7.9106073,-13.797054
4.211569309234619,-2.3693748,8.591371,-7.0244455,31.916224,7.924194,-13.815047
4.231686115264893,-2.3693748,8.591371,-7.0244455,31.916224,7.924194,-13.815047
4.25175142288208,-2.3742957,8.604683,-7.035095,31.96768,7.9377565,-13.832995
4.271846771240234,-2.3791838,8.617977,-7.0457435,32.01908,7.9513087,-13.85092
4.291907787322998,-2.3840437,8.631262,-7.0563984,32.070473,7.964861,-13.868833
4.312033653259277,-2.3888807,8.6445465,-7.0670643,32.12188,7.978421,-13.886745
4.332089424133301,-2.3936982,8.657842,-7.077748,32.173332,7.991996,-13.904671
4.352156400680542,-2.398499,8.671154,-7.08845,32.224846,8.005591,-13.922618
4.372217416763306,-2.4032898,8.684492,-7.0991783,32.276455,8.019214,-13.940595
4.392378807067871,-2.4032898,8.684492,-7.0991783,32.276455,8.019214,-13.940595
4.412394285202026,-2.4080691,8.697859,-7.109934,32.32817,8.032867,-13.958607
4.43251371383667,-2.4128394,8.711261,-7.12072,32.380005,8.0465555,-13.976662
4.452568769454956,-2.4176054,8.724703,-7.1315374,32.43197,8.060284,-13.994762
4.472656965255737,-2.4223676,8.738185,-7.1423903,32.48408,8.074053,-14.012917
4.492757081985474,-2.4271245,8.751712,-7.1532784,32.536343,8.087866,-14.031126
4.51283073425293,-2.431881,8.76529,-7.1642046,32.588768,8.101726,-14.049394
4.533276796340942,-2.4366379,8.778916,-7.175171,32.64136,8.115633,-14.067726
4.554234504699707,-2.4366379,8.778916,-7.175171,32.64136,8.115633,-14.067726
4.574333190917969,-2.441393,8.792596,-7.1861763,32.69413,8.129594,-14.086121
4.59452486038208,-2.4461465,8.806329,-7.1972227,32.747074,8.143604,-14.104582
4.614562034606934,-2.4509048,8.82012,-7.208313,32.80021,8.157669,-14.123112
4.634622812271118,-2.4556637,8.833967,-7.219444,32.853527,8.171787,-14.141712
4.655125141143799,-2.4604273,8.847873,-7.23062,32.907036,8.185963,-14.160382
4.6749114990234375,-2.465191,8.861837,-7.2418375,32.96073,8.2001915,-14.179128
4.694998264312744,-2.4699583,8.875863,-7.2531013,33.014633,8.214479,-14.197947
4.715069532394409,-2.4699583,8.875863,-7.2531013,33.014633,8.214479,-14.197947
4.735178470611572,-2.47473,8.889952,-7.264411,33.06873,8.228826,-14.216841
4.755362033843994,-2.479506,8.904102,-7.275765,33.123028,8.24323,-14.235811
4.7948243618011475,-2.479506,8.904102,-7.275765,33.123028,8.24323,-14.235811
4.814927816390991,-2.4842854,8.918315,-7.2871647,33.177525,8.257693,-14.25486
4.834991216659546,-2.489069,8.932592,-7.2986107,33.23223,8.272217,-14.273985
4.855084180831909,-2.4938588,8.946934,-7.310104,33.28714,8.286802,-14.293189
4.875158786773682,-2.4986525,8.96134,-7.321644,33.342255,8.301449,-14.312473
4.895253896713257,-2.5034509,8.975813,-7.333231,33.397583,8.316156,-14.331839
4.9153501987457275,-2.5082555,8.990353,-7.344866,33.45312,8.330927,-14.351284
4.93541693687439,-2.5082555,8.990353,-7.344866,33.45312,8.330927,-14.351284
4.955599546432495,-2.5130653,9.004959,-7.3565474,33.508865,8.345759,-14.370811
4.975752830505371,-2.5178819,9.019632,-7.3682785,33.564827,8.360656,-14.390421
4.995774030685425,-2.5227036,9.034375,-7.3800573,33.621,8.375616,-14.410113
5.015918731689453,-2.527534,9.049187,-7.391885,33.67739,8.39064,-14.429892
5.035979747772217,-2.5323672,9.064067,-7.40376,33.73399,8.405729,-14.449752
5.056208848953247,-2.537208,9.079015,-7.4156847,33.790806,8.420884,-14.469696
5.0761637687683105,-2.542057,9.094034,-7.4276567,33.847843,8.436104,-14.489721
5.096567392349243,-2.542057,9.094034,-7.4276567,33.847843,8.436104,-14.489721
5.1166698932647705,-2.5469155,9.109122,-7.4396763,33.905087,8.451386,-14.50983
5.13674521446228,-2.5517802,9.124282,-7.451742,33.962547,8.466735,-14.530019
5.156883716583252,-2.5566564,9.139511,-7.463855,34.02022,8.482147,-14.550287
5.177216291427612,-2.5615401,9.154811,-7.476015,34.07811,8.497625,-14.5706415
5.197366714477539,-2.5664353,9.17018,-7.48822,34.1362,8.513165,-14.591072
5.217467546463013,-2.571341,9.185617,-7.500471,34.194496,8.528769,-14.611584
5.237446546554565,-2.5762563,9.201126,-7.512768,34.253,8.5444355,-14.6321745
5.257841348648071,-2.5762563,9.201126,-7.512768,34.253,8.5444355,-14.6321745
5.277967214584351,-2.581181,9.216704,-7.5251093,34.311707,8.5601635,-14.652845
5.2980828285217285,-2.5861144,9.232352,-7.5374956,34.370617,8.575955,-14.673597
5.318137884140015,-2.5910616,9.248072,-7.549928,34.42973,8.591809,-14.694428
5.338242530822754,-2.596015,9.26386,-7.5624056,34.489048,8.607725,-14.71534
5.358297824859619,-2.6009798,9.279718,-7.5749283,34.54857,8.623708,-14.736332
5.378404855728149,-2.6059542,9.295649,-7.587497,34.60829,8.639752,-14.757404
5.398756980895996,-2.610938,9.31165,-7.6001115,34.66822,8.655861,-14.778556
5.418898105621338,-2.610938,9.31165,-7.6001115,34.66822,8.655861,-14.778556
5.43895959854126,-2.6159334,9.327722,-7.612769,34.72835,8.672032,-14.7997875
5.4590606689453125,-2.6209393,9.3438635,-7.625473,34.78868,8.688268,-14.821102
5.47993540763855,-2.6259527,9.360079,-7.6382227,34.84922,8.704567,-14.842497
5.499760389328003,-2.6309557,9.376345,-7.6510224,34.90996,8.720957,-14.863964
5.519899606704712,-2.6359882,9.392695,-7.663859,34.9709,8.737389,-14.88551
5.539930582046509,-2.6410365,9.40912,-7.6767383,35.03202,8.753879,-14.907137
5.560795068740845,-2.6410365,9.40912,-7.6767383,35.03202,8.753879,-14.907137
5.580918788909912,-2.646093,9.425613,-7.689662,35.093338,8.770428,-14.928844
5.6009910106658936,-2.6511588,9.442181,-7.7026315,35.15486,8.787045,-14.950634
5.621081829071045,-2.6562338,9.45882,-7.7156467,35.21658,8.803726,-14.9725065
5.641210556030273,-2.6613202,9.4755335,-7.7287073,35.278507,8.820473,-14.994461
5.661340236663818,-2.6664162,9.492319,-7.7418137,35.34064,8.837284,-15.016499
5.6813976764678955,-2.6715245,9.50918,-7.7549653,35.402973,8.854163,-15.038617
5.7014265060424805,-2.676642,9.5261135,-7.768162,35.465508,8.871107,-15.060818
5.7216880321502686,-2.676642,9.5261135,-7.768162,35.465508,8.871107,-15.060818
5.741817951202393,-2.6817718,9.543121,-7.7814045,35.52825,8.888118,-15.083102
5.761891603469849,-2.6869116,9.5602045,-7.7946916,35.591194,8.905194,-15.10547
5.782055377960205,-2.6920629,9.577362,-7.8080244,35.654335,8.9223385,-15.12792
5.802063465118408,-2.6972246,9.594594,-7.821403,35.717686,8.9395485,-15.150454
5.822167158126831,-2.7023997,9.611898,-7.8348303,35.781242,8.956827,-15.173076
5.842248201370239,-2.7075915,9.629275,-7.8483057,35.84501,8.97417,-15.195787
5.862354278564453,-2.7127986,9.646721,-7.8618336,35.909004,8.99158,-15.218591
5.882389545440674,-2.7127986,9.646721,-7.8618336,35.909004,8.99158,-15.218591
5.902554273605347,-2.7180257,9.664243,-7.875414,35.973213,9.009058,-15.2414875
5.922629117965698,-2.7232733,9.681836,-7.889044,36.037647,9.026604,-15.264481
5.9426867961883545,-2.7285385,9.699504,-7.9027286,36.10231,9.044218,-15.28757
5.962766885757446,-2.7338247,9.717247,-7.9164643,36.1672,9.061903,-15.310755
5.982897520065308,-2.7391334,9.735063,-7.930254,36.23232,9.0796585,-15.33404
6.002947568893433,-2.7444615,9.752958,-7.9440956,36.29767,9.097483,-15.357422
6.0230512619018555,-2.7498116,9.770926,-7.957991,36.36325,9.115378,-15.380901
6.043134927749634,-2.7498116,9.770926,-7.957991,36.36325,9.115378,-15.380901
6.063237905502319,-2.7551823,9.788972,-7.971938,36.429058,9.133345,-15.40448
6.08333945274353,-2.7605748,9.807096,-7.985939,36.49511,9.151384,-15.428156
6.103428363800049,-2.765986,9.8253,-7.9999924,36.56139,9.169496,-15.451932
6.124235391616821,-2.7714167,9.843586,-8.014099,36.627914,9.187679,-15.475807
6.144041299819946,-2.7768712,9.861953,-8.028257,36.694675,9.205936,-15.499783
6.164124250411987,-2.7823443,9.880396,-8.042469,36.76168,9.224264,-15.523857
6.184189796447754,-2.7878413,9.898923,-8.056735,36.828926,9.242666,-15.548036
6.20459771156311,-2.7878413,9.898923,-8.056735,36.828926,9.242666,-15.548036
6.224771976470947,-2.7933588,9.917525,-8.071053,36.896416,9.261139,-15.572315
6.244802236557007,-2.7989001,9.936211,-8.085424,36.96415,9.279688,-15.596693
6.264889478683472,-2.804463,9.954975,-8.099849,37.032124,9.298307,-15.621174
6.284970998764038,-2.8100348,9.97383,-8.114336,37.100403,9.317015,-15.645773
6.305050849914551,-2.8156452,9.992764,-8.128871,37.16889,9.335791,-15.67047
6.3251471519470215,-2.821279,10.011777,-8.143458,37.237617,9.354637,-15.695265
6.345223426818848,-2.8269086,10.030855,-8.1581135,37.306583,9.373588,-15.720165
6.365291595458984,-2.8269086,10.030855,-8.1581135,37.306583,9.373588,-15.720165
6.385378837585449,-2.832581,10.050024,-8.172807,37.375797,9.392587,-15.745159
6.405474662780762,-2.8382874,10.069272,-8.187549,37.44523,9.41165,-15.770252
6.425546646118164,-2.844016,10.088598,-8.202342,37.514893,9.430781,-15.795448
6.4458534717559814,-2.849769,10.108004,-8.217186,37.584793,9.449984,-15.820742
6.465773820877075,-2.8555455,10.127487,-8.232082,37.65493,9.469259,-15.846138
6.485856533050537,-2.8613477,10.14705,-8.247031,37.725307,9.488607,-15.871636
6.505939722061157,-2.8671718,10.166693,-8.262032,37.79592,9.508027,-15.897235
6.526024580001831,-2.873022,10.186415,-8.277082,37.86677,9.527519,-15.922937
6.546258449554443,-2.873022,10.186415,-8.277082,37.86677,9.527519,-15.922937
6.56642484664917,-2.8788996,10.206218,-8.292188,37.937866,9.547084,-15.948742
6.586465120315552,-2.8848119,10.226088,-8.307322,38.009136,9.566696,-15.974619
6.606561183929443,-2.8907442,10.246031,-8.3225155,38.080643,9.58639,-16.000607
6.6266655921936035,-2.8966942,10.266055,-8.337766,38.152397,9.606158,-16.026697
6.646728038787842,-2.9026694,10.286161,-8.353067,38.224403,9.626002,-16.052895
6.6669557094573975,-2.9086728,10.30635,-8.368423,38.296654,9.645921,-16.079199
6.687438249588013,-2.9086728,10.30635,-8.368423,38.296654,9.645921,-16.079199
6.707552194595337,-2.914702,10.326619,-8.383831,38.36914,9.665914,-16.105604
6.727663278579712,-2.9207602,10.346969,-8.399291,38.44187,9.685981,-16.132114
6.748706579208374,-2.926845,10.367398,-8.4148035,38.51484,9.70612,-16.15873
6.768761873245239,-2.926845,10.367398,-8.4148035,38.51484,9.70612,-16.15873
6.788827180862427,-2.932961,10.387909,-8.430366,38.58805,9.726333,-16.185452
6.808927059173584,-2.9391031,10.408499,-8.445982,38.6615,9.74662,-16.212275
6.829460620880127,-2.9452739,10.429172,-8.461647,38.73518,9.766979,-16.2392
6.849398851394653,-2.9452739,10.429172,-8.461647,38.73518,9.766979,-16.2392
6.86951470375061,-2.9514704,10.449921,-8.477365,38.809105,9.78741,-16.266232
6.8895673751831055,-2.9577017,10.470751,-8.4931345,38.883266,9.807916,-16.293365
6.909664630889893,-2.9639583,10.491658,-8.508952,38.957657,9.828491,-16.320602
6.929858922958374,-2.9702444,10.512647,-8.524821,39.032288,9.84914,-16.347942
6.950079441070557,-2.9765086,10.533698,-8.5407715,39.107155,9.869921,-16.375397
6.970100164413452,-2.9828362,10.554846,-8.556749,39.182293,9.890733,-16.402946
6.990515470504761,-2.9892144,10.576075,-8.57277,39.25763,9.911605,-16.430595
7.01056694984436,-2.9892144,10.576075,-8.57277,39.25763,9.911605,-16.430595
7.03072452545166,-2.995626,10.59738,-8.588839,39.33319,9.932541,-16.458347
7.050753116607666,-3.002067,10.618762,-8.604958,39.40898,9.953549,-16.4862
7.070851564407349,-3.0085373,10.640222,-8.621124,39.485,9.9746275,-16.514154
7.090930938720703,-3.0150375,10.661759,-8.6373415,39.561245,9.995775,-16.542212
7.1110310554504395,-3.0215673,10.683372,-8.653605,39.63772,10.016994,-16.57037
7.131117820739746,-3.0281305,10.705062,-8.669921,39.714424,10.038286,-16.598629
7.151275634765625,-3.0347219,10.7268305,-8.686282,39.79135,10.059645,-16.626987
7.1713786125183105,-3.0347219,10.7268305,-8.686282,39.79135,10.059645,-16.626987
7.191589593887329,-3.04135,10.748675,-8.702692,39.868507,10.081075,-16.655449
7.21158242225647,-3.0480084,10.7705965,-8.719151,39.945885,10.102573,-16.68401
7.231716632843018,-3.054699,10.792594,-8.735656,40.02349,10.124144,-16.712673
7.251790761947632,-3.0614266,10.814654,-8.752179,40.101265,10.145754,-16.741398
7.271860837936401,-3.068193,10.8367815,-8.7687645,40.179245,10.167442,-16.770233
7.292011976242065,-3.0749793,10.858984,-8.785397,40.257446,10.189201,-16.799168
7.3122398853302,-3.0749793,10.858984,-8.785397,40.257446,10.189201,-16.799168
7.332290887832642,-3.0817995,10.881263,-8.802079,40.335876,10.211031,-16.828205
7.352393627166748,-3.0886512,10.903618,-8.818808,40.414528,10.232931,-16.857346
7.372463703155518,-3.0955353,10.926049,-8.835586,40.49341,10.254902,-16.886585
7.39257287979126,-3.1024551,10.948559,-8.852407,40.57251,10.276938,-16.915924
7.412673473358154,-3.1094093,10.971142,-8.86928,40.651833,10.299047,-16.945368
7.43291163444519,-3.116394,10.993798,-8.886195,40.731373,10.321221,-16.974909
7.452970743179321,-3.1234145,11.016526,-8.903152,40.811127,10.343463,-17.004543
7.472927570343018,-3.1234145,11.016526,-8.903152,40.811127,10.343463,-17.004543
7.4931640625,-3.130468,11.039328,-8.9201565,40.89109,10.365768,-17.034273
7.5131707191467285,-3.137465,11.06218,-8.937265,40.971268,10.388245,-17.064133
7.533255577087402,-3.144547,11.085129,-8.954374,41.051743,10.410721,-17.094063
7.55337381362915,-3.1517034,11.108154,-8.971512,41.132362,10.433237,-17.124088
7.5734703540802,-3.1588964,11.131245,-8.98869,41.213173,10.455808,-17.154207
7.593522310256958,-3.166121,11.154402,-9.005909,41.294193,10.478439,-17.184418
7.613597631454468,-3.173377,11.177629,-9.02317,41.375412,10.501134,-17.214722
7.6336510181427,-3.173377,11.177629,-9.02317,41.375412,10.501134,-17.214722
7.653797626495361,-3.1806655,11.200925,-9.040474,41.45682,10.523889,-17.245117
7.673979997634888,-3.1879873,11.224287,-9.057817,41.538433,10.546707,-17.275604
7.693961143493652,-3.195345,11.247715,-9.075203,41.620247,10.569587,-17.306183
7.714029550552368,-3.2027345,11.271211,-9.092627,41.70225,10.592527,-17.336853
7.734123229980469,-3.2101593,11.294772,-9.11009,41.78444,10.615526,-17.367609
7.75420069694519,-3.2176204,11.3183975,-9.127592,41.866814,10.638584,-17.398453
7.7742979526519775,-3.2251163,11.342085,-9.14513,41.949368,10.661697,-17.429382
7.794354677200317,-3.232644,11.365832,-9.162704,42.032097,10.684868,-17.460396
7.814495325088501,-3.232644,11.365832,-9.162704,42.032097,10.684868,-17.460396
7.834557771682739,-3.2402024,11.389619,-9.180269,42.114925,10.708048,-17.491438
7.854900121688843,-3.2478085,11.41346,-9.197895,42.197884,10.731302,-17.52258
7.874853610992432,-3.2554336,11.437355,-9.215561,42.281036,10.754614,-17.553806
7.894944190979004,-3.2630887,11.461312,-9.233261,42.36436,10.77798,-17.58512
7.915027141571045,-3.2707777,11.485328,-9.2509985,42.44786,10.801403,-17.616514
7.935113906860352,-3.2785034,11.509402,-9.268768,42.53152,10.824877,-17.647987
7.955406665802002,-3.286261,11.533532,-9.286572,42.615345,10.848403,-17.679543
7.975578784942627,-3.286261,11.533532,-9.286572,42.615345,10.848403,-17.679543
7.9957334995269775,-3.2940574,11.557721,-9.304409,42.699326,10.871983,-17.711174
8.015867948532104,-3.3018866,11.581963,-9.322276,42.783463,10.895611,-17.742886
8.035896301269531,-3.309752,11.606258,-9.340176,42.867752,10.919289,-17.774672
8.05599594116211,-3.3176541,11.630607,-9.358105,42.952194,10.943015,-17.806532
8.076076984405518,-3.3255882,11.655006,-9.376064,43.036774,10.966788,-17.838467
8.096146821975708,-3.3335576,11.679458,-9.3940525,43.121502,10.990609,-17.870474
8.116228103637695,-3.3415656,11.703959,-9.412071,43.206367,11.014476,-17.902554
8.136500120162964,-3.349606,11.72851,-9.430117,43.291374,11.038387,-17.934704
8.156591892242432,-3.349606,11.72851,-9.430117,43.291374,11.038387,-17.934704
8.176670551300049,-3.3576808,11.753109,-9.44819,43.37652,11.062345,-17.966925
8.196754932403564,-3.3657904,11.777758,-9.4662895,43.461792,11.086344,-17.999214
8.217059850692749,-3.3739376,11.802449,-9.484417,43.547195,11.110388,-18.03157
8.236976861953735,-3.3821173,11.8271885,-9.502568,43.632725,11.134474,-18.063995
8.257066011428833,-3.3903322,11.851974,-9.520744,43.718384,11.158602,-18.096483
8.277138710021973,-3.3985844,11.876805,-9.538946,43.804153,11.182772,-18.12904
8.297341108322144,-3.40687,11.901677,-9.557173,43.890057,11.20698,-18.16166
8.317479848861694,-3.40687,11.901677,-9.557173,43.890057,11.20698,-18.16166
8.337810516357422,-3.4151917,11.926592,-9.57542,43.97607,11.231228,-18.194344
8.357744455337524,-3.4235477,11.95155,-9.593695,44.0622,11.255518,-18.227089
8.377803087234497,-3.43194,11.976547,-9.611988,44.148445,11.279841,-18.2599
8.397902250289917,-3.4403687,12.001586,-9.630302,44.234795,11.304204,-18.292765
8.417964935302734,-3.4488373,12.026671,-9.648645,44.321274,11.328609,-18.325703
8.43808102607727,-3.457336,12.051781,-9.6669855,44.4078,11.353027,-18.35867
8.458105564117432,-3.4658732,12.076928,-9.685362,44.49444,11.377495,-18.391705
8.478220224380493,-3.4658732,12.076928,-9.685362,44.49444,11.377495,-18.391705
8.498316049575806,-3.474442,12.102118,-9.703762,44.581196,11.4019985,-18.424809
8.518465280532837,-3.483046,12.127347,-9.722184,44.668068,11.426544,-18.457975
8.53860068321228,-3.4916887,12.152617,-9.740628,44.75505,11.451126,-18.491201
8.558626413345337,-3.5003672,12.177922,-9.75909,44.842133,11.475741,-18.524488
8.579029321670532,-3.509087,12.20327,-9.777573,44.929317,11.500392,-18.557833
8.598897695541382,-3.5178418,12.22865,-9.796073,45.016598,11.525075,-18.591232
8.61896824836731,-3.5266342,12.254064,-9.814591,45.10397,11.54979,-18.624687
8.639235734939575,-3.5266342,12.254064,-9.814591,45.10397,11.54979,-18.624687
8.659383296966553,-3.535462,12.2795105,-9.833124,45.19143,11.574538,-18.658195
8.679444313049316,-3.5443282,12.304988,-9.851675,45.27897,11.599314,-18.691753
8.699527978897095,-3.5532308,12.330497,-9.870239,45.366585,11.624119,-18.725365
8.71979808807373,-3.56217,12.356037,-9.888817,45.454285,11.64895,-18.759022
8.739858865737915,-3.5711522,12.381604,-9.907404,45.542053,11.6738,-18.792725
8.760127305984497,-3.580165,12.407197,-9.926006,45.629887,11.698685,-18.826477
8.780195713043213,-3.5892105,12.432815,-9.944625,45.71779,11.723596,-18.860273
8.800280094146729,-3.5982928,12.458459,-9.963253,45.80575,11.7485285,-18.894114
8.820433855056763,-3.5982928,12.458459,-9.963253,45.80575,11.7485285,-18.894114
8.840506553649902,-3.6074147,12.484126,-9.981891,45.893776,11.773485,-18.927998
8.860643148422241,-3.6165714,12.509816,-10.000539,45.981853,11.798464,-18.961922
8.880751848220825,-3.6257448,12.53548,-10.01911,46.06984,11.823389,-18.995787
8.900803089141846,-3.6349797,12.561155,-10.037729,46.157806,11.848357,-19.029705
8.9208984375,-3.6442275,12.586848,-10.056362,46.245834,11.8733425,-19.063671
8.940973281860352,-3.6535063,12.612559,-10.075005,46.333927,11.89835,-19.097675
8.961281061172485,-3.6628199,12.63829,-10.093655,46.422066,11.923378,-19.131718
8.981193542480469,-3.6628199,12.63829,-10.093655,46.422066,11.923378,-19.131718
9.001420021057129,-3.6721706,12.664044,-10.112312,46.510246,11.948424,-19.165796
9.021442413330078,-3.681561,12.689813,-10.130975,46.598465,11.973487,-19.19991
9.041515588760376,-3.6909828,12.715595,-10.14964,46.686714,11.998567,-19.234055
9.061599731445312,-3.7004423,12.741393,-10.16831,46.774994,12.023658,-19.26823
9.081676483154297,-3.7099376,12.767203,-10.186983,46.863297,12.048765,-19.302437
9.10179352760315,-3.7194676,12.793025,-10.205657,46.951622,12.073881,-19.336668
9.12204122543335,-3.7194676,12.793025,-10.205657,46.951622,12.073881,-19.336668
9.142155408859253,-3.729033,12.818856,-10.224332,47.039955,12.09901,-19.370926
9.162243604660034,-3.7386322,12.844695,-10.243006,47.128304,12.124148,-19.405207
9.182324886322021,-3.7482705,12.8705435,-10.261677,47.216663,12.149288,-19.439512
9.202402114868164,-3.757944,12.896398,-10.280348,47.30502,12.17444,-19.473839
9.222491264343262,-3.7676473,12.9222555,-10.299017,47.39338,12.1996,-19.508184
9.242591857910156,-3.7773838,12.948118,-10.317684,47.481743,12.224768,-19.542551
9.26265573501587,-3.7871528,12.973981,-10.336348,47.570087,12.249936,-19.576931
9.28271746635437,-3.7970033,12.999859,-10.354982,47.65841,12.275061,-19.611317
9.303153276443481,-3.7970033,12.999859,-10.354982,47.65841,12.275061,-19.611317
9.323264837265015,-3.806857,13.0257225,-10.373625,47.746696,12.300215,-19.645721
9.343628168106079,-3.816729,13.051581,-10.392267,47.834984,12.325382,-19.68014
9.363598823547363,-3.8266344,13.077441,-10.410902,47.923252,12.350551,-19.71457
9.383618593215942,-3.8365731,13.103296,-10.429529,48.011494,12.375719,-19.749006
9.403717279434204,-3.8465443,13.129146,-10.448146,48.0997,12.400885,-19.783451
9.423804521560669,-3.856545,13.154987,-10.466753,48.18787,12.426048,-19.8179
9.452009916305542,-3.856545,13.154987,-10.466753,48.18787,12.426048,-19.8179
9.484667778015137,-3.856545,13.154987,-10.466753,48.18787,12.426048,-19.8179
9.504719257354736,-3.856545,13.154987,-10.466753,48.18787,12.426048,-19.8179
9.524819374084473,-3.86652,13.180801,-10.485377,48.27601,12.451266,-19.852364
9.544922351837158,-3.8765645,13.206628,-10.503972,48.36414,12.476441,-19.886822
9.56502389907837,-3.886661,13.232444,-10.522545,48.45218,12.501596,-19.921276
9.585052967071533,-3.8967896,13.2582445,-10.541103,48.54016,12.526737,-19.955729
9.605733394622803,-3.8967896,13.2582445,-10.541103,48.54016,12.526737,-19.955729
9.625859498977661,-3.906948,13.28403,-10.559645,48.628082,12.551867,-19.990177
9.646214008331299,-3.9171348,13.309802,-10.578171,48.715942,12.576985,-20.024622
9.666131496429443,-3.9273524,13.335557,-10.596681,48.803734,12.60209,-20.05906
9.68618369102478,-3.9375997,13.361293,-10.615173,48.89145,12.627183,-20.093487
9.706631183624268,-3.947877,13.387009,-10.633646,48.979084,12.652262,-20.1279
9.726589679718018,-3.9581819,13.412703,-10.6521,49.066635,12.677324,-20.162302
9.748156547546387,-3.968512,13.4383745,-10.670532,49.154106,12.702368,-20.196688
9.76822805404663,-3.968512,13.4383745,-10.670532,49.154106,12.702368,-20.196688
9.788313388824463,-3.9788756,13.464024,-10.688944,49.241478,12.727392,-20.231056
9.808399200439453,-3.9892635,13.489645,-10.707331,49.32876,12.752399,-20.265404
9.828763246536255,-3.9892635,13.489645,-10.707331,49.32876,12.752399,-20.265404
9.848958253860474,-3.9996805,13.515239,-10.725695,49.41593,12.777383,-20.29973
9.869248867034912,-4.0101237,13.540804,-10.744036,49.503,12.802346,-20.334034
9.889289617538452,-4.0205946,13.566337,-10.762347,49.58995,12.827284,-20.368309
9.909540891647339,-4.031089,13.591838,-10.780632,49.67679,12.852197,-20.402557
9.92970895767212,-4.0416107,13.617306,-10.798889,49.763496,12.877081,-20.436775
9.949764490127563,-4.052155,13.64274,-10.817118,49.850082,12.901938,-20.470959
9.96986722946167,-4.0627265,13.668136,-10.835316,49.93653,12.926766,-20.505112
9.989972352981567,-4.0627265,13.668136,-10.835316,49.93653,12.926766,-20.505112
10.010064840316772,-4.073321,13.693492,-10.853483,50.02285,12.951565,-20.539227
10.030580520629883,-4.0839415,13.718808,-10.871618,50.109024,12.976331,-20.573305
10.05059814453125,-4.0940475,13.742679,-10.887442,50.190887,12.999098,-20.604626
10.070777177810669,-4.101619,13.757822,-10.890584,50.24583,13.010587,-20.619995
10.090740442276001,-4.1102185,13.765372,-10.889921,50.271324,13.016453,-20.625698
10.110798120498657,-4.1163907,13.766915,-10.887297,50.279373,13.017847,-20.625599
10.131086826324463,-4.1201034,13.7647,-10.883831,50.277023,13.016855,-20.622143
10.15123438835144,-4.1201034,13.7647,-10.883831,50.277023,13.016855,-20.622143
10.171283721923828,-4.1221056,13.760409,-10.880278,50.269417,13.014853,-20.617115
10.191376209259033,-4.1231046,13.755264,-10.87711,50.260136,13.012743,-20.611803
10.211447954177856,-4.12364,13.750124,-10.87464,50.251667,13.01112,-20.607113
10.231540203094482,-4.124087,13.745574,-10.873065,50.24569,13.010376,-20.603651
10.251628398895264,-4.1247,13.742,-10.87249,50.2433,13.0107565,-20.601795
10.271709442138672,-4.125656,13.73964,-10.87296,50.24514,13.012397,-20.601768
10.291913509368896,-4.127066,13.738624,-10.874481,50.251534,13.015356,-20.603672
10.312098264694214,-4.127066,13.738624,-10.874481,50.251534,13.015356,-20.603672
10.332177639007568,-4.122397,13.737763,-10.881758,50.261723,13.027562,-20.610233
10.352280139923096,-4.1129146,13.73813,-10.892946,50.283012,13.046457,-20.62018
10.37232255935669,-4.104595,13.740888,-10.904743,50.313473,13.067023,-20.631872
10.392412662506104,-4.099367,13.745675,-10.916349,50.34855,13.0875845,-20.64494
10.412488222122192,-4.096752,13.751887,-10.927675,50.386593,13.107574,-20.659122
10.432704210281372,-4.096082,13.759143,-10.938742,50.42678,13.12694,-20.674177
10.452691793441772,-4.096891,13.767186,-10.94959,50.468597,13.145756,-20.689903
10.473169326782227,-4.096891,13.767186,-10.94959,50.468597,13.145756,-20.689903
10.493268251419067,-4.098866,13.77584,-10.960251,50.511635,13.164107,-20.706139
10.513370275497437,-4.101768,13.78496,-10.970739,50.555576,13.18206,-20.722754
10.533466577529907,-4.1054254,13.794436,-10.981082,50.600178,13.199678,-20.739647
10.553537130355835,-4.109691,13.804183,-10.99129,50.645233,13.217001,-20.756742
10.573646306991577,-4.11445,13.814132,-11.001378,50.690605,13.234075,-20.773977
10.593756198883057,-4.119613,13.824225,-11.011359,50.736164,13.250932,-20.791306
10.613859176635742,-5.2881413,12.861011,-10.016571,49.139412,13.211504,-19.649323
10.633965253829956,-5.2881413,12.861011,-10.016571,49.139412,13.211504,-19.649323
10.654041290283203,-5.7350335,11.826237,-9.323891,45.900772,12.680771,-18.31132
10.6742422580719,-5.6582937,10.731736,-8.664541,42.50782,11.953897,-16.891537
10.694297790527344,-5.419497,9.673575,-8.043742,39.214176,11.205952,-15.506867
10.71436619758606,-5.1433,8.671797,-7.4586563,36.101147,10.482193,-14.189234
10.734522342681885,-4.8709,7.7307625,-6.905673,33.18022,9.795416,-12.947371
10.754543542861938,-4.611399,6.8450303,-6.3799176,30.442957,9.147603,-11.775135
10.774853467941284,-4.366791,6.002094,-5.8760147,27.865,8.537258,-10.662304
10.795206308364868,-4.366791,6.002094,-5.8760147,27.865,8.537258,-10.662304
10.815319299697876,-4.1274257,5.1854525,-5.3898525,25.425568,7.9572654,-9.596947
10.835463523864746,-3.8892934,4.395545,-4.927471,23.121025,7.4022236,-8.568298
10.855506658554077,-3.6574047,3.6384814,-4.4885836,20.958107,6.870912,-7.5608225
10.875858068466187,-3.453021,2.9193544,-4.0760837,18.933619,6.3686666,-6.548163
10.895949125289917,-3.2920003,2.246786,-3.708589,17.051283,5.912916,-5.5182486
10.916015148162842,-3.1493444,1.6306254,-3.3709908,15.286697,5.520238,-4.4765606
10.936089754104614,-2.8123899,1.0183471,-3.0796084,13.531703,5.1682796,-3.3841636
10.957123279571533,-2.8123899,1.0183471,-3.0796084,13.531703,5.1682796,-3.3841636
10.977370977401733,-2.4912658,0.48694023,-2.7647157,11.974568,5.0017123,-2.2900462
10.997427701950073,-2.075802,-0.09966794,-2.481392,10.5612955,5.0330887,-1.160907
11.017525911331177,-1.199899,-0.8188757,-2.076034,9.09085,5.106064,0.29986343
11.03760313987732,-0.4969233,-1.5400671,-1.6700351,7.211905,5.037524,1.7964343
11.057697534561157,-0.0686415,-2.1342406,-1.5047408,5.7835083,5.278699,2.9011142
11.078102111816406,0.09736757,-2.2227294,-1.451394,5.1688256,5.450903,3.4718018
11.097971439361572,0.047366362,-2.19402,-1.4190003,4.856733,5.4957724,3.764492
11.11815094947815,-0.03264262,-2.181448,-1.4105518,4.6605215,5.470891,3.9315145
11.138261318206787,-0.03264262,-2.181448,-1.4105518,4.6605215,5.470891,3.9315145
11.15835452079773,-0.08723883,-2.1761177,-1.409736,4.535233,5.4350634,4.028607
11.178507328033447,-0.11872308,-2.173127,-1.4099469,4.4592695,5.4091578,4.079566
11.19851565361023,-0.13434131,-2.1717067,-1.4103667,4.418172,5.393626,4.0990777
11.21859884262085,-0.13953747,-2.171434,-1.410906,4.400861,5.385289,4.097455
11.238710880279541,-0.13791706,-2.171944,-1.4115242,4.3993835,5.3815923,4.081792
11.258962631225586,-0.13184251,-2.172974,-1.4121869,4.4083314,5.3808885,4.056885
11.27912187576294,0.53994375,-1.8089064,-1.1509049,4.8541102,5.45362,2.6872644
11.299198865890503,0.53994375,-1.8089064,-1.1509049,4.8541102,5.45362,2.6872644
11.319360256195068,1.0317088,-1.6133755,-1.2847397,6.4167566,5.480474,1.3311741
11.339431762695312,1.2501339,-1.0787253,-1.8263429,8.611772,5.473819,-0.2520999
11.360186576843262,1.0230631,0.11201069,-2.6639447,11.308524,5.3174763,-2.555867
11.380192041397095,1.1720009,1.243644,-3.588636,14.510202,5.313568,-5.07385
11.400261163711548,-0.4222754,1.1492168,-3.413239,15.337697,5.670871,-4.822546
11.42030143737793,-1.4695896,0.97056663,-3.1777215,14.486466,5.6941385,-4.1432853
11.440890073776245,-1.8689909,0.636881,-2.9816992,13.371007,5.4702635,-3.3231335
11.460779190063477,-1.8689909,0.636881,-2.9816992,13.371007,5.4702635,-3.3231335
11.480829000473022,-1.8708693,0.2635611,-2.761639,12.071226,5.2659464,-2.4046156
11.50104284286499,-1.7343354,-0.1796116,-2.5135465,10.771266,5.216284,-1.4763184
11.521046161651611,-1.0700396,-0.79644144,-2.163336,9.705083,5.191464,-0.24247888
11.541181564331055,-0.43494427,-1.3388697,-1.722414,7.950803,5.118505,1.0740614
11.56122875213623,0.063580945,-1.963956,-1.5090575,6.5237083,5.2671185,2.179832
11.581300973892212,0.30661878,-2.2418709,-1.4307189,5.6805553,5.4775214,2.8669984
11.60137677192688,0.33125642,-2.2403793,-1.3929152,5.2988963,5.568663,3.2299573
11.622192621231079,0.33125642,-2.2403793,-1.3929152,5.2988963,5.568663,3.2299573
11.642282724380493,0.251361,-2.2189808,-1.3754189,5.056819,5.567513,3.436242
11.662364482879639,0.17870353,-2.2085795,-1.3723884,4.8902645,5.529896,3.5613487
11.68265986442566,0.73302525,-1.7384931,-1.1620249,5.501063,5.4904633,2.2221444
11.702603816986084,1.1486222,-1.3821965,-1.4770932,7.2855597,5.4223375,0.7163323
11.722697496414185,1.3081653,-0.572448,-2.195075,9.915377,5.3397675,-1.2151214
11.742945194244385,1.3431414,0.73247933,-3.122964,13.059556,5.1574235,-3.7281706
11.763208866119385,-0.17750962,0.51929367,-3.029573,13.447463,5.5710974,-3.836542
11.78326416015625,-0.17750962,0.51929367,-3.029573,13.447463,5.5710974,-3.836542
11.803397417068481,-0.99261135,0.35693225,-2.8964305,12.9989805,5.6152134,-3.3016899
