liuyurong129/humanoid-gym/humanoid/data/robot2_actual_20250621-221253.csv
timestamp,joint_1,joint_2,joint_3,joint_4,joint_5,joint_6
0.0003211498260498047,0.0,0.0,0.0,0.0,0.0,0.0
0.0204775333404541,0.0,0.0,0.0,0.0,0.0,0.0
0.04063725471496582,0.0,0.0,0.0,0.0,0.0,0.0
0.06066250801086426,0.0,0.0,0.0,0.0,0.0,0.0
0.08074259757995605,0.0,0.0,0.0,0.0,0.0,0.0
0.10092616081237793,0.0,0.0,0.0,0.0,0.0,0.0
0.12100100517272949,-0.1649045890319032,-0.2027255246508302,-0.016530405678853957,0.37160542828772636,-0.15643658631584986,-0.03329039434076829
0.14205217361450195,0.1521315370886321,-0.13190746103743148,-0.029919633171267602,0.863400110813408,0.20389113697361333,0.5447448272320753
0.1621997356414795,-0.17708166447893262,-0.10171667049743718,-0.03562766985414084,1.0730604614441377,0.31248965136045603,0.7911700547764425
0.18240809440612793,-0.21703620143657637,-0.3630904573865909,-0.04538841258185408,1.347202636448518,0.40776921944291705,1.2125572811182932
0.20239710807800293,-0.3016992535244234,-0.5435033085876566,0.22066243441557076,1.5776955574590759,0.5389953569726097,1.5538810398912415
0.2227330207824707,-0.5855293258826882,-0.4721529911764842,0.4638532395808863,1.7159260574323054,0.659095262776831,1.699392891476357
0.24266934394836426,-0.07717875434516047,-0.3501439190276422,0.3591911308670273,1.9523001065201673,0.8644671626669429,1.9482182293944983
0.26271915435791016,-0.6591147926013996,-0.8460165834529447,0.27441481600229206,2.1437631639023897,0.6832793640436857,2.1497667013405763
0.2828083038330078,-0.5516893322836036,-0.6529734482367306,0.20574600096185658,2.2988479829615693,0.8840556270255848,2.313021114437532
0.3028740882873535,-1.0047949233357685,-0.4966084971735008,0.15012425962634954,2.424466866198871,1.046685066693834,2.445256937509145
0.32296085357666016,-0.7834606437480424,-0.42994766299516113,0.12641183366371458,2.478020593963917,1.1160164302723663,2.5016309509823453
0.3430607318878174,-0.8398337739383086,-0.5332859252020268,0.08586374028781356,2.569596681110773,0.9753345372555358,2.5980300150445896
0.36313533782958984,-0.940141618392671,-0.5952571544956033,0.05301958075374743,2.643772826561436,0.8873063948462292,2.6761153366455774
0.3839683532714844,-0.8234036590070992,-0.5187314249062492,0.03901766050725239,2.6753955439052923,0.9725757493733489,2.7094033903233687
0.4039285182952881,-1.2635569595497205,-0.38787239592923517,0.01507444609307517,2.7294703905632867,0.45718630817470873,2.7663251569510052
0.4239773750305176,-0.6263811982098066,-0.8765766040405301,-0.004319625238229027,2.7732710248942896,0.0397210347578911,1.932991823617672
0.4440901279449463,-1.1039687873284185,-0.6777270619197903,-0.020028896442965512,2.808749278143824,0.36277334172829206,2.075867530957317
0.46416449546813965,-1.3075718851786529,-0.5929543278643882,-0.02672600679866896,2.823874488182386,0.152497519944921,2.1691810502325555
0.48426151275634766,-1.1327331791084685,-0.7609929373027843,-0.038178065506921856,2.84973890136791,-0.2070743014905794,1.9488307305466226
0.5043380260467529,-1.043413895736953,-0.8658043018535265,-0.047454233060606706,2.870687934065289,-0.15033115685909815,1.8083384272539567
0.5246191024780273,-1.2530725022837563,-0.7622238676775458,-0.051408809754546037,2.8796192476855107,0.03870217412495364,1.9284045859738996
0.5446999073028564,-1.6115888638192135,-0.5851013206588871,-0.05817110326449441,2.8948918847488865,-0.29925050148459065,2.1337182270735853
0.5647749900817871,-0.908287100267965,-1.0363320557891487,-0.06364854720857847,2.9072628533354385,-0.5729924356427826,1.891426304520643
0.5850224494934082,-1.3323125308869646,-0.8071289778545612,0.5450446687950625,2.9172824019495356,-0.13352435946693494,1.914583363880925
0.6049301624298096,-1.4714588347178723,-0.6214743429538169,1.0380861817240008,2.925398590947013,0.2224490208966037,2.12252273645018
0.625115156173706,-1.1153130498673947,-0.8553269014275793,0.9255777162615106,2.9288587318523116,0.026204101773856597,2.2111697172433677
0.645402193069458,-0.6860773983631615,-0.942214738329503,0.7331879501718236,2.934774840762148,0.03862585699689722,2.3627578548156656
0.6653389930725098,-0.8434191875715349,-0.7308940710305251,0.5773522396391771,2.939567758301845,0.16918789403733775,2.4855435068694165
0.6855015754699707,-1.0730772375076383,-0.640804565579071,0.5109170156752594,2.9416106480659194,0.13357938511909878,2.537889576511332
0.7056021690368652,-1.4136184445400082,-0.4867516874020265,1.01044278269696,2.9451043457589643,0.4387981829398297,2.6274006964534387
0.7257359027862549,-0.8435520114170645,-0.36196887160329205,0.8019286375411309,2.947934520064761,0.6860265435396332,2.699904774081138
0.7458271980285645,-0.5907112453504426,-0.8555947954799854,0.63303216803136,2.950226961252456,0.8862814848440674,2.7586330533251395
0.7659451961517334,-0.8456401175553272,-0.7530353676872908,0.5610289512282239,2.9512048389429317,0.9716533100998949,2.7836693173792417
0.7860355377197266,-1.0995682809826248,-0.5776586071764687,0.7606033622391297,2.9528753042049907,1.1176392507467583,2.8264831206209995
0.8063633441925049,-1.0379201161082003,-0.43560329218702154,0.8899887234136951,2.9542276062140336,0.9488972306738868,2.861162170314455
0.8262484073638916,-0.6752199111824515,-0.6335387410745157,0.7043609980742092,2.955325131319789,0.8409154003699311,2.8892498990759488
0.8463349342346191,-0.4165795105894212,-0.8661849186966258,0.6252248982667883,2.9557931563465765,0.9308237812212161,2.90122449913231
0.8666982650756836,-0.5115394558767821,-0.6693098214501583,0.6263486616172316,2.956593026661813,1.0845672743815633,2.9217007477582824
0.8865909576416016,-0.6345925351148016,-0.509841092648644,1.1039424159099576,2.957241572634999,1.2090996224176767,2.9382868351186304
0.9067010879516602,-0.5753877342409974,-0.38067117690864305,0.8776633568870656,2.957765140811574,0.6487703874556661,2.951722533097608
0.9267852306365967,-0.30884899158683354,-0.6386040493321674,0.7811971352416396,2.9579886267304167,0.7578933094950968,2.957449498947104
0.9468708038330078,-0.3760676422939069,-0.766669311167528,0.7180254792038397,2.9583707876516376,0.9444935927527258,2.9672457084314248
0.9669630527496338,-0.5301332171617912,-0.5887021661651909,0.9208331874873659,2.958680337997827,1.0956398310989521,2.9751801184871645
0.9871237277984619,-0.6018537822731523,-0.4445487578006196,0.9670846761953633,2.958931243088233,0.8700680651248494,2.9816057614137192
1.0076861381530762,-0.7654876476125565,-0.3830938947418646,0.8616760467477265,2.9590381187794095,0.6090613131207492,2.9843459338006992
1.0278172492980957,-0.3330319132465229,-0.8727061047526457,0.6814276738177019,2.9592213879346576,0.1627391044321175,2.151012600467366
1.0478851795196533,-0.8663558550921261,-0.6745919672755276,0.5354264157923385,2.9593692941205503,0.4624176775365816,2.31403018240106
1.0679678916931152,-1.2983482184839312,-0.5141194040549377,0.4171653967917942,2.959488452901328,0.043961297640100316,2.4460750773920306
1.0880651473999023,-0.9595133698424972,-0.7587073748013442,0.3667488571126148,2.959539420138914,-0.13443139538020416,2.2739568427089356
1.1081666946411133,-0.9031058414781834,-0.8639529923028765,0.280536574261218,2.959626555930426,-0.09149039607966766,2.2080451960136727
1.128249168395996,-1.3281157189952277,-0.667501896918617,0.21070462515158656,2.9596978319949145,-0.0915051802141092,2.3602267054628716
1.148296594619751,-1.1493737068647578,-0.8213764777720749,0.1541407463727851,2.959755876357709,-0.2728085317549047,2.4162943714689584
1.1695311069488525,-0.8254363236417895,-1.0352388077540549,0.13002667173550658,2.9597806850670554,-0.28761911253235223,2.408365616011426
1.1896641254425049,-1.2652034495556506,-0.8062434848420105,0.5262897742717759,2.959821495955919,0.09762510934667726,2.522486062032308
1.2097415924072266,-1.04272317440382,-0.620757171901401,0.9391372197541327,2.959855476612512,0.4096784113246841,2.614923934694203
1.2299814224243164,-1.3166403886938018,-0.47051322819411817,0.7441712608237719,2.9598823909940024,0.2809619259612419,2.676031922921454
1.249995231628418,-1.0369536012357972,-0.5004467449520015,0.5862487055229697,2.9599047367051416,0.558179165644123,2.7392961125797854
1.2701029777526855,-1.2472581743183357,-0.43340209204402114,0.5189237433695874,2.9599142630346273,0.6059072783765116,2.7662674806302125
1.2902436256408691,-1.0838792422902626,-0.6317556442856489,0.40379840625530483,2.959930553058048,0.6621755294311135,2.812384718812302
1.3102750778198242,-1.003842198620427,-0.7611221227893381,0.35761470468657075,2.9599443013205,0.7807403304652795,2.8497410435055563
1.3303587436676025,-1.2259614106457641,-0.5842089214641105,0.6381990707387444,2.959954884069605,0.9629996709109359,2.880000520872992
1.3506486415863037,-1.2336144878558646,-0.5087879676664012,0.8883791636648699,2.959958735429697,1.0406997351603153,2.892900939913649
1.3707737922668457,-1.2707888141131807,-0.37981812762739736,0.7030572309887481,2.95996566548353,0.5123666791061643,2.9149596326097473
1.3908514976501465,-0.6322390034117524,-0.8700526608841999,0.5529465018231965,2.9599721890416593,0.6090792476618118,2.932825845999285
1.410937786102295,-1.108713690846003,-0.6724426639209514,0.4313567272638524,2.959977899120066,0.8239533834933684,2.94729794434969
1.4310452938079834,-0.965712319037713,-0.588198433578237,0.7022210545374672,2.9599806254847563,0.9155579973224786,2.953467754918515
1.4512536525726318,-0.9441705561107512,-0.44414062515003794,0.8426991476887754,2.95998356376375,0.7242019004532265,2.964018830062066
1.4715886116027832,-0.7275526971217268,-0.6404538919328457,0.6660564417596014,2.9599866866486377,0.5078946741746316,2.972564234093405
1.4914119243621826,-0.7152177316108006,-0.7681676868869098,0.5229757610897247,2.9599895605446442,0.6554955372255364,2.9794862367102803
1.5114591121673584,-0.9576959504682911,-0.674350872549284,0.46197818498075216,2.959990125078664,0.763946821850074,2.9824380526852723
1.5316884517669678,-0.746510654653008,-0.5139242223167364,0.9708024573032616,2.959992452473089,0.949396841421462,2.987483663598672
1.551802635192871,-1.003251613531485,-0.3839785849578097,0.7698202651056196,2.959993886503202,0.43841135407217213,2.9915702859619753
1.57183837890625,-0.5077967008643219,-0.8734225923884646,0.6070244748336718,2.9599946650296336,0.024514483653866714,2.1582369526286422
1.5919036865234375,-1.0079153432937211,-0.6751723502102662,0.4751598246152742,2.959995567069991,0.3504541746886292,2.319881844016409
1.6120021343231201,-1.2211237928354728,-0.590655062513101,0.41894384215374675,2.959995673892146,0.14141097758479834,2.388794046547186
1.6320784091949463,-1.0627102258113834,-0.7591304555737074,0.3228145121445349,2.9599963524685,-0.2160506717077678,2.141141022583687
1.6521456241607666,-0.9866953203831221,-0.8642957439127145,0.2449497548370732,2.9599962585983564,-0.15760548370667693,1.9770908365549145
1.672450065612793,-1.2020257678745385,-0.760866129681431,0.2117547793533659,2.959997191568702,0.03215791847880889,2.0802818565914913
1.6925501823425293,-1.5702408412456383,-0.5840014977113378,0.15499137127622636,2.9599985657072336,-0.3045473870805969,2.2567384769233203
1.7126455307006836,-0.8747950966315328,-1.0354412367346837,0.10901301073374334,2.9599983277656365,-0.23746715414532188,2.1145965380737675
1.7327053546905518,-1.3051840599291906,-0.8064074644102778,0.5947671324367027,2.959997689372201,0.1382471241797687,2.284533023277517
1.752793312072754,-1.1093158714034914,-0.7087666734386249,0.8480776658971341,2.959997832177515,0.2984246102715451,2.3569799062261976
1.772939920425415,-1.153731126365006,-0.5418010674009508,0.9597515603681138,2.959998752824477,0.2391028104643352,2.3699182634834175
1.7929487228393555,-1.4856679012027947,-0.7195587082191329,0.7608686485270041,2.959998533132608,0.22437685528715676,2.1810023075852945
1.8130102157592773,-1.2360821924855903,-0.8322425520970768,0.5997736053068734,2.9599989246256584,0.5123461254233775,2.148878751569744
1.8332014083862305,-0.9034739923936987,-0.7320183576829671,0.531096244776186,2.959999342407786,0.6351087212288449,2.234890448686668
1.8532757759094238,-1.3284139244136224,-0.5606348427203515,0.41365795826871066,2.959999281873019,0.1838392804349941,2.381971459884687
1.8733489513397217,-1.672615334924676,-0.4218142541360935,0.9316629916136596,2.9599996062142564,0.4795082285519022,2.501106210734901
1.8935432434082031,-0.9577184280995106,-0.30936954808606903,0.7381170381086526,2.9599996810335476,0.7190016699932971,2.5976059763605477
1.9135422706604004,-0.9083289041712665,-0.5744325776771806,0.6556054632522382,2.959999712930193,0.8211014507016456,2.6387443955976755
1.9336178302764893,-1.0098980039976757,-0.7146903897470138,0.8372104102604412,2.959999767473456,0.9956921529686332,2.7090930335544887
1.9537107944488525,-1.171294521042578,-0.5465990181433912,0.9520404323109575,2.9599983378491,1.1291611943535158,2.7660763623300144
1.9738199710845947,-0.8694478874542124,-0.47213079307911726,0.7546227501718756,2.9599973982055974,1.2380660901565577,2.8122326053723445
1.993945598602295,-0.5735030876131889,-0.46960359718681727,0.6704604751546881,2.959998783832949,1.288259614568522,2.8319087326339414
2.01406192779541,-1.0611374865670093,-0.3480790892272422,0.5265429848752974,2.9600006715353566,1.3740904508899985,2.865555264648437
2.0341458320617676,-0.6845002858146271,-0.24964409858586892,0.4099698177489909,2.960001001802004,1.4436132777280781,2.8928095996402154
2.0542120933532715,-0.9462268260758684,-0.24857098794007998,0.31554555237668264,2.9600002172830835,1.4999262804633857,2.9148859770199995
2.0743539333343506,-0.5716488901191923,-0.16904269883828096,0.23906189742511297,2.847635073991468,1.5455403108832828,2.932766727585557
2.094437599182129,-0.8284839941451365,-0.13513837752158578,0.20645570768260169,2.8588708967542282,1.4545913227399385,2.940389884221573
2.114532947540283,-0.7446720392763313,-0.3901620919755675,0.15069912322290738,2.8780853719999384,1.0614673333908065,2.953426153733589
2.134610414505005,-0.7290843541148743,-0.5654312823074139,0.10553633490101841,2.8936485507332477,0.877186868089395,2.963984976903919
2.1548678874969482,-1.1871583161673724,-0.42569932461163174,0.06895448257318075,2.906255326093931,0.6931213653670243,2.9725372837292072
2.1750664710998535,-1.3824424950650038,-0.3661293771772567,0.053359075445763474,2.9116297934845377,0.4498092230486815,2.9761829930819577
2.1951215267181396,-0.7226784543749548,-0.8589648075727481,0.026690874062664467,2.920819867264602,0.03374390738499339,2.1428496597486246
2.215179204940796,-1.181969556255529,-0.6634615034104817,0.005089607990758216,2.928263834169828,0.3579319572233389,2.307418200694359
2.2352890968322754,-1.5539953248393314,-0.5051037871598122,-0.012407417527485847,2.934294162135336,-0.04067283329622465,2.440718966028605
2.2553980350494385,-1.1895957848313157,-0.7505933911730942,-0.01986667577473726,2.9368649824868878,-0.21060477536862363,2.060789659438558
2.275486707687378,-1.0894724845323858,-0.8573806570955942,0.22354804121383393,2.941260222251436,-0.1531904881547298,1.569086304392332
2.295560121536255,-1.4790727453586634,-0.6621784023733441,0.7177969754216271,2.9448202330089384,0.14029460329581567,1.5917664327093193
2.315615653991699,-1.271648989253024,-0.8170644626783442,0.8553156588967309,2.9477041978552325,0.036644433420693956,1.8610403057910136
2.336725950241089,-0.9354840606111351,-1.0313579071512686,0.7610840930070578,2.9489334884216385,-0.14101733129371558,1.975836478001346
2.3568150997161865,-0.8663414225867095,-0.8031000793166496,0.6133203042081138,2.951035895993945,0.21636783865499354,2.17213727072889
2.376986503601074,-1.298336657893111,-0.618211094913333,1.0933895320835307,2.9527392382283764,0.5058560380047268,2.3311403322632382
2.3969860076904297,-0.7467383752381002,-0.4684509934891975,0.8691154748306624,2.9541187829649846,0.7403434114429853,2.4599340231769973
2.417041778564453,-0.9399405242953113,-0.7176058834641645,0.7735040304993808,2.954706904668486,0.8403090360906519,2.5148399752492256
2.4371161460876465,-1.03760457810116,-0.8306607216953217,0.9327081530785593,2.955712040322548,1.01124999160408,2.6087314714206227
2.457355499267578,-1.0807861231227025,-0.6405349018157287,1.044641589964607,2.9565248406943065,0.9783609830050708,2.684783802203853
2.4773318767547607,-1.2580269592644493,-0.4865332219614308,0.9177178580409237,2.957184850318319,0.9688563424266124,2.7463850546787576
2.497382879257202,-1.3270038681362932,-0.4208798099474128,0.8916110550325466,2.9574656231293357,1.0459706756004612,2.7726470693934973
2.5174872875213623,-1.14191770573359,-0.3086126625214433,0.7056749545763628,2.9579473367611593,1.1778362453510205,2.817554039250832
2.537571430206299,-0.5822557887071642,-0.812376150565172,0.5550667132068539,2.9583362739538437,0.7467217601322929,2.8539294665566066
2.557708263397217,-1.0682271439683686,-0.6257246993162289,0.43307400277487273,2.9586523819026134,0.9354446198770721,2.8833931915859075
2.578097343444824,-0.8565119387695211,-0.47453697673551093,0.7191481032700231,2.958907934291708,1.0883100529596523,2.9072594928460957
2.5979301929473877,-0.8941420734085745,-0.4100832182641758,0.6385332929430207,2.9590165689501076,0.830787801610283,2.917433910370157
2.6183183193206787,-0.9210301748604909,-0.6128673766986382,0.500682140653598,2.959203420849587,0.49190001208846124,2.742575316828191
2.638230085372925,-0.6142740154685463,-0.7458226336950652,0.38902248555509256,2.959354987716068,0.5299433158909856,2.6201671642633984
2.65830397605896,-0.6234619772016201,-0.5718163785730215,0.298578213299625,2.9594776056534218,0.41185058838261546,2.6940449780104747
2.678445339202881,-0.8751157749815426,-0.4976347271936634,0.2600203919696625,2.9595297253952237,0.19666606163210676,2.725540617909522
2.6985392570495605,-0.3117437761031344,-0.965484116980664,0.19408651749542657,2.959618757753483,-0.17130051730460202,1.924552125968669
2.7185981273651123,-0.8491124612960858,-0.7497421372792439,0.14068007917129552,2.9596911645362254,0.1918468216738803,2.1305972697684226
2.7388064861297607,-1.2843810784442944,-0.5749910985071556,0.09742086412874937,2.9597503662377993,-0.17520135702422318,2.297493939574379
2.758833885192871,-0.9469429598385446,-0.8134919631505813,0.07897877771587444,2.959775693422771,-0.33167997841212793,1.999537789353811
2.7789371013641357,-0.8929236191197744,-0.9083284970994638,0.04744276348059118,2.959817828246879,-0.25126193130374697,1.8591390735324487
2.7989895343780518,-1.31986811828698,-0.703446061517282,0.021898638419278856,2.9598530162659626,-0.22092058774943313,2.0776126901985053
2.819047212600708,-1.142693402353138,-0.8504913193553039,0.0012079500987267969,2.95988094317543,-0.5095457139681572,1.9428030011241133
2.839165449142456,-0.819424255097069,-1.0614421988509941,-0.007612784703407007,2.9598928488578866,-0.6325912090544308,1.737649475592128
2.8592255115509033,-1.2603334929883794,-0.8274682107297184,0.5828747909477457,2.959912693044586,-0.18180086760153283,1.5278177801310713
2.8794140815734863,-1.6174700603118113,-0.6379490342274361,1.068728580667674,2.9599291736622915,0.1833481847270303,1.8092426415205398
2.8994295597076416,-0.9130507894285584,-1.0791384949009335,0.8491403094262295,2.9599422762691727,-0.1820837687912591,2.0371960647269796
2.919516086578369,-0.8864088313262767,-0.9542248071127888,0.7555262784836065,2.959947547181688,0.01012110807694308,2.1343767075530238
2.939605712890625,-1.0901878564925402,-0.7406218483658711,0.9181462855717214,2.9599576128215195,0.33879382130897895,2.300554835965862
2.959676504135132,-1.0038078032006534,-0.567603637332088,1.017598617828373,2.959965263580854,0.6050234412007091,2.4351590744053837
2.980107307434082,-0.9294028090851605,-0.7404589395515657,0.8077249265092507,2.9599718635004915,0.820668967137819,2.5441885386845393
3.0002200603485107,-1.0984409730779565,-0.9624129969445586,0.7182524338583256,2.9599741811916553,0.912601577803743,2.5906700750031395
3.020263195037842,-0.9201207733264396,-0.7472544346283014,1.1348956773909105,2.959978263988167,1.0698071244424203,2.6701541284568187
3.0404582023620605,-1.2124021172147743,-0.5729759513566737,0.9027356822689455,2.959981582103388,0.9113979827503256,2.734534739222175
3.0604889392852783,-1.2978259539060164,-0.4318105815368498,0.9142717846833772,2.9599857174690314,1.0688323254424053,2.7866820458968857
3.08058762550354,-1.2344969424595047,-0.3716293896230384,0.8141446062150395,2.959986078924676,1.1359489893251355,2.8089145298855676
3.100675582885742,-0.850750749378971,-0.581719649730281,0.642927131034182,2.959987363051767,1.2507185932020912,2.8469315663024837
3.120776891708374,-0.6465144339766908,-0.7205930751179289,0.7697614402719037,2.959991372725607,1.3436823533205062,2.8777237460004663
3.1408629417419434,-0.6199557604851706,-0.5513803213357995,0.997723428073489,2.9599926822118845,1.3311023074075068,2.902666359650694
3.160926103591919,-0.5232835609814437,-0.4792419988439458,1.0410293289985926,2.9599915172829814,1.284111260285062,2.913300637785348
3.183375835418701,-1.0204596947739282,-0.3558858473079845,0.82670375648886,2.959992106887983,1.0215655695768924,2.931483986864453
3.2035746574401855,-1.232413722486249,-0.30329733773899714,0.735333380839974,2.9599935639072923,0.7454090329656833,2.939235143807828
3.2290689945220947,-1.0718551116541424,-0.52637084758832,0.579090008299749,2.9599947867649066,0.2731813339193854,2.600131964489408
3.2490930557250977,-0.9941026502294109,-0.6757604067447119,0.45253290672279667,2.9599955043646053,0.23867455400294407,2.3606942450562354
3.26918888092041,-1.4018231170607773,-0.5150658362489366,0.3500216544454653,2.9599959323384946,0.17593085056743238,2.4838729417653242
3.289341688156128,-1.209076693883876,-0.6979032254402051,0.26698754010082687,2.9599966458168376,0.02589943073048006,2.429711745323032
3.3093409538269043,-0.8791690401109653,-0.9241129410603379,0.23158878609074418,2.9599966945011253,0.06329827890486875,2.3337048418283293
3.329460620880127,-1.3087269394155958,-0.7162315180868942,0.5653125858790868,2.9599966663154134,0.38186776691672,2.4620107353800353
3.349684953689575,-1.6566689279018314,-0.5478475558330391,1.054503285486815,2.9599976696109636,0.31480512403002836,2.565937642094465
3.3696415424346924,-0.9448018538004056,-1.0061564493563746,0.8376177545116488,2.9599978359856074,-0.07560674517962085,2.1590232596490018
3.3899779319763184,-1.136569581658412,-0.7826868551997086,0.6619403811544354,2.9599979673068444,0.2693554406392478,2.3205189498252112
3.410076379776001,-1.3369126327225094,-0.6874182071138613,0.5870463430389918,2.9599983754057844,0.06841853280618418,2.389366851131078
3.430166721343994,-1.28700669572086,-0.837508631576826,0.45897753786158335,2.8569856201360864,0.07282375371725025,2.5070973106167234
3.450228214263916,-1.041606684144281,-0.9277820563119968,0.3552418056678825,2.7838463647479066,0.3895846914629417,2.6024585465190904
3.470278263092041,-1.007220441193635,-0.818003794273135,0.31101762510109426,2.801461724396469,0.5246285540970305,2.643113003396397
3.490408182144165,-1.4124486243312062,-0.6302831253067004,0.8485243346666236,2.83158411284946,0.7555461958963707,2.7126305171164757
3.510484457015991,-0.9269933762635634,-0.4782293282151837,0.6707747434226972,2.8559831314080624,0.9425924185946704,2.7689405205671247
3.5305676460266113,-0.9906638821452217,-0.9497656920026126,0.5267976223549191,2.875745789147825,1.0940997798127925,2.814551706694746
3.5506420135498047,-0.48908333348115063,-0.7370101433328862,0.5131124090159701,2.8917531743580827,1.2168206711702643,2.8514979153141065
3.5707345008850098,-0.7541750148949189,-0.6463090420847286,0.4531011681143731,2.898576836381444,1.2691384680587825,2.86724869814794
3.5911736488342285,-0.7256267822925597,-0.4912103423493907,0.35048194617264217,2.9102475184644403,1.3586022479126412,2.8941813363737436
3.611027479171753,-0.7506882340703585,-0.5094785471105295,0.26736037639984017,2.9196986596392356,1.3909945775915182,2.915997707772115
3.6311826705932617,-0.8895203924046662,-0.5098861499277435,0.20003190488387051,2.878104777546656,1.4212398540824942,2.9336677435311618
3.651287794113159,-0.7994312946626302,-0.44189749946460705,0.17132871439548347,2.8370416150626707,1.4531158328980471,2.9412012385469595
3.6713669300079346,-1.1130651269588199,-0.3256368270098694,0.12224625866034161,2.860400975105109,1.507623973580472,2.9540841249626206
3.6914572715759277,-0.5044827764170154,-0.8261657483718425,0.08248946951487669,2.774871215107592,1.1341966524244378,2.964518928213787
3.7115228176116943,-1.005230982570101,-0.6368942371346504,0.05028652488938154,2.8100452299084826,1.2492992561522862,2.972970169293189
3.7316198348999023,-1.2187078945231768,-0.5562047875419497,0.036557872400443385,2.825039926326398,0.9503692749691874,2.9765735702332923
3.7516961097717285,-1.0607533869132284,-0.7312258316544081,0.013082009202826799,2.8506823403243824,0.43919910280900665,2.563148788209015
3.7718539237976074,-0.9851102535564401,-0.8416929331771752,-0.005933572545710296,2.871452031631136,0.3731497791712149,2.232733878897585
3.791914939880371,-1.2005992201041737,-0.7405236306255883,-0.014040215291139267,2.8803071510451677,0.5098357703108084,2.310360547068048
3.8120036125183105,-1.569085344542608,-0.5675241044262824,-0.027902574385822804,2.8954490862150926,0.08236927910446412,2.443102412173206
3.832089900970459,-0.8738591252924848,-1.0220945122324916,-0.03913108525251648,2.9077137068244334,-0.2638803951828485,1.6394867108982063
3.8521947860717773,-1.3044259163375378,-0.7955965823766631,0.015783274777372746,2.917647222732701,0.11685509097592084,1.6975746675256806
3.8722422122955322,-1.6531849933719742,-0.6121332369149238,0.2125284041287387,2.925694367863588,-0.23594731150227524,1.9467455113418959
3.8923516273498535,-1.2788664778179653,-0.8469198791309922,0.18257556371586484,2.9291252719186995,-0.3863511244266976,1.582744762866113
3.912473678588867,-1.1617818427008189,-0.9354050953456656,0.41104142847264347,2.934991515904336,-0.29554397372266294,1.2724932246454315
3.9326672554016113,-1.5376432517181156,-0.7253780240523283,0.8908302567393548,2.939743408057455,-0.25678644112046517,1.4601967078509968
3.9526302814483643,-1.697878878595702,-0.6358400875705646,1.1157472310654193,2.9417695349586195,-0.40510599519530305,1.6150765875833604
3.9728035926818848,-0.9781819622794852,-1.0774304933432495,0.8872256160971932,2.945233323316482,-0.6587358343310621,0.7817432542500269
3.992945671081543,-1.3889273463463567,-0.8404185972411045,0.9370332480334331,2.9480395873608294,-0.2029750436991061,1.2049208488533985
4.012960195541382,-1.7216310663741634,-0.6484388151246372,0.7424669309070808,2.950312820065812,-0.4950060091765411,1.5476951899728768
4.033032655715942,-0.9974211629965462,-1.0876353369793716,0.5848683091123761,2.952153820633682,-0.07035092392133416,1.825343597648936
4.053170919418335,-0.8767622197344451,-0.9618718592500974,0.8403814782011385,2.952938199958119,0.11068150920654973,1.9437091285183645
4.07349419593811,-0.9984014149191723,-0.7468161959871895,1.0933979698378344,2.9542799419660764,0.2627725753246061,2.1461123538916884
4.093487501144409,-1.221174702766446,-0.5726211001803375,0.9940324559968884,2.955366752992522,0.4017142392031835,2.310059120771861
4.113555431365967,-1.3568738080629772,-0.5804567304120636,0.7886364628764804,2.956247069923943,0.6559884942049298,2.4428566880658322
4.134234666824341,-1.466396007826701,-0.6543447254241983,0.7010727138682725,2.9566223629315487,0.7643896672520353,2.499471800534308
4.154370069503784,-1.1689586956828595,-0.49771920769170364,0.5513387904472256,2.9572636666228864,0.949755076950236,2.596283299378014
4.174427032470703,-1.2503738295290157,-0.3708525401580669,0.43005431305937203,2.957783037466112,1.0999018098335667,2.6747005744033596
4.19451904296875,-0.9855266831160963,-0.26809056889757166,0.3748341140188129,2.9582044017090285,1.2215204655797438,2.7382173579641402
4.2148191928863525,-1.3590523628367965,-0.685232754287756,0.28708563235523843,2.958544663618078,0.7085067422994922,2.7394304759584918
4.234807968139648,-1.0820635761043746,-0.5997094865471639,0.24967703214829207,2.9586901972562702,0.8116560594887293,2.766387881802459
4.255053281784058,-1.0634962597625293,-0.45346466919235195,0.18570851943134023,2.9589390597775793,0.6400414120997366,2.812482900525156
4.275008916854858,-0.9350320695983987,-0.6480063453490974,0.13389398384417922,2.9591406384198393,0.18783354217115947,2.437940322527029
4.29505181312561,-0.883275992571243,-0.7742851720184937,0.09192412691378515,2.9593033403499858,0.16954231878032966,2.1757498393369312
4.315364599227905,-1.1089483871858483,-0.6798566431064774,0.07403171422240663,2.9593733225520698,0.32658940094461975,2.259074932258134
4.335451602935791,-1.4948481765765986,-0.5183838449609869,0.04343568852014937,2.959493079193259,-0.06605897679711886,2.4015609666220326
4.355545520782471,-0.813727024784215,-0.9822909089747626,0.018652907701320977,2.9595892444719256,-0.35994297449457646,1.8443158025635773
4.375639915466309,-1.2557188898530913,-0.7633556356782867,-0.0014211447619300096,2.959667312490046,0.03904643439698849,2.0656058510587894
4.3959574699401855,-1.6137324551014127,-0.5860180543031868,-0.017681100287589017,2.9597309377951335,-0.2989711945075212,2.24485120581624
4.415984153747559,-1.2433592048056963,-0.8234162372713859,-0.024612990258830115,2.959758095496169,-0.4430736806311349,2.0248570664268897
4.435957908630371,-1.1330207019572935,-0.9163671282790162,0.27990927117871495,2.9598043803243694,-0.34148914817979426,1.678508534534778
4.45636773109436,-1.5054726160693845,-0.7099573327257171,0.8176347857358444,2.959841226815793,0.05399560907372461,1.6913920262243796
4.476293563842773,-1.6600511846583568,-0.6219614997825965,1.04987130716226,2.9598567508370115,0.2225983383227867,1.8231530305644217
4.496378660202026,-0.9475414951335882,-1.0661886217111474,0.8338658985469287,2.95988352346219,-0.15029158406293813,2.0484635515372562
4.516482591629028,-0.860538401050229,-0.8313129607066424,0.6589013778230123,2.9599053997778095,0.20885853244642694,2.2309654388018876
4.53654670715332,-1.2936362489704996,-0.6410635377716388,1.1303102461835661,2.959923600802889,0.49977303100900294,2.378790806077871
4.556627035140991,-0.8024440341021035,-0.4869614549999116,0.8990212994086887,2.9599381176180977,0.7354162034348553,2.4985305621220415
4.576798439025879,-0.9751106213323449,-0.7342652947530877,0.8004193237689001,2.959944305856288,0.8358745342910779,2.549576573708768
4.596868276596069,-1.01729166257227,-0.8441549030627452,0.8782482426551023,2.959954887743593,1.0076583561955919,2.636867273906689
4.616919040679932,-1.137855274057645,-0.6514652621503504,0.9166458463908733,2.9599618662580798,1.0708540078130604,2.707573584269025
4.637038230895996,-1.2728467556555239,-0.49538696507370683,0.8052608153404608,2.959969798487271,1.1296378430838172,2.7648447309726265
4.6584792137146,-1.2141460999925155,-0.42884818710050887,0.7953425569398833,2.95997212716462,1.1906739993780808,2.789260684224797
4.678513526916504,-1.2549683803667862,-0.31506683659031387,0.6276974711213055,2.9599757384507437,1.29504579224835,2.8310120885343646
4.6985814571380615,-0.6194243839414617,-0.8176040864062701,0.49190495160825737,2.7254686668197357,1.2512566273544294,2.6384253712602463
4.732331991195679,-0.6194243839414617,-0.8176040864062701,0.49190495160825737,2.7254686668197357,1.2512566273544294,2.6384253712602463
4.75764012336731,-0.6194243839414617,-0.8176040864062701,0.49190495160825737,2.7254686668197357,1.2512566273544294,2.6384253712602463
4.77774715423584,-0.6157468153619364,-0.6299592994074141,0.8266215977625273,2.7700295940488715,1.344117621748052,2.7088345467471884
4.797818660736084,-0.5609306619640038,-0.4779667478368116,0.7894691984475196,2.8061218199996523,1.0803922680934197,2.7658670912900267
4.818212985992432,-0.6949376159674998,-0.5846760713744505,0.6229400507424909,2.8353591239996403,1.2057177444457257,2.8120620837251895
4.83812952041626,-0.9394438462933649,-0.50920851385424,0.5519460456682418,2.8478237028669313,1.1574253464374247,2.8317555894211557
4.8581862449646,-0.8345495189780947,-0.6931589112840331,0.4305463964075912,2.8691376168758267,0.8420755616567912,2.8654312271158715
4.8782570362091064,-0.8018851331376058,-0.8108587949484863,0.33221258109014884,2.8864019433714563,0.7116374789424851,2.8927086150174173
4.898345708847046,-1.2461269969147788,-0.6244955779282487,0.2926476338830589,2.900385226170402,0.5590274865555194,2.9148048137547127
4.9185168743133545,-1.1432533877756288,-0.7865413772387818,0.2565915139848857,2.911711674043102,0.12221358420698161,2.827243895911223
4.938619375228882,-0.8802185979761443,-1.0038872636306968,0.22223236258639717,2.9165403093008937,-0.06400943050608718,2.7399610142882063
4.958714962005615,-1.3095770681357988,-0.7808486890729203,0.16347821369498172,2.924797599585803,0.27875246151196637,2.7910784475899715
4.978830337524414,-1.6573574008268184,-0.6001873938384225,0.11588735309293519,2.93148664169214,-0.10480703471759761,2.832483765291059
4.998870372772217,-0.9453594778769765,-1.0485517595894893,0.0773387560052775,2.936904665572467,-0.4154921495830808,2.243639362752878
5.01913595199585,-1.1648235387680055,-0.9266965966673937,0.06090488040474974,2.939213878870679,-0.19994352845573313,2.3201754748697456
5.039100170135498,-1.5401070478955554,-0.7183242159092708,0.0328029531278473,2.9431639464550234,-0.17935217731466485,2.4510522142050646
5.0591912269592285,-1.3210868145951786,-0.8625426126345698,0.010040424146929057,2.9463629613003057,-0.46878264314750345,2.320657210367347
5.079267501831055,-1.1959802400675006,-0.948059511573011,0.30362955938091757,2.9489539986532476,-0.35593090647103187,2.1012493159494654
5.099388122558594,-1.3903822377732702,-0.8362535998073632,0.5765934486118933,2.950058107819921,-0.14633987771863755,2.054596673156697
5.119470596313477,-1.7108000695057863,-0.645065201025597,1.0636406933756337,2.951946872659483,0.2120715807141029,2.2359336429354646
5.139563798904419,-0.9886481115214347,-1.0849025840520174,0.8450191408795298,2.953476513862156,-0.15881777970825495,2.3828157126213125
5.1596457958221436,-0.8891412864813407,-0.8464713082360131,0.6679355041124191,2.954715667166064,0.20195146842563558,2.5017906924040663
5.179791688919067,-1.1142271761185825,-0.7448242477874615,0.8753403427545219,2.9552443599013434,0.3557535311211172,2.552511299570735
5.1998279094696045,-1.1200851170123998,-0.5710076141216109,0.9471044850625999,2.9561479315200883,0.6187603216857035,2.6392425426693746
5.2199578285217285,-1.025831450826193,-0.7432161057073665,0.7506245125902751,2.956879125184704,0.8317959825059443,2.7094977686737014
5.240251541137695,-0.8650283768613334,-0.8514050555254218,0.6863317675694418,2.9574720913996106,1.0043547256608698,2.76640341719013
5.260236740112305,-0.6532425214483568,-0.7492644670639207,0.7038545418355995,2.957724040216176,1.0779191474386343,2.7906636589905998
5.280303001403809,-1.1257264546762835,-0.5746041035486767,0.5535921788868355,2.9581553439739574,1.2037144366513173,2.83214828364789
5.30067253112793,-0.6787288636285558,-0.4331292138814077,0.43187966489833685,2.958504637379934,1.3056092942430602,2.8657508056149075
5.320577383041382,-1.1463703776109568,-0.4019843897285657,0.33329252856765285,2.958789114561729,1.2579303462534075,2.8929679487772884
5.3414857387542725,-0.9074402554801665,-0.6577858972574722,0.29126327571088756,2.759056042947913,1.306137343415388,2.9045715702891197
5.361539840698242,-0.8288070351052431,-0.7822065098341927,0.2193932533258189,2.6173660079523833,1.3885710980857882,2.9244136054428687
5.38164758682251,-1.108335886053977,-0.6012872982920523,0.413106112403386,2.6824670287596537,1.4553426853146385,2.940484797410327
5.401970386505127,-1.2494247864890913,-0.5241584298654307,0.6150230783725201,2.7102185842241506,1.483808210499073,2.9473370247072497
5.422050476074219,-1.2777805907932567,-0.39226796572976735,0.4816386934817413,2.7576738057895795,1.3256143520204948,2.9590543645097265
5.442158222198486,-0.6379023118245668,-0.8801369161389552,0.3735973417202105,2.79611413778604,1.4043475589837693,2.9685448215260304
5.46222710609436,-0.5595420759704364,-0.6806109286474974,0.28608384679337046,2.8272527761435335,1.4681213982599102,2.9762311291374224
5.483023405075073,-0.7962252218711388,-0.5189948599901556,0.48351998557616827,2.8524751980538676,1.5197783997136178,2.982457025294157
5.502596378326416,-0.7843273569358509,-0.45009524245521887,0.42646798701855143,2.863226297230671,1.5418003451577853,2.985111775769923
5.522674083709717,-0.4872574029033373,-0.6452768020724795,0.32890906948502663,2.881609467697583,1.5382378384403024,2.989651972845531
5.542803525924683,-0.4793751720172562,-0.7720743999267292,0.36664441741934617,2.896506632949619,1.5394730478938214,2.799084160111326
5.562861204147339,-0.5983296447301159,-0.5930799476567801,0.46586716382820675,2.9085665190031085,1.5775724018717106,2.6641505698630783
5.5842859745025635,-0.5030153699525782,-0.516771635801653,0.4909133691410953,2.913706439413017,1.5938144662404683,2.698636426374914
5.6041929721832275,-1.004042471831609,-0.3862849122596792,0.38110982900428714,2.9225011831588183,1.6215900527041942,2.757605871955239
5.624283075332642,-1.409874414727142,-0.2805907793688123,0.2921689614934726,2.9296258585592883,1.2120890385791818,2.805371520106836
5.6443891525268555,-0.7448982696048401,-0.7896784953866549,0.22012702244526,2.9353969454330233,0.6511920856245053,1.9720381867735026
5.664438962936401,-1.1999676461964934,-0.607339557386672,0.16177294220725402,2.940071193697624,0.8580644390265952,2.169060356439841
5.68457293510437,-1.393970892319086,-0.5296055810544726,0.13689570633798454,2.9420640743278614,0.5982580031735923,2.2530537095342904
5.704713821411133,-1.2027165795143946,-0.709680481893799,0.0943555874717735,2.945471900205568,0.15398898951851545,1.9538869543437507
5.724738836288452,-1.1001004479457723,-0.8242412207819505,0.059898025852136536,2.9482315008578825,0.1421283751711967,1.7558421356238707
5.744867324829102,-1.3040903963653951,-0.7248170874671924,0.045208223266922885,2.9494087191814855,0.30191679869424004,1.881157991766906
5.7649641036987305,-1.6529132118090037,-0.5548018227329652,0.020088660846207532,2.9514215082776216,-0.0860456099849865,2.0954480825417336
5.785048484802246,-0.9417597064204783,-1.0117894814694124,-0.0002581847145718876,2.953051199228796,-0.2514693033256174,2.0898915803395206
5.805089235305786,-1.3594253862296108,-0.7872495207403434,0.5963908703811968,2.9543706519884503,0.12690701201734705,2.2645220995168325
5.825211763381958,-1.0483355321866545,-0.6915245006486956,0.6701307778079514,2.954933440459142,0.2882195095807685,2.338970157092546
5.84525728225708,-1.0055192358240197,-0.5278349415530763,0.6541470250428274,2.9558968400692,0.5640554732093929,2.466275230722385
5.865357160568237,-0.9006708565411323,-0.43333948335054223,0.5133292940391524,2.9566764404560524,0.7874848844527673,2.569390975861487
5.885422229766846,-0.8667834799088006,-0.3529889445064627,0.39926665993140537,2.957308440283958,0.9684626642142128,2.6529169139987347
5.905534505844116,-1.0941051872178902,-0.30069000945879915,0.35064007500062766,2.9575775962555624,1.0456163676513688,2.688524579942018
5.925682783126831,-0.4891251887617499,-0.8059588531310596,0.2674885375375597,2.958037210596676,1.1775493560920223,2.749414867813365
5.946049690246582,-0.4321362352404989,-0.6205266826159314,0.20013571540542335,2.9584101721095086,1.2844143576802383,2.798735885700356
5.965905666351318,-0.9466303610354027,-0.4703265121408526,0.7252474130751947,2.9587112405439226,1.3709755284539018,2.8386865401078967
5.986027240753174,-0.6652237013243685,-0.4062936500398021,0.6440226717676752,2.9588383620411585,1.4078776614614503,2.855718661819463
6.006086826324463,-0.4379498529328905,-0.6097978106544076,0.5051283641318169,2.9590585715883084,1.4709808821770693,2.8848422855873546
6.02616810798645,-0.5537477295035254,-0.7433362593172707,0.7153239749467717,2.959237970907991,1.5220946613443869,2.9084321150770114
6.046626091003418,-0.6369122014707166,-0.6520023440519017,0.9577915774520945,2.959311813387856,1.5438844396692823,2.918489640673447
6.066718578338623,-0.7739314257526385,-0.49582142219748393,0.7592811777361965,2.9594394370502655,1.0425687499810947,2.9356877151669503
6.086801767349243,-0.229784480747047,-0.9640152862676146,0.5984878733023878,2.959545437066634,1.134800314669065,2.9496168331699186
6.106884717941284,-0.7827254297658013,-0.7485523801402025,0.6145411576931278,2.9596318040239735,1.2497882489467844,2.960899632516666
6.126992225646973,-0.5724396465067689,-0.574027428689983,0.9739919574404485,2.959701981840989,1.3429284740194287,2.9700385575864465
6.147054672241211,-0.7413187252631918,-0.49962445313809617,0.8678927616964036,2.9597302418883533,1.0346351345981801,2.9739354321653777
6.1671295166015625,-0.5949789290747713,-0.6853957240536892,0.6864632602596747,2.952137067545372,0.5074543906106324,2.560775642659006
6.192996978759766,-0.32648112178536975,-0.9128561301338556,0.6091170218215132,2.9452794980665304,0.28270894765894483,2.1809284998488874
6.2169859409332275,-0.8610497226587399,-0.7071135172302127,0.47685478767542566,2.948076455166844,0.5595918278993622,2.3382618586159345
6.237071752548218,-1.2940502588978153,-0.5404618951396792,0.3697223780170948,2.9503415229154752,0.12267133408267339,2.46570253769104
6.257362365722656,-0.9556452224638792,-0.7824156734138318,0.3240501402153853,2.951307280532137,-0.06359442297248352,2.2101512077088925
6.277345657348633,-0.8999726672136545,-0.8831567711484661,0.24595061357446207,2.9529580736286287,-0.034116374830960416,2.0830392120157457
6.297637462615967,-1.325577824318884,-0.6830569104014119,0.1826899969953143,2.954297067645523,-0.045028024195495286,2.2589721130666685
6.3175153732299805,-1.147318012554371,-0.833976041895919,0.1314488975662046,2.955381276072114,-0.3104125988562197,2.180172893538353
6.337759971618652,-0.8235862194204194,-1.0465784515456,0.10960400780958414,2.9558428842901034,-0.39671549386331495,2.041750999760241
6.357744216918945,-1.2637048792594643,-0.8154286287697959,0.63101960372475,2.9566317275556626,0.009255468670802958,2.2238037719707044
6.377925634384155,-1.4532471292949325,-0.6281970944183065,1.1077258790170474,2.957271366002678,0.3380995937890907,2.372991371217994
6.397969007492065,-0.780030206885987,-1.0712395372664172,0.880728085001774,2.9577893834248057,-0.05673782462718291,2.493832661614404
6.418046474456787,-0.6362494167506363,-0.947115722101136,0.7839552765015966,2.958010367858752,0.12293287101571942,2.545349342764389
6.438143014907837,-0.7701620504714237,-0.7348639331812971,0.6184737739662932,2.9583891157277726,0.25664432862980346,2.633442158123928
6.458230257034302,-1.1998467154767885,-0.5629397971341281,0.8071337569126975,2.958695269320357,0.38230940755276493,2.7047980840438504
6.4785475730896,-1.072925708366998,-0.4236812176954404,0.9276785659189144,2.9589431681494895,0.6402705700724476,2.762594922558978
6.498837947845459,-0.8026089690835572,-0.364313104275539,0.8262106032808989,2.9590488513345408,0.7502435472677919,2.7872361127617458
6.518996715545654,-0.41619637037464075,-0.8574934997238262,0.652700588657528,2.9592284242845395,0.9382973579150609,2.829372125735235
6.539095640182495,-0.9337190587265399,-0.6622697511393425,0.5121574768125977,2.9593751759517875,1.0906208773981736,2.8635012936144557
6.559248208999634,-1.0568004518923098,-0.5041384164346018,1.0114474652755356,2.959493086371641,1.2140028217040015,2.8911470327379094
6.579295873641968,-0.876031502236619,-0.37605201636559293,0.8027422876420167,2.9595886132760696,0.8486539083442838,2.9135401696752954
6.599350929260254,-0.604662274475094,-0.6344467465766155,0.713768058877815,2.9596290878567175,0.9377885546521461,2.923086644262325
6.619541883468628,-0.25664365836334996,-0.7633019175528823,0.6082401252260374,2.9597002769437095,1.0902087785364551,2.939408981211245
6.639535903930664,-0.3327640922345292,-0.5859745603105938,0.7102930690786401,2.959757295346464,1.213669102184335,2.952631255002297
6.659728288650513,-0.48533940862590064,-0.5103770229436678,0.8227562438793027,2.959780836742338,1.2663020986809799,2.9582685431805373
6.679829835891724,-0.4203339526587442,-0.38110531344826165,0.6499025575422351,2.9598219356893134,1.3563045844762172,2.9679078320163454
6.700005531311035,0.05155698331245362,-0.8710953047137827,0.5098910716092104,2.959855885033368,1.4292068442700865,2.9757153269156897
6.720064401626587,-0.014650380875324595,-0.6732871248237017,0.39648176800346047,2.959882372010242,1.4882573843630815,2.9820397234022438
6.740211725234985,-0.15463627146091147,-0.5889585966282304,0.6671036145490616,2.9598964247153456,1.5134320569583037,2.984734962505877
6.760262727737427,-0.25612586225588074,-0.4798871751333797,0.8108969487960926,2.959917412430812,1.2084801103528675,2.9893448663098896
6.78036904335022,-0.0016701235788105784,-0.7010261737378977,0.640296528524835,2.9599330583871475,0.927291755951997,2.993079466946928
6.800399541854858,-0.12725280440325026,-0.8172312040491977,0.5775164751964005,2.9599457772935893,1.0033458797560555,2.9961044160314327
6.821180105209351,-0.4285275184953972,-0.7185080699691465,0.5864712308672276,2.9599511995642303,1.0607304091759528,2.9973932838334636
6.841296195983887,-0.3805060523786639,-0.5496914939941424,0.7311096857521615,2.95995997308058,1.1897915950152689,2.9995993223993507
6.861619710922241,-0.6273322891127998,-0.41294992556999977,0.5756688454592508,2.9599658961489776,1.2943310381721582,3.001386400947218
6.881547212600708,-0.11103914977042509,-0.896889452948777,0.4497617648219931,2.909826225013475,1.0994055646324787,3.002832796206234
6.901612281799316,-0.4059037163047895,-0.7902005266207113,0.4214768661372906,2.9148436025121276,1.1634649944276727,3.003450004412777
6.921691179275513,-0.5214447658550737,-0.6077623763498489,0.5987458890178045,2.923422483678029,1.2730065569540099,3.0045054474605317
6.941771507263184,-0.573450471360502,-0.45998731862739206,0.6943789195551051,2.9303703891897634,1.0137350313192568,2.900059475368294
6.961855411529541,-0.45846131893574,-0.6532896928216887,0.5459170970860362,2.9360000152437085,0.4905253139353907,2.40689935463459
6.982250690460205,-0.4752734194059168,-0.7785646999926266,0.42566289536769253,2.940559975513191,0.4147220685752695,2.1441193659158317
7.002356767654419,-0.7197657623321311,-0.6837081889330464,0.37439660583092327,2.9425038564018946,0.5472520518648875,2.230607734461837
7.022456169128418,-1.1796102381367666,-0.5215035511690241,0.28673125072304784,2.945827620643583,0.11267772197702725,2.378502948679862
7.04252552986145,-0.5583842855459002,-0.9848178473897509,0.21572231308566875,2.948520091089621,-0.239330200609538,1.5710779623862072
7.062921047210693,-0.8165458747579368,-0.8693360929463787,0.18545008177710187,2.949667566611579,-0.04139910846352518,1.7148701228996193
7.082781553268433,-1.2580021322948003,-0.6718621855866889,0.13368456623945252,2.951631577272741,-0.050929020367121824,1.9607550348711513
7.102898359298706,-1.092581711010313,-0.8249083357137054,0.09175449865395655,2.9532220514989698,-0.3718504276581878,1.8263218614204013
7.122949838638306,-1.0108910407849327,-0.9175757556712976,0.05779110149413298,2.9545094961387903,-0.2837998036288243,1.750790480176134
7.143012762069702,-1.2238019289016193,-0.8088181684437705,0.043311991344719684,2.9550588482718196,-0.0814191105503699,1.87661142321634
7.163229465484619,-1.5878795496798097,-0.6228426944097115,0.018552712989222946,2.9559981972667266,-0.3965480083293248,2.091765270858054
7.183241844177246,-0.8890826305942741,-1.0669025892246518,-0.0015022343925457649,2.9567585397860485,-0.2704326752902387,2.124223405528777
7.203309059143066,-1.3167569550821954,-0.8318911371821589,0.49343036640775434,2.957373501362322,0.11154665617097273,2.292330882985603
7.223403453826904,-0.7385190503433984,-0.641531802738958,0.383148596790281,2.9578726572680765,0.42095399583417614,2.428498035135919
7.243475675582886,-0.9786671592056279,-0.5940925757050436,0.33613373711125294,2.9580856736692684,0.5528567886003876,2.4865478707616377
7.263578653335571,-0.8663203890028797,-0.4792574715814324,0.25573832706011485,2.958448935253526,0.7784150006213881,2.585814225701267
7.283663511276245,-0.8276195335348346,-0.3558985445760342,0.19061809143515268,2.9587434332707936,0.8492927184843186,2.6662188712740877
7.30403995513916,-1.0588575954887898,-0.30330866400821804,0.16285636865906394,2.9588690899437142,0.8265425655671249,2.7004960738433956
7.32416558265686,-0.4605746411227156,-0.8080799984317417,0.11538374492691915,2.9590839628544083,0.7739210572993298,2.7591108258314274
7.344237327575684,-0.9696654099344106,-0.6222447729090523,0.07693091006094897,2.9592575523789812,0.9574757489767067,2.8065891818694566
7.364365100860596,-1.3820289855881904,-0.47171826443669024,0.12298758646435684,2.9593990841437368,0.4449554201321214,2.8450459855197963
7.384446620941162,-1.0348261942853878,-0.7205464119916293,0.10198887079413585,2.959459175729363,0.22645988319663224,2.4283793188531297
7.40481162071228,-0.9641092360545721,-0.8330426272841462,0.1119231041548574,2.959560990819365,0.20082885554253918,2.111441294182488
7.4247658252716064,-1.3775284709571007,-0.6424645099843912,0.22569181150050147,2.9596449750984046,0.1452738652769344,2.281977572088407
7.445207595825195,-1.1893980417615202,-0.8010962004947658,0.2655559384995645,2.9597125592578415,-0.21292537595325275,1.9380132953114428
7.4655985832214355,-0.8614582544791858,-1.016986613957,0.23030034464960805,2.9597409078141963,-0.36563499577898495,1.521346628644776
7.485473155975342,-1.2943811868140072,-0.791459155696782,0.3209710161637869,2.9597900735010567,0.03443614957123403,1.8040008507284637
7.505534887313843,-1.6450487283931314,-0.6087818361386095,0.4424407312282722,2.9598304847638373,-0.3027014413153107,2.0329509162613384
7.5255982875823975,-0.9353894261195679,-1.055513185124971,0.34184699229490045,2.9598634188080792,-0.5757844829272992,1.2376847310842198
7.545722484588623,-1.1558504927591589,-0.9329618880291886,0.6013889757283744,2.959876791780265,-0.34420661845068,1.2563271395681268
7.565779447555542,-1.5328388476439614,-0.7233989823360041,1.0654790847366507,2.95990054170631,-0.2962031119026457,1.4466945276978547
7.5859010219573975,-1.3151995553820122,-0.8666531947556484,1.1369386369292314,2.959919438782111,-0.5705244777636681,1.186259646093687
7.605919361114502,-1.191211645459754,-0.9513890803362213,1.0663320257431623,2.9599347454135096,-0.4447248384022452,0.9935327551234119
7.626181125640869,-1.3860905232726273,-0.8392501840825595,1.1129411105853475,2.9599412708721586,-0.22625234743579786,1.1950804227859138
7.646282196044922,-1.719333253874065,-0.6474924290160431,0.8849522995741315,2.9599533021023907,-0.5138625675051268,1.5397242963169409
7.66637110710144,-0.9955599083311724,-1.0868687699077273,0.7002814462105966,2.95996255106211,-0.08562616478905741,1.818886943050563
7.686469316482544,-0.49056968957978836,-0.8480639533152472,1.1638279714305835,2.959969800989751,0.26123511842928837,2.0450079420890583
7.706758499145508,-0.9939614221653832,-0.6546316170591132,0.9261706568587725,2.959974587798509,0.06500977459444378,2.228167144126844
7.726943731307983,-1.170434834702963,-0.57216862935644,1.0128160266091442,2.9599777039887725,0.23250692431513342,2.306250119610286
7.74695611000061,-1.083104732620135,-0.43115657458524315,0.9730175543917736,2.9599819402309056,0.518930548277517,2.4397705040994135
7.767018795013428,-0.9260411773180892,-0.6299367649252088,0.7716140623814635,2.95998469225637,0.7509338510535142,2.5479256786980717
7.78712272644043,-0.9840706511017265,-0.862943076798506,0.6857527878019601,2.9599862230307328,0.8498404427204845,2.5940322003360525
7.807242155075073,-0.8519963562712689,-0.6666838905207305,0.5389297744082039,2.9599888406548938,1.0189707544310522,2.6728760050835993
7.827362298965454,-1.1289566112480374,-0.5077139764601962,0.6777665754293196,2.959991437889981,1.1559662825212895,2.736738645724126
7.847432374954224,-0.7887577291980704,-0.3789482028225437,0.532460926097749,2.959991911894245,1.2669326373120475,2.788468978504715
7.867522239685059,-0.7385919198245796,-0.6370533336936817,0.47051483348797407,2.9599921974036976,1.3142393695519983,2.81052235725897
7.887591600418091,-0.48535825028297763,-0.7654132783731922,0.364587015125259,2.9599946461211855,1.3951340528844969,2.8482326606054484
7.907689571380615,-0.5822740625231428,-0.5876846104408329,0.2787854822514597,2.9599936060031444,1.460658232816372,2.878779282481983
7.927775859832764,-0.6761039131580286,-0.44372462477060126,0.20928624062368237,2.959996279973979,1.5137333761172047,2.9035207250576547
7.947948694229126,-0.5303554673504952,-0.38235208269775495,0.17965761656131413,2.959995341404463,1.5363599346688785,2.9140690978448527
7.968052864074707,-0.9179784940927814,-0.27740499385464834,0.12899266941466445,2.9599928418437176,1.5750513459749618,2.932107035249514
7.988203763961792,-0.34646260621472835,-0.7870978430610012,0.08795406222587819,2.886403865824133,0.9451914653741462,2.786040262379888
8.008249521255493,-0.8772347135086691,-0.6052492215268773,0.05471279040296134,2.900386175047057,1.0962048943009894,2.828403214563895
8.028324604034424,-1.3071600736297722,-0.45795183943148615,0.02778748300548156,2.911712801788116,0.5573259748046869,2.8627153839002815
8.048424005508423,-0.967444092740487,-0.7081566406955511,0.016308768857584914,2.9165415216093042,0.32759337807150635,2.446048717233615
8.06850528717041,-0.9095297254046221,-0.8230068927015014,-0.0033198972253562237,2.9247980436060588,0.28274898103855384,2.127343799550737
8.088573932647705,-1.333319068299856,-0.6343355692119946,-0.01921911675253854,2.9314871245568885,0.2116287550540169,2.2948585691803003
8.108735084533691,-1.5139871532952995,-0.5539019969078012,-0.025997205077284685,2.934338623371595,0.01646695196549436,2.366272831153479
8.128799438476562,-0.8292295965596943,-1.0110606149450603,-0.03758773611260059,2.9392141127581297,-0.3172617466973482,1.622157298355355
8.148903369903564,-1.2682759725488286,-0.786659096887132,-0.04697606625120648,2.9431634842063557,0.07361826508881006,1.8856574654060958
8.169225931167603,-1.623903541064681,-0.6048938756363851,-0.054580613663477245,2.946362362359638,-0.2709693132690145,2.099092587099354
8.189156770706177,-0.9182621854316558,-1.0523640481323306,-0.060740220088931776,2.9489535135113067,-0.4353514835830141,1.921079197502619
8.209256887435913,-1.1404359783653402,-0.9301276591640808,0.25933380191996147,2.9500575826439475,-0.21781699899855175,2.0042304878634654
8.229321002960205,-1.15398406716764,-0.7211033775925126,0.8066603795551688,2.951946410758983,0.15416936138151055,2.1720599612872493
8.249410390853882,-1.2015950520220897,-0.5517938012940664,0.9272950941430576,2.9534769980215554,0.10747506644134003,2.2869909646072677
8.26951551437378,-1.5295407827132166,-0.41465308050755756,0.7397620761701175,2.9547157046067745,0.10445530723289351,2.384495440623794
8.289952754974365,-1.650235498876928,-0.35618793024891926,0.6622689184673466,2.955244417547005,0.2680110657265483,2.4469454817320364
8.310047149658203,-1.3751483963304725,-0.2562122518473438,0.5199079148246109,2.956148423031405,0.5476888058748821,2.5537345366994364
8.330139398574829,-1.7104701730569305,-0.17523193749154165,0.40459533575834705,2.956880222655438,0.4956431476340503,2.640235918578653
8.350252628326416,-0.9883808630634552,-0.7043378478048079,0.3111922817370803,2.9574727788856428,0.4869981689235282,2.710300364395954
8.370316982269287,-1.368966315341595,-0.5382136600616684,0.23553579368824135,2.957953040771108,0.7250661290207273,2.767052407736236
8.390419244766235,-1.516727832645945,-0.46739231766710204,0.5259822143194173,2.958158177824764,0.8265594083700561,2.7912468169127598
8.410496473312378,-1.496840558408865,-0.3462877541217715,0.6999457508073742,2.9585081240380586,1.0001130673639196,2.832618904433829
8.430554866790771,-1.0143296065194476,-0.5611930328883308,0.5504259287110751,2.958790876037432,1.1406916768073658,2.8661324528315992
8.450607061386108,-0.7834375593435349,-0.7039663177121838,0.5110941530844433,2.9590200575327144,1.2545602270359026,2.8932781793238074
8.470712661743164,-0.8550243624501243,-0.6165696027218753,0.5330640138608989,2.959117111284918,1.3031040724053313,2.9048508655701815
8.490957736968994,-1.2058362461794703,-0.4671213015029594,0.9292557634664028,2.9592843275345726,1.386114163076753,2.9246394320737386
8.510989904403687,-0.9280912961486381,-0.3460682315448457,0.7361671684077863,2.9594203204649414,1.4533523721013124,2.9406680073949345
8.53106427192688,-0.35465398471565196,-0.8427148390134586,0.5797654064103068,2.9595268059573563,1.507814559674467,2.953652376311295
8.551174640655518,-0.6207293679633898,-0.741443557940131,0.6569109861496778,2.959576106378189,1.5310336316610935,2.9591865047601007
8.571228504180908,-0.7512305029829758,-0.5682693994908975,0.9134059119819988,2.9596573990158035,1.5707375315533414,2.968650890452938
8.591318368911743,-0.9018444181065216,-0.4279976978001634,0.9648870830779775,2.9597193921189295,1.2548960174420012,2.8147612455811752
8.61141300201416,-1.1256599678999908,-0.3681980876563932,0.8596983747701797,2.9597485760737205,0.9554066681608795,2.6726277319895955
8.631570100784302,-0.51468461256262,-0.8606403681058732,0.6798257847856832,2.959795741692861,0.45264948816382644,2.5638928367798215
8.651731729507446,-1.013494537740285,-0.6648187035241093,0.5341288856764035,2.95983453318218,0.6972458023801514,2.6484631972015973
8.67206335067749,-0.870142450230305,-0.5062030980787859,0.41611444567278566,2.9598654917912355,0.8953696560532264,2.716965152576522
8.691904544830322,-0.8057305465878104,-0.43858276431783616,0.36580309480273326,2.9598789426121117,0.9798326732983762,2.7461678476094136
8.712002515792847,-0.7923723625456998,-0.3229520486299017,0.2797705067902139,2.959902108367525,1.1242642335492221,2.7961058441839004
8.732194185256958,-0.5462328873382014,-0.542291087661708,0.21008411050007325,2.6874753470808024,1.1241083921107706,2.7211393425203685
8.75222134590149,-0.555866841109666,-0.6886557426818463,0.1536381715516652,2.494054595129172,1.1356962604143892,2.671957423533755
8.772560119628906,-0.796432999592966,-0.6027901438887495,0.12957435439649867,2.540648454555536,1.1961267557724453,2.705662114556972
8.792642593383789,-0.6515502247750327,-0.45596001351984194,0.5489127367286284,2.6203252481899844,1.2994626606667359,2.7632964046037323
8.81270170211792,-0.9560664554498437,-0.33702747527921834,0.4280894134772323,2.6848625225557243,0.7219648604875115,2.8099799408364188
8.832934379577637,-0.37731384804722035,-0.8353922339261065,0.33022246696576074,2.7371383769813002,0.25419107626024495,2.311450686468762
8.852938652038574,-0.7683769333652615,-0.644367683318484,0.25095019824226616,2.7794818100156915,0.5364957518272178,2.443985358892043
8.873017311096191,-1.0055392297367687,-0.5629308944224098,0.21715517841803955,2.7975333864268017,0.30884667438010827,2.5004870584964967
8.89303970336914,-0.8880867137612969,-0.7366739207971055,0.15936569451861204,2.828401719136823,-0.0804307923773799,2.254759556182558
8.913368701934814,-0.5902780622944725,-0.9590065547743349,0.13472912506675083,2.841561303585151,-0.24638891797739162,1.9878380338338948
8.933382987976074,-1.0747252320842102,-0.7444953114437911,0.09260059130406817,2.8640646074534355,0.13102515233287554,2.1818588635418688
8.953479290008545,-1.467127412052815,-0.5707411653225016,0.05847647895629521,2.8822927840232215,-0.2244675819782962,2.3390157860040772
8.973548650741577,-0.7912733443207645,-1.0247003253046696,0.030835996489559335,2.8970575262461398,-0.5124178604293291,1.788323828325964
8.993666410446167,-1.026146018605268,-0.9052303062526014,0.22765696980431804,2.903351439757251,-0.2871765510168294,1.728347258096575
9.013763427734375,-1.4277783220177922,-0.7009366380236044,0.6783162612088408,2.91411407935107,0.09798238658115269,1.8078312834506391
9.03381896018982,-1.2301004985354322,-0.848458549760954,0.8233362811595285,2.9228319846538153,0.061969143072258426,2.03605299618342
9.053901195526123,-0.8447873241658755,-0.9366514377001036,0.6503723877392181,2.9298934197290785,0.0675941436311914,2.220913107210025
9.073991775512695,-0.7968145239139061,-0.8259863519713556,0.5766351489652963,2.932904093076288,0.23483223783521803,2.299721620253545
9.094086170196533,-1.2420198654627739,-0.63674897829518,1.0636745417056477,2.938052448497084,0.5208120245100125,2.4344837413486453
9.11416745185852,-0.6519707399848113,-0.48346660310945067,0.8450462132149869,2.9422218133092035,0.7524579609053996,2.543643401060974
9.134234189987183,-0.9713693075429861,-0.954007887736,0.6679575152517994,2.9455990775142875,0.9400910186773136,2.6320611050651825
9.15433406829834,-0.9263137339115864,-0.8416071068241097,0.8746447655355227,2.9470391697628586,1.0200819094200604,2.669755499143398
9.174413204193115,-1.074650550648388,-0.6494014842202097,0.9847128412290599,2.949499729844029,1.028557888374884,2.7342133082345397
9.194514513015747,-1.3579329889630465,-0.4937152053061271,0.9246925037199847,2.9514947811736634,1.0482546649335795,2.7864229052507565
9.214725732803345,-1.278017937646078,-0.3676092173940252,0.8302748682873541,2.9531101153106336,1.1796861503092995,2.828712408672423
9.235028266906738,-1.1143340483376347,-0.3138483752493983,0.7385473814586186,2.9537997582262467,1.2357176003029424,2.8467407923794004
9.255157470703125,-0.7612888373533326,-0.8166169846897213,0.5816933789814811,2.954975994380759,1.3315310330988557,2.877570985099463
9.275220155715942,-1.115804638429272,-0.6291597982113641,0.4546416369749997,2.955930916334132,1.4091402648264395,2.9025423017467764
9.29532790184021,-1.5004017321682732,-0.4773196720351786,0.8944811729407165,2.956706292465711,1.4720040537663142,2.922768368402686
9.315390348434448,-1.4284869161876337,-0.4125872898532207,0.7963330556466448,2.9570328151949896,1.4254666616767226,2.9313925448357905
9.335469722747803,-1.01838722291533,-0.5048079478937825,0.6284997750737823,2.957593699397769,1.4192250238398083,2.9461391475306753
9.355562210083008,-0.9507936272588368,-0.559215998120357,0.5799342006108196,2.958053023281178,1.4801726717936685,2.9580818822864625
9.381019353866577,-1.1697142838561887,-0.4862942038211422,0.6006201633507935,2.95824588151888,1.5061550394089551,2.9631743420520875
9.406730651855469,-1.0744832224383454,-0.420665026290835,0.7162557120944495,2.9584235072853082,1.5295399750947383,2.967756184409404
9.446510076522827,-1.0744832224383454,-0.420665026290835,0.7162557120944495,2.9584235072853082,1.5295399750947383,2.967756184409404
9.467891216278076,-0.9887753063702038,-0.36159819429676643,0.8203277059637399,2.9585785185769944,1.5505853346614091,2.9718813566835207
9.487990617752075,-1.1142180516087583,-0.30843813060802766,0.7295949353673659,2.958718890184227,1.3880842434377045,2.9755937110624116
9.508076906204224,-0.8954048714411916,-0.5305346937143431,0.5744418976475664,2.8702458044480634,0.9436502300925731,2.5770411475714137
9.528215408325195,-0.8511779372422228,-0.6791331506862487,0.4487678559266386,2.807456059878149,0.7817561851318819,2.294703140039571
9.548276901245117,-1.2860542141430167,-0.5177977917539823,0.3469720964756635,2.8364394085013007,0.6158225009525224,2.43041840051399
9.568303346633911,-1.4714488608123424,-0.4490179839873994,0.303574944697459,2.8487954676511706,0.38024024244892657,2.4882759318615957
9.588483572006226,-0.794773602284873,-0.9261046009393638,0.22936570520494182,2.869923921533384,-0.022607802307403113,1.9273023238866664
9.60852336883545,-1.2403666315405528,-0.717844745054763,0.16925622121600287,2.887038144176389,0.312286820027607,2.1328248628140303
9.628599882125854,-1.6012969315791885,-0.5491541766954793,0.12056753918496231,2.9009013452349643,-0.077643416436016,2.2992985236776207
9.648688554763794,-1.2321672214252068,-0.7902387250856799,0.09981078526646608,2.906811507847359,-0.23594234091898397,2.148711354171428
9.669119358062744,-1.1239555456737018,-0.8894933924753278,0.35147850424077287,2.916916813163133,-0.1665726248882041,2.1032690951592645
9.68898057937622,-1.3669062042395725,-0.6881896505245106,0.8493131565960368,2.925102073857115,0.19567520791414778,2.2668116280652093
9.70903730392456,-1.0547060754662456,-0.7793017655682194,0.9618438524149044,2.9317322014765197,0.1410980405296594,2.4078266644371156
9.729806661605835,-0.7402354452844169,-0.9385397342384033,0.856959467173414,2.934558550650152,-0.04701037766139743,2.4679442837418195
9.749915361404419,-0.675571572896464,-0.7279173756831411,0.677607231449398,2.9393924914195164,0.2925169090125627,2.570744330948622
9.770028114318848,-1.143812967354181,-0.5573130498614289,0.5826082151831818,2.9433077254290505,0.24701018205188788,2.654013047752647
9.790099859237671,-1.3875647877502135,-0.41912357919894405,0.963593845069419,2.9464794558722445,0.5306777088241504,2.7214591900902367
9.81016230583191,-0.851189603871945,-0.307190103368011,0.7639809955174893,2.9490483592565178,0.7604489576645336,2.7760921100818146
9.830257892608643,-0.6944377562681601,-0.5724710825476524,0.6788829831629244,2.950143523330866,0.858404024968884,2.799382286065297
9.850334167480469,-0.8120249773971691,-0.7131015802092129,0.5333652004629641,2.9520162538980013,1.0259072335235766,2.8392097223445383
9.870452880859375,-1.1081278904988836,-0.5453123265026472,0.7381958879623608,2.9535339237887666,1.1615848708601932,2.871468924883866
9.890510559082031,-1.1651027668321232,-0.47378103124002546,0.9783762991661247,2.9541799740971033,1.219426334899538,2.885222367299651
9.910618782043457,-0.9585015877022631,-0.35146249441968386,0.7759546363314809,2.9552846778064175,0.9019761772238652,2.908741376404022
9.930697917938232,-0.37928632881463664,-0.8470845901745803,0.6119935071938376,2.956180589023198,1.0612006285850522,2.927789111269152
9.95078992843628,-0.03249350455269076,-0.6538385172067996,0.5113819428526605,2.956906252814932,1.1901724998529435,2.943219177426695
9.971230745315552,-0.5477471108133842,-0.4973091791817157,0.4524399515407855,2.957494064780095,1.294639705358993,2.955716653934098
9.991342306137085,-0.38768522676966455,-0.43057824293148517,0.39849607695293915,2.9577446583020857,1.3391757144151613,2.9610445545249986
10.011442422866821,-0.4500338653292578,-0.31646826210107415,0.3062518223318807,2.958171719949435,1.4153320872225967,2.970156749456841
10.031726121902466,-0.36321798708475656,-0.5370391840626496,0.2315339760888234,2.909324514406343,1.12901900890268,2.9775376066126356
10.05169677734375,-0.4201064075090523,-0.6844017516061115,0.17101264154421805,2.874679137930582,0.9319054149411625,2.9835143385423546
10.071773767471313,-0.6920957668229748,-0.5989615571090001,0.14521137738979625,2.8832107900824893,1.012714907622951,2.9860632176225796
10.09188961982727,-1.1571975809458583,-0.45285881053199917,0.10109136921862417,2.8978007399668164,0.48969907705754734,2.9904195860038953
10.111991882324219,-0.5402301299547956,-0.9292156331515802,0.06535406224741605,2.9096182545845553,0.06605436480656418,2.1570862526705623
10.132086277008057,-1.0341864094607027,-0.7203646670913965,0.03640679042040699,2.9191907098089964,0.3841038859686167,2.3189498514846694
10.152467966079712,-1.2447677541659448,-0.6313281780641535,0.02406611137836629,2.923272280520644,0.1716961038568966,2.38795503779518
10.172358989715576,-1.081861869659203,-0.7920758024473823,0.0029635502164766965,2.9302508400071066,-0.19152483390920028,2.0390035395276076
10.192473888397217,-1.0022081304770756,-0.8909814218186741,-0.014129524324653885,2.935902570554329,-0.13773628534539306,1.803047788623803
10.212578535079956,-1.4083885683661534,-0.6893949271395823,-0.027974914702969648,2.9404818608215857,-0.12896442444319253,2.032178799484694
10.232797384262085,-1.5815497038258801,-0.6034554209479276,-0.03387742323267268,2.9424339882969828,-0.29006725779578946,2.129860916548244
10.252926349639893,-0.8839554379842154,-1.0511988869069715,-0.04397066836534343,2.9457717819769003,-0.4997572820372289,1.9188113499717483
10.272990703582764,-1.312603925624974,-0.8191711339958624,0.5609837586240718,2.9484743870733685,-0.07420519154996671,2.0331866450184326
10.29305911064148,-1.0117256441794154,-0.631228693528237,1.0509968444854982,2.950664913703342,0.2704918895231876,2.2185909116028486
10.313156604766846,-1.111005136464253,-0.5511058143026258,0.9371973544459058,2.951598422333008,0.06944267515305058,2.297630783387473
10.333251237869263,-1.3625001622926292,-0.4140958477224399,0.7425998571011837,2.953194157976244,0.07364767286249987,2.432791455404327
10.353420734405518,-1.397000580118045,-0.30311763067206515,0.5849756796104125,2.954487267960758,0.39025461107626847,2.5422712568351935
10.3734610080719,-1.481043184948822,-0.3740546151021978,0.4573002844469961,2.955534687048214,0.2987062335415629,2.6309499226618396
10.393785953521729,-1.6469388594315553,-0.4804784897574577,0.40287022936827527,2.9559812183433927,0.09483561338139498,2.6687553613613093
10.413889646530151,-0.9369204842019607,-0.951587575918743,0.30979488578830294,2.849742798391727,0.4074159343948779,2.7334017651640568
10.434221744537354,-1.3555056025657635,-0.7384859509277735,0.23440385748852538,2.8706913347590524,0.660605712735272,2.7857654617445426
10.454213380813599,-1.6945595134063625,-0.5658736037892869,0.7864670527212743,2.8876594481245617,0.8656906904845711,2.828181372903796
10.474277019500732,-1.5887161698982455,-0.49228617105030154,0.6991203474491469,2.8948928124086373,0.9531217382199094,2.8462637512225215
10.494378089904785,-1.135111428155516,-0.6794517516237405,0.5497573954499626,2.907262524135288,1.102628719634504,2.8771845751435516
10.514476537704468,-0.7913517346810577,-0.7997559375609243,0.46618518777369056,2.917282947844655,1.2237293506659237,2.902229362491559
10.534520387649536,-0.9333314549777205,-0.6155023095955323,0.5844451000652677,2.925399181409561,1.3218207601918115,2.9225158062218184
10.554626226425171,-1.0783245344132824,-0.5369520113768486,0.7069951603140205,2.928858592859528,1.3636385875463422,2.931164553706102
10.574699640274048,-0.9093876799527374,-0.4026311838837122,0.5561360798543566,2.9347760119771236,1.435147426069816,2.9459530864954298
10.59511113166809,-0.3395040111023401,-0.888531288998291,0.43394022468202886,2.9395690213993313,1.493069591581913,2.9579318639690673
10.615045070648193,-0.8418525193466246,-0.6874103124666564,0.33496158199244336,2.943450432921972,1.5399862913277242,2.9676349408012497
10.635088205337524,-0.7749795338604984,-0.6016694050242974,0.615465423793199,2.9451070928360963,1.559987963044382,2.9717709382268196
10.655194997787476,-0.7618263221893862,-0.4550521212751619,0.7724269932724912,2.947936431692099,1.2461899603596323,2.8931746004785417
10.67528510093689,-0.5147399918730916,-0.6492920499317483,0.6091358645507178,2.9502269982662557,0.7900202061112472,2.8380794047247626
10.695339679718018,-0.5428394115338553,-0.7753265718237423,0.4768701305152815,2.9520840771877093,0.7574015927844048,2.8705534589685495
10.715791702270508,-0.8025554663329365,-0.6807938808132876,0.42048311746375333,2.9528752701234753,0.8556618524066404,2.8843984597130765
10.735911130905151,-0.6613111525346752,-0.5191430604114522,0.9067205701092996,2.9542293952005956,1.0236860584856673,2.908071897062885
10.755993127822876,-0.7738323456708454,-0.38820585173211763,0.7179139208007295,2.9553258101124826,0.49858562665348616,2.9175234738478975
10.776069402694702,-0.22970428075925647,-0.8768467148281566,0.5649804284466134,2.956213906191111,0.5665370778341063,2.934902483022926
10.79621434211731,-0.7826604674847126,-0.6779458265962112,0.4508689531398008,2.9569330343327445,0.7894948981091002,2.9489811759928775
10.816283226013184,-0.6091712804357636,-0.5931512782064342,0.7197820578258207,2.9572402159663933,0.8845453740984064,2.954982684246984
10.836379289627075,-0.6132406518985182,-0.44815240133276973,0.8569235644932769,2.9577636151039073,0.69908166790334,2.920866626152794
10.856431007385254,-0.5255363002405027,-0.6437034380349875,0.6775780340369,2.9581885282341647,0.3733860117449145,2.6207410062899874
10.876776695251465,-0.3168325592210882,-0.8753330469879317,0.60112023063321,2.9583692340597905,0.2997779048402413,2.3826376283174713
10.89688777923584,-0.8532343712281489,-0.676719764702378,0.4703773868129001,2.958678851750258,0.5734197368517485,2.5016466290276895
10.916970014572144,-1.287719878677454,-0.5158430238403835,0.6799929055585356,2.958930246700155,0.7950696821240965,2.5980428569147365
10.937070846557617,-1.0107397749276825,-0.38553284762347223,0.5342642722872407,2.9591334998271255,0.974606441281824,2.6761245532774294
10.961366415023804,-0.8681743527779892,-0.6429795477979563,0.47213792351228906,2.959220149844413,1.0511457684793382,2.709411575596525
10.984963417053223,-0.45687889221263805,-0.7702134842299057,0.36590181757978446,2.9593691832609474,1.1820282090407555,2.766332246659601
11.005088329315186,-0.20219096984097334,-0.6761921278486694,0.3206117360691507,2.959432264934853,1.2378254002807576,2.790598508055511
11.025148153305054,-0.7603746976860509,-0.5154155320210579,0.2431655062160121,2.959538713806016,1.3332384296168558,2.832095545921538
11.045207262039185,-0.36061198187110677,-0.38518655587787554,0.18043406003496978,2.9596259103656157,1.410523136019269,2.8657075873590117
11.065348863601685,-0.7045347948605261,-0.319337338167958,0.1296215886283255,2.943107287954154,1.473125153724652,2.8929334242186786
11.085606098175049,-0.4250813225878477,-0.5834035531091513,0.10795942976549296,2.775624050144697,1.163766824875427,2.9045404681731655
11.105632066726685,-0.47021572687262253,-0.7219568626426773,0.07091725545584732,2.6584011124073657,0.9708099198983607,2.9243866395349407
11.125717639923096,-0.9774746786101352,-0.55248502052487,0.040913059976975405,2.7157043747558447,0.7689560501933929,2.9404628050623396
11.146516799926758,-1.193727205875674,-0.48023650151227476,0.028121753979277866,2.7401334646263047,0.5180606733081483,2.94731690687504
11.166587352752686,-0.5698190857307324,-0.9513915763337589,0.006248647122588793,2.7819078751078803,0.0890278356492552,2.113983573541707
11.186709880828857,-1.0581534700791373,-0.7383271828214438,-0.011468595830703079,2.815745243475151,0.40271229437943235,2.2840366829474266
11.206776142120361,-1.4537042435799,-0.5657449372670526,-0.025819562622869496,2.843154497389605,-0.004398387495831241,2.421780277736752
11.226876258850098,-1.0993338105132864,-0.8051704307056076,-0.03193760636058254,2.85483919020345,-0.1779580389118163,2.0051136110700853
11.246939897537231,-1.0163604136347482,-0.901588077440018,-0.04239946115207187,2.8748190132318157,-0.12674733507533348,1.7305022913075163
11.26703929901123,-1.4198519117395858,-0.6979863172449607,-0.050873563533178214,2.8910041122302,-0.12006364999163596,1.973416939075579
11.287108421325684,-1.2236800284835192,-0.8460688853180227,-0.05773758646187435,2.904114019342342,-0.3652257596389541,1.9473542349472432
11.307512521743774,-0.8923122260797388,-1.0574620024739438,-0.0606637791991468,2.9097026174081075,-0.44007867896010705,1.8306960991163985
11.327611207962036,-1.3193729318481402,-0.8242442645272773,0.5474623388486912,2.9192582558535567,-0.02586585836238553,1.848502173318631
11.347740411758423,-1.1286391129418698,-0.6353378160237577,1.0400446042934832,2.9269992413869312,0.3096505665251176,2.068996105982446
11.368046045303345,-0.7570410156651194,-0.48232372998723294,0.8259062394711,2.9332699398173325,0.028364089188284813,2.2475958624338737
11.388267993927002,-0.8575361162168731,-0.644757250017025,0.6524545576050237,2.938349101574132,0.35357399166853737,2.152712832294795
11.408292770385742,-0.9421539978830976,-0.563281563128261,0.5785091018445213,2.9405145231730714,0.492215878161523,2.2383412897893535
11.428375244140625,-1.2304790173093794,-0.42395804949314614,0.45206231726611507,2.9442163673609345,0.3812953414701683,2.3847673535390337
11.448475122451782,-1.0702881066527554,-0.6241059783805778,0.34964054255416743,2.9472151025315556,0.04103095619473379,2.18692608002541
11.468549013137817,-0.7542593170283484,-0.8576954362709674,0.3059764882987507,2.94849349487942,-0.07429375143189994,1.9526885575841244
11.488710880279541,-1.207550040556356,-0.6624332801718569,0.42330925133459485,2.9506795850483285,0.2704234980346355,2.153387878442275
11.50879454612732,-1.5747154934097958,-0.504270841947552,0.32635049358102186,2.9524502027237918,-0.11155143817956983,2.3159547412661445
11.528878450393677,-0.8784195554196806,-0.9708593852667039,0.24781389980062773,2.9538844102957955,0.005355740032546331,1.9386498402334122
11.54898452758789,-1.3081198468848543,-0.7540961155712776,0.23945996913633144,2.9550461160266277,0.3349372308262473,2.1420163289855023
11.569335699081421,-1.4913078531596073,-0.6616864858848787,0.2068139722226983,2.9555416801926198,0.12744522452648727,2.22871483100006
11.58924150466919,-1.2815593298004717,-0.8166659775665068,0.1509893175003856,2.9563893863326136,0.12063543351821412,2.3769692563713942
11.609307527542114,-1.1639630680647273,-0.9108994609221385,0.32668314679689436,2.957074655038807,0.42831204558725966,2.4970549895578933
11.629396438598633,-1.3615667693034375,-0.8028095262773636,0.506226631738787,2.957366908195362,0.5594791476009383,2.5482494316438817
11.649503231048584,-0.9947302581604149,-0.6179757025182966,0.39351362212834806,2.9578668024176418,0.7837793135780142,2.6357918179435886
11.669587135314941,-1.11377004200596,-0.46826030795617646,0.3022161351582407,2.9582723299003657,0.9654601192768855,2.7067001864419495
11.68969464302063,-0.7054030308255751,-0.4421721224019167,0.22826512108331412,2.8428918766784843,1.112622326963301,2.764136957844063
11.710086584091187,-1.167976476347987,-0.39511646494594155,0.1683648050984695,2.865141995309504,0.5885380941409176,2.810660619659639
11.730150938034058,-0.8734754714325861,-0.6516048036135678,0.14282836154023001,2.8746277957785535,0.4286537350790596,2.8304940347540692
11.750218629837036,-0.8615821312436163,-0.7771999500390976,0.09916097284758632,2.8908474739036136,0.43027662148796586,2.864409820445177
