liuyurong129/humanoid-gym/humanoid/data/robot1_actual_20250621-221215.csv
timestamp,joint_1,joint_2,joint_3,joint_4,joint_5,joint_6
0.00019478797912597656,0.0,0.0,0.0,0.0,0.0,0.0
0.020511150360107422,0.0,0.0,0.0,0.0,0.0,0.0
0.04043436050415039,0.0,0.0,0.0,0.0,0.0,0.0
0.06051492691040039,0.0,0.0,0.0,0.0,0.0,0.0
0.08059239387512207,0.0,0.0,0.0,0.0,0.0,0.0
0.10068416595458984,0.0,0.0,0.0,0.0,0.0,0.0
0.12078666687011719,0.004999949345068994,-0.005000000419432562,0.005000006980267117,0.005,0.0050000016780930145,0.004999843678091351
0.14088797569274902,0.00999994939550479,-0.009999995979311753,0.010000007888206467,0.010000004329030992,0.010000000989819782,0.009999849161965314
0.16095924377441406,0.012499949411294781,-0.012499991388200973,0.012500007888206467,0.012500012938824315,0.012500002083065252,0.012499847334617809
0.18104052543640137,0.01749994952771015,-0.017499986626318142,0.017500008843317365,0.017500025893806073,0.017500004763786672,0.017499855164915076
0.20117878913879395,0.022499949729305923,-0.022499981681214688,0.022500009853116464,0.022500043250484807,0.022500009138059086,0.022499866255667127
0.22130990028381348,0.027499950016514754,-0.027499976539894395,0.027500010925079157,0.027500065055629314,0.02750001521871985,0.027499880579064093
0.2416841983795166,0.02999995046290537,-0.029999976511009146,0.03000001206655254,0.030000065055629313,0.030000014904700636,0.029999904312752717
0.2615928649902344,0.034999950947000265,-0.034999971150139086,0.03500001328465449,0.035000091344157096,0.035000022633042804,0.03499992624977263
0.28177404403686523,0.03999995151523304,-0.03999996556918351,0.04000001458615743,0.04000012213672627,0.04000003205705966,0.03999995132180253
0.3017690181732178,0.044999952164290966,-0.04499995975979003,0.04500001597735537,0.045000157437025214,0.045000043149924174,0.044999979432105666
0.3218514919281006,0.04749995200109115,-0.04749995380145864,0.04750001597735537,0.04750019722875611,0.04750005643050674,0.04749996906723716
0.3420088291168213,0.05249995269198627,-0.05249994753754917,0.052500017463912876,0.05250024147231041,0.05250007077007534,0.05249999855023886
0.3620445728302002,0.05749995345064134,-0.05749994103621536,0.057500019050694524,0.05750029010113678,0.05750008657746733,0.05750003073633533
0.38221287727355957,0.05999995454187378,-0.059999940913024095,0.06000002074157364,0.060000290101136784,0.06000008588217347,0.06000008069876147
0.4022345542907715,0.06499995545124876,-0.0649999341565406,0.06500002253921898,0.0650003430178047,0.06500010297216242,0.06500011955209616
0.42237067222595215,0.06999995640079905,-0.06999992717107288,0.07000002444485827,0.07000040008976953,0.07000012126087567,0.07000016061897979
0.44245338439941406,0.07499995737614441,-0.07499991996776068,0.07500002645801754,0.0750004611448482,0.07500014056276628,0.07500020365925573
0.46252942085266113,0.07749995697850438,-0.07749991276884323,0.07750002645801754,0.07750052596641789,0.07750016161208341,0.07750018307182042
0.48262572288513184,0.08249995791931843,-0.08249990520299094,0.08250002857623533,0.0825005942883536,0.08250018228276114,0.08250022600100239
0.5027287006378174,0.08749997109563055,-0.08749990364408645,0.08250003712576172,0.0875005942883536,0.087500177812434,0.08750052792607799
0.5230112075805664,0.09249997141648593,-0.09249989701000831,0.07750003899647177,0.0925006567504155,0.09250019029469876,0.09250056644773401
0.543290376663208,0.09499997098931354,-0.09499989105582535,0.07500003899647177,0.09500071733700176,0.09500020061009447,0.09500054502704207
0.5636062622070312,0.09999997108692149,-0.0999998854620627,0.0700000407302197,0.1000007754548734,0.10000020637425203,0.1000005823105518
0.5835881233215332,0.10499997092367282,-0.10499988043082317,0.06500004231289071,0.10500083049105648,0.1050002078786521,0.10500061767984607
0.6039779186248779,0.10999996772607544,-0.1099999082516287,0.060000030282721245,0.11000104782076259,0.11000081292400465,0.1100004515120439
0.6238555908203125,0.11499999544214208,-0.11499996224966223,0.05499999705789233,0.11500144340442844,0.11500146003039724,0.11500020992907956
0.643967866897583,0.11749999346992585,-0.11749999876468036,0.05249997912339607,0.11750162136076092,0.11750174965166307,0.11750003684669669
0.6640455722808838,0.122515903228759,-0.12210871166138124,0.04769337523870591,0.12064364138923185,0.12139757610655438,0.12427532918126273
0.6841268539428711,0.1275899051448801,-0.1262979371486443,0.04290297107989425,0.12321396326427062,0.12460966171669421,0.13161513557651963
0.7042174339294434,0.1301053865762633,-0.12827299123685423,0.04066703126243919,0.12323342730165884,0.12621093353560622,0.13646581587191917
0.7243244647979736,0.1351400144353038,-0.13221209383006616,0.0361645886233354,0.12354014922565304,0.12946037388036752,0.14591955036882906
0.744483232498169,0.13662070271700774,-0.13587349060148102,0.03176023972108629,0.12334244753990821,0.13371055054024172,0.1445626767418126
0.764531135559082,0.13412136701860622,-0.13758546137685065,0.029558208547843103,0.12333208757285818,0.13663401443788717,0.1362399257299035
0.7846775054931641,0.1290901688978078,-0.14064444532286294,0.025274673203150445,0.12261979194247057,0.1444787749024156,0.10492734559893915
0.8048348426818848,0.124041798361894,-0.14353073117416396,0.021037606544157074,0.12228839363970354,0.1516198784222645,0.07428086703600757
0.8250637054443359,0.12151245887828059,-0.14502651138645758,0.01886065396851937,0.12246611886503991,0.15596285939261612,0.057355857607302774
0.8451740741729736,0.11642760260017009,-0.14786440102269274,0.014546358885732571,0.12322205470509018,0.16493310497440705,0.020757860871867127
0.8652157783508301,0.11131451378370942,-0.15061456564741862,0.010221336767001068,0.12483115011409589,0.174259575216483,-0.017694114584518986
0.8852732181549072,0.10618513406008412,-0.15333210337051428,0.005848384909230345,0.12741174348930143,0.18347104139567272,-0.057496841569229185
0.9053707122802734,0.10368930961862521,-0.1548593882317758,0.00798599212041059,0.1289200442730913,0.1895937283577026,-0.06737209548328853
0.9256012439727783,0.0987539416707328,-0.15869476970515892,0.007579632924508868,0.13303632417979075,0.19598951385432548,-0.06039139434146936
0.9456632137298584,0.09856617840723225,-0.16113778880289245,0.003215786595271282,0.13733439192584934,0.20470778874235634,-0.0994378838729367
0.9658479690551758,0.10095440561642685,-0.16250810569952576,0.0009668845518138085,0.1396854858764101,0.21018570117472118,-0.11708395663092756
0.9858794212341309,0.09567734538388932,-0.16499665872197913,-0.003513932272535159,0.14455630319897958,0.22314315580659158,-0.16138186121484066
1.0059726238250732,0.09052129496489618,-0.16791362046723943,0.0003481596515587245,0.14500412643513064,0.2420824954780952,-0.18862465020216165
1.0262086391448975,0.08799295479776915,-0.16981641968455694,-0.0024438509893649632,0.14607108361753998,0.24770029297077525,-0.18505655404709076
1.0461764335632324,0.08265254824156028,-0.1723231205841705,-0.003287081625056896,0.14990556854899062,0.2662122785121771,-0.23127429237992397
1.066263198852539,0.07726786973621846,-0.17483985955058523,-0.004285539375436738,0.15404067551573844,0.28622779586216324,-0.27951453440703794
1.0864756107330322,0.07455116733758303,-0.17609323695311746,-0.0066191349610187945,0.1574158578714215,0.2955342478166903,-0.30424207776979983
1.1065597534179688,0.06931907416336573,-0.17950164892483134,-0.0027455812473774787,0.1562555907755369,0.31556304541747016,-0.3151020406772916
1.1266415119171143,0.06398360841220906,-0.18271985320069514,-0.00799270650532666,0.16006959984230726,0.33389153063567245,-0.3373984587570164
1.1467540264129639,0.05855852613221446,-0.1859198879883562,-0.004544353446862626,0.15452060250893018,0.3630179200111777,-0.36698264292979615
1.1668596267700195,0.05594849320546386,-0.18791462949717203,-0.007427498959505526,0.15381159179976578,0.3717942660662916,-0.36215802307066935
1.1869440078735352,0.050460879540218107,-0.19117520200437968,-0.008032185598954307,0.15365859418131816,0.3984678551667225,-0.3922434462019234
1.2070021629333496,0.045053331028742136,-0.19487286783250857,-0.00388609000190926,0.14970227505059558,0.42644866099610723,-0.40454456590051247
1.2270770072937012,0.04236137648268528,-0.1967976827441077,-0.0017007994754479738,0.14766350859024216,0.4394497974003248,-0.3988777146061305
1.2471675872802734,0.03693877401710147,-0.20064818331400078,0.0026936759759604288,0.1431823490719386,0.4670877469924519,-0.38734295653674483
1.2672500610351562,0.03147933824693764,-0.2045228632846208,0.007158209864352476,0.13894406487526131,0.48587504481659527,-0.3761308983265779
1.2875268459320068,0.02597921797456393,-0.20832408652084802,0.011511435572107567,0.13707319178168553,0.5005568994990561,-0.36671071966045743
1.3075437545776367,0.023173775378526367,-0.21011539907750437,0.013586537130890104,0.13596354005353395,0.5084861556450249,-0.36192493332958475
1.327617883682251,0.017515790782188276,-0.2136645213217622,0.017725836891806675,0.13327082878277027,0.5260182625051795,-0.3520899534778572
1.3476884365081787,0.011783297144923995,-0.21713595403096025,0.021874525120839483,0.13081267347509198,0.5452718530050671,-0.3425900261129522
1.3686432838439941,0.008894782618034275,-0.21886646994185913,0.02394622326149214,0.129496089689021,0.5554657861895285,-0.33782001024569047
1.3887526988983154,0.0030672490042982477,-0.22229513834962383,0.028106377149178408,0.12730068883716872,0.5767077369004848,-0.32872575018928807
1.4088551998138428,-0.002821114211028563,-0.22572339015836076,0.03226917397516737,0.12496845173159367,0.5995128251016535,-0.31966954337386305
1.42891526222229,-0.008769580679527347,-0.22916240083779688,0.036440744837375215,0.12252157236196544,0.6239061535166579,-0.31067772551528106
1.449115514755249,-0.01176240817775585,-0.2309050224264446,0.03852499656713007,0.12094737317696544,0.6368476735688802,-0.3109754239663442
1.4691102504730225,-0.017796049633495792,-0.2343838780624537,0.042722310277995876,0.11836342908671547,0.6636217150416465,-0.3121265269721378
1.4891791343688965,-0.02387105708376366,-0.23792677213042115,0.046928604147756736,0.11564341687074861,0.6913294745528408,-0.3133046690785867
1.5092706680297852,-0.026916701853239532,-0.23974476568046243,0.0490287557938337,0.11387997114367991,0.7055545266169102,-0.31363594689987956
1.5293872356414795,-0.033043625165486236,-0.24339685122238505,0.05326695198627482,0.11100296423314239,0.7346491984335528,-0.31490399658456564
1.5494656562805176,-0.03921531965862183,-0.24712381441665632,0.05750791704746865,0.10733114419488855,0.7657201688879629,-0.31579907472133123
1.5695385932922363,-0.04541212914287262,-0.2509298307325997,0.06179196958792752,0.10362863093258687,0.7978602931554175,-0.3168570792054129
1.5896117687225342,-0.0485404079839878,-0.2528478568474418,0.06392255831549176,0.1015885101042438,0.814486577517015,-0.3173341085667132
1.6096787452697754,-0.05482415508829843,-0.25670874610002964,0.0682137289562714,0.09844027689635432,0.8476895073930777,-0.3190598229884877
1.629776954650879,-0.06113320416838614,-0.2606165880465746,0.07253232079347258,0.09620461394411271,0.8809265314582002,-0.321572977762681
1.650423288345337,-0.06428881310880498,-0.2626055484749194,0.07470371569654999,0.09501938953039368,0.8978859572408195,-0.32285355964879153
1.670464038848877,-0.07053187610797206,-0.26673638856605414,0.07904586310160383,0.09192490950980986,0.9291837976677199,-0.324852884935235
1.6907715797424316,-0.07672143143723413,-0.27103605412689674,0.08333469388380839,0.08776015291794725,0.9564119273838039,-0.3260305286386366
1.7116177082061768,-0.08285989636539898,-0.2754959985785502,0.08750510012695194,0.0801809678325714,0.9801316919876369,-0.32493907559498303
1.7315287590026855,-0.0859269103788239,-0.2777305930796706,0.08962741766005007,0.07690474166814826,0.992104492112914,-0.32478479730600524
1.7517127990722656,-0.09210644906044141,-0.2821934180783906,0.0939054210208333,0.07069346953812015,1.0181483483072034,-0.3249456808884594
1.771721363067627,-0.09519787354343581,-0.2844241464808932,0.0960775952458922,0.06815539980630406,1.0313091531180019,-0.32544417555450594
1.791804552078247,-0.1013908023734328,-0.28888701304928915,0.10047664834587174,0.06394498570674806,1.0586567568781118,-0.32714234430773664
1.8118906021118164,-0.10756337857297088,-0.2933605428431611,0.10496108298654776,0.06130006736383839,1.0862248428627235,-0.3299123539094604
1.832026720046997,-0.11370260806694327,-0.29784675559271573,0.10952573421727096,0.060279844155524606,1.1137364842091242,-0.33371495624418535
1.8521296977996826,-0.11675605033874,-0.3000951085451124,0.11183602554949572,0.060383963663066115,1.1273804571503554,-0.33598132733302344
1.8722269535064697,-0.12285795569381898,-0.30459685653622015,0.11650043669535141,0.06144657349257097,1.1560200368220996,-0.341112800216075
1.8922557830810547,-0.12877944088627008,-0.3092607026809691,0.12126622179564828,0.06209238334140402,1.188580667232135,-0.3463772977337795
1.9130802154541016,-0.13167766942354697,-0.31161465877097494,0.12368291111375858,0.06310660619960515,1.2036083088084533,-0.3492999233240803
1.933267593383789,-0.13740479244079093,-0.3163449718525671,0.12855392910477484,0.06613282435550102,1.2324718876775036,-0.3555707847891966
1.9532947540283203,-0.14304294811541599,-0.321113408430221,0.1334557598238404,0.07015509160623164,1.2594827264432322,-0.3621903792001007
1.9733688831329346,-0.1486049229871747,-0.32591415025762605,0.13837988317934907,0.07496768809866264,1.2848410474908396,-0.36904067483646774
1.9934642314910889,-0.15136342351702914,-0.32832713702543764,0.14084669623670995,0.07756309026640675,1.2971464483311406,-0.3725118960628171
2.0138802528381348,-0.1568302009504124,-0.33328440854693064,0.1457258213114444,0.08152324104986734,1.3207784080650544,-0.37890161120942384
2.033759117126465,-0.16222388640860408,-0.33823720777746563,0.15063683349938303,0.08642330089138708,1.342095823980887,-0.3854905110707217
2.0538244247436523,-0.1648958255652837,-0.3407114164989421,0.15310243973776783,0.08917645666413336,1.3518733384288633,-0.3888304097734217
2.0740127563476562,-0.17019370642315668,-0.3456553016978986,0.15805074519704548,0.09518839414704641,1.369595090946895,-0.3955469072226574
2.0940277576446533,-0.17560645444015047,-0.3506937738817195,0.16276621020743834,0.09777117997503552,1.392984022149307,-0.40154231157519554
2.1145999431610107,-0.180999323475125,-0.35579408021732356,0.1673790032401383,0.09823644432210638,1.4140914405596445,-0.40682630165676426
2.134530782699585,-0.18368603534019676,-0.3583332497288931,0.16969285318625066,0.09867947680484367,1.424403003800888,-0.4095448817388525
2.1546061038970947,-0.18903665808640288,-0.36338886624208644,0.17436742630324323,0.10007442977996249,1.4436775358966278,-0.4150767708556611
2.174670696258545,-0.19434753423321752,-0.3684188358681709,0.17909082095676787,0.10222959093253066,1.4612945408783897,-0.42074352470448967
2.194788694381714,-0.19699004490458266,-0.37092436361230374,0.18146860303370393,0.10356793373307857,1.469540342467893,-0.4236159299149731
2.2148654460906982,-0.20227644442653211,-0.37588261653116223,0.1862434909300391,0.106388646723787,1.4846020891528826,-0.42932983660247986
2.234973430633545,-0.20753747984270945,-0.3807259676119893,0.19108733126674182,0.10943643789494072,1.491501601323726,-0.43465774998479956
2.255030870437622,-0.21018306288835142,-0.38316396727730645,0.1934807597929194,0.11078784903294658,1.4970574652762705,-0.4374141281341364
2.2754180431365967,-0.21553737515374194,-0.3879339061239371,0.1982728343021949,0.1139777806044141,1.511037006947455,-0.44316833572694864
2.2952888011932373,-0.22092995872253127,-0.39262665603744884,0.20311695820088296,0.11691052901611933,1.5240372752854499,-0.44882979522488153
2.315938949584961,-0.2236150326164592,-0.3949648305659794,0.20556200790066775,0.11847945982030592,1.5291769285732786,-0.451607977093883
2.335847854614258,-0.22909313018577998,-0.3995190618217038,0.21046685291406236,0.12175709323702039,1.544130424297379,-0.4574865958396321
2.3559365272521973,-0.23439666938301398,-0.4042286373646507,0.2153994870588714,0.12556463173244534,1.5519744356783391,-0.46303705995956995
2.3760321140289307,-0.23720072245773946,-0.4064182209404319,0.21786814106737146,0.1276757953659651,1.5632728165763863,-0.4662683773743937
2.3961071968078613,-0.2426535686936711,-0.4109412881234105,0.22280680016533627,0.13174071480769162,1.578280300626194,-0.47228327656396135
2.4161949157714844,-0.24810722212302636,-0.4154246545270386,0.2277861008663342,0.13602750017082518,1.5935903434382657,-0.4782916629642981
2.436401605606079,-0.2506731599414489,-0.4178260343584992,0.23030258476444282,0.138274593897557,1.5922866675401153,-0.48084343600772944
2.4565718173980713,-0.25657530218125807,-0.4216875200945091,0.23535972534629482,0.1399743089560854,1.5976708867717113,-0.48609001792640183
2.476727247238159,-0.2627112030124058,-0.42516198043388953,0.24055929641948012,0.14088658103299492,1.6033376753284223,-0.4912526160434673
2.4967451095581055,-0.26579497095358323,-0.4268970507683805,0.24318212843220266,0.14105781654109215,1.6063138326799937,-0.4938269896101117
2.516831159591675,-0.27198176959763093,-0.430347445872878,0.24847185479895104,0.14130656373598624,1.6123885386249244,-0.49899671503819104
2.5369222164154053,-0.27817263292677413,-0.4337851006166504,0.2538241394845811,0.14189903290643216,1.6186274954164608,-0.504193180548046
2.557309865951538,-0.28438900720180044,-0.437225457882056,0.25921254043118624,0.1425083914024811,1.624928267128622,-0.5094235540087941
2.577423095703125,-0.2874981521265603,-0.4389629616496484,0.2619145679753187,0.14280814830491226,1.628050598360354,-0.5120518685889381
2.5975091457366943,-0.2937206723591791,-0.44246150948543783,0.2673409037184763,0.14348138175138697,1.6344872533854868,-0.5173476491578648
2.6175718307495117,-0.2999347610584435,-0.44601460039234625,0.2727886621110332,0.14431177144421195,1.6410073055160048,-0.522693221160151
2.6382851600646973,-0.3061416773076049,-0.4496425354493963,0.2782479207791787,0.14518051633510523,1.6475455716239273,-0.5280801438387424
2.658343553543091,-0.3092074523270965,-0.45153955563373116,0.28097687095477725,0.14581170761693568,1.651065920871861,-0.5308023707451905
2.6784415245056152,-0.3151039558362401,-0.4556410742548295,0.2863050692776046,0.14795904888988307,1.6554544008509255,-0.5362764197229638
2.699270248413086,-0.32087974919539425,-0.45985519277176434,0.2916203890158799,0.1506384021540183,1.6582758089079908,-0.5416876946261607
2.71933650970459,-0.3238199445188011,-0.4619073720685631,0.2943030228836732,0.151885430288516,1.6602270805362003,-0.5444300984935899
2.739441394805908,-0.32924039521508,-0.46649637188178905,0.29948897913340994,0.15565592892572225,1.6592217208193034,-0.5496297634811632
2.7595627307891846,-0.3346894267530619,-0.4711158037653035,0.3047212361788691,0.1589544566654333,1.658715590737263,-0.5548050557941484
2.779780387878418,-0.3400902438842036,-0.4758423618130459,0.3099552341785938,0.16209762330721592,1.658342254673285,-0.5499762545397728
2.7999074459075928,-0.3426950819918919,-0.47828504600610305,0.31252576768323737,0.1641080862218576,1.6570976433102613,-0.5475246344965874
2.819955825805664,-0.34775864691540803,-0.47825406177772956,0.31756964755640527,0.1687577044589674,1.652857669835163,-0.5425521640870946
2.8402886390686035,-0.35025868233225993,-0.47575422383346466,0.32006964755640527,0.1712555938350332,1.6503580599911079,-0.5400517527017638
2.8616855144500732,-0.355258662666365,-0.4707539664429614,0.31506976580938717,0.16625873778769026,1.6453574926584837,-0.5350523706658059
2.8823282718658447,-0.35275867093594493,-0.4682539763702756,0.3125697697007598,0.16375873986506626,1.6428574924343644,-0.532552377211244
2.9024195671081543,-0.3477587362377608,-0.46325428358730425,0.3075697697007598,0.15875469782806972,1.637858214478666,-0.5275515448713041
2.9228267669677734,-0.3427687955657896,-0.45825109876102865,0.30257110457309305,0.15376636929048695,1.6330526932306824,-0.5225622903759647
2.942941427230835,-0.34028495608541814,-0.4557441968576781,0.3000741249946354,0.15132193379193945,1.6308703495146852,-0.520081701255646
2.9630799293518066,-0.3356666175234479,-0.4503858119301344,0.2953029335006734,0.14803091815978214,1.6322462458664742,-0.5154497670683671
2.983149528503418,-0.33066662579866596,-0.44538591349796325,0.29030293623971815,0.14302972533096667,1.6272472926573582,-0.5104495207353764
3.003305196762085,-0.3256666810618158,-0.44038619783613797,0.28530293623971814,0.13802584050005726,1.622247911313498,-0.5054486582516602
3.023390293121338,-0.323203546914107,-0.43782641667225974,0.2828254429846989,0.13673978842350384,1.622608310586087,-0.5031663756394953
3.0434584617614746,-0.31836506778550067,-0.4325368311121419,0.27797268861444896,0.13456937039222372,1.6258226735402355,-0.4986831649489938
3.0637168884277344,-0.31341315305137263,-0.427437530378718,0.2730072169864369,0.13158150088130385,1.6259271571619178,-0.49406222009249806
3.0838775634765625,-0.3109131773607226,-0.4249376623940157,0.27050721698643687,0.12907964931921795,1.623427433172827,-0.49156180741413846
3.1039845943450928,-0.30591322467784654,-0.4199379241656763,0.26550721698643687,0.12407595236977612,1.6184279716531682,-0.48656096916608976
3.1240580081939697,-0.3009132697775837,-0.4149381849891746,0.26050721696180595,0.11907223887013206,1.6134284788534985,-0.48156010114176906
3.1441447734832764,-0.2959132263009958,-0.4099382351639459,0.25550707121235106,0.11407030810975612,1.6084291647340618,-0.47655968962655515
3.164217948913574,-0.290913268224407,-0.4049384863847849,0.25050707121235105,0.10906665891749724,1.6034296480636023,-0.4715588058257842
3.1843554973602295,-0.288413288535206,-0.4024386107398951,0.24800707121235105,0.10656483960972002,1.6009298832320416,-0.46905835817413466
3.2044310569763184,-0.28341332787580575,-0.39743885699307197,0.24300707121235104,0.10156121099578554,1.5959303409349834,-0.464057451316434
3.224483013153076,-0.27841336553597423,-0.39243910003917165,0.23800707121235104,0.09655759497516989,1.5909307822704268,-0.4590565289824195
3.2445666790008545,-0.2759133837461604,-0.38993922038455964,0.23550707121235104,0.09405579141850505,1.5884309969791353,-0.4565560619854909
3.2646632194519043,-0.2709134189471031,-0.38493945876799723,0.23050707121235103,0.08905219269685356,1.5834314148353568,-0.45155511627980394
3.284742832183838,-0.2659134525490956,-0.379939694136367,0.22550707121235103,0.08404860450608459,1.578431817751485,-0.44655415489037864
3.304825782775879,-0.2609134845842653,-0.37493992656029496,0.22050707121235102,0.0790450260918785,1.5734322062962658,-0.4415531777378927
3.3250343799591064,-0.2559135150845088,-0.3699401561070345,0.21550707121235102,0.07404145674017992,1.5684325810372959,-0.43655218474626395
3.345123052597046,-0.2534135297689435,-0.36744026982157957,0.21300707121235102,0.07153967525060453,1.5659327634084719,-0.43405168228806373
3.3652114868164062,-0.24841355802615483,-0.36244049517152344,0.208007071212351,0.0665361182415293,1.5609331185056698,-0.42905066540396714
3.3852896690368652,-0.24341358482731837,-0.35744071779836295,0.203007071212351,0.06153256868491874,1.5559334612131923,-0.4240496325094848
3.405414342880249,-0.24091359769165668,-0.35494082810832583,0.200507071212351,0.05903079652019108,1.553433628096995,-0.4215491100396412
3.42559552192688,-0.23591360980140091,-0.3499409380077494,0.1955070682117823,0.05402902600617779,1.5484337922315987,-0.41654858708389786
3.44559907913208,-0.23091363308185509,-0.34494115390838137,0.1905070682117823,0.04902549523779527,1.5434341061823178,-0.4115475146967117
3.4657034873962402,-0.2282089807027631,-0.33994130211962936,0.18550706821178228,0.044023049923794466,1.5384343497691724,-0.4065467697144651
3.4857704639434814,-0.2307089962335072,-0.33744144911622004,0.18300706821178228,0.04152060161105522,1.5359346596688521,-0.404046031434428
3.5058488845825195,-0.2357090161805455,-0.3324416584978181,0.17800706821178228,0.03651708849488426,1.530934948179145,-0.3990449199331425
3.52605938911438,-0.24070903485621448,-0.3274418654214016,0.17300706821178227,0.03151358056952196,1.525935227597484,-0.39404379239471116
3.546119451522827,-0.24570905229670578,-0.32244206998698727,0.16800706821178227,0.026510076486279104,1.5209354985670982,-0.38904264848903397
3.5668821334838867,-0.24820906056322256,-0.31994217139743525,0.16550706821178227,0.02400832578753601,1.5184356310555285,-0.38654207039609295
3.5869998931884766,-0.2532090644502165,-0.3149422759888067,0.16050702875310044,0.019006575936333602,1.5134357638734732,-0.38154155262286077
3.6073038578033447,-0.25820906691914136,-0.30994230999054473,0.15550702875310043,0.014005977251237903,1.508435808531433,-0.3765413497207363
3.6272382736206055,-0.26320908026818013,-0.3049425064835681,0.15050702875310043,0.00900248625237059,1.5034360541006906,-0.3715401491711467
3.6473286151885986,-0.2682090925251557,-0.29994270087626734,0.14550702875310043,0.003998996147290847,1.4984362938102103,-0.36653893168008833
3.667497158050537,-0.27070909825080697,-0.29744279725530676,0.14300702875310042,0.0014972520686626382,1.495936411583368,-0.36403831682895504
3.687532901763916,-0.27570910891521894,-0.2924429883961452,0.13800702875310042,-0.003506234222056726,1.490936643299256,-0.3590370749465339
3.7076001167297363,-0.28070911855545355,-0.2874431774026857,0.13300702875310041,-0.008509718109743785,1.485936870348418,-0.3540358168735852
3.727865695953369,-0.28320911857923664,-0.2849431778965547,0.1305070287531004,-0.011009727284466173,1.4834368709734207,-0.35153581353691493
3.747936248779297,-0.2882091267336174,-0.2799433636165031,0.1255070287531004,-0.01601320524059241,1.4784370918364076,-0.34653453221271097
3.768022060394287,-0.2932091339446665,-0.27494354739422555,0.1205070287531004,-0.021016683392637344,1.4734373095006663,-0.3415332339921743
3.788133144378662,-0.2982091402361547,-0.2699437291197167,0.1155070287531004,-0.026020159284260203,1.4684375243108545,-0.336531919875047
3.808201789855957,-0.3007091430463567,-0.26744381921937854,0.1130070287531004,-0.02852189637698259,1.4659376308037535,-0.33403125688914437
3.8282837867736816,-0.3057091480142126,-0.26244399790495276,0.10800702875310039,-0.03352536883160425,1.4609378422778567,-0.32902991913665086
3.8483428955078125,-0.3107091522157859,-0.257444175417215,0.10800702875310039,-0.03852885498423088,1.4559380590561188,-0.3240285612702214
3.868434190750122,-0.3132091540424682,-0.2549442668226736,0.1105070287531004,-0.04103064436760538,1.453438165989823,-0.321527857206851
3.8886423110961914,-0.3182091539914427,-0.24994427741459332,0.10550702875310039,-0.04603085985080435,1.448438173659247,-0.31652776638261204
3.9086906909942627,-0.32320915464854455,-0.24494432663965782,0.1105070287531004,-0.05103182483999215,1.443438234245455,-0.31152738003091274
3.928739070892334,-0.3282091539948254,-0.23994427085594874,0.10550702875310039,-0.056030743457569185,1.4384381644501643,-0.3065278147126638
3.948824405670166,-0.3307091541606999,-0.23744429575624793,0.10800702875310039,-0.05853123228004442,1.4359381956178041,-0.3040276153277824
3.9689018726348877,-0.3357091540095148,-0.2324442392580288,0.10800702875310039,-0.06353013914735248,1.4309381243168073,-0.29902806634786705
3.988985538482666,-0.3407091540335901,-0.23244429913169304,0.10800702875310039,-0.06853131006186479,1.4259382008269017,-0.2940275800093157
4.009925365447998,-0.3432091539779831,-0.23494432377916818,0.1105070287531004,-0.07103179032415496,1.4234382320207022,-0.2915273789392601
4.030027866363525,-0.348209153754894,-0.23994437401538435,0.1155070287531004,-0.0760327606194548,1.4184382974210434,-0.2865269701349748
4.050106763839722,-0.3532091534362495,-0.2449444323003136,0.1205070287531004,-0.07103387422307503,1.4134383758762947,-0.2815264972455223
4.07020378112793,-0.35820915221648203,-0.24994446359485775,0.12550698646064812,-0.06603437825646419,1.4084384129197742,-0.2865264039778056
4.090313673019409,-0.3607091522774669,-0.25244448973780653,0.12800698646064812,-0.06353486966959257,1.405938447097209,-0.28402619181912864
4.110609531402588,-0.36570915259267633,-0.25744454607463996,0.13300698646064812,-0.05853592147930697,1.4009385196030644,-0.2840257345039517
4.130538463592529,-0.3707091531622654,-0.26244460300806155,0.13800698646064813,-0.05353697503103098,1.395938591989365,-0.28902527237291287
4.150649547576904,-0.3757091540050905,-0.2674446615625049,0.14300698646064813,-0.048538049108777945,1.3909386653785718,-0.2940247970552992
4.1707541942596436,-0.37820915453333276,-0.2699446914578518,0.14550698646064814,-0.0460385939376224,1.3884387024416116,-0.2965245543631597
4.190823078155518,-0.38320915581239035,-0.27494475250520095,0.15050698646064814,-0.04103969935745544,1.3834387772879582,-0.3015240587354059
4.21124005317688,-0.3882091574003403,-0.27994481525562687,0.15550698646064814,-0.036040826040163426,1.3784388530713232,-0.30652354921029407
4.23119592666626,-0.3932091593120267,-0.2849448797425786,0.16050698646064815,-0.031041974286387757,1.3734389297622371,-0.3115230254960892
4.251216650009155,-0.3957091603939998,-0.28744491264783373,0.16300698646064815,-0.028542556591248384,1.370938968438349,-0.31402275822548864
4.271276473999023,-0.40070916281984104,-0.2924449798033316,0.16800698646064816,-0.023543737758363388,1.3659390464315773,-0.31902221266921504
4.29139256477356,-0.40570916560795706,-0.29744504878107964,0.17300698646064816,-0.018544941264685928,1.3609391252511007,-0.3240216521714647
4.311446666717529,-0.4107091687743227,-0.3024451196162416,0.17800698646064816,-0.013546167430542783,1.3559392048612633,-0.32902107642175266
4.331577777862549,-0.4132091705044266,-0.30494515574148306,0.18050698646064817,-0.011046789112528876,1.3534392449511783,-0.3315207827288487
4.351734399795532,-0.41820917426879956,-0.3099452294298371,0.18550698646064817,-0.006048049881417055,1.3484393256763085,-0.33652018350668905
4.371829509735107,-0.4232091784527089,-0.3149453050658147,0.19050698646064818,-0.0010493341371416724,1.3434394070945634,-0.3415195682314629
4.391872406005859,-0.4282091779591093,-0.31994535075271624,0.19550693182834422,0.003950009069931681,1.3384394544117122,-0.34651945085976105
4.4119768142700195,-0.43320918303351974,-0.32494543039559043,0.20050693182834423,0.008948676808573438,1.333439537086065,-0.35151880248021583
4.432059288024902,-0.435709185746426,-0.32744547098729176,0.20300693182834423,0.011448001500709752,1.330939578635908,-0.35401847191327035
4.452116012573242,-0.4407091915347669,-0.3324455537353589,0.20800693182834423,0.016446632305669503,1.3259396621305475,-0.3590177978078011
4.472232341766357,-0.4457091978215045,-0.3374456386022785,0.21300693182834424,0.021445238033087403,1.3209397461095573,-0.36401710611249954
4.492254734039307,-0.44570920245579754,-0.3424457092885929,0.21800693182834424,0.026444083053345252,1.3159397516169251,-0.3690165162912563
4.512389898300171,-0.44320920604018066,-0.3449457534538834,0.22050693182834424,0.02894336627639926,1.3134397935852813,-0.3715161559608375
4.532606601715088,-0.448209215987954,-0.3499458603583179,0.22550693182834425,0.03394164096033018,1.3084399623229395,-0.3765152976422159
4.552579879760742,-0.44320922159909254,-0.3549459356381146,0.23050693182834425,0.038940433098423446,1.303439957322601,-0.38151466797222605
4.572751998901367,-0.43820923031262343,-0.3599460301377631,0.23550693182834426,0.04393892767464029,1.2984400418686155,-0.38651389576515593
4.592770338058472,-0.4407092378563187,-0.36244609621219087,0.23800693182834426,0.046437880857646274,1.2959401864775577,-0.389013372034485
4.613014459609985,-0.4407092443313702,-0.3674461762559225,0.24300693182834426,0.05143661742002421,1.290940162950077,-0.3940127002533158
4.633314609527588,-0.44070925800736266,-0.37244629547151265,0.24800693182834427,0.05643474927932341,1.2859403641907086,-0.39901174253939437
4.653156757354736,-0.4432092634007658,-0.3749463468248344,0.25050693182834427,0.058933948196136995,1.2834404070674905,-0.40151132209439677
4.673264026641846,-0.43820927094904166,-0.3799464317415246,0.2555069318283443,0.06393263070776962,1.2784403675673053,-0.4065106075943505
4.69344687461853,-0.4332092828338394,-0.38494653823787767,0.2605069318283443,0.0689309874393356,1.2734404517935538,-0.4115097344787049
4.713522672653198,-0.4382092742487041,-0.3899466014461957,0.2655068325965091,0.07393014334969471,1.2684405107896515,-0.41650970781494484
4.7335205078125,-0.4332092830115393,-0.3949466924601382,0.2705068325965091,0.07892875854255037,1.2634404433197113,-0.4215089393329887
4.753630876541138,-0.4327687110153719,-0.39744675808246926,0.2730068325965091,0.08142776138930985,1.2609405516111996,-0.4240084093141901
4.773757457733154,-0.43275550399736623,-0.4024468777482852,0.2780068325965091,0.08642595265278476,1.2559406640692268,-0.42900742956275734
4.816932916641235,-0.43310048191445666,-0.4049469366685135,0.2805068325965091,0.08892506624422264,1.2534407046246736,-0.43150694486824465
4.843291759490967,-0.43310048191445666,-0.4049469366685135,0.2805068325965091,0.08892506624422264,1.2534407046246736,-0.43150694486824465
4.863375663757324,-0.4281004943106673,-0.4099470437038935,0.2855068325965091,0.09392346585518589,1.2484406820174088,-0.4365060506543833
4.8835225105285645,-0.4331004822043442,-0.414947113348943,0.29050672258103877,0.09892254466873235,1.2434407428895027,-0.44150603632430846
4.903584003448486,-0.42961461752088753,-0.4199472192174589,0.29550672258103877,0.10392098285833548,1.2384406495514366,-0.4465051429889906
4.923690557479858,-0.43211462594509265,-0.4224472063065746,0.2930068133152788,0.10642098285833548,1.2359406328203264,-0.449004716596692
4.944081544876099,-0.43211462447117865,-0.4274472855465685,0.2930067102061194,0.11142002776992772,1.2309406886657361,-0.4540046733436394
4.964064121246338,-0.43211464302013247,-0.4324473360058896,0.2930068003766262,0.11641908215301644,1.2259407091535457,-0.4590037039829961
4.984032154083252,-0.4371146214937983,-0.43744736360301506,0.2930066102619958,0.12141908215301644,1.220940743686197,-0.4640046336859838
5.004181861877441,-0.43961461204460406,-0.439947375821409,0.29550652745172634,0.12391908215301645,1.2184407587482173,-0.46650504225218997
5.024295091629028,-0.444614592656139,-0.4449474007191796,0.3005063595867027,0.12891908215301645,1.2134407894765478,-0.47150587636638064
5.044496297836304,-0.44961457282669987,-0.4499474258678529,0.3055061909899574,0.13391908215301646,1.208440820579017,-0.46650672196655035
5.064482927322388,-0.45461457456844484,-0.4549474249915801,0.300506201498143,0.13891908215301646,1.2034408184996523,-0.4715066733516803
5.084734916687012,-0.45711457899383157,-0.4574474516973867,0.303006201498143,0.14141868285167447,1.2009408346907802,-0.4690064406803856
5.104788064956665,-0.46211457235271225,-0.4574474924556684,0.3080061148142212,0.14641827322684983,1.1959408626479187,-0.464006647205687
5.124901294708252,-0.46711455634851096,-0.45244747663158974,0.30800602418099793,0.1464187191843587,1.1909408660136314,-0.45900738262667623
5.144947290420532,-0.46711454603177016,-0.44744752521896647,0.30300593721816416,0.14141822826204056,1.185940560726902,-0.4540075055380989
5.165078401565552,-0.46461453625754684,-0.444947538974751,0.30050585082234565,0.13891822826204056,1.1834405781670165,-0.4515079673364495
5.1851770877838135,-0.45961451752154886,-0.43994756636868804,0.29550567962639324,0.13391822826204056,1.178440613071638,-0.4465088921998498
5.205319166183472,-0.4546144998247219,-0.43494759360227403,0.29050551049202594,0.12891822826204055,1.1734406479794377,-0.44150981887936996
5.225420951843262,-0.4521144913501586,-0.432447607154837,0.2880054266871652,0.12641822826204055,1.1709406654208052,-0.43901028287365423
5.245484828948975,-0.4471144751176075,-0.427447634123453,0.283005260581792,0.12141822826204055,1.1659407002510491,-0.4340112121144483
5.265565872192383,-0.44211445979974673,-0.4224476608995418,0.2780050964567353,0.11641822826204054,1.1609407349748042,-0.42901214294413814
5.285649538040161,-0.4371144453486123,-0.41744768747077626,0.2730049342832277,0.11141822826204054,1.1559407695483974,-0.4240130752599522
5.3060901165008545,-0.4346144384333749,-0.41494770067581843,0.2705048539198557,0.10891822826204053,1.1534407867652887,-0.42151354194123025
5.32620096206665,-0.4296144251947793,-0.4099477269174539,0.2655046946240026,0.10391822826204053,1.1484408210322103,-0.4165144762791395
5.346320867538452,-0.4246144127078061,-0.4049477529250589,0.26050453721613304,0.09891822826204053,1.1434408550408108,-0.4115154118177458
5.366379499435425,-0.419614400928402,-0.3999477786876974,0.25550438167386413,0.09391822826204052,1.1384408887484097,-0.4065163484319917
5.386736154556274,-0.4146143898136853,-0.3949478041948934,0.2505042279763827,0.08891822826204052,1.1334409221127633,-0.40151728599095754
5.406853675842285,-0.41211438449250964,-0.39244781684955865,0.24800415181333496,0.08641822826204051,1.1309409386531588,-0.3990177550822635
5.427066087722778,-0.40711437429703434,-0.38744784195501486,0.2430040008471698,0.08141822826204051,1.1259409714245683,-0.3940186938007079
5.447759389877319,-0.40461436941276824,-0.38494785440349977,0.24050392603971057,0.07891822826204051,1.1234409876453715,-0.39151916339176857
5.467634201049805,-0.399614360046842,-0.3799478790864688,0.23550377776574494,0.0739182282620405,1.1184410197319667,-0.3865201029451208
5.487972021102905,-0.39461435118618376,-0.374947903477151,0.2305036312668012,0.0689182282620405,1.1134410513121433,-0.3815210428668969
5.507932662963867,-0.389614342794047,-0.3699479275676957,0.22550348652827087,0.0639182282620405,1.1084410823469204,-0.3765219830015885
5.528051137924194,-0.3871143387625373,-0.36744793949811994,0.22300341481485123,0.06141822826204049,1.105941097647838,-0.37402245309912835
5.548370361328125,-0.38211433100705855,-0.36244796312499855,0.21800327269154576,0.05641822826204049,1.1009411277933456,-0.36902339325339384
5.568394422531128,-0.3771143236337986,-0.35744798643465103,0.2130031322959609,0.05141822826204048,1.0959411572999542,-0.36402433321604494
5.588397264480591,-0.37211431661047817,-0.3524480094212821,0.20800299361629435,0.04641822826204048,1.0909411861320264,-0.3590252728200793
5.608922481536865,-0.36961431322030935,-0.3499480207918186,0.20550292491640554,0.043918228262040476,1.088441200284275,-0.35652574243478447
5.628986835479736,-0.36461430666418493,-0.34494804328437323,0.20050278878974956,0.03891822826204047,1.0834412280401562,-0.35152668118284697
5.649158239364624,-0.3596143003829199,-0.33994806544206674,0.1955026543518862,0.03391822826204047,1.0784412550373772,-0.34652761914569796
5.669591188430786,-0.3546142943487214,-0.33494808726122677,0.19050252159269093,0.028918228262040466,1.0734412812444336,-0.3415285561502651
5.689544200897217,-0.35211429141593414,-0.33244809804287484,0.18800245583951208,0.026418228262040468,1.0709412940421612,-0.3390290242389039
5.709523677825928,-0.3471142857029978,-0.32744811934867285,0.1830023255799553,0.02141822826204047,1.0659413190077747,-0.33402995948013703
5.729636192321777,-0.3421142801731762,-0.32244814030939667,0.1780021969748721,0.016418228262040473,1.060941343110292,-0.3290308933283706
5.74972128868103,-0.33961427746957273,-0.31994815065984056,0.17550213328981126,0.013918228262040472,1.058441354829483,-0.3265313596758673
5.771047830581665,-0.3346142721709297,-0.31494817110018153,0.17050200714878921,0.008918228262040471,1.0534413775877116,-0.32153229110958
5.791141510009766,-0.3346142721709297,-0.31494817110018153,0.17050200714878921,0.008918228262040471,1.0534413775877116,-0.32153229110958
5.811220407485962,-0.32961426699918583,-0.3099481911925984,0.16550188263875254,0.00391822826204047,1.048441399418795,-0.3165332207184248
5.833537340164185,-0.327114264454486,-0.30744820110826976,0.16300182099241287,0.0014182282620404702,1.0459414099794084,-0.31403368478520705
5.853639364242554,-0.3221142594352433,-0.3024482206787107,0.1580016989111606,-0.00358177173795953,1.0409414303771178,-0.30903461133791493
5.873693466186523,-0.3171142544941353,-0.29744823990190794,0.15300157843713855,-0.00858177173795953,1.0359414497930535,-0.30403553564372815
5.894832134246826,-0.3121142496136623,-0.2924482587790744,0.14800145956058386,-0.013581771737959531,1.0309414682080849,-0.29903645753808594
5.914798974990845,-0.30961424719099867,-0.28994826808841584,0.14550140071824746,-0.016081771737959532,1.028441477034714,-0.296536917530363
5.934915065765381,-0.310439844128598,-0.2849482869900252,0.14050126786343964,-0.02108177173795953,1.0234414962581568,-0.2915379589914473
5.95503306388855,-0.31543983632779243,-0.27994830546925575,0.13550114119807516,-0.026081771737959527,1.0184415136990972,-0.28653896386529876
5.9750425815582275,-0.3204398315987653,-0.27494832314045586,0.13050102808451217,-0.031081771737959524,1.0134415284509664,-0.28153987411402637
5.995282411575317,-0.3229398292321488,-0.27244833185016587,0.12800097210779735,-0.03358177173795952,1.0109415354282607,-0.27904032808895335
6.01530385017395,-0.3279398244872809,-0.2674483490200992,0.12300086130779907,-0.03858177173795953,1.0059415485787535,-0.2740412336471581
6.035385608673096,-0.33293981971768133,-0.26244836586074394,0.11800075203648358,-0.04358177173795953,1.0009415606491747,-0.26904213589631704
6.055526494979858,-0.33793981491308445,-0.2574483823764782,0.11300064428241631,-0.048581771737959537,0.9959415716313511,-0.26404303469667206
6.076201438903809,-0.34043981249469507,-0.2549483905139753,0.11050059097066019,-0.05108177173795954,0.9934415767122131,-0.2615434827613264
6.096820831298828,-0.3454398078539037,-0.2537482137014832,0.11550049253530816,-0.05608177173795954,0.9884415855428357,-0.2565443149213723
6.116691589355469,-0.3504398091491342,-0.2587482085726498,0.12050052586691415,-0.06108177173795955,0.9834415824138302,-0.25909609079255325
6.1367950439453125,-0.35543980605147013,-0.2637482185437224,0.12550045648096927,-0.06608177173795955,0.9784415874954687,-0.2591583616910097
6.156835317611694,-0.36043980033949724,-0.2687482359013947,0.13050033337677805,-0.06108177173795955,0.9734415960599305,-0.2541594174851405
6.177253723144531,-0.36293979791990194,-0.2712482436473688,0.13300027907117726,-0.058581771737959545,0.9709416002307307,-0.2516598859625358
6.197103977203369,-0.36793979309909053,-0.27624825933759684,0.13800016975167334,-0.05358177173795954,0.9659416093769491,-0.24666083405050143
6.217172384262085,-0.3729397883101169,-0.281248275296339,0.14300005949174166,-0.048581771737959537,0.9609416195980951,-0.24166179703815216
6.2372894287109375,-0.3754397859304719,-0.2837482833779814,0.14550000401058144,-0.046081771737959534,0.9584416251122753,-0.23916228413989926
6.257458448410034,-0.38043978664610434,-0.2887483021920607,0.15049989412300321,-0.04108177173795953,0.9634416368295219,-0.23416325844487773
6.277556896209717,-0.38543977625384096,-0.29374831634287185,0.1554997786981397,-0.036081771737959525,0.9584416499383549,-0.2291642580365817
6.297610521316528,-0.3904397716638248,-0.2987483334004937,0.16049966418120265,-0.031081771737959524,0.9534416639967324,-0.22416526560071617
6.317692041397095,-0.39293976939418207,-0.30124834204191725,0.16299960655715584,-0.028581771737959526,0.9509416714308707,-0.2216657752025735
6.337762355804443,-0.39793976928900787,-0.3062483434535057,0.16434799331242458,-0.023581771737959528,0.9459416723973273,-0.2166658516126598
6.35783839225769,-0.40293976331885145,-0.31124836384657195,0.1658114098367577,-0.01858177173795953,0.9409416911266685,-0.21166705780886563
6.377962589263916,-0.40793975842606606,-0.31624838182601406,0.17081129361031858,-0.013581771737959531,0.9359417081082996,-0.20666810904665736
6.397984504699707,-0.41043975601894284,-0.3187483909330727,0.17331123514969754,-0.011081771737959531,0.9334417169921153,-0.20416864045918606
6.418090105056763,-0.41543975686153584,-0.3237483896144595,0.1683112459523625,-0.00608177173795953,0.9284417153375217,-0.19916854603910242
6.43817138671875,-0.42043974990921473,-0.32874841108812425,0.17331110967439742,-0.0010817717379595299,0.923441736866631,-0.19416980521183239
6.458248853683472,-0.4254397545737897,-0.3337484217230793,0.1692927195628026,0.003917836877099437,0.9184417425470821,-0.18916893508184587
6.478368043899536,-0.42793975044306853,-0.33624843266358956,0.17179265090486262,0.006417836877099438,0.9159417538628702,-0.18666957985295746
6.498460531234741,-0.4329397445628437,-0.3412484517614436,0.17679253477358517,0.011417836877099439,0.9109417736372062,-0.1816706770009102
6.518615007400513,-0.437939745957697,-0.3462484496188921,0.17676294414182192,0.01641783687709944,0.9059417708416891,-0.17667053660781165
6.538627624511719,-0.442939738074526,-0.351248472186869,0.17676280865392602,0.021417836877099437,0.9009417950740224,-0.17167183867871047
6.558959484100342,-0.44543973493630057,-0.35374848204230763,0.17926275070239442,0.023917836877099436,0.8984418056320402,-0.16917239914290907
6.579139232635498,-0.4504397362573716,-0.35874848105331514,0.1742627597252934,0.028917836877099434,0.893441803959866,-0.1641723160975666
6.5992231369018555,-0.455439727412535,-0.3637485037783298,0.17926262671240004,0.033917836877099435,0.8884418287475143,-0.15917362309071795
6.619287490844727,-0.46043972546563405,-0.3687485237141134,0.18384250482526754,0.03891783687709944,0.8834418487224334,-0.15417464991796678
6.639541149139404,-0.4654397267072255,-0.373748523697957,0.17884250845518182,0.04391783687709944,0.8784418479933728,-0.14917461839889934
6.659634113311768,-0.4679397209031609,-0.3762485366197257,0.18134243386359328,0.046417836877099446,0.875941862610616,-0.14667536829180783
6.67992639541626,-0.47293972247434,-0.38124853563759264,0.1813424417830754,0.05141783687709945,0.8709418608641156,-0.1416752872327268
6.699856758117676,-0.4779397130562051,-0.3862485592904232,0.1813423110834702,0.056417836877099455,0.8659418870867351,-0.1366766227887884
6.720126152038574,-0.4804397094551166,-0.3887485698341088,0.18384225444785243,0.05891783687709946,0.863441898582332,-0.13417720517796933
6.740234136581421,-0.48543970253311336,-0.39374859118731126,0.18884214073658215,0.06391783687709945,0.8584419220891744,-0.12917837988515296
6.760312795639038,-0.49043970464513004,-0.3987485907626605,0.18384214763071824,0.06891783687709946,0.8534419205946844,-0.12417831311274555
6.780399322509766,-0.49543969480392347,-0.4037486148022885,0.1888420193305111,0.07391783687709946,0.8484419474743423,-0.11917966122952854
6.80048942565918,-0.5004396899710292,-0.4087486026118769,0.18859453959855843,0.07891829380137816,0.8434419612529912,-0.11418062267858638
6.820565462112427,-0.5029396864862163,-0.41124861001105534,0.1910944999308457,0.08141829380137816,0.8409419697317003,-0.1116810450284509
6.8406500816345215,-0.5079396886803417,-0.41624860954653986,0.19109450594478256,0.08641829380137817,0.8359419683148177,-0.10668097968974512
6.860751390457153,-0.5129396793500522,-0.4212486344421084,0.19109437964736234,0.09141829380137817,0.8309419955449587,-0.10168234581858172
6.88082480430603,-0.5179396730928887,-0.42624865724896416,0.19609426873467634,0.09641829380137817,0.8259420196670387,-0.09668355452622633
6.900969505310059,-0.5204396702109153,-0.428748668807776,0.19859421310109676,0.09891829380137818,0.8234420318982157,-0.0941841634210574
6.921032905578613,-0.525439664977387,-0.43374869224726437,0.20359410147604007,0.10391829380137818,0.8184420566821929,-0.08918539031331718
6.941205978393555,-0.5304396605040526,-0.43874871613085925,0.20859398937207627,0.10891829380137819,0.813442081868917,-0.08418662933176826
6.9612157344818115,-0.5354396568582548,-0.44374874047748414,0.2135938767864894,0.11391829380137819,0.8084421074265343,-0.07918788046184953
6.98554801940918,-0.5354396568582548,-0.44374874047748414,0.2135938767864894,0.11391829380137819,0.8084421074265343,-0.07918788046184953
7.005624771118164,-0.5304396429383691,-0.4487487604846451,0.2185938205325076,0.11891828818020068,0.8034410828122434,-0.0741883738604053
7.029595613479614,-0.5254396421999615,-0.45374878605393576,0.22359370765211817,0.12391828818020069,0.7984411088484348,-0.0691896416383955
7.04970383644104,-0.5204396427821513,-0.4587488124097778,0.22859359356007325,0.12891828818020068,0.7934411353183238,-0.07419092948373411
7.069721937179565,-0.5154396444074444,-0.46374883910740267,0.2335934796951867,0.13391828818020068,0.7884411618563623,-0.07919222104712037
7.090142726898193,-0.5129396457120415,-0.4662488526814646,0.23609342257376972,0.1364182881802007,0.7859411752025653,-0.08169287128183488
7.110058069229126,-0.5079396493696829,-0.4712488802979052,0.2410933079469029,0.1414182881802007,0.7809412020278413,-0.08669418064202436
7.1301109790802,-0.5029396545160294,-0.4762489085637105,0.2460931927988724,0.1464182881802007,0.7759412290013779,-0.09169550183396898
7.150886297225952,-0.5004396576830816,-0.4787489229498719,0.24859313502565655,0.1489182881802007,0.7734412425328404,-0.09419616685762462
7.171061992645264,-0.49543966527998484,-0.48374895224915454,0.25359301907244036,0.1539182881802007,0.7684412696632156,-0.09919750573999607
7.191082000732422,-0.49043966510725623,-0.48874898421171886,0.2585928793271914,0.1589182881802007,0.7634413024436653,-0.10419912882812078
7.211186408996582,-0.4854396568637242,-0.4937490187107104,0.2635927160065165,0.1639182881802007,0.7584413407802646,-0.1092010360348455
7.231248378753662,-0.4829396532872322,-0.4962490361762825,0.2660926342505881,0.1664182881802007,0.7559413599127878,-0.11170199390586973
7.251343488693237,-0.4779396473109593,-0.5012490715615604,0.2710924705441069,0.17141828818020072,0.7509413980745642,-0.11670391805844092
7.271429777145386,-0.4729396430256805,-0.5062491075835487,0.2760923065718958,0.17641828818020072,0.7459414360566506,-0.12170585325577596
7.2914886474609375,-0.4679396405868349,-0.5112491442820396,0.2810921423243606,0.18141828818020073,0.7409414738090707,-0.12670779929110138
7.311581373214722,-0.46543964011131567,-0.5137491628981669,0.2835920600936424,0.18391828818020073,0.7384414925836885,-0.12920877630719174
7.331697463989258,-0.4604396571856613,-0.5087491968123253,0.2885919364136059,0.18891828818020073,0.733441521124852,-0.1242102414241449
7.352025508880615,-0.455439652738322,-0.5037491997315279,0.28359191746991685,0.19391828818020074,0.7284415264194158,-0.11921047600604119
7.3719329833984375,-0.4504396601748151,-0.49874922864577204,0.27859180218088925,0.18891828818020073,0.7234415562417232,-0.1142118703629718
7.392058849334717,-0.44793966350739567,-0.49624924752073585,0.27609172441251095,0.18641828818020073,0.7209415765341363,-0.11171281859529213
7.4121317863464355,-0.4429396698051616,-0.4912492842950184,0.27109157197915906,0.18141828818020073,0.715941616589957,-0.10671469207729452
7.432197570800781,-0.4379396755840709,-0.4862493197836225,0.26609142363510296,0.17641828818020072,0.7109416559031945,-0.10171653478298825
7.4522645473480225,-0.4329396808134716,-0.48124935400594,0.26109127932144754,0.17141828818020072,0.7059416944316641,-0.09671834656681934
7.472381591796875,-0.43043968321379267,-0.47874937064865103,0.25859120865742413,0.16891828818020072,0.7034417133892258,-0.09421924082204924
7.492480039596558,-0.4254396875715067,-0.47374940301065843,0.2535910702774052,0.1639182881802007,0.6984417506678551,-0.08922100598659444
7.512529134750366,-0.4204396913229298,-0.46874943416024784,0.2485909357774604,0.1589182881802007,0.693441787069155,-0.08422273993964037
7.532613039016724,-0.41543969445287043,-0.46374946412090756,0.243590805096209,0.1539182881802007,0.6884418225613801,-0.07922444259717586
7.552721977233887,-0.41293969578114587,-0.4612494786629996,0.24109074116821827,0.1514182881802007,0.6859418399575051,-0.07672528216912525
7.573132514953613,-0.40793969795915347,-0.4562495068864277,0.23609061609837637,0.1464182881802007,0.6809418740332911,-0.07172693776819174
7.592963457107544,-0.4029396994949359,-0.451249533983746,0.23109049469072027,0.1414182881802007,0.675941907134047,-0.06672856194732299
7.613363027572632,-0.4004397000212612,-0.4487495471183787,0.2285904353403082,0.1389182881802007,0.6734419233121035,-0.06422936224918951
7.633294105529785,-0.39543970059116607,-0.44374957257649605,0.22359031930616427,0.13391828818020068,0.6684419549118731,-0.05923093927853871
7.6534693241119385,-0.3904397005202516,-0.4387495969760637,0.21859020677362315,0.12891828818020068,0.6634419854897933,-0.05423248489222823
7.673490047454834,-0.3854396998145508,-0.4337496203451178,0.21359009767743095,0.12391828818020068,0.6584420150324157,-0.049233999129279366
7.693538188934326,-0.38043969848289905,-0.42874964271213906,0.20858999195181724,0.11891828818020067,0.6534420435292446,-0.044235482050353714
7.71385931968689,-0.3754396965367161,-0.42374966410596454,0.2035898895305462,0.11391828818020067,0.6484420709726791,-0.03923693373784751
7.7339606285095215,-0.3729396953373969,-0.4212496744470167,0.2010898395382268,0.11141828818020066,0.6459420842977733,-0.036737647900697515
7.754026412963867,-0.3679396924959447,-0.41624969443568655,0.19608974194839723,0.10641828818020066,0.6409421101530282,-0.03173905293985934
7.774769306182861,-0.36293968907838625,-0.41124971352425316,0.1910896474956588,0.10141828818020066,0.6359421349480829,-0.02674042704637336
7.79481053352356,-0.36043968715936237,-0.40874972274019145,0.18858960142464337,0.09891828818020065,0.6334421469485405,-0.024241102548431218
7.81488037109375,-0.3554396829133229,-0.403749740533767,0.18358951155109887,0.09391828818020065,0.6284421701577142,-0.019242430558826535
7.8351311683654785,-0.35043967814103255,-0.39874975750074587,0.1785894246458051,0.08891828818020064,0.6234421923162126,-0.014243728071068449
7.855091333389282,-0.3454396728649079,-0.39374977367038067,0.1735893406410165,0.08391828818020064,0.6184422134320632,-0.009244995295296602
7.875296115875244,-0.3429396700452234,-0.391249781465285,0.17108929970513534,0.08141828818020064,0.6159422236021199,-0.006745617620590647
7.89531397819519,-0.33793966405776915,-0.3862497964933165,0.16608921992407025,0.07641828818020063,0.6109422431739177,-0.0017468398506912215
7.915389537811279,-0.3329396576269964,-0.3812498107961586,0.1610891428742413,0.07141828818020063,0.6059422617326714,0.003251967594983254
7.935452699661255,-0.3315322099829833,-0.3762498118180016,0.1560890558192849,0.06641828818020062,0.6009422826004701,0.008250609708185912
7.955772399902344,-0.332515565409131,-0.3737498187297231,0.15358901997618787,0.06391828818020062,0.5984422909168282,0.010750044778459915
7.975736379623413,-0.3375155365413369,-0.3687498264648573,0.1485889439604675,0.05891828818020062,0.5934423083893524,0.015748840547928605
7.995794057846069,-0.3425155286762622,-0.36374983841896913,0.14358887597239378,0.05391828818020061,0.5884423235278962,0.020747750082618394
8.015877485275269,-0.3475155243315893,-0.35874984817518235,0.1385888232136264,0.04891828818020061,0.5834423349745287,0.025746895285335924
8.036055564880371,-0.35001552392787677,-0.35624985205413945,0.13608880398118428,0.046418288180200606,0.5809423390468352,0.02824658074734247
8.056122064590454,-0.35501552118445195,-0.3512498595653779,0.13608876412605544,0.0414182881802006,0.5759423472943878,0.03324592425632626
8.07621693611145,-0.3597889474354854,-0.3462498462527664,0.13608874630590642,0.036418644690862256,0.5709423441109075,0.03824535877699378
8.096253395080566,-0.36478894447644966,-0.34124985299975585,0.1360887089739512,0.03141864469086225,0.5659423515883851,0.0432447353899703
8.116362810134888,-0.36728894376525123,-0.3387498563303821,0.13858869133463264,0.028918644690862253,0.5634423550915412,0.04574443927080147
8.136450290679932,-0.37228894225518955,-0.3337498425902969,0.13358867498459354,0.023918984568592015,0.5584423463780497,0.050743907066929245
8.156644105911255,-0.3772889420922254,-0.32874986358492436,0.1385886585497675,0.01891861665428667,0.5534423645966906,0.05574390375325953
8.177307367324829,-0.3747889831779789,-0.32624987364391994,0.1410886631736151,0.01641861665428667,0.5509423638331815,0.05824395413219881
8.197315216064453,-0.37478898057022225,-0.321249876465816,0.1460886446501689,0.01141861665428667,0.5459423673494473,0.06324363910693848
8.217432975769043,-0.3797889871739329,-0.316249869624186,0.14608869177588918,0.0064186166542866685,0.5409423584715879,0.06824444413213
8.237536668777466,-0.38478898432847136,-0.3125557253614104,0.14608866455945516,0.001418616654286668,0.5359423634437184,0.06824397497048111
8.257585287094116,-0.3897889900834259,-0.30898098715193734,0.14608869756461407,-0.003581383345713332,0.5309423576760894,0.06324454486343603
8.277665853500366,-0.392288988858052,-0.3064809892358548,0.14358868412190468,-0.006081383345713332,0.5284423599837177,0.06074431040686554
8.297826528549194,-0.39728896321641627,-0.3114809960638432,0.14858860872067264,-0.0010813833457133317,0.52344237252664,0.055743008809018564
8.317846775054932,-0.3922889635196164,-0.31648099831628274,0.15358859647073828,0.003918616654286668,0.5184423747414979,0.06074279078511195
8.33812141418457,-0.3872889617923406,-0.321481002250509,0.1585885717404144,0.008918616654286669,0.5134423793435882,0.065742351412431
8.35807752609253,-0.3847889831862305,-0.3239810092763116,0.16108856226043508,0.01141861665428667,0.5159423812705874,0.06824216328903393
8.378190755844116,-0.37978895841539967,-0.328981007912865,0.1660885344846694,0.01641861665428667,0.5159423866703301,0.07324169012504775
8.398290634155273,-0.3747889685726274,-0.33398100304955897,0.16608857674592867,0.021418616654286668,0.5159423779101456,0.07824243487867352
8.418328285217285,-0.36978896249066107,-0.33898101506948597,0.16608850124609761,0.026418616654286665,0.5209423935433058,0.08324109992057639
8.438619613647461,-0.3672889623074017,-0.34148101745737014,0.16858848771323304,0.028918616654286664,0.5234423963950299,0.08574086147565718
8.45872688293457,-0.36228896746776795,-0.3464810109694259,0.16358853120212416,0.033918616654286665,0.5284423870867059,0.09074162142331897
8.478848457336426,-0.3572889622882024,-0.3514810245766301,0.16858845040039588,0.03891861665428667,0.5334424044317675,0.09574021310908899
8.498903274536133,-0.3522889672407679,-0.3564810173937355,0.16358849631178485,0.043918616654286674,0.5384423942978963,0.10074100515187927
8.518975734710693,-0.347288968133233,-0.3614810386018765,0.16858848044427033,0.04891826289122696,0.5434423993181443,0.10574099843619601
8.539132833480835,-0.3447889720907615,-0.3639810271887883,0.16608854594670203,0.05141826289122696,0.5459423844953759,0.10824211368133374
8.559268951416016,-0.33978897321447904,-0.36898104977247215,0.16608852885498285,0.05641788751343279,0.5509423840024081,0.11324210564132965
8.579260110855103,-0.3347889737589221,-0.3739810356090508,0.1660885117343406,0.06141823417919235,0.5559423938571602,0.1182415543896964
8.59974479675293,-0.3322889749619017,-0.37648103955776874,0.163588493326947,0.06391823417919235,0.5584423980878946,0.12074124555911532
8.61984372138977,-0.33434751081045866,-0.3814810472353878,0.16858845396894678,0.06891823417919235,0.5634424071714953,0.1257405882865198
8.640238523483276,-0.33934744782045,-0.38648103842059167,0.17358841500113817,0.07391823417919235,0.5584424167899559,0.13073994143805276
8.660264492034912,-0.3380572561625569,-0.39148102415333735,0.16858839501196218,0.0789186027005434,0.5634423859266963,0.1357393356858087
8.680776596069336,-0.34305725282700783,-0.3964810315724857,0.17358835442269938,0.08391860270054341,0.558442395602174,0.14073866139838942
8.70087742805481,-0.34555725078031535,-0.3989810372413878,0.1760883240007544,0.08641860270054341,0.555942402934999,0.14323815409253013
8.720974445343018,-0.3455572487803372,-0.4039810252514534,0.17608829378632154,0.0914189545185863,0.5509423770115317,0.14823738846944126
8.741251230239868,-0.34305724734774823,-0.406481030887244,0.17358826449683598,0.0939189545185863,0.5484423841120392,0.15073689483181782
8.761385440826416,-0.34805724117810055,-0.41148103969642164,0.17858821439901124,0.0989189545185863,0.5534423962698606,0.1557360464534118
8.781471490859985,-0.35305722590696015,-0.41648104782057777,0.1835881564578239,0.1039189545185863,0.5484424106206005,0.16073506762176268
8.801541805267334,-0.348057213212627,-0.42148108394334616,0.188588127187937,0.1089186298973273,0.5434408826810263,0.165734993233941
8.821636438369751,-0.34305720639960663,-0.42648107456851925,0.18358816483967258,0.1139186298973273,0.538440873411337,0.17073562256897837
8.84174370765686,-0.34507435121711294,-0.42898107733941854,0.18608814531360054,0.1164186298973273,0.5359408782447941,0.17323528473110197
8.861869812011719,-0.34938977153542844,-0.4339810850979396,0.1910880903581656,0.12141862989732731,0.5309408919188764,0.17823432916819767
8.881980895996094,-0.34938975604131206,-0.43898112862649374,0.19608806316890018,0.12641830953007824,0.5259388740216658,0.18323432910854123
8.902047634124756,-0.347989311150814,-0.4439811103928266,0.19608809812860878,0.13141830953007824,0.5209388664146211,0.18823489065224464
8.923640251159668,-0.3489789653483256,-0.44648111760453874,0.1935880719262398,0.13391830953007824,0.5184388725979493,0.19073444165680345
8.943737745285034,-0.34397902079694526,-0.4514811507974212,0.19858797493164196,0.13891830953007825,0.5134388945949798,0.19573279969523022
8.963938236236572,-0.3489790288561496,-0.4564811583862649,0.20358794997460625,0.1439181557174911,0.5084394561105233,0.20073241470500514
8.984004259109497,-0.3539790385350259,-0.4614811708520473,0.20858790047927359,0.1489181557174911,0.5034394676384633,0.20573155121109854
9.00405740737915,-0.3589790504332677,-0.4664811836251613,0.21358785151226312,0.1539181557174911,0.4984394789175408,0.21073069742377046
9.024163246154785,-0.36147905727239255,-0.4689811901388924,0.21608782721311384,0.1564181557174911,0.4959394844593642,0.21323027416641077
9.044260025024414,-0.36147906112833494,-0.46898120993802483,0.2210878030290528,0.16141799485011304,0.49093913058506194,0.2182300091852041
9.064314603805542,-0.3564790351331892,-0.46398119770357443,0.2210878356721972,0.16141799485011304,0.48593912284801016,0.22323055463289232
9.0845046043396,-0.35397904436793703,-0.4614812044243505,0.21858781233126134,0.15891799485011304,0.4834391284930791,0.22573014764131186
9.10459280014038,-0.34897906135869544,-0.4564812171197982,0.21358776751467387,0.15391799485011304,0.47843913935724397,0.2307293576759636
9.125022172927856,-0.34397907645055587,-0.45148122886046876,0.20858772511254645,0.14891799485011303,0.4734391496588242,0.23572859933305226
9.144870281219482,-0.3389790897483793,-0.4464812397004093,0.20358768502266758,0.14391799485011303,0.4684391594092243,0.24072787184307695
9.164934873580933,-0.33647909575707835,-0.4439812447990834,0.2010876658134163,0.14141799485011303,0.4659391640816494,0.24322751942354767
9.185011625289917,-0.3314791065585124,-0.43898125438592805,0.19608762900461738,0.13641799485011302,0.4609391730294247,0.2482268367397801
9.205125570297241,-0.32647911582349887,-0.4339812632003494,0.19108759426145694,0.13141799485011302,0.45593918145983,0.2532261829277992
9.225183248519897,-0.3214791182357616,-0.428981286119621,0.18608757763478842,0.12641765129881025,0.4509391172947725,0.2582261176813166
9.245841026306152,-0.3189791166513529,-0.4264813044261144,0.18358757763478842,0.12391731548206844,0.4484390536149771,0.26072636234106544
9.265954971313477,-0.31397911374369036,-0.42148133963817375,0.1785875776347884,0.11891666656285182,0.443438939193179,0.2657268328394748
9.286414623260498,-0.30897912857897314,-0.4164813664871086,0.1735874560612524,0.11391666656285182,0.4384389683360829,0.2707244192391946
9.30633544921875,-0.3039791395805026,-0.41148139126917055,0.16858734066238612,0.10891666656285182,0.4334389957793274,0.2757220958590752
9.326342344284058,-0.29897914789107033,-0.4064814051573975,0.16358727793256206,0.10391666656285181,0.42843901051689687,0.28072082283190003
9.346433639526367,-0.296479151784786,-0.4039814072777779,0.16108727094264425,0.10141666656285181,0.425939012085491,0.2832206827106217
9.366666078567505,-0.2914791696890329,-0.3989814175993321,0.15608723562444643,0.0964166665628518,0.4209390199557093,0.288219963770872
9.386708498001099,-0.2864791853212193,-0.3939814269587046,0.15108720275908988,0.0914166665628518,0.41593902719822223,0.29321928431791267
9.4067862033844,-0.2814791904908148,-0.38898143011299224,0.14608719151821267,0.0864166665628518,0.41093902964751894,0.29821904902400065
9.427335977554321,-0.27897919277121214,-0.3864814315627923,0.14358718623069544,0.0839166665628518,0.40843903078815136,0.30071893702924113
9.447757720947266,-0.27397919677134286,-0.3814814342266088,0.13858717628343817,0.07891666656285179,0.40343903291086325,0.30571872386973803
9.467701435089111,-0.26897920008450443,-0.37648143659961814,0.13358716712538674,0.07391666656285178,0.3984390348343185,0.3107185245457753
9.487712383270264,-0.26397920277954395,-0.3714814387084487,0.12858715870171333,0.06891666656285178,0.3934390365726652,0.3157183383476987
9.522483825683594,-0.26147920391558865,-0.3689814396716137,0.12608715474892665,0.06641666656285178,0.39093903737670144,0.31821824995426384
9.55712103843689,-0.26147920391558865,-0.3689814396716137,0.12608715474892665,0.06641666656285178,0.39093903737670144,0.31821824995426384
9.577220916748047,-0.258979204920948,-0.3664814405778898,0.1235871509604808,0.06391666656285178,0.388439038139526,0.32071816458484004
9.597320556640625,-0.25691842566991485,-0.36148143829975,0.11858714132082895,0.05891666656285177,0.38343904030867154,0.3257179270437955
9.617461442947388,-0.2519184299495979,-0.35648144239342194,0.12358712379701149,0.05391666656285177,0.3784390437174942,0.3307175233820234
9.637609243392944,-0.25691840018191636,-0.3514814278775294,0.1185871737115049,0.04891666656285176,0.38343903405825625,0.33571866897427144
9.657655954360962,-0.25441840514243175,-0.34898143118587893,0.12108716080026705,0.04641666656285176,0.3809390365296688,0.33821837204377664
9.67805004119873,-0.25441838252059734,-0.3439814180227608,0.12108721088057862,0.041416666562851756,0.38093902686931486,0.34321952949125545
9.697890281677246,-0.2544183862796902,-0.33898142166651873,0.12108719479024907,0.03641666656285175,0.380939029927372,0.348219157753875
9.71824049949646,-0.25441838655016685,-0.33398140712917745,0.12108719144326144,0.031416952027496774,0.3809390749253472,0.3532188872293022
9.73841404914856,-0.2569183867226648,-0.33148140770662393,0.11858718842139973,0.028916952027496775,0.3834390754967046,0.3557188172028608
9.758522510528564,-0.2519183885875313,-0.32648141102925776,0.1235871719469328,0.023916952027496777,0.37843907856416287,0.3607184361397872
9.778613090515137,-0.25691836394052653,-0.3214814070841654,0.1270726009902432,0.01891695202749678,0.3834390791321713,0.36571837576674426
9.79867935180664,-0.26191836482183706,-0.3164814057948339,0.12207260929257167,0.01391695202749678,0.3835067071069567,0.3707185655752642
9.818812608718872,-0.26691836312081646,-0.31148140662733015,0.1270726027353654,0.00891695202749678,0.3785067082930044,0.3657184153089841
9.841546297073364,-0.26691836312081646,-0.31148140662733015,0.1270726027353654,0.00891695202749678,0.3785067082930044,0.3657184153089841
9.859010457992554,-0.2694183674702478,-0.3089814050919279,0.12457261634427182,0.006416952027496779,0.3760067058303572,0.36709555067584393
9.879133224487305,-0.27191836712635603,-0.3064814055138562,0.12207261351343103,0.003916952027496779,0.3735067063331642,0.3683345950475127
9.899194717407227,-0.27691836612468174,-0.31148140574875416,0.12707261106003354,-0.0010830479725032214,0.36850670673902114,0.3633345382034601
9.9194016456604,-0.27941836028980077,-0.3139814072430977,0.12957259594275,0.0014169520274967787,0.3660067091427387,0.3608341876126463
9.939507722854614,-0.27941836909919143,-0.3189814088959641,0.1345725952516396,0.006416952027496779,0.36100670926367756,0.35583416620505265
9.959557056427002,-0.27441839360440107,-0.32398141337709857,0.13957259362315047,0.01141695202749678,0.36100670955670067,0.35583411622849664
9.979683876037598,-0.26941839334727247,-0.32898141417752075,0.1445725884638801,0.01641695202749678,0.36600671047625816,0.3608339953532744
9.99982762336731,-0.26691839330508765,-0.3314814146218552,0.14707258570804865,0.01891695202749678,0.3685067109803248,0.3633339313898388
10.019985437393188,-0.2619183933748001,-0.3364814152268507,0.15207258209655958,0.023916952027496777,0.37350671166104954,0.3683338485502426
10.040071487426758,-0.25691839378470477,-0.3414814163556026,0.15707257567174843,0.028916952027496775,0.3785067129037018,0.3733337027622561
10.060154676437378,-0.25191839453660225,-0.3464814176439858,0.16207256866691777,0.033916952027496776,0.38350671429819294,0.3783335458917719
10.080248832702637,-0.24691839567907553,-0.35148141911035147,0.16707256103576162,0.03891695202749678,0.388506715858673,0.38333337726226724
10.100524425506592,-0.2444183964130461,-0.35398141991643817,0.1695725569700566,0.04141695202749678,0.39100671670580667,0.3858332883197233
10.120567560195923,-0.2394183982412238,-0.3589814216876285,0.17457254830627156,0.04641695202749679,0.39600671854360525,0.3908331007295368
10.140623807907104,-0.23441840030113034,-0.36398141960840624,0.174739115492478,0.05141695202749679,0.4010067152463189,0.39583341840478353
10.160742282867432,-0.23441838136492046,-0.36898142160720443,0.17513897754145194,0.056416952027496796,0.4060067226074361,0.40083270927993786
10.180944442749023,-0.23941834312900023,-0.3739814159546567,0.1801389676220063,0.0614169520274968,0.4067309177345781,0.40583248629895224
10.201142311096191,-0.2419183462604401,-0.3764814174798739,0.18263896215732223,0.0639169520274968,0.40513269214532693,0.40833237272919803
10.221165657043457,-0.24691835648708008,-0.381481416775976,0.17763897790201136,0.0689169520274968,0.4101326884733975,0.4133327088588434
10.241256713867188,-0.2519183609422633,-0.38648142304884275,0.18263894674166226,0.0739169520274968,0.41513269542634007,0.41833205862511247
10.261322975158691,-0.25691830893693113,-0.3914814146199019,0.18763893742701618,0.07891695202749681,0.41013269815979364,0.4233318336970756
10.28176760673523,-0.2544183392270586,-0.3939814161874935,0.18513896173782027,0.08141695202749681,0.40939961245821926,0.4258323609843052
10.301599740982056,-0.25441832815075394,-0.3989814199511596,0.18513892852683125,0.08641695202749682,0.41123984902020655,0.4308316560283651
10.321695327758789,-0.25941826667734674,-0.4039814095755183,0.1901389209147072,0.09141695202749682,0.4112398516695317,0.4358314431296152
10.341848611831665,-0.26191827028543835,-0.40648141137290894,0.19263891459168786,0.09391695202749682,0.4087398530744733,0.4383313153987086
10.361982107162476,-0.25883639748169696,-0.41148141471257477,0.19053670661218758,0.09891695202749683,0.4037398507526255,0.4433315102512219
10.382029294967651,-0.2638363791966543,-0.4164814155623159,0.19553668268180013,0.10391695202749683,0.3987398565098241,0.44833098739188004
10.402262210845947,-0.2620838899473604,-0.4214814299089277,0.20053667678110337,0.10891700289950143,0.39373850978106895,0.45333096494081127
10.422229766845703,-0.25708390050309987,-0.42648142916485365,0.19553669192181736,0.11391700289950143,0.38873850610368144,0.45833129878216444
10.442390203475952,-0.25652688608734076,-0.4289814326702764,0.19803666984583856,0.11641700289950144,0.3862385110346933,0.46083082221208305
10.462404012680054,-0.2585255847193911,-0.4339814389057276,0.20303662693916694,0.12141670827156317,0.381239910192532,0.4658299635091051
10.482536315917969,-0.26352561799048035,-0.43898145943343286,0.2080365420028442,0.12641670827156318,0.376239928140124,0.47082818709088725
10.50262451171875,-0.266025637255049,-0.44148146998397936,0.21053649999692214,0.12891670827156318,0.3737399368978329,0.4733273125597694
10.522729873657227,-0.2710256813559917,-0.44648149170719664,0.21553641681846808,0.13391670827156318,0.36873995396891385,0.4783255906785871
10.542807340621948,-0.2698766729464207,-0.4514815359090857,0.22053637688394082,0.13891657896050558,0.36373800847826254,0.4833250199542433
10.562992811203003,-0.26487670743825925,-0.45648154571754657,0.21553635238166918,0.14391657896050558,0.3587380126987457,0.4883245519336719
10.583290338516235,-0.25987677762475275,-0.46148156723386835,0.2205362924970753,0.14891657896050559,0.3537380231702036,0.49332338160741157
10.603400468826294,-0.26237678441625506,-0.45898154304835415,0.2180362924970753,0.14641675989476238,0.351238904991916,0.49582318062837816
10.623517274856567,-0.26237681248343303,-0.4539815763314659,0.21436026125114346,0.1414166572427798,0.3462379086543565,0.5008225918422731
10.64354658126831,-0.2573767654167874,-0.4489815655254903,0.2108018880239864,0.1364166572427798,0.3412379054051547,0.5058229798895071
10.663620471954346,-0.25237681969767445,-0.4439815845413021,0.20580182400095598,0.1314166572427798,0.33623791699335726,0.5108216318817025
10.683727264404297,-0.24987684434203883,-0.44148159332386977,0.20330179371884985,0.1289166572427798,0.3337379224848384,0.5133209842999099
10.703941345214844,-0.24487688887864087,-0.43648160952211496,0.19830173644766946,0.12391665724277978,0.32873793288456005,0.5183197403880528
10.723965644836426,-0.23987692744264486,-0.43148162401519385,0.19330168333922687,0.11891665724277978,0.3237379425379905,0.5233185624787676
10.744032859802246,-0.2348769508595784,-0.42648163203470046,0.18830165548943192,0.11391665724277977,0.3187379475143508,0.5283179431585832
10.764268159866333,-0.23237695672458564,-0.4239816333172262,0.18580165287234862,0.11141665724277977,0.3162379479089163,0.5308178913558864
10.784311056137085,-0.22737696739403704,-0.4189816356379972,0.18080164807766153,0.10641665724277977,0.31123794863276205,0.5358177947197438
10.804340839385986,-0.22237697675545104,-0.4139816376608927,0.17580164382227034,0.10141665724277976,0.306237949276042,0.5408177068091751
10.824419498443604,-0.21737698492937105,-0.4089816394170698,0.17080164005372525,0.09641665724277976,0.3012379498461481,0.5458176269718846
10.844928503036499,-0.21487698860661283,-0.4064816402041982,0.16830163833670905,0.09391665724277976,0.2987379501059485,0.5483175898856361
10.865052223205566,-0.20987699520875003,-0.40148164161335265,0.16330163520864754,0.08891665724277975,0.2937379505791722,0.5533175210053597
10.885111570358276,-0.20487700089185815,-0.3964816428231347,0.15830163245315465,0.08391665724277975,0.28873795099573424,0.5583174587080608
10.905219316482544,-0.19987700302442674,-0.39148164540723807,0.15330163128125637,0.07891662726860257,0.2837379229332732,0.563317451061606
10.925472259521484,-0.19487700714643175,-0.38648164628526127,0.14830162915600476,0.07391662726860257,0.2787379232535229,0.5683174003420496
10.945630550384521,-0.19237700895671356,-0.38398164667200924,0.14580162819438014,0.07141662726860257,0.2762379233981594,0.5708173769075151
10.965760707855225,-0.1877238269354299,-0.3789816462898032,0.14080162636842114,0.06641662726860256,0.2712379237710262,0.575817318642942
10.98577094078064,-0.1869112401580187,-0.3739816377207593,0.13580162360061263,0.06141662726860256,0.26623792500297444,0.5808171387923752
11.005833148956299,-0.18792405965532435,-0.3714816383138864,0.13330162296447307,0.058916627268602556,0.26373792506782245,0.5833171261990884
11.025945901870728,-0.192924031207905,-0.36648163509524023,0.12830162098772058,0.05391662726860255,0.2587379256734121,0.5883170309596651
11.04600715637207,-0.19792403369736314,-0.36148163555998314,0.12330161993223797,0.04891662726860255,0.25373792582052146,0.5933170031825382
11.066088676452637,-0.1945332416547849,-0.3564816463966277,0.12830160811498093,0.04391662726860254,0.24873792706345135,0.5983167422684385
11.086184024810791,-0.19703321281136246,-0.35398164142403427,0.12580161864442857,0.04141662726860254,0.2512379255769909,0.6008170247346178
11.106265783309937,-0.19703325354147977,-0.3489816480718918,0.12580160706182175,0.036416627268602536,0.2512379271602761,0.6058167181127123
11.126652002334595,-0.19703321240496663,-0.3439816437899661,0.13080160298006693,0.03141662726860253,0.25123792808799683,0.6108165657243894
11.14653468132019,-0.20203321470916763,-0.3389816437783165,0.13080160499333868,0.026416627268602534,0.2562379277310241,0.6158166256803865
11.166829586029053,-0.2045332151681323,-0.3364816439005374,0.1283016045411898,0.023916627268602535,0.2587379278052493,0.6183166127288935
11.186930656433105,-0.2081589985553628,-0.33148164392981566,0.1333016011427902,0.018916627268602538,0.25373792839186776,0.6133165122869765
11.207023620605469,-0.213158998378268,-0.3264816420286851,0.1283016143515075,0.013916627268602539,0.24873792612731707,0.6083168970328516
11.227159023284912,-0.2181589880703358,-0.3214816428653448,0.1333015997287963,0.008916627268602538,0.24373792860729593,0.6033164621964361
11.247242212295532,-0.22315899055907024,-0.3164816428978372,0.1283016016362217,0.003916627268602537,0.23873792827423282,0.5983165187492626
11.267383337020874,-0.22565899055591307,-0.31898164266195317,0.1308016016362217,0.0014166309069046173,0.23623793145350877,0.5958165167312881
11.287468671798706,-0.22565900135324324,-0.32398164380311084,0.13580160222923915,0.0014166309069046168,0.23123793136251575,0.5908165315090542
11.30751657485962,-0.22065900153249593,-0.3289816438911129,0.1408016017072926,0.006416630906904617,0.2262379314449396,0.5858165155927207
11.328073501586914,-0.21815900169209354,-0.33148164394003027,0.14330160146265528,0.008916630906904617,0.22373793148409277,0.5833165081223441
11.348130226135254,-0.2131590341116903,-0.3364816472082802,0.1483016034292711,0.013916630906904618,0.2287379310956001,0.5783165707059987
11.368271589279175,-0.2081590345524149,-0.3414816473462333,0.15330160273541735,0.018916630906904618,0.23373793120950823,0.5833165500704603
11.388340473175049,-0.20315903544336247,-0.3464816475352513,0.1583016020525144,0.023916630906904615,0.23873793132154703,0.5883165303420437
11.408416271209717,-0.19815903617085873,-0.35148164768116996,0.16330160157773552,0.028916630906904613,0.24373793139994773,0.5933165170401425
11.428568840026855,-0.19565903686591124,-0.3539816478202845,0.1658016011345369,0.031416630906904615,0.24623793147347076,0.5958165047945108
11.448606729507446,-0.1906590385143176,-0.3589816481456503,0.17080160014365825,0.03641663090690462,0.2512379316385154,0.6008164779520526
11.468697786331177,-0.18565904054966662,-0.3639816485426007,0.17580159899668496,0.041416630906904624,0.25623793183047167,0.6058164476838258
11.488783836364746,-0.18065904302763322,-0.3689816490227649,0.1808015976714146,0.04641663090690463,0.2612379320531928,0.6108164136149964
11.50905442237854,-0.17815904445151293,-0.371481649298069,0.18330159693429507,0.04891663090690463,0.2637379321774123,0.6133163950298731
11.529031991958618,-0.17315904353795675,-0.3764816465611464,0.17830161679784548,0.053916630906904635,0.2687379284849946,0.6183169243378439
11.549111127853394,-0.1681590534126625,-0.38148165115059457,0.18330159251080877,0.05891663090690464,0.2737379328047349,0.6233162873372813
11.569191217422485,-0.16797838856016803,-0.3864816488315424,0.1783015955331393,0.06391663090690464,0.27873793239510686,0.6283163505419992
11.589286088943481,-0.1704783286895191,-0.38898164489832326,0.18080156792985716,0.06641663090690464,0.2812379380133148,0.6308155544145695
11.609363317489624,-0.17547830697606137,-0.3939816422672197,0.185801566059192,0.07141663090690464,0.28437552546032396,0.6358154780154337
11.62947416305542,-0.17547830671155015,-0.39898164519692375,0.19080156481743418,0.07641668721797318,0.2874488853928373,0.6408154528614367
11.649523973464966,-0.17047820909743946,-0.40398162729929205,0.19080159714071232,0.08141668721797318,0.2874488806503851,0.6458161278101221
11.67011547088623,-0.16797821315023237,-0.40648162806691823,0.18830159559817106,0.08391668721797318,0.2849488808779032,0.6483160947418036
11.69023585319519,-0.1629782451854177,-0.411481633540792,0.19330158729846922,0.08891668721797319,0.2899488819228117,0.653315933867569
11.710310459136963,-0.16797825141724854,-0.4164816297203803,0.1983015857161271,0.09391660645184242,0.2849495644921466,0.6583158902191234
11.730442523956299,-0.17059414889723987,-0.42148163435316055,0.19913374537644535,0.09891660645184243,0.2799495622230147,0.6633161921570758
11.750518560409546,-0.16809414682676,-0.42398164258721577,0.20163374537644535,0.10141659025006203,0.27744907216254716,0.6658162422391672
11.770629167556763,-0.16512661409622556,-0.42898163176064863,0.20163374374318635,0.10641668677497763,0.27244946345368226,0.6708161262262392
11.79068899154663,-0.16220582904682213,-0.433981645289309,0.20163374212824464,0.1114165973679281,0.2674490052637356,0.6758161829140781
11.810803890228271,-0.16220584047512193,-0.43898163185053724,0.2024966312193192,0.11641661035509723,0.26244984585640946,0.6808160811349454
11.830905437469482,-0.164705873527593,-0.44148163865748724,0.20102321338696538,0.11891661035509724,0.2599498483254862,0.6833156523129341
11.851009368896484,-0.16970597022439757,-0.4464816559438973,0.20602317385846494,0.12391661035509724,0.2549498526230344,0.6883148593206729
11.87113094329834,-0.17470602561518966,-0.45148166648082166,0.21102314536407543,0.12891661035509724,0.2499498558186616,0.6933142583222262
