liuyurong129/humanoid-gym/humanoid/data/robot1_action_20250621-221106.csv
timestamp,joint_1,joint_2,joint_3,joint_4,joint_5,joint_6
0.00034618377685546875,0.0,0.0,0.0,0.0,0.0,0.0
0.020403623580932617,0.0,0.0,0.0,0.0,0.0,0.0
0.040485382080078125,0.0,0.0,0.0,0.0,0.0,0.0
0.06056571006774902,0.0,0.0,0.0,0.0,0.0,0.0
0.08067798614501953,0.0,0.0,0.0,0.0,0.0,0.0
0.10080099105834961,0.0,0.0,0.0,0.0,0.0,0.0
0.12086224555969238,-1.445524,-0.14851642,-0.13415945,-0.08327578,-0.34466222,0.94909227
0.1409451961517334,-1.2771919,0.10913113,-0.080919415,-0.1539348,-0.7036164,1.9572475
0.16105437278747559,-0.9290323,-0.19296366,-0.13197866,-0.23483844,-0.29444444,2.0554683
0.18108129501342773,-0.99150896,-0.29525244,0.029941149,0.09388006,-0.38995853,2.3583562
0.2016124725341797,-0.99150896,-0.29525244,0.029941149,0.09388006,-0.38995853,2.3583562
0.2217092514038086,-1.1272575,-0.45700815,0.16149023,0.14177296,-0.3743283,2.349185
0.24211430549621582,-1.4542841,-0.5148336,0.27006435,0.25662595,-0.5698136,2.273183
0.2621004581451416,-1.7429512,-0.46553624,0.123924136,0.16326134,-0.6999582,2.4321034
0.28210926055908203,-1.5093614,-0.5688573,0.26290825,0.34579164,-0.7038363,2.4060662
0.3022007942199707,-1.8441598,-0.46280476,0.3287496,0.33819205,-0.91336215,2.242787
0.32232046127319336,-1.8418926,-0.49649265,0.39268863,0.4245472,-0.9630481,2.254318
0.34238195419311523,-1.8439462,-0.37044203,0.2669112,0.33534575,-1.0121253,2.3417046
0.3624727725982666,-1.8439462,-0.37044203,0.2669112,0.33534575,-1.0121253,2.3417046
0.3826282024383545,-1.6573129,-0.46849474,0.39423472,0.4400385,-0.9498521,2.311905
0.4030160903930664,-1.9766121,-0.3286514,0.35351488,0.3052374,-1.0007962,2.1395972
0.4253096580505371,-1.7415164,-0.43640605,0.41101295,0.42155284,-1.0456551,2.2902071
0.4455902576446533,-1.7415164,-0.43640605,0.41101295,0.42155284,-1.0456551,2.2902071
0.46553802490234375,-1.9717901,-0.25618908,0.31772202,0.2301907,-1.0446377,2.0980802
0.48563647270202637,-1.6979247,-0.36248633,0.32787913,0.31787044,-1.0073767,2.2523172
0.5057711601257324,-1.8298537,-0.17302378,0.21517135,0.08091545,-0.9632546,2.090555
0.5258595943450928,-1.5088946,-0.2927277,0.15303682,0.117804974,-0.85473186,2.2581918
0.545921802520752,-1.581784,-0.02188158,-0.057589293,-0.24392924,-0.5981976,2.1344507
0.5661716461181641,-1.1077621,-0.19926935,-0.20991719,-0.22209324,-0.003479179,2.1481931
0.5863018035888672,-1.1077621,-0.19926935,-0.20991719,-0.22209324,-0.003479179,2.1481931
0.6064860820770264,-0.9736016,-0.21833827,-0.040704504,0.055323526,0.12354608,2.2794273
0.626518964767456,-1.0587662,-0.41759664,0.15900995,0.27180958,0.028575104,2.2942796
0.6465981006622314,-1.3453536,-0.51375806,0.32245207,0.36325124,-0.0027195849,2.1022344
0.6666858196258545,-1.8366281,-0.37197745,0.29376838,0.3021391,-0.14129652,2.0428514
0.6867566108703613,-2.076725,-0.19462577,0.12590642,0.12503631,-0.31827942,1.8928714
0.7068376541137695,-1.6222593,-0.30007368,0.082399294,0.17115027,-0.36184257,2.0643501
0.7269027233123779,-1.6862946,-0.022338703,-0.03709334,-0.09785344,-0.2803258,1.8989661
0.7470662593841553,-1.6862946,-0.022338703,-0.03709334,-0.09785344,-0.2803258,1.8989661
0.7671477794647217,-1.3292538,-0.1926491,-0.10423067,-0.10108581,0.011002701,1.8022771
0.7872879505157471,-1.2412016,-0.17215107,0.061199054,0.16399424,-0.08938356,1.8823755
0.8077337741851807,-1.3225996,-0.21955171,0.12051652,0.14272283,-0.020774577,1.8814368
0.8280911445617676,-1.4508576,-0.26757815,0.1716196,0.14111844,0.02493773,1.8407681
0.8480453491210938,-1.7285633,-0.08193348,0.03728071,-0.103031486,-0.044995334,1.8494384
0.8682215213775635,-1.5575032,-0.27330357,0.1618162,0.0014307974,-0.41041598,1.6353915
0.888385534286499,-1.8039726,0.06363067,-0.017638326,-0.17730966,-0.70772576,1.631964
0.90848708152771,-1.8039726,0.06363067,-0.017638326,-0.17730966,-0.70772576,1.631964
0.9285721778869629,-1.297976,-0.07731715,-0.19203064,-0.2433045,-0.1849863,1.720165
0.9486589431762695,-1.0444599,-0.09549862,-0.1949171,-0.22463486,0.08244747,1.5486159
0.968817949295044,-1.1351992,-0.10396872,-0.116427034,-0.12943327,0.26659444,1.4377782
0.9888536930084229,-1.2575333,-0.12261056,0.028446391,0.09826277,0.1259746,1.3300855
1.008943796157837,-1.6731462,0.15228054,0.015485913,-0.17934833,0.029168423,1.5580871
1.0291271209716797,-1.6731462,0.15228054,0.015485913,-0.17934833,0.029168423,1.5580871
1.049243688583374,-1.3026752,-0.25525415,0.006457463,-0.1294203,-0.11785813,1.5850132
1.0693066120147705,-1.3488668,-0.21854419,0.1737456,0.29207522,-0.41235885,1.6175036
1.0894136428833008,-1.7274098,0.04178828,0.09427829,-0.16113299,-0.4532898,1.5365453
1.1094863414764404,-1.2911496,0.091682404,-0.20098865,-0.34736753,-0.16463663,1.5073423
1.1295654773712158,-0.8869829,0.05866167,-0.2749726,-0.3773588,0.1009177,1.3742266
1.149651288986206,-0.9239267,-0.11622572,-0.207643,-0.28915226,0.2798804,1.360872
1.1697354316711426,-1.045276,-0.27695543,-0.018857114,0.10441361,0.25119355,1.6010914
1.18984055519104,-1.045276,-0.27695543,-0.018857114,0.10441361,0.25119355,1.6010914
1.2099230289459229,-1.2956271,-0.282236,0.2252613,0.2675943,0.088802144,1.6594102
1.230017900466919,-1.7777098,-0.12275158,0.15158516,-0.014004159,-0.04174124,1.5967698
1.2500975131988525,-1.447974,-0.17250223,0.11481045,0.08552724,-0.31349578,1.7302859
1.2701725959777832,-1.1712539,0.053227007,-0.33442652,-0.41573414,0.07008354,1.8698089
1.2902517318725586,-0.720448,-0.185303,-0.2827686,-0.3705976,0.33978653,1.9013236
1.310333013534546,-0.6368584,-0.23326579,-0.076755434,-0.05014594,0.3070993,1.9978578
1.3309967517852783,-0.6368584,-0.23326579,-0.076755434,-0.05014594,0.3070993,1.9978578
1.3511087894439697,-0.80148625,-0.26789793,0.123741135,0.14879125,0.16950491,2.0064485
1.3711943626403809,-0.9904667,-0.20898409,0.10989863,-0.048331417,0.19471307,1.8780918
1.3912639617919922,-1.1222038,-0.1076151,0.13033393,-0.021034509,-0.10913913,1.7056634
1.411346435546875,-0.9338138,-0.09692679,-0.1462988,-0.15118097,0.16783503,1.5303988
1.4315991401672363,-0.9849665,0.27134475,-0.14505014,-0.40346378,0.36301354,1.3444791
1.4515924453735352,-0.8401984,-0.004705116,-0.16877045,-0.4614476,0.18581858,1.511416
1.471709966659546,-0.76644087,0.030938178,-0.16036074,-0.4058909,0.247803,1.4262359
1.4917802810668945,-0.76644087,0.030938178,-0.16036074,-0.4058909,0.247803,1.4262359
1.5118677616119385,-0.81033593,-0.017332777,-0.11758736,-0.37713376,0.14341828,1.4547832
1.5319085121154785,-0.838241,-0.042430013,-0.08308186,-0.31521675,0.11170399,1.4346368
1.5520167350769043,-0.8897706,-0.09977927,-0.047901332,-0.21468318,0.12918893,1.4349022
1.5721192359924316,-0.856313,-0.2685447,-0.013202265,0.045936972,0.22988462,1.7158775
1.592188835144043,-0.92768407,-0.24208158,0.18673056,0.076929554,0.12706447,1.8959684
1.6123006343841553,-0.8337438,-0.45612833,0.08538699,0.05043523,0.010721546,2.0582638
1.6323432922363281,-0.7003609,-0.30260968,-0.2230846,-0.3085202,0.2718277,2.0949416
1.652904748916626,-0.7003609,-0.30260968,-0.2230846,-0.3085202,0.2718277,2.0949416
1.673032522201538,-0.48713097,-0.51965094,-0.056173496,0.037709936,0.22109579,2.1469133
1.6931064128875732,-0.49709967,-0.40261352,0.094034284,0.110256076,0.29072973,2.042374
1.7131898403167725,-0.7218486,-0.23637031,0.13149723,-0.03524977,0.238166,1.783068
1.7332847118377686,-0.7135049,-0.2586521,-0.021097697,0.014018788,0.29258743,1.8151071
1.7533643245697021,-0.64742595,-0.30389947,0.18102492,0.1918092,0.1500729,1.9174321
1.7734425067901611,-0.89854324,-0.196283,0.34329128,0.11767756,-0.13091426,1.7385552
1.7935707569122314,-0.78879416,-0.22172472,-0.11157209,-0.2468248,-0.16306874,1.961272
1.8140764236450195,-0.78879416,-0.22172472,-0.11157209,-0.2468248,-0.16306874,1.961272
1.834244728088379,-0.44460085,-0.3118414,-0.082446694,-0.012613029,-0.059334885,2.019654
1.8543014526367188,-0.30560723,-0.2771058,0.042414337,0.08131626,-0.019413006,1.9969463
1.8743743896484375,-0.33043277,-0.03998874,0.042813465,-0.32805824,0.05142318,1.9018731
1.894463062286377,-0.253464,0.24074435,-0.06639908,-0.67795056,0.0057417415,1.5426898
1.9145512580871582,-0.0071821203,0.16068411,-0.1107582,-0.82897514,-0.254571,1.8708272
1.9346544742584229,0.25767344,0.32131818,-0.13492368,-1.0107868,-0.47294375,2.0083194
1.9556427001953125,0.25767344,0.32131818,-0.13492368,-1.0107868,-0.47294375,2.0083194
1.9757847785949707,0.48495668,0.5292996,-0.18006234,-1.2767489,-0.65585124,2.062277
1.9958322048187256,0.72989297,0.7549372,-0.2650611,-1.5834119,-0.7495191,2.0408719
2.0159194469451904,1.0324638,1.0490662,-0.3822572,-1.8849361,-0.7966469,1.96151
2.036036252975464,1.3915195,1.5228649,-0.50264376,-2.1366463,-0.83393943,1.7756703
2.0562102794647217,1.8009998,2.2234225,-0.6606715,-2.4016342,-0.8540168,1.48475
2.0761752128601074,2.285931,3.0989032,-0.84866023,-2.7433527,-0.8646546,1.1755261
2.096349000930786,2.285931,3.0989032,-0.84866023,-2.7433527,-0.8646546,1.1755261
2.116398811340332,2.8362043,4.095418,-1.0358665,-3.1455293,-0.8999787,0.8864539
2.1365132331848145,3.4107444,5.165505,-1.2316866,-3.5501895,-1.0764905,0.6336803
2.156845808029175,3.963489,6.2418504,-1.4097768,-3.949241,-1.3599504,0.43047076
2.1769561767578125,4.5111904,7.23286,-1.5506585,-4.2919593,-1.671681,0.25153166
2.197178602218628,5.015658,8.10024,-1.6727262,-4.577402,-1.9500028,0.067810595
2.2171785831451416,5.3809896,8.8258915,-1.7770208,-4.8542576,-2.2093656,-0.025026977
2.237199068069458,5.7054763,9.471749,-1.8567276,-5.1071377,-2.4418516,-0.082339704
2.2572953701019287,5.7054763,9.471749,-1.8567276,-5.1071377,-2.4418516,-0.082339704
2.2774112224578857,5.993027,10.049165,-1.9253774,-5.332467,-2.6509726,-0.1299612
2.2974801063537598,6.2519712,10.559641,-1.9803278,-5.5390806,-2.8347907,-0.16929334
2.317568302154541,6.4800878,11.008465,-2.024121,-5.7216034,-2.9979334,-0.20703048
2.337646722793579,6.678225,11.399646,-2.0599804,-5.8785224,-3.1419883,-0.24310035
2.3579461574554443,6.8486643,11.737691,-2.0902364,-6.0123353,-3.2674928,-0.27577394
2.377876043319702,6.994318,12.028309,-2.1162937,-6.1263533,-3.375788,-0.3044507
2.3979647159576416,7.118415,12.277668,-2.1389997,-6.2236657,-3.4687738,-0.32929438
2.41908860206604,7.118415,12.277668,-2.1389997,-6.2236657,-3.4687738,-0.32929438
2.4392383098602295,7.224068,12.491709,-2.1589732,-6.306954,-3.5484881,-0.350774
2.459271192550659,7.3140926,12.675791,-2.1766987,-6.3785057,-3.6168637,-0.3693816
2.479355812072754,7.390955,12.834623,-2.192574,-6.440261,-3.6756325,-0.38557214
2.4994328022003174,7.4567795,12.97227,-2.2069242,-6.4938593,-3.726312,-0.3997342
2.5195200443267822,7.51338,13.092197,-2.2200153,-6.540679,-3.7702084,-0.41219682
2.539597988128662,7.5622897,13.197352,-2.2320697,-6.5818725,-3.8084364,-0.42325014
2.5596799850463867,7.6048045,13.290209,-2.2432704,-6.6184053,-3.8419394,-0.43312138
2.5797903537750244,7.6420074,13.37286,-2.2537673,-6.651082,-3.8715124,-0.44201487
2.6001083850860596,7.6420074,13.37286,-2.2537673,-6.651082,-3.8715124,-0.44201487
2.6200122833251953,7.67481,13.447049,-2.2636845,-6.6805735,-3.8978229,-0.4500944
2.6400954723358154,7.703972,13.514237,-2.2731261,-6.707434,-3.9214296,-0.45750207
2.66015362739563,7.7301254,13.575644,-2.2821772,-6.7321258,-3.9428008,-0.4643585
2.6802897453308105,7.7537975,13.632279,-2.2909095,-6.7550325,-3.9623237,-0.47075528
2.700495958328247,7.7754254,13.684988,-2.2993808,-6.776471,-3.9803233,-0.4767751
2.7204902172088623,7.7953696,13.73447,-2.3076413,-6.7967043,-3.997069,-0.48248547
2.740541458129883,7.813934,13.781305,-2.315731,-6.8159513,-4.012784,-0.48793977
2.7606453895568848,7.813934,13.781305,-2.315731,-6.8159513,-4.012784,-0.48793977
2.7807276248931885,7.8313684,13.8259735,-2.323685,-6.8343925,-4.027654,-0.4931826
2.800804376602173,7.8478785,13.868877,-2.331529,-6.852177,-4.0418324,-0.49825114
2.820868968963623,7.863638,13.910349,-2.3392887,-6.8694286,-4.055449,-0.5031814
2.8412771224975586,7.878789,13.950661,-2.3469815,-6.88625,-4.0686088,-0.5079941
2.8611764907836914,7.8934464,13.990038,-2.3546238,-6.902725,-4.081399,-0.5127129
2.8813180923461914,7.9077086,14.028672,-2.3622296,-6.9189243,-4.093892,-0.5173566
2.901801586151123,7.9077086,14.028672,-2.3622296,-6.9189243,-4.093892,-0.5173566
2.921935796737671,7.921659,14.066717,-2.3698094,-6.934907,-4.106149,-0.52193326
2.9419877529144287,7.935361,14.1043005,-2.3773718,-6.9507184,-4.1182203,-0.5264639
2.962083101272583,7.9488726,14.141534,-2.384925,-6.966401,-4.130145,-0.5309536
2.9822347164154053,7.962241,14.178503,-2.3924701,-6.981982,-4.1419625,-0.5354125
3.0022497177124023,7.975501,14.215274,-2.4000094,-6.997485,-4.153699,-0.5398461
3.022308111190796,7.9886823,14.2519,-2.4075463,-7.0129294,-4.165377,-0.54426306
3.0427589416503906,8.001807,14.288426,-2.4150827,-7.028329,-4.177013,-0.5486674
3.0628502368927,8.001807,14.288426,-2.4150827,-7.028329,-4.177013,-0.5486674
3.082916259765625,8.014894,14.324889,-2.4226215,-7.0436983,-4.188622,-0.5530655
3.102992296218872,8.027955,14.361317,-2.4301655,-7.0590467,-4.200214,-0.5574567
3.123081684112549,8.041007,14.39773,-2.437716,-7.0743847,-4.2118,-0.5618426
3.143173933029175,8.054056,14.434151,-2.445274,-7.089718,-4.223387,-0.5662295
3.163271903991699,8.067113,14.470597,-2.4528415,-7.105053,-4.23498,-0.570615
3.183380603790283,8.080184,14.50708,-2.4604187,-7.120395,-4.2465863,-0.5750038
3.204110622406006,8.080184,14.50708,-2.4604187,-7.120395,-4.2465863,-0.5750038
3.224337100982666,8.093275,14.543612,-2.4680052,-7.135749,-4.258209,-0.5793931
3.24454665184021,8.106392,14.580202,-2.4756043,-7.151117,-4.269852,-0.5837876
3.264442205429077,8.119536,14.616858,-2.4832146,-7.1665015,-4.2815194,-0.58818644
3.2844886779785156,8.132712,14.653585,-2.4908373,-7.181905,-4.293212,-0.592591
3.3045902252197266,8.145923,14.690389,-2.4984722,-7.1973305,-4.3049326,-0.59700173
3.324673891067505,8.154428,14.739405,-2.5070314,-7.213105,-4.318684,-0.60434264
3.3447508811950684,8.157189,14.825658,-2.519135,-7.232376,-4.3403096,-0.6184284
3.365262269973755,8.178293,14.9345455,-2.535299,-7.2607117,-4.3711357,-0.6310424
3.385366678237915,8.178293,14.9345455,-2.535299,-7.2607117,-4.3711357,-0.6310424
3.4054558277130127,8.211941,15.05702,-2.5529048,-7.296639,-4.408219,-0.64255065
3.4256398677825928,8.253669,15.186504,-2.5704103,-7.3371925,-4.449334,-0.65426034
3.4456098079681396,8.29992,15.317715,-2.587258,-7.3798122,-4.492464,-0.66643685
3.4657185077667236,8.347976,15.446701,-2.6032293,-7.422675,-4.5359254,-0.6788413
3.4858226776123047,8.39589,15.570766,-2.618235,-7.4645615,-4.5784793,-0.69119257
3.505894422531128,8.442347,15.688255,-2.632258,-7.504704,-4.6192966,-0.70327586
3.5259673595428467,8.442347,15.688255,-2.632258,-7.504704,-4.6192966,-0.70327586
3.546055793762207,8.486517,15.798281,-2.64532,-7.542664,-4.657883,-0.7149469
3.5661468505859375,8.527936,15.9005165,-2.6574688,-7.578229,-4.6939874,-0.72612804
3.5862605571746826,8.566385,15.995018,-2.668764,-7.6113358,-4.727527,-0.7367889
3.6063826084136963,8.601828,16.082085,-2.6792767,-7.6420293,-4.758538,-0.74692553
3.6264491081237793,8.634339,16.16217,-2.6890805,-7.6704226,-4.7871256,-0.75655717
3.646526575088501,8.664071,16.235825,-2.698247,-7.696669,-4.8134494,-0.7657139
3.667088508605957,8.664071,16.235825,-2.698247,-7.696669,-4.8134494,-0.7657139
3.687201976776123,8.69122,16.30362,-2.7068472,-7.7209444,-4.83769,-0.77442807
3.7078537940979004,8.716007,16.366146,-2.714946,-7.743434,-4.8600383,-0.782746
3.7282135486602783,8.738656,16.42398,-2.7226064,-7.764321,-4.880689,-0.790703
3.748528480529785,8.759396,16.477661,-2.7298846,-7.7837815,-4.899828,-0.79834145
3.768672227859497,8.759396,16.477661,-2.7298846,-7.7837815,-4.899828,-0.79834145
3.788713216781616,8.778436,16.527687,-2.7368305,-7.8019857,-4.9176297,-0.8056943
3.8087878227233887,8.795981,16.574526,-2.7434883,-7.819087,-4.9342604,-0.81279963
3.828871488571167,8.812218,16.61859,-2.7498996,-7.835227,-4.949867,-0.8196866
3.848952531814575,8.827313,16.660257,-2.7561,-7.8505325,-4.964586,-0.826384
3.8690359592437744,8.84142,16.699856,-2.762121,-7.8651195,-4.978537,-0.83291787
3.8890950679779053,8.854673,16.737684,-2.767989,-7.8790894,-4.9918275,-0.8393094
3.909818410873413,8.854673,16.737684,-2.767989,-7.8790894,-4.9918275,-0.8393094
3.929959297180176,8.867197,16.774004,-2.7737277,-7.89253,-5.0045533,-0.84558266
3.95003604888916,8.879095,16.809034,-2.7793593,-7.9055195,-5.0167975,-0.8517515
3.970338821411133,8.89046,16.842976,-2.7849002,-7.918129,-5.028632,-0.85783285
3.9905619621276855,8.901372,16.876022,-2.790365,-7.930422,-5.0401297,-0.8638565
4.01062273979187,8.911908,16.908278,-2.7957623,-7.9424434,-5.051334,-0.86980695
4.030692100524902,8.922124,16.939886,-2.8011143,-7.954235,-5.062291,-0.87570447
4.050751447677612,8.932072,16.970959,-2.8064265,-7.9658413,-5.073044,-0.88155144
4.070859909057617,8.932072,16.970959,-2.8064265,-7.9658413,-5.073044,-0.88155144
4.091022729873657,8.941797,17.00159,-2.8117073,-7.977295,-5.083629,-0.8873612
4.111140251159668,8.951344,17.031868,-2.8169627,-7.9886246,-5.0940776,-0.89314
4.131180286407471,8.960744,17.061836,-2.8222022,-7.999856,-5.1044135,-0.8988854
4.151265382766724,8.970026,17.091595,-2.8274314,-8.011011,-5.1146584,-0.90461177
4.171376705169678,8.979215,17.121185,-2.83265,-8.022108,-5.1248403,-0.91032666
4.191433906555176,8.9883375,17.150639,-2.8378618,-8.033163,-5.134969,-0.91602916
4.211569309234619,8.997407,17.18,-2.8430736,-8.0441885,-5.145064,-0.92172354
4.231686115264893,8.997407,17.18,-2.8430736,-8.0441885,-5.145064,-0.92172354
4.25175142288208,9.006438,17.209297,-2.8482847,-8.055193,-5.15513,-0.92741007
4.271846771240234,9.015447,17.23856,-2.853501,-8.066189,-5.1651826,-0.93309134
4.291907787322998,9.024444,17.267807,-2.8587224,-8.077183,-5.1752257,-0.93876857
4.312033653259277,9.033435,17.297058,-2.8639505,-8.088182,-5.18527,-0.94444484
4.332089424133301,9.042434,17.32633,-2.8691878,-8.099195,-5.1953197,-0.9501173
4.352156400680542,9.051444,17.355637,-2.8744345,-8.110223,-5.205381,-0.9557919
4.372217416763306,9.060472,17.38499,-2.8796933,-8.121273,-5.2154574,-0.96146697
4.392378807067871,9.060472,17.38499,-2.8796933,-8.121273,-5.2154574,-0.96146697
4.412394285202026,9.069524,17.414402,-2.8849628,-8.132347,-5.2255545,-0.9671423
4.43251371383667,9.078603,17.44388,-2.890246,-8.143448,-5.235675,-0.97282
4.452568769454956,9.087713,17.473434,-2.895542,-8.154583,-5.245821,-0.97850055
4.472656965255737,9.09686,17.503067,-2.9008536,-8.165749,-5.2559967,-0.9841849
4.492757081985474,9.106044,17.532785,-2.9061782,-8.17695,-5.266202,-0.98987216
4.51283073425293,9.115268,17.562597,-2.9115193,-8.1881895,-5.2764406,-0.9955644
4.533276796340942,9.124536,17.592505,-2.9168766,-8.19947,-5.286714,-1.0012596
4.554234504699707,9.124536,17.592505,-2.9168766,-8.19947,-5.286714,-1.0012596
4.574333190917969,9.133845,17.622513,-2.922249,-8.210789,-5.297024,-1.0069602
4.59452486038208,9.143205,17.652622,-2.9276364,-8.222149,-5.3073688,-1.0126636
4.614562034606934,9.152608,17.682838,-2.9330428,-8.233552,-5.317754,-1.0183725
4.634622812271118,9.162063,17.713161,-2.9384644,-8.244999,-5.328177,-1.0240848
4.655125141143799,9.171564,17.743595,-2.943904,-8.25649,-5.3386397,-1.0298021
4.6749114990234375,9.181117,17.774141,-2.9493597,-8.268025,-5.3491445,-1.0355227
4.694998264312744,9.1907215,17.804802,-2.954834,-8.279608,-5.359689,-1.0412505
4.715069532394409,9.1907215,17.804802,-2.954834,-8.279608,-5.359689,-1.0412505
4.735178470611572,9.200378,17.835579,-2.960326,-8.291235,-5.3702765,-1.046983
4.755362033843994,9.210089,17.86647,-2.9658353,-8.30291,-5.3809066,-1.0527177
4.7948243618011475,9.210089,17.86647,-2.9658353,-8.30291,-5.3809066,-1.0527177
4.814927816390991,9.219853,17.897482,-2.9713628,-8.314632,-5.3915796,-1.0584586
4.834991216659546,9.22967,17.928612,-2.9769077,-8.326402,-5.402295,-1.0642045
4.855084180831909,9.239542,17.959864,-2.9824717,-8.338221,-5.413056,-1.0699534
4.875158786773682,9.249471,17.991238,-2.988054,-8.350088,-5.423861,-1.0757079
4.895253896713257,9.259455,18.022732,-2.993655,-8.362005,-5.43471,-1.0814655
4.9153501987457275,9.269494,18.054352,-2.9992745,-8.373971,-5.445605,-1.0872281
4.93541693687439,9.269494,18.054352,-2.9992745,-8.373971,-5.445605,-1.0872281
4.955599546432495,9.27959,18.086098,-3.004913,-8.385986,-5.456545,-1.0929935
4.975752830505371,9.289742,18.117971,-3.0105708,-8.398052,-5.4675307,-1.0987661
4.995774030685425,9.2999525,18.14997,-3.016248,-8.410169,-5.4785633,-1.1045406
5.015918731689453,9.31022,18.182095,-3.021944,-8.422337,-5.4896436,-1.1103187
5.035979747772217,9.320547,18.214348,-3.0276585,-8.434555,-5.5007687,-1.116101
5.056208848953247,9.330932,18.24673,-3.033393,-8.446824,-5.511941,-1.1218855
5.0761637687683105,9.341372,18.27924,-3.0391455,-8.459143,-5.5231614,-1.1276762
5.096567392349243,9.341372,18.27924,-3.0391455,-8.459143,-5.5231614,-1.1276762
5.1166698932647705,9.351871,18.311882,-3.0449173,-8.47151,-5.534429,-1.1334703
5.13674521446228,9.362426,18.344652,-3.0507076,-8.483927,-5.545743,-1.1392672
5.156883716583252,9.373038,18.377554,-3.056517,-8.496391,-5.557105,-1.1450694
5.177216291427612,9.383706,18.410582,-3.0623457,-8.508905,-5.568514,-1.1508725
5.197366714477539,9.394432,18.443735,-3.0681913,-8.521467,-5.57997,-1.156678
5.217467546463013,9.405211,18.47702,-3.074058,-8.534075,-5.591471,-1.1624887
5.237446546554565,9.416049,18.51043,-3.0799425,-8.546731,-5.603021,-1.168297
5.257841348648071,9.416049,18.51043,-3.0799425,-8.546731,-5.603021,-1.168297
5.277967214584351,9.42694,18.543966,-3.0858455,-8.559434,-5.614617,-1.1741083
5.2980828285217285,9.437888,18.57763,-3.0917675,-8.5721855,-5.6262584,-1.17992
5.318137884140015,9.448889,18.61142,-3.0977094,-8.584983,-5.6379466,-1.185735
5.338242530822754,9.459945,18.645334,-3.1036696,-8.597828,-5.6496806,-1.1915481
5.358297824859619,9.471057,18.679379,-3.1096494,-8.610721,-5.6614614,-1.1973622
5.378404855728149,9.482224,18.71355,-3.115649,-8.623661,-5.67329,-1.2031777
5.398756980895996,9.493445,18.747849,-3.121667,-8.636648,-5.6851635,-1.2089908
5.418898105621338,9.493445,18.747849,-3.121667,-8.636648,-5.6851635,-1.2089908
5.43895959854126,9.504722,18.782272,-3.1277046,-8.649682,-5.6970844,-1.2148044
5.4590606689453125,9.516053,18.816824,-3.1337614,-8.6627655,-5.709053,-1.220619
5.47993540763855,9.52744,18.851503,-3.1398385,-8.675895,-5.721067,-1.2264307
5.499760389328003,9.538881,18.88633,-3.1459312,-8.689071,-5.733128,-1.2322531
5.519899606704712,9.550372,18.921257,-3.15204,-8.702292,-5.74524,-1.2380674
5.539930582046509,9.561915,18.95631,-3.158172,-8.715558,-5.7573943,-1.2438786
5.560795068740845,9.561915,18.95631,-3.158172,-8.715558,-5.7573943,-1.2438786
5.580918788909912,9.573513,18.991486,-3.164325,-8.728872,-5.769593,-1.2496824
5.6009910106658936,9.585163,19.02679,-3.1704977,-8.742234,-5.78184,-1.2554848
5.621081829071045,9.5968685,19.062223,-3.17669,-8.755646,-5.7941327,-1.2612822
5.641210556030273,9.608628,19.097786,-3.1829033,-8.769104,-5.8064733,-1.2670779
5.661340236663818,9.620442,19.13348,-3.1891367,-8.782611,-5.8188615,-1.2728715
5.6813976764678955,9.632313,19.1693,-3.1953902,-8.796166,-5.8312993,-1.2786582
5.7014265060424805,9.644235,19.205254,-3.2016633,-8.809769,-5.843784,-1.2844441
5.7216880321502686,9.644235,19.205254,-3.2016633,-8.809769,-5.843784,-1.2844441
5.741817951202393,9.656212,19.241337,-3.2079585,-8.8234215,-5.856317,-1.2902238
5.761891603469849,9.668245,19.277548,-3.214272,-8.837122,-5.868898,-1.2959976
5.782055377960205,9.68033,19.313892,-3.220607,-8.85087,-5.881528,-1.30177
5.802063465118408,9.69247,19.350367,-3.2269628,-8.864668,-5.8942056,-1.3075347
5.822167158126831,9.704668,19.38697,-3.2333388,-8.878516,-5.9069333,-1.3132994
5.842248201370239,9.716935,19.423712,-3.2397332,-8.892418,-5.9197073,-1.3190773
5.862354278564453,9.729277,19.460587,-3.2461455,-8.906378,-5.9325337,-1.324872
5.882389545440674,9.729277,19.460587,-3.2461455,-8.906378,-5.9325337,-1.324872
5.902554273605347,9.741692,19.4976,-3.2525737,-8.920393,-5.945411,-1.3306811
5.922629117965698,9.754179,19.534756,-3.2590213,-8.934464,-5.95834,-1.3365061
5.9426867961883545,9.766745,19.572052,-3.265487,-8.948595,-5.971322,-1.3423479
5.962766885757446,9.779386,19.609493,-3.2719696,-8.962783,-5.9843564,-1.3482039
5.982897520065308,9.792104,19.647076,-3.2784698,-8.97703,-5.997445,-1.3540776
6.002947568893433,9.804898,19.684803,-3.2849882,-8.991335,-6.0105863,-1.3599665
6.0230512619018555,9.817771,19.722673,-3.2915251,-9.005699,-6.023783,-1.3658726
6.043134927749634,9.817771,19.722673,-3.2915251,-9.005699,-6.023783,-1.3658726
6.063237905502319,9.830722,19.76069,-3.2980785,-9.020123,-6.037032,-1.371793
6.08333945274353,9.843748,19.798855,-3.3046517,-9.034605,-6.050334,-1.3777306
6.103428363800049,9.856851,19.83716,-3.3112414,-9.049144,-6.0636888,-1.3836844
6.124235391616821,9.870031,19.875612,-3.317852,-9.063745,-6.077095,-1.3896525
6.144041299819946,9.88329,19.914211,-3.3244812,-9.078402,-6.090554,-1.3956373
6.164124250411987,9.8966255,19.952957,-3.3311298,-9.093119,-6.104066,-1.4016359
6.184189796447754,9.910038,19.991848,-3.3377998,-9.107893,-6.1176314,-1.4076483
6.20459771156311,9.910038,19.991848,-3.3377998,-9.107893,-6.1176314,-1.4076483
6.224771976470947,9.923532,20.030888,-3.3444889,-9.122727,-6.131248,-1.4136741
6.244802236557007,9.9371,20.070072,-3.3511972,-9.137619,-6.144919,-1.419718
6.264889478683472,9.950751,20.109402,-3.3579257,-9.15257,-6.158643,-1.4257753
6.284970998764038,9.9644785,20.1489,-3.3646786,-9.167591,-6.172424,-1.4318473
6.305050849914551,9.978297,20.188543,-3.3714464,-9.182669,-6.1862607,-1.4379337
6.3251471519470215,9.992192,20.228329,-3.3782344,-9.1978,-6.200149,-1.444036
6.345223426818848,10.006179,20.268276,-3.3850448,-9.213,-6.214091,-1.4501622
6.365291595458984,10.006179,20.268276,-3.3850448,-9.213,-6.214091,-1.4501622
6.385378837585449,10.02023,20.308352,-3.391867,-9.2282505,-6.228088,-1.4562995
6.405474662780762,10.034356,20.34857,-3.398712,-9.243555,-6.242135,-1.4624491
6.425546646118164,10.04856,20.388926,-3.405577,-9.258917,-6.2562323,-1.4686079
6.4458534717559814,10.06284,20.429428,-3.4124615,-9.274337,-6.2703805,-1.4747815
6.465773820877075,10.077201,20.470074,-3.4193661,-9.289817,-6.2845817,-1.480967
6.485856533050537,10.091638,20.510864,-3.4262912,-9.305353,-6.2988343,-1.487169
6.505939722061157,10.106154,20.5518,-3.4332345,-9.32095,-6.313141,-1.4933846
6.526024580001831,10.120749,20.59288,-3.4401972,-9.336602,-6.3274994,-1.4996123
6.546258449554443,10.120749,20.59288,-3.4401972,-9.336602,-6.3274994,-1.4996123
6.56642484664917,10.135425,20.63411,-3.447181,-9.352316,-6.3419113,-1.5058582
6.586465120315552,10.150165,20.675451,-3.4541702,-9.368065,-6.3563685,-1.5121076
6.606561183929443,10.164981,20.716938,-3.461189,-9.383879,-6.370875,-1.518378
6.6266655921936035,10.179877,20.758572,-3.468229,-9.399756,-6.3854346,-1.5246637
6.646728038787842,10.194857,20.800354,-3.4752862,-9.415694,-6.4000487,-1.5309608
6.6669557094573975,10.209917,20.842287,-3.4823637,-9.431693,-6.414719,-1.5372751
6.687438249588013,10.209917,20.842287,-3.4823637,-9.431693,-6.414719,-1.5372751
6.707552194595337,10.225059,20.884367,-3.489461,-9.447751,-6.429441,-1.5436022
6.727663278579712,10.24028,20.926596,-3.4965787,-9.463869,-6.444218,-1.5499451
6.748706579208374,10.255584,20.968971,-3.5037138,-9.480045,-6.4590497,-1.5563014
6.768761873245239,10.255584,20.968971,-3.5037138,-9.480045,-6.4590497,-1.5563014
6.788827180862427,10.270966,21.01149,-3.5108695,-9.496283,-6.4739337,-1.5626731
6.808927059173584,10.286428,21.054157,-3.5180452,-9.512578,-6.488872,-1.5690582
6.829460620880127,10.301972,21.09697,-3.5252397,-9.528933,-6.503863,-1.5754578
6.849398851394653,10.301972,21.09697,-3.5252397,-9.528933,-6.503863,-1.5754578
6.86951470375061,10.317596,21.13993,-3.5324538,-9.545346,-6.5189066,-1.5818713
6.8895673751831055,10.333301,21.183035,-3.5396874,-9.561819,-6.5340047,-1.5882995
6.909664630889893,10.349084,21.226282,-3.5469394,-9.57835,-6.549155,-1.5947421
6.929858922958374,10.364947,21.269672,-3.5542111,-9.594941,-6.5643578,-1.6011956
6.950079441070557,10.380928,21.31324,-3.5615087,-9.611611,-6.5796123,-1.6076767
6.970100164413452,10.3969555,21.35693,-3.5688107,-9.628326,-6.594932,-1.6141732
6.990515470504761,10.413059,21.400757,-3.5761364,-9.645092,-6.6102996,-1.620678
7.01056694984436,10.413059,21.400757,-3.5761364,-9.645092,-6.6102996,-1.620678
7.03072452545166,10.42924,21.444725,-3.5834832,-9.661914,-6.625714,-1.6271925
7.050753116607666,10.445498,21.488832,-3.5908494,-9.678794,-6.6411815,-1.6337187
7.070851564407349,10.461836,21.53308,-3.5982332,-9.695732,-6.6567016,-1.6402581
7.090930938720703,10.4782505,21.577465,-3.6056368,-9.712727,-6.672272,-1.6468112
7.1110310554504395,10.494744,21.621992,-3.613059,-9.729779,-6.6878934,-1.6533778
7.131117820739746,10.511315,21.666658,-3.6204994,-9.746889,-6.703568,-1.6599567
7.151275634765625,10.527966,21.711466,-3.6279585,-9.764055,-6.719293,-1.6665514
7.1713786125183105,10.527966,21.711466,-3.6279585,-9.764055,-6.719293,-1.6665514
7.191589593887329,10.544694,21.756414,-3.6354368,-9.781279,-6.7350707,-1.6731603
7.21158242225647,10.561498,21.8015,-3.6429338,-9.798557,-6.750899,-1.6797838
7.231716632843018,10.578381,21.846725,-3.650448,-9.815895,-6.7667794,-1.6864164
7.251790761947632,10.595321,21.892052,-3.657961,-9.83326,-6.7827,-1.6930506
7.271860837936401,10.612334,21.937515,-3.665509,-9.850687,-6.7986693,-1.6997149
7.292011976242065,10.629428,21.983112,-3.6730745,-9.8681755,-6.8146896,-1.7063868
7.3122398853302,10.629428,21.983112,-3.6730745,-9.8681755,-6.8146896,-1.7063868
7.332290887832642,10.646599,22.02885,-3.6806595,-9.885721,-6.83076,-1.7130759
7.352393627166748,10.66385,22.074726,-3.6882603,-9.903322,-6.8468833,-1.7197759
7.372463703155518,10.681177,22.120739,-3.6958807,-9.920982,-6.8630576,-1.7264891
7.39257287979126,10.698582,22.16689,-3.703518,-9.938698,-6.8792815,-1.733217
7.412673473358154,10.7160635,22.213177,-3.711176,-9.956469,-6.8955574,-1.73996
7.43291163444519,10.7336235,22.259602,-3.7188485,-9.974296,-6.911883,-1.746712
7.452970743179321,10.751256,22.306152,-3.7265372,-9.992175,-6.9282575,-1.7534788
7.472927570343018,10.751256,22.306152,-3.7265372,-9.992175,-6.9282575,-1.7534788
7.4931640625,10.768964,22.352837,-3.7342446,-10.010109,-6.944678,-1.760256
7.5131707191467285,10.786826,22.399704,-3.7419882,-10.028141,-6.9611454,-1.7670658
7.533255577087402,10.804696,22.44667,-3.7497172,-10.046202,-6.97768,-1.7738874
7.55337381362915,10.822634,22.49376,-3.7574697,-10.064301,-6.994259,-1.7807152
7.5734703540802,10.840638,22.540968,-3.7652414,-10.082449,-7.010876,-1.7875478
7.593522310256958,10.858714,22.588295,-3.7730312,-10.100651,-7.027539,-1.7943871
7.613597631454468,10.876863,22.635746,-3.7808366,-10.118902,-7.0442467,-1.8012397
7.6336510181427,10.876863,22.635746,-3.7808366,-10.118902,-7.0442467,-1.8012397
7.653797626495361,10.895081,22.683321,-3.7886586,-10.137205,-7.0610003,-1.8081024
7.673979997634888,10.913371,22.731016,-3.7964957,-10.15556,-7.0777984,-1.8149755
7.693961143493652,10.93173,22.778835,-3.8043492,-10.173965,-7.094642,-1.8218629
7.714029550552368,10.950162,22.826773,-3.8122175,-10.192421,-7.1115317,-1.8287616
7.734123229980469,10.968659,22.87483,-3.8201017,-10.210923,-7.1284637,-1.8356726
7.75420069694519,10.9872265,22.923002,-3.828001,-10.229473,-7.1454387,-1.8425939
7.7742979526519775,11.005859,22.971289,-3.8359163,-10.248071,-7.1624565,-1.8495262
7.794354677200317,11.024556,23.019684,-3.8438468,-10.266714,-7.179514,-1.8564696
7.814495325088501,11.024556,23.019684,-3.8438468,-10.266714,-7.179514,-1.8564696
7.834557771682739,11.043288,23.068127,-3.8517575,-10.285366,-7.1965985,-1.8633955
7.854900121688843,11.062083,23.11669,-3.8597138,-10.304071,-7.213719,-1.870364
7.874853610992432,11.080944,23.165352,-3.8676846,-10.322829,-7.2308774,-1.877336
7.894944190979004,11.099871,23.214128,-3.8756673,-10.341633,-7.248078,-1.8843193
7.915027141571045,11.11886,23.263012,-3.8836648,-10.360481,-7.265319,-1.8913138
7.935113906860352,11.137912,23.311998,-3.8916762,-10.379374,-7.2825975,-1.89832
7.955406665802002,11.157023,23.361092,-3.8997009,-10.398307,-7.2999153,-1.9053369
7.975578784942627,11.157023,23.361092,-3.8997009,-10.398307,-7.2999153,-1.9053369
7.9957334995269775,11.176196,23.410282,-3.90774,-10.417283,-7.317271,-1.9123659
8.015867948532104,11.195428,23.459574,-3.915792,-10.4363,-7.334664,-1.9194024
8.035896301269531,11.214717,23.50896,-3.9238572,-10.4553585,-7.352095,-1.9264505
8.05599594116211,11.234064,23.558445,-3.931936,-10.474455,-7.3695602,-1.933511
8.076076984405518,11.2534685,23.60802,-3.940027,-10.493591,-7.3870616,-1.9405797
8.096146821975708,11.272928,23.65769,-3.94813,-10.512766,-7.404597,-1.9476566
8.116228103637695,11.292443,23.70745,-3.956247,-10.531978,-7.422167,-1.954746
8.136500120162964,11.312012,23.757298,-3.9643743,-10.5512295,-7.43977,-1.9618437
8.156591892242432,11.312012,23.757298,-3.9643743,-10.5512295,-7.43977,-1.9618437
8.176670551300049,11.331634,23.807234,-3.9725149,-10.570517,-7.4574065,-1.9689507
8.196754932403564,11.35131,23.857256,-3.980665,-10.589838,-7.475077,-1.9760692
8.217059850692749,11.371036,23.90736,-3.9888284,-10.609196,-7.4927783,-1.9831975
8.236976861953735,11.390813,23.95755,-3.9970028,-10.628588,-7.5105104,-1.9903336
8.257066011428833,11.410643,24.007818,-4.005186,-10.648014,-7.528274,-1.9974768
8.277138710021973,11.43052,24.058168,-4.013384,-10.667471,-7.546069,-2.0046365
8.297341108322144,11.450448,24.108597,-4.021591,-10.686966,-7.5638943,-2.0117996
8.317479848861694,11.450448,24.108597,-4.021591,-10.686966,-7.5638943,-2.0117996
8.337810516357422,11.470424,24.1591,-4.029807,-10.7064905,-7.5817485,-2.0189726
8.357744455337524,11.490445,24.20968,-4.0380354,-10.7260475,-7.5996327,-2.0261557
8.377803087234497,11.510514,24.260334,-4.0462723,-10.745636,-7.617545,-2.033347
8.397902250289917,11.530629,24.31106,-4.0545187,-10.765253,-7.635484,-2.0405474
8.417964935302734,11.55079,24.361868,-4.0627804,-10.784906,-7.6534567,-2.0477638
8.43808102607727,11.570993,24.412712,-4.0710316,-10.804571,-7.6714478,-2.0549672
8.458105564117432,11.591232,24.463636,-4.0793095,-10.82427,-7.689463,-2.0622017
8.478220224380493,11.591232,24.463636,-4.0793095,-10.82427,-7.689463,-2.0622017
8.498316049575806,11.611524,24.514633,-4.087599,-10.844006,-7.707508,-2.0694368
8.518465280532837,11.631858,24.565704,-4.0958967,-10.863774,-7.7255836,-2.0766847
8.53860068321228,11.65224,24.61685,-4.104204,-10.883572,-7.743688,-2.0839455
8.558626413345337,11.672665,24.66806,-4.1125183,-10.903397,-7.7618184,-2.0912116
8.579029321670532,11.693131,24.719341,-4.120843,-10.923251,-7.7799764,-2.098489
8.598897695541382,11.713641,24.770683,-4.129175,-10.943132,-7.798162,-2.105775
8.61896824836731,11.734189,24.82209,-4.137517,-10.963039,-7.8163695,-2.1130688
8.639235734939575,11.734189,24.82209,-4.137517,-10.963039,-7.8163695,-2.1130688
8.659383296966553,11.754776,24.87355,-4.1458654,-10.98297,-7.834602,-2.1203723
8.679444313049316,11.775402,24.92507,-4.1542215,-11.002928,-7.8528585,-2.1276848
8.699527978897095,11.796062,24.976645,-4.1625843,-11.022905,-7.871136,-2.1350045
8.71979808807373,11.816759,25.02827,-4.1709538,-11.042908,-7.8894353,-2.1423328
8.739858865737915,11.837486,25.079948,-4.17933,-11.062924,-7.9077563,-2.1496706
8.760127305984497,11.858253,25.131672,-4.1877127,-11.082969,-7.926098,-2.1570125
8.780195713043213,11.879049,25.183441,-4.196102,-11.103033,-7.9444594,-2.164367
8.800280094146729,11.899878,25.235262,-4.2044973,-11.123116,-7.9628396,-2.1717286
8.820433855056763,11.899878,25.235262,-4.2044973,-11.123116,-7.9628396,-2.1717286
8.840506553649902,11.920737,25.28712,-4.2128983,-11.143218,-7.981238,-2.1790965
8.860643148422241,11.941627,25.33902,-4.221304,-11.163336,-7.999656,-2.1864755
8.880751848220825,11.962497,25.390837,-4.2296486,-11.183409,-8.018066,-2.193803
8.900803089141846,11.983378,25.442703,-4.2380505,-11.2035055,-8.036478,-2.201195
8.9208984375,12.004293,25.494602,-4.246458,-11.223626,-8.054906,-2.2085822
8.940973281860352,12.025238,25.546535,-4.2548695,-11.243767,-8.073349,-2.215977
8.961281061172485,12.046208,25.598507,-4.263283,-11.263924,-8.091808,-2.223379
8.981193542480469,12.046208,25.598507,-4.263283,-11.263924,-8.091808,-2.223379
9.001420021057129,12.0672035,25.650513,-4.271701,-11.284092,-8.110285,-2.2307918
9.021442413330078,12.0882225,25.702549,-4.2801228,-11.304274,-8.128777,-2.2382102
9.041515588760376,12.109265,25.75461,-4.2885466,-11.324468,-8.147279,-2.2456343
9.061599731445312,12.13033,25.806698,-4.296973,-11.344673,-8.165795,-2.2530653
9.081676483154297,12.151412,25.858807,-4.3054037,-11.364889,-8.184323,-2.260505
9.10179352760315,12.172515,25.910934,-4.313835,-11.385113,-8.202861,-2.2679474
9.12204122543335,12.172515,25.910934,-4.313835,-11.385113,-8.202861,-2.2679474
9.142155408859253,12.193633,25.963081,-4.3222694,-11.405346,-8.221411,-2.2753968
9.162243604660034,12.2147665,26.01524,-4.3307037,-11.425583,-8.239966,-2.2828538
9.182324886322021,12.235915,26.06741,-4.339139,-11.445826,-8.258532,-2.290311
9.202402114868164,12.257078,26.119595,-4.347576,-11.466074,-8.277103,-2.2977815
9.222491264343262,12.278256,26.171787,-4.356015,-11.486328,-8.295683,-2.3052514
9.242591857910156,12.299443,26.223982,-4.3644524,-11.506587,-8.314269,-2.3127306
9.26265573501587,12.320642,26.27618,-4.3728905,-11.526848,-8.33286,-2.320214
9.28271746635437,12.341825,26.328358,-4.381321,-11.547091,-8.351456,-2.327696
9.303153276443481,12.341825,26.328358,-4.381321,-11.547091,-8.351456,-2.327696
9.323264837265015,12.363032,26.380547,-4.389762,-11.567344,-8.370046,-2.335179
9.343628168106079,12.384252,26.432734,-4.398198,-11.587603,-8.388641,-2.3426702
9.363598823547363,12.405476,26.484917,-4.4066324,-11.60786,-8.407243,-2.350169
9.383618593215942,12.426704,26.537096,-4.415064,-11.628114,-8.425844,-2.3576734
9.403717279434204,12.447938,26.58926,-4.4234943,-11.648365,-8.444447,-2.3651824
9.423804521560669,12.469174,26.641409,-4.43192,-11.6686125,-8.463048,-2.3726919
9.452009916305542,12.469174,26.641409,-4.43192,-11.6686125,-8.463048,-2.3726919
9.484667778015137,12.469174,26.641409,-4.43192,-11.6686125,-8.463048,-2.3726919
9.504719257354736,12.469174,26.641409,-4.43192,-11.6686125,-8.463048,-2.3726919
9.524819374084473,12.490441,26.693575,-4.4403505,-11.688874,-8.481644,-2.3802168
9.544922351837158,12.511682,26.745705,-4.4487658,-11.709118,-8.500251,-2.3877475
9.56502389907837,12.53292,26.79781,-4.457178,-11.729347,-8.518851,-2.3952768
9.585052967071533,12.55415,26.849886,-4.4655895,-11.749563,-8.537443,-2.4028053
9.605733394622803,12.55415,26.849886,-4.4655895,-11.749563,-8.537443,-2.4028053
9.625859498977661,12.575372,26.901932,-4.473997,-11.769772,-8.556029,-2.4103339
9.646214008331299,12.59659,26.953953,-4.482399,-11.789969,-8.574609,-2.4178662
9.666131496429443,12.617803,27.00594,-4.490796,-11.810156,-8.593182,-2.4254005
9.68618369102478,12.639004,27.057892,-4.4991884,-11.830327,-8.611746,-2.4329355
9.706631183624268,12.660193,27.109806,-4.507573,-11.850485,-8.630302,-2.4404733
9.726589679718018,12.681373,27.161678,-4.515952,-11.870625,-8.648849,-2.4480147
9.748156547546387,12.702536,27.21351,-4.5243235,-11.890749,-8.667382,-2.455556
9.76822805404663,12.702536,27.21351,-4.5243235,-11.890749,-8.667382,-2.455556
9.788313388824463,12.723687,27.265299,-4.532689,-11.910854,-8.685907,-2.4631014
9.808399200439453,12.74482,27.317036,-4.5410433,-11.930941,-8.704416,-2.4706461
9.828763246536255,12.74482,27.317036,-4.5410433,-11.930941,-8.704416,-2.4706461
9.848958253860474,12.765936,27.36872,-4.5493927,-11.951008,-8.722915,-2.4781935
9.869248867034912,12.78703,27.420353,-4.5577307,-11.97105,-8.741398,-2.485741
9.889289617538452,12.808102,27.471928,-4.566061,-11.991072,-8.759863,-2.4932883
9.909540891647339,12.829153,27.52344,-4.574381,-12.011066,-8.778315,-2.500837
9.92970895767212,12.850181,27.57489,-4.582691,-12.031034,-8.796745,-2.5083845
9.949764490127563,12.871181,27.626274,-4.590991,-12.050979,-8.815157,-2.5159328
9.96986722946167,12.892155,27.67759,-4.5992804,-12.070894,-8.8335495,-2.5234802
9.989972352981567,12.892155,27.67759,-4.5992804,-12.070894,-8.8335495,-2.5234802
10.010064840316772,12.913098,27.728832,-4.6075583,-12.09078,-8.851923,-2.5310285
10.030580520629883,12.934014,27.780005,-4.6158237,-12.110636,-8.870274,-2.5385768
10.05059814453125,12.953755,27.827711,-4.622258,-12.128819,-8.887917,-2.544595
10.070777177810669,12.965977,27.855385,-4.6191893,-12.137211,-8.901058,-2.5430248
10.090740442276001,12.969644,27.869932,-4.6166296,-12.139014,-8.908901,-2.5437086
10.110798120498657,12.968053,27.8742,-4.6145086,-12.137698,-8.912683,-2.544195
10.131086826324463,12.963181,27.872292,-4.6127567,-12.134779,-8.913765,-2.5447018
10.15123438835144,12.963181,27.872292,-4.6127567,-12.134779,-8.913765,-2.5447018
10.171283721923828,12.956544,27.867208,-4.611437,-12.13125,-8.913347,-2.5454643
10.191376209259033,12.949235,27.861084,-4.6105957,-12.127779,-8.912296,-2.5465958
10.211447954177856,12.942027,27.855396,-4.6102657,-12.124832,-8.911211,-2.5481336
10.231540203094482,12.935447,27.851135,-4.6104536,-12.122709,-8.910503,-2.5500882
10.251628398895264,12.92983,27.848948,-4.611149,-12.121599,-8.910439,-2.552451
10.271709442138672,12.925389,27.849224,-4.6123323,-12.121599,-8.911188,-2.555206
10.291913509368896,12.922238,27.852156,-4.6139755,-12.122753,-8.912844,-2.558328
10.312098264694214,12.922238,27.852156,-4.6139755,-12.122753,-8.912844,-2.558328
10.332177639007568,12.926681,27.86126,-4.617881,-12.128693,-8.915091,-2.562888
10.352280139923096,12.935368,27.876068,-4.6220684,-12.13847,-8.919368,-2.5693696
10.37232255935669,12.944673,27.894772,-4.6255827,-12.14924,-8.925959,-2.5772402
10.392412662506104,12.95405,27.916048,-4.6290054,-12.160071,-8.934034,-2.5856855
10.412488222122192,12.96326,27.938887,-4.6325645,-12.170875,-8.942983,-2.5941584
10.432704210281372,12.972241,27.962774,-4.636265,-12.181652,-8.95248,-2.6024797
10.452691793441772,12.980992,27.987408,-4.6400785,-12.192402,-8.962367,-2.6106398
10.473169326782227,12.980992,27.987408,-4.6400785,-12.192402,-8.962367,-2.6106398
10.493268251419067,12.989523,28.0126,-4.643978,-12.203112,-8.972542,-2.6186707
10.513370275497437,12.997854,28.038187,-4.647933,-12.213768,-8.982934,-2.6265824
10.533466577529907,13.006,28.06406,-4.6519356,-12.224367,-8.993488,-2.6344073
10.553537130355835,13.013975,28.090126,-4.6559696,-12.2349,-9.004161,-2.6421545
10.573646306991577,13.021802,28.116306,-4.6600237,-12.245371,-9.014919,-2.649832
10.593756198883057,13.029488,28.14256,-4.664091,-12.255771,-9.025736,-2.657462
10.613859176635742,11.92339,26.945324,-3.9215634,-11.325395,-9.078334,-2.9729724
10.633965253829956,11.92339,26.945324,-3.9215634,-11.325395,-9.078334,-2.9729724
10.654041290283203,10.995236,25.125156,-3.5102923,-10.477796,-8.777151,-3.0024893
10.6742422580719,10.014207,23.171314,-3.1753035,-9.6606655,-8.246635,-2.9155424
10.694297790527344,9.045379,21.271248,-2.8857496,-8.880335,-7.66261,-2.8285186
10.71436619758606,8.118906,19.467424,-2.621153,-8.1428175,-7.089415,-2.745476
10.734522342681885,7.242873,17.767227,-2.3713264,-7.449253,-6.544995,-2.6610048
10.754543542861938,6.4125814,16.160559,-2.1294522,-6.795834,-6.0322647,-2.5693648
10.774853467941284,5.6197762,14.635305,-1.8928676,-6.1743317,-5.5480375,-2.4780185
10.795206308364868,5.6197762,14.635305,-1.8928676,-6.1743317,-5.5480375,-2.4780185
10.815319299697876,4.850913,13.172009,-1.662068,-5.577633,-5.0814233,-2.386268
10.835463523864746,4.082273,11.785046,-1.4551361,-4.996768,-4.6168046,-2.3041446
10.855506658554077,3.3151655,10.467156,-1.2606515,-4.4326406,-4.1647153,-2.2184594
10.875858068466187,2.5442762,9.209778,-1.0684017,-3.8886135,-3.7304552,-2.104069
10.895949125289917,1.7692153,8.030592,-0.8984933,-3.3716595,-3.3111973,-1.9393809
10.916015148162842,1.0178279,6.9356627,-0.74214643,-2.8545995,-2.9392357,-1.792681
10.936089754104614,0.34242865,5.8933287,-0.5812639,-2.3114812,-2.7203407,-1.5811362
10.957123279571533,0.34242865,5.8933287,-0.5812639,-2.3114812,-2.7203407,-1.5811362
10.977370977401733,-0.41217807,4.9092774,-0.30014372,-1.7296319,-2.4869192,-1.323267
10.997427701950073,-1.1445342,3.983755,0.17303126,-1.2109952,-2.2857308,-1.052335
11.017525911331177,-1.8893322,3.0524817,0.9076892,-0.57886255,-2.227948,-0.6074349
11.03760313987732,-2.4825532,2.089873,1.4799947,-0.014243991,-2.2527132,0.035115093
11.057697534561157,-3.0154557,1.3975044,1.9867413,0.41004628,-2.3762624,0.37104636
11.078102111816406,-3.367647,1.2430961,2.2811043,0.7020759,-2.6226206,0.48174173
11.097971439361572,-3.5116794,1.2029272,2.4011242,0.87906957,-2.7614257,0.4643466
11.11815094947815,-3.5592883,1.1670169,2.4488611,0.9810562,-2.813578,0.42798382
11.138261318206787,-3.5592883,1.1670169,2.4488611,0.9810562,-2.813578,0.42798382
11.15835452079773,-3.5801775,1.1398457,2.4708388,1.039615,-2.830722,0.40855864
11.178507328033447,-3.5923717,1.1227263,2.479845,1.0707213,-2.8354383,0.40322533
11.19851565361023,-3.59983,1.1137971,2.48104,1.0837327,-2.8355956,0.40552604
11.21859884262085,-3.6038826,1.1106081,2.4771893,1.0847594,-2.8333716,0.4118996
11.238710880279541,-3.6054966,1.1112268,2.4700022,1.0778619,-2.829568,0.42062235
11.258962631225586,-3.605428,1.1143256,2.4606006,1.0657581,-2.824676,0.43077746
11.27912187576294,-3.2712023,0.9451989,1.4958835,0.26752257,-2.267195,0.9717078
11.299198865890503,-3.2712023,0.9451989,1.4958835,0.26752257,-2.267195,0.9717078
11.319360256195068,-3.0386634,1.4374079,0.71329427,-0.63469124,-2.065246,1.2275028
11.339431762695312,-2.6781018,2.5102105,-0.53807366,-1.500886,-1.8060031,1.1489866
11.360186576843262,-1.7946438,4.07487,-1.6661702,-2.471178,-1.8499681,0.788711
11.380192041397095,-0.23584488,5.946612,-2.2267978,-3.5911632,-2.2173433,0.06239915
11.400261163711548,0.3085874,6.222294,-0.9474939,-3.2914166,-2.6094666,-0.49555457
11.42030143737793,0.25223282,6.0081124,-0.6607376,-2.7579415,-2.7802029,-0.9936215
11.440890073776245,-0.088098496,5.4009376,-0.4835691,-2.3021975,-2.6920707,-1.1218543
11.460779190063477,-0.088098496,5.4009376,-0.4835691,-2.3021975,-2.6920707,-1.1218543
11.480829000473022,-0.5594492,4.7429075,-0.24621233,-1.8203748,-2.4951515,-1.076719
11.50104284286499,-1.1345689,4.0376163,0.05636342,-1.3597014,-2.2519884,-0.9892089
11.521046161651611,-1.7729237,3.1508317,0.67883664,-0.81425464,-2.192974,-0.5335135
11.541181564331055,-2.2916114,2.3714848,1.2045451,-0.30200058,-2.174168,0.016784608
11.56122875213623,-2.7965784,1.6549096,1.7033545,0.07841559,-2.2616694,0.39878646
11.581300973892212,-3.167613,1.3149341,2.0584362,0.37974873,-2.443198,0.5408966
11.60137677192688,-3.3671434,1.2565193,2.2343335,0.5885329,-2.6084068,0.54447424
11.622192621231079,-3.3671434,1.2565193,2.2343335,0.5885329,-2.6084068,0.54447424
11.642282724380493,-3.4396918,1.2213376,2.304876,0.71573544,-2.6821153,0.50074434
11.662364482879639,-3.468799,1.1909791,2.336267,0.79239625,-2.708686,0.46803644
11.68265986442566,-3.1102455,1.1604123,1.2326967,-0.04122284,-2.1469922,0.961052
11.702603816986084,-2.810974,1.8972477,0.17326546,-0.9905387,-1.8834819,1.0891261
11.722697496414185,-2.298801,3.2766547,-1.2542832,-1.9518365,-1.6575649,0.9609276
11.742945194244385,-0.95781887,4.9136825,-1.9176894,-2.9666967,-1.9707221,0.47923648
11.763208866119385,-0.5070747,5.140435,-0.7598928,-2.7828639,-2.3936005,-0.18015063
11.78326416015625,-0.5070747,5.140435,-0.7598928,-2.7828639,-2.3936005,-0.18015063
11.803397417068481,-0.53507626,5.0194154,-0.49685925,-2.3372154,-2.54825,-0.6070865
