liuyurong129/humanoid-gym/humanoid/data/robot1_actual_20250621-220945.csv
timestamp,joint_1,joint_2,joint_3,joint_4,joint_5,joint_6
0.0008935928344726562,0.0,0.0,0.0,0.0,0.0,0.0
0.02096724510192871,0.0,0.0,0.0,0.0,0.0,0.0
0.04106926918029785,0.0,0.0,0.0,0.0,0.0,0.0
0.061475276947021484,0.0,0.0,0.0,0.0,0.0,0.0
0.08151817321777344,0.0,0.0,0.0,0.0,0.0,0.0
0.10150766372680664,-0.14455239771508982,-0.014851640579810905,-0.0087,-0.008327652540744308,-0.03446582895533711,0.0949092405029596
0.12160277366638184,-0.27464955566898847,-0.028218115781866185,-0.016529999999999996,-0.015822447435396923,-0.06548580241232918,0.18032753526077705
0.14176249504089355,-0.2744094363716013,0.009443324052337752,0.5832106806682889,-0.10209153358939668,-0.38364351196226887,-0.4256441780416694
0.16174960136413574,0.1748283338309918,0.03994909864699821,1.0690008203608243,0.18440375532219072,-0.641351205367595,-0.6171512727400995
0.18182611465454102,0.5387109442337834,0.06465888557724665,1.462490877585955,-0.1716655668636325,-0.8500941972086176,-0.6494405821709177
0.2029430866241455,0.7686990826834278,0.08467365255866494,1.781221555900284,0.16019498831169485,-1.019176489581635,-0.9407063740522996
0.22303462028503418,0.8270133762467697,0.0932059998486142,1.9171124903478227,0.23167719417336596,-1.0912598514880423,-1.1475489994229107
0.24311280250549316,1.0005455920987902,0.10776986350422281,1.8922900181427331,0.12156003394279521,-1.2145948713642143,-1.339946654282942
0.2635178565979004,1.2075414010437013,0.11959326894491182,1.5740558636569928,-0.14757220944137917,-1.3144229470499564,-1.5113147995867282
0.2838103771209717,1.2957872337295193,0.12463349916313028,1.4079502772912935,-0.24848400731176207,-1.3569818850564568,-1.6610843578521546
0.30388402938842773,1.446687585568978,0.1332523444392857,1.1239097246059477,-0.582900469157269,-1.4297571956434936,-1.9171900880047856
0.324237585067749,1.568916842431765,0.14023356348320615,0.8938368769308178,-0.9219702588918962,-1.4887041850141456,-2.124635299386984
0.34420180320739746,1.667922581561281,0.14588846923817075,0.7074778703139625,-1.2509005980242507,-1.536449960255374,-2.292665137288603
0.36420345306396484,1.7481172746072386,0.15046916279653083,0.5565270749543096,-1.5318169495295058,-1.575123155596455,-2.428768914024615
0.38430166244506836,1.782305549206094,0.15242202407580824,0.49217436745887866,-1.6506769800390122,-1.591609516647633,-2.4867920471262006
0.404371976852417,1.8407675024787775,0.15576152210180433,0.38213123764169166,-1.810965269870261,-1.6198008656975034,-2.5860115361020695
0.4244687557220459,1.888121685799093,0.15846646939446316,0.2929963024897702,-1.9254899264227778,-1.642634084100068,-2.666379206133044
0.44454383850097656,1.9083095186968528,0.15961968896460452,0.2549966722407932,-1.9853774988876567,-1.6523687565722176,-2.7006411810371196
0.46465444564819336,1.9428307087626564,0.16159184253819042,0.19001730451504248,-2.145330780857203,-1.669017031397458,-2.759229198430721
0.48478245735168457,1.97079286263275,0.16318914703006476,0.1373840166571844,-2.2128390720973385,-1.6825014241043514,-2.8066852581598383
0.5049419403076172,1.8281883345377776,0.1644831698827202,0.09475105349231935,-2.323492273256256,-1.6934260753926567,-2.845124982511081
0.525212287902832,1.8543694890905367,0.1650347366645591,0.07657594814308742,-2.303550738352078,-1.6980826980435462,-2.8054827335804275
0.5453386306762695,1.6366765413142104,0.16597823614644686,0.04549651799590081,-2.352883269925532,-1.7060482215250234,-2.753297585470111
0.5654423236846924,1.3971579864629518,0.16674222158919505,0.34302217957667974,-2.1464667563142146,-1.7124982315500077,-2.709410160963511
0.5855183601379395,1.4483078238188405,0.16736072444692857,0.8744479654571107,-1.7160409069929523,-1.7177222540558743,-2.583319629505976
0.6061668395996094,1.5087079655385094,0.16786218503647868,1.1703455088535006,-1.686413265239367,-1.72195503786773,-2.1600189997797226
0.6265287399291992,1.505315910709355,0.16807600380669915,1.2327542481717622,-1.8137719387154303,-1.7237595223006181,-1.8266858343557368
0.646543025970459,1.5901261688435158,0.168441611290395,1.189079382429192,-2.0315554450710147,-1.7268450853293027,-1.3895901808618891
0.6665644645690918,1.6851022048981161,0.16873768533893346,0.9466242997676456,-2.2079603855557575,-1.729344507272398,-1.3258535972145815
0.6867940425872803,1.7620328427033443,0.16897691572369763,0.7502356828117929,-2.350850985604416,-1.731370304985276,-1.5559270584583342
0.7068798542022705,1.7948295871362538,0.16907889008342422,0.6665121145306135,-2.411767905252869,-1.7322338006858353,-1.7012343509555707
0.726994514465332,1.8509120059382413,0.16925332424329334,0.5233448127697969,-2.515935960338605,-1.7337100246803834,-1.9497097749932042
0.747236967086792,1.8963387448039821,0.1693946294792082,0.40737929834353553,-2.6003128307399215,-1.7349053515215036,-2.1509747295617423
0.7674837112426758,1.9331343847607456,0.16950937678635208,0.31344723165826377,-2.6686560797546854,-1.735873319636012,-2.3139993579311784
0.7876861095428467,1.9488209449854257,0.1695583562431725,0.2734025084924374,-2.697791395535305,-1.7362859640722443,-2.38349934788719
0.8078112602233887,1.9756449523112334,0.1696418520889572,0.20492603187887432,-2.7476162189725706,-1.7369914480137316,-2.502343992090314
0.8279266357421875,1.9973723986773235,0.1697096396702127,0.1494600858218882,-2.787972873681465,-1.7375629322546275,-2.5986082434934654
0.8572921752929688,2.014971632151498,0.16976463186199972,0.10453266951572943,-2.8206608959598762,-1.7380258688028727,-2.676582353142857
0.8771762847900391,2.022474464042205,0.1697880968363478,0.08537940256415649,-2.8345960799167376,-1.7382232359628482,-2.709823967618441
0.897244930267334,2.0353043079406987,0.16982825001165197,0.05262731607696676,-2.858424897784357,-1.7385607486175763,-2.766667161206883
0.917250394821167,2.04077387357915,0.16984537875366973,0.03866458446927008,-2.8685833554145823,-1.738704641669498,-2.7909003266080488
0.9373579025268555,1.8728424326677544,0.16987462315222868,0.014788313420108768,-2.737669389871114,-1.738950578037045,-2.832338882620591
0.9574191570281982,1.5876004363558076,0.1698984440570582,0.10729843915135498,-2.493566636495468,-1.739149962179613,-2.865904464094076
0.9778702259063721,0.920933762722769,0.16991776818877358,0.6835117357125976,-2.3152197819814653,-1.7393113797308057,-2.8930925527554447
0.9976513385772705,1.1430563326611785,0.16993347090894556,1.1502445059272042,-2.28185681459206,-1.7394416729732352,-2.313767650465656
1.0177533626556396,0.8097229735479398,0.16994041330888238,1.3492200553344837,-2.1702515058202874,-1.7394967630254654,-2.3832909373720024
1.0378644466400146,0.6488885809142994,0.16995245039151846,1.689468244820932,-2.100399812646797,-1.739590579307755,-2.3027380623822657
1.0579543113708496,0.4596678667023222,0.1699616859837052,1.9651092741600233,-1.9883074693643583,-1.7396676477047555,-2.2574387384587467
1.077974796295166,0.32271051185618616,0.1699706497743072,2.1889025887576796,-1.9142612295884351,-1.7397275292515717,-2.2544463917092843
1.0982906818389893,0.4994441396566238,0.16997420041651218,2.284380949974805,-1.960717434663039,-1.73975312611856,-2.1840968878894813
1.1184279918670654,0.3008007634949098,0.16997970143943528,2.447839845177834,-1.7895114178782243,-1.7397964773105936,-2.340864360970532
1.1384997367858887,0.35197125559699544,0.1699834600484399,2.579881821565261,-1.8834559887462543,-1.739834130039214,-2.467823045764622
1.1585824489593506,0.45611950853047606,0.16998585129608415,2.6551903267061183,-1.4252491706161783,-1.7398642687026427,-2.5706625557295077
1.1787126064300537,0.3562769972913232,0.16998155477840987,2.3298295704805576,-1.526584069925026,-1.7398892350818338,-2.6538932976700025
1.198822021484375,0.5296491371825429,0.1699846917124835,2.0893862689798777,-1.6699256629325232,-1.7399003179432666,-2.6894034291611204
1.2189264297485352,0.8261161484809252,0.16998774601464522,1.675919402158311,-1.9150397869753437,-1.7399191944171768,-2.7501279813986246
1.2391648292541504,1.0662541823054523,0.1699900934259737,1.3409666890267424,-2.1135822274500287,-1.7399345060845346,-2.7993139738504067
1.2594797611236572,1.1686287394116721,0.16999144050161802,1.1981700201240681,-2.1982229202299632,-1.7399401270112549,-2.820282645988801
1.2795867919921875,1.3436893383163517,0.16999238793415755,0.9539877163004951,-2.3429633996377652,-1.7399532326376548,-2.8561388524283253
1.2996692657470703,1.4854884329926281,0.1699931000814625,0.756200050203401,-2.4602045231624134,-1.7399636778380785,-2.885182419415298
1.3197650909423828,1.600345670842029,0.16999388254300785,0.5959920406647548,-2.555169338232913,-1.7399713784342992,-2.8957685326241056
1.3398346900939941,1.649311114325612,0.16999430715334682,0.5276928365982793,-2.5956538654488064,-1.7399744435383584,-2.889167955847713
1.3599159717559814,1.7330420221415725,0.16999482369909147,0.4109011976446062,-2.664884579363933,-1.7399796880627423,-2.821846841290405
1.3801090717315674,1.8008640392967117,0.16999555372723052,0.316299970092131,-2.7209591091334135,-1.7399836071096966,-2.7793738408834083
1.4001851081848145,1.8297776342853824,0.16999591958796192,0.2759699730829179,-2.744864106029364,-1.73998524486628,-2.7908663600703916
1.4203708171844482,1.8792198759240024,0.16999644111792228,0.20700567819716348,-2.7857432464919216,-1.7399879781115088,-2.8323114447481186
1.4405953884124756,1.9192680879164186,0.1699968539263919,0.15114459933970242,-2.8188558875978447,-1.7399901567695701,-2.865881876326591
1.460761308670044,1.9517071413872142,0.16999727518671948,0.10589712546515896,-2.8456761874751546,-1.739991938480458,-2.8930739963817715
1.4806952476501465,1.977982776481979,0.16999766759925156,0.06924667162677875,-2.8674000188950015,-1.7399933980971056,-2.91509966619835
1.5007872581481934,1.9891844952075217,0.169997848322644,0.05362200446410088,-2.8766610562004065,-1.7399940257912518,-2.92448957348116
1.5208687782287598,2.0083394352255293,0.16999817607338727,0.02690382361592171,-2.892497164498405,-1.7399951079902727,-2.940546341738346
1.541015386581421,2.023854937712773,0.16999845950758824,0.005262097128896588,-2.905324136034891,-1.739995994062906,-2.953552353516995
1.561048984527588,2.0364224822024695,0.16999853259434086,-0.012267701325593764,-2.915717857233136,-1.7399966022291709,-2.9640867144361605
1.581186294555664,2.0417802259894122,0.16999857993435738,-0.01974093119303439,-2.92014857238176,-1.7399968713116722,-2.9685777128696733
1.6016416549682617,2.050941969691768,0.16999868575083463,-0.032520154266357855,-2.9277246158184074,-1.7399973473157004,-2.9762573777177455
1.6214065551757812,2.0583629840427844,0.1699987971732139,-0.042871324955749864,-2.9338606865177423,-1.739997749941591,-2.9824779706626585
1.6416125297546387,2.061526680252339,0.16999885260108075,-0.04728419246017487,-2.9364764201450275,-1.73999792701653,-2.9851299289743034
1.6616196632385254,2.0669366017651813,0.1699989599002743,-0.05483019589274164,-2.940949043874061,-1.7399982385926283,-2.9896648134134094
1.6817550659179688,2.0713186392592227,0.1699990600740891,-0.06094245867312073,-2.944571560388554,-1.7399985004338359,-2.9933381095864173
1.7018051147460938,2.0748680904739176,0.1699991515603357,-0.0658933915252278,-2.9475055485004757,-1.739998720028511,-2.99631351213471
1.7224676609039307,2.0763812778404955,0.1699991938404913,-0.06800405237270502,-2.9487562724553005,-1.7399988160468522,-2.997581983943487
1.742408037185669,2.0789688286757966,0.169999271434951,-0.07161328242189106,-2.950894875708765,-1.7399989841467982,-2.9997510885795187
1.762474775314331,2.081064745327889,0.16999934000326145,-0.07453675876173176,-2.952626996104282,-1.7399991245507427,-3.001508083078721
1.7825872898101807,2.082762438195833,0.1699994000900144,-0.07690477459700273,-2.954029893406953,-1.7399992416693322,-3.002931264723111
1.8026411533355713,2.0834861915934164,0.16999942716622135,-0.07791429713730245,-2.9546279315300077,-1.739999292691584,-3.003537994792166
1.8227779865264893,2.0847238101034895,0.16999947585206324,-0.07964058068121499,-2.9556505120336647,-1.7399993817289838,-3.0045755119331297
1.8428027629852295,2.0857262813151545,0.1699995178870676,-0.08103887035178414,-2.9564787310828433,-1.7399994558025682,-3.0054159104372125
1.863840103149414,2.0865382834156914,0.16999955690351565,-0.08217148498494514,-2.9571494393623845,-1.7399995198057605,-2.991262995354688
1.8839752674102783,2.086884452637255,0.1699995724143107,-0.08265433648645062,-2.957435411193991,-1.7399995460818851,-2.9782029088147897
1.9040443897247314,1.945915901248905,0.16999963780700825,-0.08348001255402501,-2.957923191214233,-1.7399996141533347,-2.8303245863120594
1.9241466522216797,1.7655426432187347,0.16999968697605616,0.16244135356758316,-2.958319027855626,-1.739999659193872,-2.438765153132354
1.9442052841186523,1.6497224907898187,0.16999994845580688,0.7281774963897425,-2.5207652492852812,-1.739999444650182,-1.8698773440767227
1.96431303024292,1.6705345148054909,0.17000019917144507,0.9693597467507683,-2.5646870130478496,-1.7399990959250882,-1.5365440487372248
1.9843785762786865,1.3559319606866576,0.1700008961984455,1.3817813948681223,-2.6397923660604694,-1.739997420210455,-0.876641614906583
2.0046348571777344,0.7407749041717706,0.17000104449910175,1.7158460162903246,-2.5979071887374205,-1.7399969415448222,-0.24939671430721716
2.024589776992798,0.14179250206637528,0.170001101652643,1.986525053392483,-2.4865006532224645,-1.7399953316413477,-0.16483484819005426
2.044804334640503,-0.18637899486275294,0.17000142977881977,2.102165181368582,-2.4460974388676253,-1.7399907959357985,-0.3820043926453357
2.0649008750915527,0.10091538283016249,0.17000158749507843,2.30002271092303,-2.0634755350370675,-1.7399847142126788,-0.4883764154276633
2.0849967002868652,-0.027071898155368236,0.170001542213871,2.4604415988491253,-1.9620530043391158,-1.7399828148095788,-0.8922426167615117
2.1050961017608643,0.3752397384132189,0.16999884561239356,1.983801709687038,-2.1516629335146837,-1.739956206502961,-0.9863320178049195
2.1251726150512695,0.5467169036700564,0.1699990884713541,1.7767651818652757,-2.232496640163215,-1.7399600117676184,-1.1886029362506945
2.1452555656433105,0.8399408617624979,0.16999968664026915,1.4226542931194692,-2.3707211272094617,-1.7399665277734222,-1.534479217062741
2.165362596511841,1.0774520480269687,0.17000042921124286,1.13581997742677,-2.4826813990790844,-1.739971087915859,-1.8146384403313234
2.18567156791687,1.269836155544789,0.17000039583866483,0.9034841817156838,-2.5733719300089657,-1.7399763994613673,-2.041567165402861
2.2056374549865723,1.3518525617581194,0.17000009754592618,0.8044357635441154,-2.6120363815820937,-1.7399793335281684,-2.1383103761540543
2.225759983062744,1.492100613390525,0.16999955256054658,0.6350629684707335,-2.678153257562464,-1.7399842341531173,-2.3037412474068972
2.2458200454711914,1.605701519711293,0.169999168519345,0.4978710044612941,-2.7317080946801777,-1.7399878269461204,-2.43774021890178
2.265886068344116,1.6977182437366571,0.16999876020442833,0.38674551361364823,-2.775089097473525,-1.7399905615137912,-2.546279232288674
2.286165475845337,1.7722517773171198,0.1699987400319657,0.29673386602705504,-2.8102250543003193,-1.7399924371122326,-2.634195955066999
2.3062565326690674,1.8040265983496386,0.16999878549939507,0.25836047942434953,-2.8252035592135187,-1.7399931988226887,-2.671676270767741
2.326350212097168,1.8583615340946424,0.16999862213278658,0.1927419883337231,-2.850820323487651,-1.7399944572691732,-2.7357672564763185
2.3464179039001465,1.9023728327768348,0.16999863479747915,0.1395910105503157,-2.871568350928134,-1.7399954300688594,-2.787681063831381
2.366511583328247,1.938021986353366,0.16999872830707122,0.0965387185457557,-2.8883732578872205,-1.7399962243887281,-2.829731332426113
2.387446880340576,1.9532197840079457,0.1699987885805077,0.07818484669118013,-2.8955371912214325,-1.7399965673407258,-2.8476580502700637
2.4075615406036377,1.9792080190092511,0.16999891857069238,0.046799725819855906,-2.9077871415646874,-1.7399971623020896,-2.8783127749203525
2.4276282787323,2.0002584904535308,0.16999904859528198,0.021377777914083282,-2.9177092297839486,-1.7399976540998288,-2.9031431406909722
2.447831869125366,2.0173093663440804,0.16999907378336096,0.0007860001104074577,-2.9257481432925956,-1.7399979973444741,-2.923255470417748
2.467843532562256,2.0245784215546534,0.16999905336680338,-0.007992599900633288,-2.9291760871460832,-1.7399981215037665,-2.931829563288345
2.48797869682312,2.0370085078032654,0.16999904910455135,-0.02300400591951296,-2.935037299339443,-1.739998351121187,-2.9464913294192674
2.5080246925354004,2.0470768796404704,0.16999907683091414,-0.035163244794805495,-2.939784264931582,-1.7399985558662714,-2.9583674344470103
2.528083086013794,2.0552322623881394,0.16999912263162426,-0.04501222828379245,-2.9436288159625588,-1.7399987365937786,-2.967987140388953
2.5481820106506348,2.058709031320041,0.16999914934392257,-0.04921100545541321,-2.9452676504581925,-1.7399988183953734,-2.9720881928876803
2.5682895183563232,2.0646543070003562,0.16999920636044927,-0.0563909144188847,-2.9480697976655956,-1.739998965986034,-2.979101025883233
2.588409185409546,2.0694699811746298,0.1699992645488096,-0.062206640679296606,-2.9503392525025003,-1.7399990938670138,-2.9847814573937144
2.608509063720703,2.073370677951568,0.16999932104200538,-0.06691737895023026,-2.9521772813328933,-1.7399992040723389,-2.9893826369453875
2.628556728363037,2.0750336068012025,0.16999934809123884,-0.06892564105520722,-2.952960787490643,-1.739999253177781,-2.991344202264503
2.648658514022827,2.077877215499633,0.16999939913474438,-0.07235976925471785,-2.954300460083032,-1.7399993406086052,-2.994698495263985
2.668743133544922,2.074474984751395,0.1699994665280142,-0.07514141309632145,-2.9553848134388536,-1.7399994378603236,-2.980627249785347
2.689243793487549,2.070321927357721,0.16999948377220056,-0.07632727178668931,-2.955847453686518,-1.7399994662815585,-2.966676034841926
2.7093358039855957,1.9120128860612506,0.16999956088591867,-0.07835509014721834,-2.956637099743115,-1.7399995436514173,-2.820470974025249
2.729438543319702,1.6845283399781783,0.16999971329601646,0.2322847187280371,-2.9572749434540517,-1.7399996532378146,-2.346423389645979
2.749544382095337,1.4852128481388487,0.1699997928459841,0.7847506221697103,-2.552530285405809,-1.739999540762762,-1.6797565515329134
2.7696168422698975,1.3812866049216428,0.1700004866896382,1.2322480039574655,-2.6299454694406736,-1.739998150404272,-1.0130900920480814
2.789879560470581,1.2287214721752289,0.1700007746900377,1.423023203561719,-2.4325905808963486,-1.7399974121627433,-0.8717678649045227
2.809793472290039,1.1584577585161457,0.17000156884588374,1.7492487948849924,-2.3254725766727233,-1.7399955499080235,-0.4112447949441043
2.82987380027771,1.0817304404866654,0.17000139533160188,2.0135299764595334,-2.446032787104906,-1.7399955566191594,0.019948195786075457
2.8499155044555664,0.6250415055981194,0.17000130278101544,2.227866881599443,-2.4088847444293635,-1.7399922142812356,0.012337253973301127
2.8701577186584473,0.29506247147927134,0.17000102873403755,2.3203562556911477,-2.329194456860817,-1.7399791692345155,-0.07385025433528355
2.890169143676758,0.5539979719631158,0.169999689739435,2.4778426644984997,-2.3359727783258473,-1.739967279080063,-0.07467117149098498
2.9103055000305176,0.625508339757945,0.16999826127588027,2.6045707028815874,-2.388426192784024,-1.7399659555413411,-0.47974800816994523
2.930361747741699,0.9038682996670098,0.16997433417741878,2.103660223472772,-2.4431063705968925,-1.7398849777739698,-0.9608261231385984
2.9504282474517822,1.022481653828629,0.16997690666911403,1.8846028657420746,-2.4947957335372033,-1.739896363405652,-1.1656443026277732
2.970524549484253,1.2253101241965656,0.1699808756312298,1.5099973327991147,-2.583185778588652,-1.7399170777240753,-1.5158814756351768
2.9905972480773926,1.3896012424984885,0.16998371710657784,1.206567839567283,-2.6547836338313586,-1.7399349739137902,-1.799573523205655
3.0106494426727295,1.5226770589003056,0.16998599853206303,0.9607899500494993,-2.712779178980524,-1.7399495041685022,-2.029364151887933
3.0310652256011963,1.5794093789072805,0.169987002563699,0.8560109550445494,-2.737503794358583,-1.7399555235132285,-2.1273275577637407
3.0512545108795166,1.6764216428172882,0.16998867905605172,0.676838873586085,-2.779783927443724,-1.7399656078638706,-2.29484496330832
3.071276903152466,1.755001552267046,0.16999029703832877,0.5317094876047288,-2.8140296054466676,-1.7399729312598702,-2.4305341356383434
3.0913429260253906,1.8186512639144021,0.16999185723866078,0.4141546849598303,-2.841766769220848,-1.739978357717829,-2.5404424578415257
3.111431121826172,1.845786139479093,0.16999243118978125,0.3640392164638473,-2.853592730586547,-1.7399806706375314,-2.587298007111933
3.131509304046631,1.892186771916491,0.16999360272438752,0.2783417653357163,-2.8738133361931966,-1.739984429815908,-2.6674211072775673
3.1515724658966064,1.929771282714056,0.1699946795765866,0.2089268299219302,-2.890190706352956,-1.739987389234874,-2.73232091192394
3.1716511249542236,1.9457941493314839,0.1699950277431673,0.17933414692973718,-2.897174408387619,-1.7399886181036193,-2.759988531579906
3.1917564868927,1.9731932523088906,0.16999572826706227,0.1287306590130871,-2.9091152728571137,-1.739990707526149,-2.8073002705297427
3.2118380069732666,1.9953865272348084,0.16999637880668633,0.08774183380060056,-2.9187863006834482,-1.7399924038697019,-2.845622878332205
3.231926441192627,2.013363081231953,0.16999695388754124,0.05454088537848645,-2.9266191563358888,-1.7399937879267087,-2.8766642580323554
3.252006769180298,2.021026770462024,0.1699972114819095,0.040386796840637805,-2.92995823847362,-1.7399943819261592,-2.889897708035854
3.2720847129821777,2.0341316797206894,0.16999766901918048,0.016183305440916618,-2.9356677926954107,-1.7399954045638772,-2.9125269378042997
3.292173147201538,2.0447466449356417,0.16999787039888745,-0.0034215225928575423,-2.9402966786112104,-1.739996121216759,-2.930856072119471
3.312268018722534,2.0492719731591436,0.16999797564589506,-0.011779370333571789,-2.9422696911856256,-1.7399964367336291,-2.938670112840871
3.3324332237243652,2.057010285960938,0.16999818468370673,-0.02607128997019315,-2.94564297871737,-1.7399969926092576,-2.952032190067783
3.352458953857422,2.063278320993621,0.1699983834619003,-0.03764774487585645,-2.9483747393419564,-1.7399974605113613,-2.9628555464119697
3.3725507259368896,2.068355430691951,0.1699985664452855,-0.04702467334944372,-2.9505869900619524,-1.7399978534567655,-2.9716225245901104
3.3926210403442383,2.0705198831452853,0.16999865120236066,-0.05102220601449935,-2.951529955256784,-1.7399980254177732,-2.9753600451685887
3.412708282470703,2.074221097532164,0.16999880676296472,-0.05785798687174447,-2.9531421773520745,-1.7399983266589492,-2.9817512373317316
3.4327900409698486,2.077219081938047,0.16999894400011104,-0.06339496936611301,-2.954447806573408,-1.739998578420057,-2.9869281381768755
3.4529051780700684,2.079647449909819,0.169999063907517,-0.06787992518655153,-2.955505148752762,-1.739998788500895,-2.9911214564225355
3.47354793548584,2.080682701713519,0.16999911779343305,-0.06979193266789638,-2.9559558400224657,-1.7399988800332127,-2.9929091435092277
3.493651866912842,2.082452982617201,0.1699992144044899,-0.07306146546099607,-2.9567264063226104,-1.739999039764801,-2.9959661038214747
3.5137453079223633,2.0838869104983457,0.1699992974773722,-0.0757097870234068,-2.957350438145828,-1.739999172636405,-2.9984422586229726
3.533872365951538,2.042713433193544,0.1699994263707746,-0.07785492748895952,-2.957854000334691,-1.7399993467153143,-2.9428867948754474
3.5538909435272217,1.88491017932484,0.16999950534895686,-0.0795924912660572,-2.9582626889913555,-1.7399994390900064,-2.7515987091015686
3.5740394592285156,1.7819310808817737,0.16999951453463244,0.16621859215772872,-2.958437691225666,-1.7399994643647605,-2.461652672929078
3.5944364070892334,1.588512502227701,0.169999429378399,0.6627037105152225,-2.8203941469546714,-1.7399997253632102,-1.867367943949325
3.614291191101074,1.1720856332393756,0.17000000866730017,1.1333900055173303,-2.722407671746287,-1.7399988381419942,-1.2007015184530623
3.6343307495117188,0.5455653944358597,0.17000077246004155,1.5146459044690375,-2.6400428521198696,-1.739996916637939,-0.5905116486795223
3.654433250427246,0.21223219446185837,0.17000070983368754,1.6771832962057047,-2.544535008749008,-1.7399971219779788,-0.34134079834020525
3.674543619155884,0.032823020620597484,0.1700006650292176,1.9551400255030098,-2.3982721187882805,-1.7399970205403938,-0.03968984818036245
3.694610595703125,-0.41092125268763513,0.17000101072959142,2.180594352111259,-2.332631906544435,-1.7399927220819624,-0.6038908112116358
3.7146973609924316,-0.1608124301186732,0.17000135946440625,2.1748231722348823,-2.322619271882118,-1.7399833590872054,-0.647300232641439
3.735065221786499,0.26688742585128367,0.1700026397413737,1.9455508111839976,-2.3782471106174294,-1.7399594107802514,-0.9187563581883409
3.7549524307250977,0.6132803423248053,0.17000226768355872,1.5594144137364028,-2.488780159600118,-1.7399661703624085,-1.3159084947573927
3.7751097679138184,0.8938570325513993,0.17000261642940634,1.2465956751264862,-2.578309037272958,-1.7399705501443496,-1.637596312736883
3.7952938079833984,1.0134712987099914,0.17000279684907338,1.1132361076138375,-2.616476032195763,-1.7399722939790783,-1.7747368943097708
3.815476417541504,1.218011737930876,0.17000245778127898,0.8851912471672083,-2.6817446967575322,-1.7399770122385967,-2.0092469760924647
3.835517644882202,1.3836895430689522,0.17000145814427653,0.7004749102054387,-2.734617002155517,-1.739982487390894,-2.199199838906633
3.8556082248687744,1.5178885526673918,0.17000070414191068,0.5508546772664054,-2.77744376633681,-1.7399865388472042,-2.353061645572339
3.875694751739502,1.575099703375336,0.17000045212473752,0.48706920953976485,-2.7957010682609735,-1.7399880921306465,-2.4186553778264956
3.8959336280822754,1.6265897409777683,0.17000004533798704,0.42966228858578837,-2.8121345475053676,-1.7399896039297487,-2.4776895994359758
3.916018009185791,1.6265897409777683,0.17000004533798704,0.42966228858578837,-2.8121345475053676,-1.7399896039297487,-2.4776895994359758
3.9361069202423096,1.714637692990369,0.1699996628181998,0.33149645375448855,-2.8402330776406846,-1.7399917905919284,-2.578638263764919
3.9561662673950195,1.7859565294588071,0.16999954484481863,0.2519821275411357,-2.862991072991225,-1.739993386117834,-2.6604067918447982
3.976295232772827,1.8437247791488316,0.16999923816178114,0.18757552330831992,-2.8814283633764703,-1.739994623301587,-2.726638948215907
3.9965620040893555,1.868352296432352,0.1699991720922201,0.16011797097748792,-2.889287745066478,-1.739995125197634,-2.7548748174329503
4.016571283340454,1.910465352073154,0.16999913370825326,0.11316555649176521,-2.902726384760244,-1.7399959810803076,-2.8031582318315467
4.0366246700286865,1.9445769285472816,0.16999916410465102,0.07513410075832982,-2.913610884214001,-1.7399966812501024,-2.842267871626378
4.05670952796936,1.97220730667808,0.16999922597306588,0.04432862161424715,-2.9224268004437,-1.7399972579827958,-2.8739467326995096
4.077550172805786,1.983986573526626,0.16999926226961715,0.03119575945282244,-2.926185013155322,-1.7399975074025895,-2.887451947355693
4.097940683364868,2.004129113636352,0.16999923355605906,0.008738565156786175,-2.9326137634761147,-1.739997874758264,-2.910545577175842
4.117870330810547,2.020444567179645,0.169999160422971,-0.009451762223003196,-2.9378224648144817,-1.7399981350542433,-2.9292512248616944
4.138097524642944,2.0336600867396935,0.16999914183906448,-0.024185927400632586,-2.9420407509010635,-1.7399983676830388,-2.944402889254894
4.158283710479736,2.0443646593226936,0.1699991566361264,-0.036120601194512394,-2.9454569636560555,-1.7399985735892027,-2.9566758101427353
4.178357839584351,2.0489281881915193,0.16999917201167844,-0.04120854107506115,-2.9469131576164407,-1.7399986669803729,-2.961907973836838
4.198459625244141,2.0567318234641876,0.16999921245361704,-0.04990891827079953,-2.9494029369931165,-1.7399988357986362,-2.9708550131209868
4.218540906906128,2.0630527690197584,0.1699992600594666,-0.056956223799347616,-2.9514193179200117,-1.739998982406866,-2.9781021584326144
4.238935947418213,2.068172735706899,0.1699993100930978,-0.06266454127747156,-2.953052312817459,-1.739999109000499,-2.9839723815751755
4.259820461273193,2.0703554586008335,0.16999933503474357,-0.06509808714972441,-2.9537483956897086,-1.739999165482354,-2.9864749619740554
4.279900312423706,2.074087915164771,0.16999938348784244,-0.06925945059127678,-2.9549385515227344,-1.7399992661591759,-2.990754393666779
4.300200700759888,2.077111205434919,0.16999942897231202,-0.07263015497893419,-2.955902417752567,-1.7399993521522985,-2.9942207545363857
4.320271253585815,2.0795600709183106,0.16999947075360153,-0.07536042553293669,-2.9566830200681506,-1.7399994253604434,-2.9970285240810184
4.340266942977905,2.081543652253395,0.16999950852387555,-0.07757194468167872,-2.957315203338273,-1.7399994875054938,-2.9993028314246386
4.3603456020355225,2.0823892843913425,0.16999952588736397,-0.07851475021351084,-2.9575846790461418,-1.739999514917474,-3.0002724091254813
4.380439043045044,2.0357649524407515,0.16999961474493666,-0.08012694767294377,-2.9580436257285077,-1.739999609922049,-2.9571084142271236
4.400529146194458,1.9214364360788168,0.16999960870004677,-0.06845636720592002,-2.958417844819943,-1.7399996181192885,-2.8118198047050784
4.420647621154785,1.856922955204765,0.16999965405373826,-0.05733427007616359,-2.9585758708091223,-1.7399996601582965,-2.7167302031346017
4.440741539001465,1.7945895141615154,0.1699997799900459,0.5501592412383074,-2.8670073841316372,-1.739999670584708,-2.1752604415062238
4.460834741592407,1.7226562410966835,0.17000043405080403,1.042228985403029,-2.807293982469459,-1.7399986421242888,-1.5085941650343124
4.480907678604126,1.055989541816932,0.17000110306862815,1.4408054781764537,-2.8363039059254262,-1.7399968135952983,-1.0619570456324965
4.500962018966675,0.38932322966036403,0.1700013270121344,1.7636594628501048,-2.5380640099585783,-1.7399959888055825,-0.39529216756483465
4.521060228347778,0.22277981013393228,0.1700013246854441,1.9013281907094834,-2.552291304183668,-1.7399953925355025,-0.16657516136577738
4.5414628982543945,-0.24839519790230277,0.17000125697729768,2.136854536972152,-2.438917738748848,-1.7399933494386728,-0.26557166082436257
4.561933755874634,-0.5375411320106104,0.17000145045420287,2.237898768119043,-2.3253574215351875,-1.7399847880772283,-0.5399777251720425
4.582197189331055,-0.03827929191140286,0.17000108508327808,2.3569364791002325,-2.2198856227411095,-1.7399701113196562,-0.9062906395556196
4.602115869522095,0.36615413566827004,0.16999944910691772,2.0984239154593363,-2.3605073544202986,-1.7399401199840236,-1.30605867745724
4.622513055801392,0.6936973759623769,0.17000018163089162,1.6837564977371906,-2.474410957080442,-1.7399438710628288,-1.6296686140989645
4.6423797607421875,0.9589949212240004,0.1700005762662287,1.347314107530401,-2.566671364711931,-1.7399533828309133,-1.8917420704942418
4.6624674797058105,1.0720953988577202,0.1700010005290664,1.2038826967773608,-2.606002160313237,-1.739956731259163,-2.0034681178871114
4.682608604431152,1.2654972746174071,0.17000080162495107,0.9586149843896623,-2.6732619975189453,-1.7399649426400998,-2.1945191834401614
4.702682018280029,1.422152839063882,0.16999998241672842,0.7599481373556265,-2.727746600166141,-1.7399731522332575,-2.349270265725028
4.722779989242554,1.5490438263440802,0.16999951072837188,0.5990279912580574,-2.771878455003849,-1.7399791084973237,-2.474618708645841
4.742821455001831,1.6031394549164026,0.16999927732943007,0.5304251921322517,-2.7906931014248495,-1.739981575565417,-2.528056690198224
4.771721363067627,1.6031394549164026,0.16999927732943007,0.5304251921322517,-2.7906931014248495,-1.739981575565417,-2.528056690198224
4.79888129234314,1.6031394549164026,0.16999927732943007,0.5304251921322517,-2.7906931014248495,-1.739981575565417,-2.528056690198224
4.818992376327515,1.6518255141906333,0.16999918457455046,0.46868267291902654,-2.8076253559022595,-1.7399835940505033,-2.576150921025258
4.839115619659424,1.7350786738092898,0.16999882262649332,0.3631029650644115,-2.836581950948631,-1.7399870850632964,-2.6583918539834728
4.859166622161865,1.770570806320006,0.1699987922058519,0.3180926685579703,-2.8489254816361345,-1.7399884347699994,-2.693452526903051
4.879321575164795,1.831262351016222,0.1699988523033946,0.24112506153195595,-2.870031810308418,-1.7399906579788669,-2.7534063500659243
4.899544715881348,1.8804224945657801,0.1699986967896153,0.17878129984088434,-2.8871311956125316,-1.7399923832284174,-2.8019685933863534
4.9195733070373535,1.9202422119874847,0.16999871300802744,0.12828285287111632,-2.9009800451972922,-1.73999375881057,-2.841304146939676
4.939589977264404,1.9524961845742195,0.16999880299854933,0.08737911082560422,-2.9121966380991213,-1.739994877179,-2.873166033906229
4.959721803665161,1.966246562878778,0.16999886025966404,0.0699411997430438,-2.9169781903170695,-1.7399953576184335,-2.8867492845208846
4.9797751903533936,1.9897597106350018,0.16999898313836553,0.04012237179186548,-2.925154277605454,-1.7399961867157356,-2.9099766807857654
5.0000386238098145,1.9997837371553129,0.16999904501555047,0.02741013461267893,-2.928639724979433,-1.7399965437289746,-2.9198789023389575
5.020231246948242,2.016924816459608,0.16999906243424395,0.005672209036269936,-2.934602007770932,-1.739997095980418,-2.936811418107118
5.040313243865967,2.0308090868373627,0.1699990276505713,-0.011935510680621353,-2.9394328478699627,-1.739997506709438,-2.950526566259191
5.0603063106536865,2.0420553479599897,0.16999903864745702,-0.026197763651303295,-2.9433450834972033,-1.739997860860665,-2.9616359246372745
5.080394744873047,2.051164821149115,0.16999907635247707,-0.03775018855755567,-2.9465134092504983,-1.739998164856804,-2.9706345763659816
5.10046911239624,2.0550483339413184,0.1699991011819635,-0.0426751697018001,-2.947863929625542,-1.739998299940351,-2.9744708669592623
5.120539903640747,2.0616891416915886,0.16999915731287765,-0.051096887458458085,-2.9501730148085836,-1.7399985398329518,-2.9810309624223006
5.140616178512573,2.067068196920005,0.16999921713449911,-0.05791847884135105,-2.952043041973589,-1.7399987437613293,-2.98634468228018
5.160979509353638,2.071425232415075,0.1699992766892509,-0.06344396786149434,-2.9535574973752317,-1.7399989165770402,-2.990648829978169
5.18165922164917,2.0732827056868626,0.16999930557378123,-0.0657995710753449,-2.954203047318903,-1.7399989926960886,-2.992483767406464
5.2017481327056885,2.076458985382776,0.1699993605846393,-0.06982765257102937,-2.955306795745343,-1.7399991268399793,-2.9956215291385937
5.222177028656006,2.0790317723744485,0.16999941118429057,-0.07309039858253379,-2.956200676317277,-1.7399992398179056,-2.998163136795762
5.2420384883880615,2.081115730189979,0.16999945695465515,-0.07573322285185237,-2.9569245938121385,-1.7399993347841156,-3.000221855784267
5.2621660232543945,2.0820041544253765,0.16999947799975734,-0.07685990056666714,-2.9572331704163743,-1.7399993763825972,-3.0010995256699324
5.282387018203735,2.083523360055402,0.16999951648460837,-0.07878651945900038,-2.9577607690384107,-1.739999449338166,-3.0026003502324743
5.302433013916016,2.084753916848271,0.16999955070059652,-0.0803470807617903,-2.958188039620086,-1.7399995106965078,-3.0021488700946963
5.322472810745239,2.0315712939786694,0.16999963990577216,-0.08161113541705013,-2.958532188110409,-1.7399996106505566,-2.950379345632727
5.343369722366333,1.9832347816268687,0.16999962834935256,-0.08215002187534512,-2.958680481015504,-1.7399996062558274,-2.9046703819834816
5.363450527191162,1.8431185028653991,0.16999964984865276,-0.023818613632916562,-2.9589328569776243,-1.739999641232158,-2.6777559375579716
5.383516073226929,1.7824226882724281,0.16999978602029367,0.5773069229573375,-2.8032323211570978,-1.7399996394077235,-2.156292350427742
5.403641939163208,1.757023297619287,0.17000055213107437,1.0642186075954434,-2.833012298339095,-1.7399983828216754,-1.4896261018511034
5.42368221282959,1.4236899530450045,0.17000078180949316,1.271796746835899,-2.785528330033713,-1.7399977619756133,-1.35782034991555
5.443761825561523,0.9712777938160037,0.1700014181601953,1.6267553649370785,-2.6003068979660284,-1.7399959575664006,-0.9808592581461346
5.463837385177612,0.6777497420497061,0.17000121767206094,1.9142884566891216,-2.5208643886868645,-1.739996239779911,-0.7042418615190666
5.483904600143433,0.5207982196257978,0.17000113599611433,2.147288546402146,-2.4875036889626423,-1.7399949748512347,-0.3312165103425618
5.5042219161987305,0.5304901850479685,0.17000103432943128,2.246634321731853,-2.41795685419266,-1.7399945572417832,-0.030819179676605857
5.524344205856323,0.2599276033169566,0.17000027030075915,2.417145266242401,-2.5209450518960543,-1.739987978810953,-0.08871945012737735
5.544424057006836,0.6077220383414694,0.16998952250078034,1.9481220809797732,-2.4963150670785286,-1.7399308765983972,0.310022685194334
5.5648181438446045,0.8893556938753037,0.16999156989260752,1.561477118382732,-2.584415204333608,-1.7399434570173018,-0.32059508548374066
5.584725856781006,1.0094201068490407,0.16999279899084807,1.3966294065444589,-2.621972349437089,-1.7399481059810566,-0.5894358257671772
5.604808568954468,1.2147302825718842,0.16999428068259967,1.1147398193010116,-2.686197362150349,-1.7399576600084663,-1.0491531027323426
5.624881982803345,1.3810315668203321,0.16999477594537468,0.8864092536338194,-2.738223365376511,-1.7399672362476908,-1.4215237293396579
5.6449713706970215,1.515735599926515,0.16999525301059212,0.7014614954433938,-2.7803645740458536,-1.7399745970349139,-1.7231439861377802
5.6651997566223145,1.5731620514162792,0.16999548984609286,0.6226153458990544,-2.7983300449493713,-1.7399775543317477,-1.851729470910234
5.685256004333496,1.6713612806562437,0.16999581004590888,0.48778843017823403,-2.8290521621527818,-1.7399825489473406,-2.0716105640057636
5.705376386642456,1.750902642345118,0.16999623346414097,0.37857862844436957,-2.8539361884185928,-1.7399861503040719,-2.2497142626645483
5.72544264793396,1.815331139908038,0.16999667095350793,0.2901186890399393,-2.8740916125082676,-1.7399888945167603,-2.3939782735297164
5.745511054992676,1.8427980247754534,0.16999691724305951,0.2524068201359454,-2.882683587617334,-1.739990017274471,-2.455480340333444
5.765808820724487,1.88976639399674,0.16999725414599473,0.18791952431011577,-2.8973773465778363,-1.7399918883657999,-2.560648704387545
5.785741806030273,1.9278107706425895,0.16999752291715825,0.13568481469119378,-2.9092797320295007,-1.7399933620029144,-2.645835006120277
5.805837631225586,1.9586267171313172,0.16999782751511522,0.09337469989986696,-2.918919560722651,-1.7399945558414696,-2.7148360111137144
5.827515602111816,1.9717640421935652,0.16999797837152641,0.07533722990988027,-2.923028884752394,-1.7399950679982141,-2.744252256975392
5.847586154937744,1.9942288688942023,0.16999826369619114,0.044493156227003026,-2.930055427205409,-1.739995951139519,-2.7945540786590266
5.867671251296997,2.012425379433222,0.16999851967536375,0.01950945654387245,-2.9357465358234833,-1.7399966754468232,-2.835298596227659
5.887765645980835,2.0271645475913993,0.16999864974064657,-0.0007273401994633208,-2.940358307076445,-1.739997209528441,-2.86830139454926
5.907876968383789,2.0391032701821845,0.16999870876648604,-0.01711914556156529,-2.9440951696864865,-1.7399976075755657,-2.8950334798359734
5.927969455718994,2.0441929368821445,0.1699987482925616,-0.02410723100540876,-2.9456879748630116,-1.7399977852002602,-2.9064298231913375
5.948040246963501,2.0528962681649645,0.16999883775305122,-0.03605685711438109,-2.9484112245777014,-1.7399981018655004,-2.92591762506449
5.968147277832031,2.0599459678340217,0.16999893271172306,-0.045736054262648686,-2.950616574923158,-1.7399983723448709,-2.941702804672436
5.988329172134399,2.0629513665414585,0.1699989800993149,-0.04986244883638382,-2.95155659619366,-1.7399984921224192,-2.9484322955388316
6.008733034133911,2.068090599029521,0.16999907200044082,-0.0569185835574709,-2.953163780464016,-1.7399987041883722,-2.959939757269557
6.02868390083313,2.072253378105579,0.1699991579256324,-0.06263405268155142,-2.9544653248496187,-1.7399988837940616,-2.9692608369129307
6.049049139022827,2.0756252297675517,0.16999923646362358,-0.06726358267205665,-2.9555193548063663,-1.7399990354994594,-2.976810940379278
6.069029808044434,2.077062703568044,0.1699992727735861,-0.06923722440485099,-2.955968632856354,-1.7399991021699486,-2.9800296781429325
6.089028358459473,2.051710352459643,0.16999943204868323,-0.0726121517679293,-2.956733935515844,-1.7399993226319166,-2.963180142370869
6.109112739562988,1.9545839323461114,0.16999952777872746,-0.07534584293202273,-2.957354859119687,-1.7399994429597567,-2.8709732215849435
6.129180431365967,1.7921054064341795,0.16999952442999774,0.14187924138582825,-2.9578603375816535,-1.7399994675303692,-2.5314703697846386
6.1503942012786865,1.7051221507398235,0.16999973722567663,0.3384306914080121,-2.9580713806785486,-1.7399995622561393,-2.286210774659331
6.170496463775635,1.525376387472589,0.16999973664281884,0.8707288600404899,-2.6141947343346743,-1.7399995156522323,-1.6195439145194874
6.1905677318573,1.1769268553127157,0.1700004369624748,1.3018903766327967,-2.679893894489797,-1.7399979907827168,-0.9528775228974109
6.210652828216553,0.5102602678611792,0.1700006609800817,1.651132458114877,-2.4426007120785194,-1.7399974718605709,-0.7368198189904902
6.230729579925537,0.4675172304366657,0.170000597212748,1.934028877552312,-2.327602308757249,-1.7399975737944635,-0.3543401288506359
6.250813961029053,0.4305705073455758,0.17000059936970546,2.0546481423665646,-2.3202781931464167,-1.7399974090433203,-0.423064408894975
6.270906209945679,0.5471650802294526,0.17000176222018828,1.9984948327249223,-2.36947947653954,-1.7399776043017765,-0.2840375554736998
6.2909839153289795,0.8227963351698812,0.17000161234718889,1.6550312748269846,-2.4737238487143127,-1.7399804831213237,-0.39370669616472276
6.3110671043396,0.94951668195753,0.17000187340409512,1.4808281473442861,-2.5223502045723385,-1.739981414809851,-0.6552362849675063
6.331239223480225,1.1662084700887743,0.17000222343372315,1.1829407993488719,-2.6055008444000367,-1.7399830547801352,-1.102451774221087
6.351641654968262,1.34172891022878,0.1700011163516406,0.9416520474725862,-2.6728594627982716,-1.739988065558965,-1.4646956339130073
6.371492147445679,1.4839004484141352,0.1700004536464776,0.7462081584527949,-2.727419215358035,-1.7399913418380564,-1.7581132821272851
6.391581296920776,1.5990593883441695,0.16999991345157286,0.5878986083467639,-2.7716131457839586,-1.7399937830658776,-1.995781560521478
6.411983489990234,1.6481534597343892,0.16999965560766456,0.5204087475120875,-2.790454206590373,-1.7399947486845362,-2.0971032630998994
6.431951999664307,1.7321043115414503,0.1699992663264863,0.4050010854847909,-2.822672477850885,-1.7399961335318104,-2.270363328987564
6.452322244644165,1.800104493356424,0.16999907808517634,0.3115208792426806,-2.8487684163221663,-1.7399970221396528,-2.410704001641467
6.472378253936768,1.8290940429891127,0.16999907067023473,0.27166879131841254,-2.8598928254077163,-1.7399973387943353,-2.470533490316838
6.492504596710205,1.8786661683503088,0.1699989649134452,0.20352172096791415,-2.8789171559213087,-1.7399978239787337,-2.572841735694254
6.512596368789673,1.9188195870142766,0.1699988783797615,0.14832259398401046,-2.894327299877689,-1.739998167803589,-2.655711337895082
6.532661199569702,1.951343857631323,0.16999890824553573,0.10361130112704847,-2.906808293333853,-1.739998444335622,-2.7228358227674936
6.553059101104736,1.9776885182532642,0.16999898909402292,0.06739515391290926,-2.916917141395546,-1.7399986771720217,-2.77720672760401
6.572907209396362,1.988919663514091,0.16999903797308957,0.05195563852161834,-2.9212264955741776,-1.7399987804076684,-2.800385923808384
6.592975378036499,2.0081249226700817,0.16999914110877024,0.025554067202510855,-2.9285951890127415,-1.739998964167045,-2.840022381461203
6.613067150115967,2.0236811767999154,0.16999914266984767,0.004168794434033795,-2.9345658947469913,-1.7399990572810324,-2.872127640344874
6.633219480514526,2.036281738815232,0.16999909549700484,-0.013153276508432626,-2.939403546580227,-1.7399990964162986,-2.8981327117986155
6.653515577316284,2.041653558206132,0.16999909107453431,-0.020537948857589364,-2.9414656170421196,-1.7399991216941675,-2.9092191195319246
6.6736485958099365,2.0508393707381116,0.16999910732517756,-0.033165738574647385,-2.944991280782996,-1.7399991789230773,-2.928176934634038
6.693735122680664,2.058279880373467,0.16999914491726817,-0.04339424824546438,-2.9478465545661954,-1.7399992404168,-2.943532828510034
6.7137980461120605,2.0643066943584465,0.1699991938145843,-0.051679341078826144,-2.95015891724925,-1.739999302222304,-2.955971154235039
6.734179258346558,2.0691884146271335,0.16999924753780035,-0.058390266273849176,-2.952031603599732,-1.7399993617900487,-2.9660462400994194
6.754287004470825,2.071269569359998,0.16999927485433242,-0.061251239646464256,-2.9528298536067807,-1.7399993902232227,-2.9703414220058075
6.774385690689087,2.074828344447694,0.16999932861743935,-0.06614350411363604,-2.954194687439892,-1.7399994437803972,-2.977686205800611
6.794462203979492,2.0777109528077036,0.169999379710555,-0.07010623833204518,-2.9553000126670876,-1.739999492510397,-2.9836355057478023
6.814621686935425,2.027434917252048,0.16999949461497604,-0.07331605304895661,-2.9561930946657244,-1.739999591397233,-2.953239926589418
6.834743976593018,1.9810804667569033,0.16999949040550888,-0.07468444774406095,-2.956575477701248,-1.7399995831702502,-2.9236008722194473
6.854807615280151,1.8514783415583378,0.16999957515436087,-0.07702440267268937,-2.957226513578618,-1.739999652550641,-2.7518406374192295
6.874979734420776,1.7995386450752198,0.16999970684371377,0.5342102338351217,-2.86224070425605,-1.7399996751113724,-2.2429073925744323
6.8963775634765625,1.745394658072049,0.17000002406335088,0.7947892104516096,-2.813985902365561,-1.739999362895951,-1.9095742597360421
6.918938875198364,1.6966650620002555,0.1700003267364429,1.0293102894064485,-2.770557074773503,-1.739998782746667,-1.5762410844196584
6.9391090869903564,1.02999835362353,0.17000112899651718,1.4303413344192233,-2.8065464791933548,-1.7399966253802617,-0.9095749450381642
6.959144353866577,0.3633320018258039,0.17000130010182563,1.7551827715217991,-2.602557663240069,-1.7399959989331744,-0.2603801200114285
6.979248046875,0.11948369930200467,0.17000128343065546,1.893697985219428,-2.537227252827317,-1.7399954478488913,-0.06427962252719957
6.9993369579315186,-0.40397583749433935,0.17000143904779333,2.1307657022420736,-2.4041276422759363,-1.7399916567964444,-0.1999355214336059
7.019450426101685,-0.4008017083612817,0.17000156377984701,2.3235083424730885,-2.2516423955135125,-1.7399816242946795,-0.6192624272674103
7.039538145065308,0.07250114507137106,0.16999934469766398,2.423602321128693,-2.253131439904748,-1.7399555181519049,-0.9704973208940746
7.059816837310791,0.2742643872718701,0.16999841517889536,2.437355933255553,-2.3238182959142732,-1.7399514892675776,-1.1744055401076103
7.080047845840454,0.6193352440425055,0.16999118818431563,1.964260546459492,-2.305920751762247,-1.739905874435165,-1.5233427024511177
7.100043535232544,0.8987624428370786,0.16999294391571237,1.5745507115273008,-2.43019580892742,-1.7399232288513062,-1.805620938079329
7.12011456489563,1.1250975271638934,0.169995141004008,1.2588560763371137,-2.530855520293328,-1.7399355916753192,-2.034263404390211
7.1402270793914795,1.2215878119426344,0.1699951114924932,1.1242704687034024,-2.5737723459481168,-1.7399434222111982,-2.1317368313008
7.160288333892822,1.3865861725641866,0.16999546765217685,0.894129079649756,-2.647158855452193,-1.7399556212862983,-2.2984166112432
7.180373907089233,1.5202348550176743,0.16999555566104607,0.7077145545163023,-2.7066040587156954,-1.7399656686639218,-2.4334271753400065
7.200429439544678,1.6284902615036376,0.16999584056936168,0.5567187891582048,-2.754753889362922,-1.7399730410448113,-2.542785770375865
7.220928907394409,1.6746412425562225,0.1699960551341412,0.49234691024238436,-2.7752803318937196,-1.7399759653391618,-2.5894070862843295
7.241029500961304,1.7535594123676295,0.16999644468636124,0.38227099729633135,-2.810380763312862,-1.7399807876373843,-2.669129483992718
7.261180877685547,1.8174831237176303,0.16999685078279334,0.29310950781002837,-2.8388115328631023,-1.739984533436913,-2.7337046304903
7.2812371253967285,1.8692613276838286,0.16999730906162805,0.22088870132612295,-2.8618391923334547,-1.7399874753060742,-2.7860105782176214
7.301341772079468,1.8913351894342427,0.16999738698062242,0.19009983119351065,-2.8716580540402066,-1.7399886941076899,-2.8083092386106885
7.321374177932739,1.9290814940279775,0.16999762953739267,0.1374508632667436,-2.8884470514046816,-1.7399907659517384,-2.846440049866706
7.3414647579193115,1.9596560023559821,0.16999791236500325,0.09480519924606233,-2.902045073995656,-1.7399924483255902,-2.8773261009105515
7.361530065536499,1.9844213555426704,0.16999819149573767,0.06026221138931048,-2.9130587978456792,-1.739993821491388,-2.9023438670035153
7.381654739379883,1.9949792171069285,0.16999832342477147,0.04553599025037944,-2.917753934263662,-1.7399944110072285,-2.913009354870984
7.4017493724823,2.0130331611368506,0.1699985667885136,0.02035415210280734,-2.9257823399231895,-1.7399954262640507,-2.9312473688664316
7.421840190887451,2.0276568500700973,0.16999868479321698,-4.3136796726057566e-05,-2.9322873567983367,-1.7399961942313131,-2.9460198950126295
7.441923141479492,2.0395020343193093,0.16999873300595797,-0.016564940805348108,-2.937557773851761,-1.7399967808214285,-2.9579854564462225
7.4619786739349365,2.049096635645749,0.16999880809525772,-0.02994760205233197,-2.941826114488019,-1.739997276666456,-2.9676776446377655
7.482085466384888,2.0531869663492097,0.16999885095025905,-0.03565284184709877,-2.9436455537814243,-1.739997494678751,-2.971809604660943
7.502512454986572,2.060181432928488,0.16999894102286306,-0.04540880189615001,-2.946756434694505,-1.739997878216322,-2.9788753012829794
7.522379398345947,2.065846952021391,0.1699990314888462,-0.053311129535881505,-2.949275856611947,-1.7399982004622145,-2.984598565198137
7.543148994445801,2.068262252639135,0.16999907549436977,-0.05668001658229335,-2.9503497996336012,-1.7399983415376945,-2.987038499199595
7.5632383823394775,2.0723924173030572,0.16999915938737223,-0.06244081343165761,-2.9521860349107936,-1.739998588773627,-2.991210813254219
7.583301544189453,2.0757378513412394,0.16999923654827523,-0.06710705887964266,-2.9536731586182627,-1.7399987955217906,-2.9945904173472493
7.603379964828491,2.078447653440838,0.16999930627284016,-0.07088671769251055,-2.9548775457817653,-1.7399989681507866,-2.997327920838576
7.62347936630249,2.0806425935655497,0.16999936845194494,-0.07394824133093354,-2.9558529515356953,-1.7399991120986553,-2.9995453183286984
7.643565654754639,2.0815783313346583,0.16999939678181816,-0.07525341719784019,-2.9562687343917164,-1.739999174790758,-3.000490636306369
7.6637022495269775,2.083178443144691,0.16999944818948953,-0.07748526793025055,-2.9569796438994547,-1.739999284160496,-3.002107140668431
7.683754205703735,2.084474533956785,0.16999949304768056,-0.07929306702350294,-2.9575553936495735,-1.7399993751116185,-3.0034165209017374
7.703843593597412,2.085524367845521,0.1699995335484,-0.08075738428903738,-2.958021630289442,-1.7399994520205122,-2.996340106405237
7.724463701248169,2.0859719285900753,0.16999955065212918,-0.08138164586013363,-2.958220402836464,-1.7399994845838245,-2.9894689356468205
7.7445127964019775,1.962890911331978,0.1699996181878913,-0.08244913314670824,-2.958559096135036,-1.7399995639781884,-2.867793613397991
7.764601469039917,1.8052643505646664,0.1699997638089279,0.06333973635374199,-2.9588313405058333,-1.739999684704136,-2.5577230369770056
7.784695148468018,1.8232433911901345,0.1699999216039087,0.647905186446531,-2.665292375800523,-1.7399996084004479,-2.0113862784661323
7.804792881011963,1.8126823626499213,0.1700001787626846,0.8971146678018779,-2.6947611322042113,-1.7399992908204327,-1.6780530333271844
7.824974775314331,1.4698440820360328,0.17000068384025976,1.323262880919521,-2.7451532375352508,-1.739998067529319,-1.0654576223503451
7.845027208328247,0.8050138548128596,0.17000097224661578,1.668444641764951,-2.6793864508279253,-1.7399971905961373,-0.4942922317550281
7.865111827850342,0.2862543871501174,0.17000098784517717,1.9481101926852165,-2.4933751546586107,-1.7399959054032024,-0.06924858425255598
7.886370420455933,0.11937049344333717,0.17000103215117573,2.0673770918240684,-2.3966369858304755,-1.7399948640946947,0.05423009379264744
7.906246662139893,-0.4998876546305772,0.17000141778566072,2.2723087196976617,-2.3735442776526288,-1.7399820084512418,-0.5278777519518039
7.926339149475098,-0.007782781436813685,0.17000043684805494,2.439033692384844,-2.0853516683406306,-1.7399695205078396,-0.7113852557465041
7.94641900062561,0.33092875185444204,0.16999843168339943,2.5745255787177292,-2.2515348513559106,-1.7399612235261355,-1.148036361739956
7.966489553451538,0.5069022149288172,0.16998678565636646,2.4597674479472476,-2.1920632052095774,-1.7399178611168742,-1.3344312157393856
7.986671686172485,0.8077326020482882,0.16998847787334811,2.1096521432714654,-2.2135923077081,-1.7399105211747292,-1.6527709991592099
8.006864547729492,1.0513639550183762,0.1699907086122221,1.692313186156988,-2.3490264800017706,-1.7399272231187393,-1.910456605609614
8.026956558227539,1.1552275401322354,0.16999204074108493,1.5143818675412892,-2.4101227636782774,-1.7399335771916893,-2.0203111623053553
8.047032117843628,1.332834363632446,0.16999268115607827,1.2101193127084442,-2.5146026624526843,-1.7399484741514892,-2.208161622377502
8.067123889923096,1.4766959022452861,0.1699932204189226,0.9636666432938399,-2.599232505750201,-1.739960491743494,-2.3603205823275215
8.087206602096558,1.5380263390216982,0.16999356601066562,0.8585999789644558,-2.635311295139929,-1.7399652315602416,-2.425188411395308
8.107292175292969,1.6429013841808884,0.16999409623619793,0.6789359829612093,-2.697007069784485,-1.7399732095033325,-2.536112377687572
8.12769341468811,1.7278501448118793,0.16999474135422613,0.5334081461985796,-2.746979717951778,-1.7399789657894043,-2.6259608208168648
8.148114204406738,1.7640651359586919,0.169995095846454,0.4713673315787216,-2.768283332112646,-1.7399812437498168,-2.6642646457519668
8.168492317199707,1.8259927687059558,0.16999549891230567,0.3652775385787645,-2.804714913569029,-1.739985162785656,-2.729763992813337
8.188419818878174,1.8761541414875027,0.16999610539399498,0.2793448062487992,-2.834222012077469,-1.7399880444936902,-2.7828185921053272
8.20866322517395,1.9167848474440732,0.16999654006636192,0.20973929306152736,-2.8581240151432143,-1.739990286061401,-2.8257926554987725
8.2287437915802,1.9341063570290227,0.16999670730505423,0.18006536375537463,-2.8683142585662056,-1.7399912170449836,-2.8441131184825994
8.248830795288086,1.963726139634929,0.16999709354034181,0.12932294464185345,-2.885738408912658,-1.7399928043463475,-2.8754412062027344
8.269110441207886,1.9877181652659677,0.16999748629698566,0.08822158515990129,-2.8998509729669895,-1.7399940982424027,-2.9008170463745975
8.28937554359436,1.9979463452091866,0.1699976733286433,0.07069942664391116,-2.9058671177833695,-1.7399946544241425,-2.91163519307901
8.309402227401733,2.015436533885831,0.16999801899594133,0.04073653558156803,-2.916154350379003,-1.7399956141454838,-2.930134262165943
8.329480171203613,2.029603587752615,0.1699983227168503,0.016466593821070102,-2.9244866390558517,-1.739996401371615,-2.945118547686767
8.349546909332275,2.0410788956896435,0.16999849137132328,-0.0031920590049332193,-2.9312377699111476,-1.7399969851363108,-2.957255557225124
8.36963963508606,2.0459709983520002,0.1699985331294397,-0.011572853104439897,-2.934116692887331,-1.7399972123688565,-2.962429647344917
8.389700412750244,2.0543364956241335,0.1699986338612444,-0.025904011014596315,-2.939039089749047,-1.7399976179141639,-2.9712774083871776
8.409821033477783,2.0611125502608676,0.16999874526746528,-0.03751224892182301,-2.94302562840488,-1.7399979646956008,-2.978444168403378
8.429859399795532,2.0666011559737503,0.16999885781394483,-0.04691492162667664,-2.946254246330068,-1.7399982600237163,-2.984249303774528
8.450045824050903,2.0689410357162457,0.16999891265987324,-0.050923429464008976,-2.9476305033779675,-1.7399983905221057,-2.986724144156571
8.470075130462646,2.0710469277548094,0.169998965919138,-0.05453108651760808,-2.948869044720835,-1.7399985106353133,-2.988951512044716
8.490187644958496,2.0729422308305177,0.16999901727531666,-0.05777797786584727,-2.949983651276344,-1.7399986211071499,-2.990956153560192
8.51024866104126,2.0761831996904947,0.16999911347698707,-0.06333016207133628,-2.9518894261627198,-1.7399988158990527,-2.994384116886406
8.530374526977539,2.0775648761511443,0.16999915809776836,-0.06569714586420265,-2.9527017990824644,-1.7399989015046822,-2.995845523442813
8.550453662872314,2.0799275433273205,0.16999924019730445,-0.06974468815000415,-2.9540908103472345,-1.73999905205547,-2.998344547983736
8.57053542137146,2.0818413042065607,0.16999931293007353,-0.07302319740150336,-2.9552157489301143,-1.7399991785175941,-3.0003687791796287
8.590736389160156,2.08339145089294,0.16999937677819335,-0.07567878989521772,-2.9561268194580395,-1.7399992845567054,-3.002008423775498
8.61075758934021,2.0840523030222373,0.16999940557778637,-0.07681091090569594,-2.956515181069098,-1.7399993309232107,-3.0027074358074066
8.630851984024048,2.08518236036177,0.16999945739999697,-0.07874683783361372,-2.9571792099302585,-1.7399994121083717,-3.0039027557329456
8.650997877120972,2.0860977070238613,0.1699995021760913,-0.08031493864522711,-2.9577169969831005,-1.7399994799392098,-3.0048709751707237
8.671143770217896,2.040332613384429,0.1699996014785448,-0.08158510030263397,-2.958150618977404,-1.7399996032888443,-2.9361752467608793
8.691249370574951,1.8780002393005852,0.16999964855849178,-0.08261393124513351,-2.9585029154447167,-1.7399996477568405,-2.7211530779942943
8.71134638786316,1.787903364493663,0.16999963879157617,0.19491754816783202,-2.958654055149295,-1.7399996485718474,-2.4230956906243937
8.731389284133911,1.6261426095771205,0.16999960151473123,0.7142262916755509,-2.847639264174015,-1.739999874418183,-1.821510869555501
8.75147795677185,1.22020301859152,0.1700004710066689,1.1751232962571962,-2.76883778454462,-1.7399981542691099,-1.2276752777282312
8.771704912185669,0.553536318967218,0.17000118816587786,1.5484498699683291,-2.6305585333281623,-1.7399962036765697,-0.6598900377961796
8.791804313659668,0.22890044376314334,0.1700010899758241,1.7076079534050654,-2.4889064695156096,-1.7399964363456977,-0.3265574183558182
8.811886310577393,-0.39182551193609816,0.17000121300216395,1.9798687702980942,-2.5611056595276147,-1.739994450450398,-0.037203462311030555
8.83196234703064,-0.5261414952168922,0.1700012371935936,2.200511115252507,-2.125690961328803,-1.739992160465942,0.10063458892462007
8.852108240127563,-0.8624067918728572,0.17000135519693452,2.37980003374947,-2.21429747164508,-1.7399873272448987,-0.49024361355088825
8.872443675994873,-0.30149083327105614,0.17229598044025865,1.9623687730489001,-2.1561488678865177,-1.738988568365449,-0.8188922176120103
8.892661333084106,-0.06233762703837703,0.17206685936927085,1.7575825648066996,-2.2365339810978657,-1.7390876200597798,-1.0379177086227176
8.912667274475098,0.3466070364437994,0.1716742209173477,1.4071228983894362,-2.373992524689271,-1.7392606766420473,-1.4124250581464814
8.932795763015747,0.6778516423805855,0.17135688222905981,1.1232395476954433,-2.4853308345653575,-1.7393991344943207,-1.715774599293949
8.953007936477661,0.8190664397491642,0.1712216418392734,1.002215592925899,-2.5327954627796054,-1.739458066424049,-1.8450972876160994
8.973143577575684,1.060543771377667,0.17099005244815674,0.7952646302699782,-2.6139611438748904,-1.739559830373527,-2.0662389542773667
8.993217468261719,1.2561404965742136,0.17080135161324791,0.6276343505186823,-2.679712863645873,-1.7396445167611791,-2.245363371490834
9.013307094573975,1.4145738182212975,0.17064875777047475,0.49185382392013266,-2.7329702871736363,-1.7397124771794674,-2.390454189913943
9.03344178199768,1.4821164443822885,0.1705835830906834,0.4339684415281194,-2.7556761128955793,-1.739741478083613,-2.452308600760119
9.053461074829102,1.5976143230204207,0.1704723794908461,0.3349844376377767,-2.7945010686774694,-1.7397907615263684,-2.558079725419629
9.073543071746826,1.6911675998337716,0.1703824641212007,0.2548073944865991,-2.825947852348597,-1.739830540739678,-2.6437544088886127
9.093630075454712,1.7669457458112448,0.17030943042512103,0.1898639895341453,-2.851422835936033,-1.7398627095088968,-2.7131505817252046
9.114984512329102,1.7992511660958388,0.17027835054391943,0.16217759058073078,-2.862282640187153,-1.7398764069067774,-2.7427353064461273
9.13505244255066,1.8544934359572125,0.17022527436590115,0.11483384837039193,-2.8808520860650697,-1.7398998207852134,-2.7933252510784916
9.155142307281494,1.8992396761205452,0.17018234227730877,0.07648541718001747,-2.895892586331084,-1.7399187906496894,-2.8343031727393346
9.175216436386108,1.9354841318948093,0.17014760214079114,0.04542318791581415,-2.908074917243814,-1.7399341661245171,-2.867495335215788
9.19532322883606,1.9509357160783398,0.17013280130691869,0.032180869124232736,-2.9132682982638007,-1.7399407245057446,-2.8816456924876213
9.215394973754883,1.9773579184692078,0.17010740064191168,0.009536503990628518,-2.922151178901589,-1.7399518798837812,-2.905842517916973
9.235630512237549,1.9987598982790242,0.17008677536485142,-0.008805431767590901,-2.9293477407731823,-1.7399608780912448,-2.925441752331492
9.25558614730835,2.0160955043005147,0.17007010904819517,-0.02366239973174863,-2.935176219091228,-1.7399681884020102,-2.9413172181739204
9.277206182479858,2.0234859476268303,0.17006301601337742,-0.029996159758573768,-2.9376607556314176,-1.7399713119607485,-2.948085208237403
9.297333240509033,2.036123606946434,0.17005090562128067,-0.04082688940444475,-2.9419089277908324,-1.7399766647931905,-2.9596585185781703
9.317357301712036,2.0463601123268713,0.1700411156917408,-0.04959978041760024,-2.945349526318745,-1.7399810131283506,-2.9690329526172476
9.337465763092041,2.054651682743792,0.17003320080293036,-0.056705822138256194,-2.9481360717427765,-1.7399845452743876,-2.976626287424109
9.357532501220703,2.0613678556251456,0.1700268013344933,-0.062461715931987516,-2.9503928992832704,-1.7399874142755314,-2.982776924056397
9.377753496170044,2.0642310664404544,0.17002407679681597,-0.06491554433878877,-2.951354931356456,-1.7399886399322173,-2.985399049199216
9.397715330123901,2.0691271573776198,0.17001942372325007,-0.0691115909144189,-2.952999859076298,-1.7399907399736854,-2.989882902541579
9.41779088973999,2.073092991519304,0.1700156610693087,-0.07251038864067931,-2.9543320887942315,-1.7399924455389155,-2.9935148451543943
9.437994003295898,2.074783689388076,0.1700140590143345,-0.07395934977661138,-2.9548999867278942,-1.7399931741075207,-2.995063206640485
9.458219528198242,2.077674782999047,0.1700113227915516,-0.07643707331905522,-2.955871005272976,-1.7399944223474055,-2.997710916400389
9.483969926834106,2.078907301966469,0.17001015773483844,-0.0774933659871497,-2.9562849274202505,-1.739994955539227,-2.9988396820240424
9.524968147277832,2.078907301966469,0.17001015773483844,-0.0774933659871497,-2.9562849274202505,-1.739994955539227,-2.9988396820240424
9.545061826705933,2.0648638824775705,0.17000822061479604,-0.07929962644959125,-2.956991011037645,-1.7399959269269154,-2.9715415326636063
9.56538200378418,1.966544586511389,0.17000666891321137,-0.08076269742416892,-2.9575623931854214,-1.7399967122836115,-2.8465021757933346
9.585603713989258,1.890330891778246,0.1700059388798881,-0.08138642768175203,-2.9578081545230175,-1.739996979758346,-2.75690088742853
9.60570240020752,1.6547182911123766,0.1700049605745028,0.36371726047307507,-2.958222500306065,-1.7399975655729203,-2.2100266457620648
9.625898122787476,1.4357471703255051,0.1700040315680197,0.8912109809831907,-2.6967046860283563,-1.7399978033103745,-1.5433598477287243
9.645894050598145,0.8105225991830505,0.17000397795233937,1.3184808945963844,-2.746726347867516,-1.7399964667472303,-0.8766935279002339
9.665967464447021,0.14385603138921244,0.1700035470724566,1.664571160553496,-2.545631762438646,-1.7399961588369708,-0.21002749302941226
9.686136722564697,-0.10938409050461939,0.17000325622180193,1.8121261712938732,-2.5381677235009947,-1.7399960949724438,0.04307997251384754
9.706175327301025,-0.6175663034991439,0.1700029301298959,2.0645684978657624,-2.4315943976961147,-1.7399938873400083,0.2626297401549955
9.726258516311646,-0.573825160065636,0.17015243317387355,2.269225595444826,-2.3751795642017814,-1.7398180929302796,0.3395269085198546
9.74636721611023,-0.3074232399174899,0.1701368471223571,2.357526502280165,-2.405519254723742,-1.739823910277221,0.41544788873776106
9.766458749771118,0.14812022559742266,0.17010808874425512,2.5087674040263708,-2.233416463387846,-1.7398350122815884,-0.052868262042223196
9.78655219078064,0.5171177586258526,0.17008240621894877,2.520573508655657,-2.2056766345270473,-1.7398396582707445,-0.6147100925241815
9.806689500808716,0.8160362072862835,0.17005790264769746,2.1282983846606376,-2.2471860737876175,-1.7398242942331898,-1.069932879673921
9.826740503311157,1.0580950584828914,0.17004724855249573,1.7076714775030315,-2.3329706301225843,-1.7398544657008734,-1.4383781406877478
9.846861362457275,1.161285526435005,0.1700430772595605,1.5282043297527284,-2.395672141885635,-1.7398677690589475,-1.5954406221389474
9.866930961608887,1.337741332012616,0.17003403526640365,1.22131550709971,-2.5028975926457413,-1.7398951287780555,-1.8640164975696378
9.887342929840088,1.4806705355605336,0.17002686503990663,0.972735560750765,-2.589750666274751,-1.7399168876950812,-2.081563095158781
9.907522678375244,1.5964431881127532,0.17002108012918776,0.7713858042081196,-2.6601023935842254,-1.7399342202075827,-2.257775882816006
9.927581310272217,1.6457988982396219,0.17001855519829046,0.6855472237873077,-2.6900951999792033,-1.7399415833116725,-2.332898153185229
9.947728872299194,1.7301971331070796,0.1700145294568206,0.5387632512677192,-2.7413812665770085,-1.7399533910251221,-2.461357294355374
9.967779397964478,1.7985596910853476,0.1700112551286363,0.41986823352685254,-2.7829237836876777,-1.7399626885235195,-2.5654090989647518
9.987883806228638,1.8539333520267456,0.17000875753655287,0.32356326915675054,-2.8165721813655553,-1.7399699458239895,-2.649691077976947
10.007941961288452,1.8775400157682103,0.17000776428718087,0.2825069422410755,-2.830916389487079,-1.7399729689910282,-2.6856218481647964
10.028059005737305,1.9179074055769842,0.1700059766992725,0.21230062321527113,-2.855446530630934,-1.73997807580084,-2.747063288383945
10.048148155212402,1.9506049880145953,0.17000453374749605,0.1554335048043696,-2.8753163396282533,-1.7399821612570823,-2.796830778653365
10.068221092224121,1.9770900314864903,0.1700034753526435,0.10937113889153938,-2.891409573504088,-1.739985471361772,-2.837142556620496
10.088388204574585,1.988381024361259,0.17000305017960726,0.08973402500238543,-2.8982700392391334,-1.7399868866698809,-2.8543281347349856
10.108501195907593,2.0076886232881344,0.17000235644966505,0.0561545602519322,-2.910000975382509,-1.7399893159986932,-2.8837155184739314
10.128592014312744,2.023327779615705,0.17000182440448347,0.02895519380406509,-2.919502590150065,-1.7399912946613196,-2.907519345258172
10.14867115020752,2.0359954971722725,0.17000141317429374,0.006923706981292721,-2.927198578797371,-1.7399929063940833,-2.9268004799446556
10.168765783309937,2.0413959389027183,0.17000114910887376,-0.0024686637168365513,-2.9304816686129627,-1.7399935339683692,-2.935020048934715
10.188854455947876,2.050630696223166,0.17000073232722654,-0.018529617610637608,-2.93609511343354,-1.7399946263379873,-2.9490755866485463
10.20896863937378,2.0581108517665476,0.17000042989980577,-0.031538990264616464,-2.9406413178871422,-1.73999553199629,-2.9604606546565164
10.229020357131958,2.0641697794214466,0.17000021099795795,-0.04207658211433933,-2.9443232017078533,-1.739996282031348,-2.969682626621848
10.24946141242981,2.066752796478171,0.17000012564565772,-0.0465689239029054,-2.9458926732548445,-1.7399966070179729,-2.97361412070754
10.26964282989502,2.071169756504183,0.16999999219468634,-0.05425082836135338,-2.948576185887161,-1.739997171204737,-2.9803370117751764
10.289661169052124,2.0747474950542473,0.1699998972741963,-0.060473170972696236,-2.9507495215855997,-1.7399976373117056,-2.9857825934815376
10.30981707572937,2.0776454640194366,0.1699998306130405,-0.06551326848788395,-2.9525096744542245,-1.7399980220797295,-2.990193547178074
10.329831838607788,2.0799928194717037,0.16999978461631718,-0.069595747475186,-2.9539351974983292,-1.7399983394768002,-2.993766446130077
10.349903583526611,2.080993534354621,0.16999976754702378,-0.0713361727276674,-2.954542855348324,-1.7399984766267476,-2.9952896380054113
10.370044469833374,2.0827047571155313,0.16999974246865213,-0.0743122999094106,-2.955581842969833,-1.7399987141500843,-2.9978943104170956
10.390161752700806,2.0840908478913533,0.16999972659914853,-0.07672296292662259,-2.956423305180141,-1.7399989098023037,-3.000004110836991
10.410351753234863,2.0846817603844596,0.16999972125883814,-0.07775066663396032,-2.9567819955434036,-1.7399989942615546,-3.000903557210246
10.430585145950317,2.080841305219679,0.16999972377524775,-0.07950803997350786,-2.957395000552901,-1.7399991499824174,-2.9620646614370267
10.450908422470093,1.9140763836147345,0.16999975942969456,-0.08093151237854136,-2.9578904870998137,-1.7399992903304693,-2.7943786488398716
10.470760822296143,1.6918553289370897,0.16999989812855051,0.27851665102547496,-2.9582898766434265,-1.7399994484519332,-2.3106070970887735
10.490830421447754,1.4740859546713465,0.17000002700766428,0.8221984873306348,-2.6039985293146795,-1.7399992428866933,-1.6439403163629585
10.510953903198242,1.3665748882085174,0.17000024270379732,1.0539786385975713,-2.639597180087864,-1.7399988799404467,-1.310607044744845
10.531014680862427,1.0102130897538446,0.1700009864982875,1.4503226972640328,-2.499797468817304,-1.739996967050301,-0.8154388246318205
10.551122665405273,0.8311655596713091,0.1700012647767363,1.7713633286409762,-2.4066293437331803,-1.7399962710671746,-0.336454358631705
10.5711989402771,0.674726767646141,0.17000114712450523,2.0314512088371326,-2.4126515275905938,-1.7399959853809874,-0.055761307655992035
10.591561555862427,0.4897133814576606,0.1700012738453823,2.1424748129782754,-2.368268133998252,-1.7399937707186859,-0.07517565969870757
10.611689805984497,0.7381435140866721,0.17000133695065187,2.2318975805002657,-2.44361953045753,-1.7399876749898195,0.23291956929634466
10.63175368309021,0.9950396826599681,0.17000041599232385,1.7939110374659328,-2.5417318196705994,-1.7399618117987108,-0.2790107433547837
10.652045249938965,1.203082150863945,0.17000022196642592,1.4365379403474057,-2.6212034037206977,-1.739969486930368,-0.7977086441282091
10.67201018333435,1.2917739594671067,0.16999973322911027,1.284184146312665,-2.655084923878476,-1.7399738120153903,-1.018837494832861
10.692403316497803,1.443436946663986,0.16999912738886877,1.0236591585132588,-2.713022131186922,-1.7399805885371293,-1.39696802142644
10.712271451950073,1.566283958774358,0.1699987831625376,0.8126339183957396,-2.7599511789748044,-1.7399855347231394,-1.7032538582365366
10.732319593429565,1.665790035730153,0.16999846250979267,0.6417034739005492,-2.797964702801608,-1.739989357453467,-1.9513453629304103
10.752805233001709,1.7082110387425147,0.1699984557026433,0.5688331265104942,-2.8141696117227495,-1.7399906696032685,-2.0571107410729605
10.772904396057129,1.780750951978918,0.16999836887687877,0.4442248324735003,-2.8418809972669723,-1.7399928828152786,-2.2379694579063654
10.793077230453491,1.8395082754454353,0.16999820537080798,0.34329211430353523,-2.8643287780039284,-1.739994548468751,-2.3844648593061573
10.813099384307861,1.887101701477615,0.16999832085512764,0.2615366125858635,-2.882509126095586,-1.739995642529557,-2.5031262846481237
10.833184480667114,1.9256523719139493,0.1699983625979709,0.19531465619454946,-2.897236391113991,-1.739996447991078,-2.5992418864702236
10.853306531906128,1.94208712987426,0.16999836305276425,0.16708319057509452,-2.903515283752597,-1.739996769050939,-2.6402174287707147
10.873347759246826,1.970190567077563,0.16999845424898863,0.11880738436582655,-2.9142510771456664,-1.7399973112383065,-2.71028570458884
10.893640756607056,1.992954352646738,0.16999860070836242,0.07970398133631951,-2.922946112656359,-1.7399977560187543,-2.7670410983831273
10.913628339767456,2.002658914349698,0.16999868104281934,0.06303358320268757,-2.926652689673413,-1.7399979494465618,-2.791236844351554
10.933699131011963,2.0192537156559047,0.16999884209635402,0.03452720239417693,-2.9329905759179375,-1.7399982877462532,-2.832611607936956
10.953833818435669,2.0326955055640457,0.16999899433658175,0.011437033939283314,-2.9381239092126497,-1.7399985705189378,-2.8661252053846193
10.974130392074585,2.0435833446376326,0.16999895718167526,-0.007266002509180514,-2.9422858900391002,-1.7399986931119298,-2.893270697318912
10.994017601013184,2.052402496470097,0.16999897078113346,-0.022415462032436214,-2.9456562729662865,-1.7399988156590926,-2.915258642841365
11.01411747932434,2.0561622408458065,0.16999898955121132,-0.02887391582919259,-2.947092862014355,-1.739998875380414,-2.924632482508874
11.034210205078125,2.0625914048658993,0.16999904149217349,-0.039917871821645995,-2.94954901353381,-1.7399989896279926,-2.9406617997623843
11.05428671836853,2.067799028955781,0.16999910405085908,-0.04886347617553326,-2.9515380477685,-1.7399990952371052,-2.9536456031429115
11.074368238449097,2.0720172054533914,0.16999917029361053,-0.05610941570218193,-2.953148808342697,-1.7399991911162447,-2.9641625295525427
11.094751119613647,2.0738154810141403,0.16999920337890304,-0.05919847413196374,-2.9538353860361215,-1.7399992352895683,-2.968646076209115
11.114879369735718,2.076890532741759,0.16999926766598814,-0.06448076404689063,-2.9550092455626316,-1.739999316176452,-2.9763129655793907
11.135280847549438,2.0793813252070388,0.16999932796271355,-0.06875941887798141,-2.955959865982595,-1.7399993874838067,-2.9825231730418027
11.155179023742676,2.0766954922550753,0.16999939084502738,-0.07222512929116495,-2.95672947176497,-1.73999945809151,-2.973959662608224
11.175241947174072,1.921806535206797,0.16999948559692807,-0.07503235472584362,-2.957351529487234,-1.7399995372662014,-2.866939794779384
11.195353269577026,1.827139390474512,0.16999946429952045,0.023694090843099994,-2.9576186378242695,-1.7399995280066394,-2.6946072863914607
11.215477228164673,1.7160264512224441,0.169999490870987,0.4152931026696344,-2.741256708216517,-1.7399995965670816,-2.240447854782417
11.235547304153442,1.705707945191572,0.17000001808967496,0.9329874131624039,-2.5876800852007302,-1.7399992145104206,-1.6379604192509722
11.255620002746582,1.3840770527918584,0.17000073667520424,1.352319804661547,-2.658416774820454,-1.739997540724244,-0.9894401468603491
11.275695323944092,1.050743699362314,0.1700010465505533,1.5310878241953922,-2.688573414423105,-1.7399967189181857,-0.7057718385600762
11.295804977416992,0.4552628235726795,0.17000092792262528,1.8367989876389228,-2.5426968451478182,-1.7399967177926983,-0.03910861033839397
11.315895318984985,-0.20425448669466012,0.17000134436479247,2.084714844120971,-2.4183141408435365,-1.7399914923290698,-0.36758097373689713
11.33598017692566,0.0328146277043449,0.1700015559267037,2.285767234241789,-2.0798113450048574,-1.739986390228518,-0.380074154672974
11.356138944625854,-0.01879223691461767,0.17000163431622164,2.3716522900045476,-1.9782988761041946,-1.739984692049752,-0.6290088433759059
11.376169204711914,0.15034104675560384,0.17000029573160683,2.2026930155974873,-1.9942438886842382,-1.7399647267995695,-0.9448231325288786
11.39624834060669,0.5188809087996101,0.1700007191652852,1.7679461398133336,-2.177737549834233,-1.7399694483791457,-1.2253954026603968
11.41638994216919,0.6759930142268806,0.1700006732340824,1.582456141113319,-2.2559637948508096,-1.7399723993363214,-1.4037565184147023
11.436466455459595,0.8173936809694218,0.17000117295015024,1.415510527001987,-2.326365843377817,-1.7399737869201373,-1.5642811064425874
11.456543684005737,0.9446542881504434,0.17000141274462835,1.2652594743017882,-2.3897280049091463,-1.7399754795734392,-1.7087531344841267
11.47664761543274,1.162269902912531,0.17000197678839668,1.0083301741844484,-2.4980757751592386,-1.739977972447719,-1.9558003022068093
11.496981143951416,1.3385386638220091,0.1700011205687295,0.8002174410894032,-2.5858442368508054,-1.7399832684694108,-2.155908121929062
11.516906499862671,1.4813163533668852,0.17000043244738106,0.6316461272824166,-2.656937218445359,-1.7399873113750397,-2.317995452080657
11.537176847457886,1.5969662679284886,0.16999991617908994,0.4951033630987575,-2.714522777345993,-1.739990259155631,-2.449286150622874
11.557278633117676,1.6462696508161698,0.16999958103437338,0.43689302678888176,-2.739073735168876,-1.7399915106166481,-2.5052573509545715
11.577358484268188,1.7305784208294128,0.16999930639406668,0.3373533516989942,-2.7810534272204612,-1.739993295397818,-2.600968200307168
11.597427606582642,1.7988685189474058,0.16999926509787877,0.2567262148761853,-2.815055359184797,-1.7399945907712369,-2.6784940680392038
11.619146585464478,1.82798166144706,0.16999911158683415,0.22235359338856675,-2.8295528532112164,-1.7399951188833787,-2.711544379171818
11.639246463775635,1.8777651351810973,0.16999897767950742,0.16357641064473905,-2.8543422492740684,-1.7399959763588113,-2.7680604973263807
11.659330368041992,1.9180897503361065,0.16999897414596654,0.11596689262223861,-2.8744204842312593,-1.7399966609981425,-2.813838643191317
11.679412364959717,1.9507526902517593,0.1699990324751455,0.07740318302401328,-2.890683095965569,-1.7399972264492058,-2.8509190085756955
11.699486494064331,1.977209672977707,0.1699991171249442,0.04616657824945075,-2.903855302498627,-1.7399976959898682,-2.8809541538469166
11.719749689102173,1.9884887029048641,0.1699991632470371,0.03284992042450567,-2.909470674332701,-1.7399979001579555,-2.8937586257468886
11.739719152450562,2.007775844802926,0.16999925631617196,0.010078435543849594,-2.9190727346570506,-1.739998255963311,-2.9156542971302692
11.759790420532227,2.0233984179172353,0.16999917185749996,-0.008366467209481827,-2.9268543437000845,-1.7399984362349559,-2.9333892751814314
11.779952764511108,2.030058568538878,0.16999915298697074,-0.016229820488533643,-2.930171455967425,-1.7399985225689953,-2.940950012421134
11.800345182418823,2.0414474277677748,0.16999914680923012,-0.02967615459571225,-2.9358432144727846,-1.7399986856918452,-2.953878933317989
11.820231676101685,2.0506724055329233,0.16999916858936281,-0.04056768522252693,-2.940436793001013,-1.7399988345749948,-2.9643514260659023
