liuyurong129/humanoid-gym/humanoid/data/robot1_actual_20250621-221253.csv
timestamp,joint_1,joint_2,joint_3,joint_4,joint_5,joint_6
0.0003211498260498047,0.0,0.0,0.0,0.0,0.0,0.0
0.0204775333404541,0.0,0.0,0.0,0.0,0.0,0.0
0.04063725471496582,0.0,0.0,0.0,0.0,0.0,0.0
0.06066250801086426,0.0,0.0,0.0,0.0,0.0,0.0
0.08074259757995605,0.0,0.0,0.0,0.0,0.0,0.0
0.10092616081237793,0.0,0.0,0.0,0.0,0.0,0.0
0.12100100517272949,0.2526785974943483,-0.1768363984863544,0.1387464704210663,0.48521681070327755,0.330600001665315,0.17930532882267775
0.14205217361450195,0.6017696312851761,-0.11093749642794914,0.7089846573796921,-0.1693743833303452,0.5983859849540853,0.7169476511962973
0.1621997356414795,0.22759267435827224,-0.08284374694401997,0.6293862625064699,-0.4484369449973107,0.712547386565889,0.9461534512519454
0.18240809440612793,0.11075005620033515,-0.034803498085797635,0.7731885637858482,-0.3336345331566754,0.5597639067705363,1.3380937815664757
0.20239710807800293,0.4139480071341078,0.0041091630129212325,0.8616772706507281,-0.29984397185690725,0.47080877933137955,1.6555677756355327
0.2227330207824707,0.5086936488171897,0.02069821491521915,0.7668095435856552,-0.5658598502794079,0.5977280231722562,1.7909112240554126
0.24266934394836426,0.23331287240087245,0.04906553000127167,1.0115704289356298,-1.0207464787263203,0.8147597672199685,2.0223484503487867
0.26271915435791016,0.5860834224265146,0.07204302584438649,0.8028420474378601,-1.3892046117435735,0.9905559520079215,2.2098121910639734
0.2828083038330078,0.8718275685280495,0.0906545767512737,0.6337720584246668,-1.687655898725465,1.1329527447101402,2.361657971585187
0.3028740882873535,1.1032803310758212,0.10573025838957514,0.49682514343441286,-1.9294012779676266,1.2482917130769442,2.4846530861156637
0.32296085357666016,1.1350463521676517,0.11215684528239372,0.5616716427246996,-2.0324601707666603,1.024100671032948,2.5370873024598977
0.3430607318878174,1.1792648847604619,0.12314730163521606,0.5493301430658841,-2.2086938215920866,0.9140907225361377,2.6267514866281982
0.36313533782958984,1.2657142570693265,0.1320492187246385,0.6275143041609863,-2.3514413287774425,1.0710144913390776,2.6993787627419525
0.3839683532714844,1.330859093514694,0.13584440594888927,0.7551499200820153,-2.41229782202004,1.137912217605159,2.730341273021055
0.4039285182952881,0.5087731794376772,0.14233388725251567,0.5951419826014492,-2.2415153139383444,1.2523091056008417,2.5326731438083243
0.4239773750305176,0.8092062740136291,0.1475903515204977,0.46553500590717384,-1.4081819806050109,0.6837715557273403,2.6231752042852667
0.4440901279449463,1.052557081693278,0.1518483938543816,0.9736833547912689,-1.5999500197207652,0.8844530919766833,2.6964819728073586
0.46416449546813965,0.6358904150266114,0.15366407646411023,0.8676150193121421,-1.1832833530540985,0.9700030733655162,2.279815306140692
0.48426151275634766,0.44147123514499287,0.15676817172101679,0.6862379004470119,-0.396058834781454,1.1163003687231587,1.9777331320879878
0.5043380260467529,0.7546916986807722,0.15928203870407795,0.8620226993620796,-0.35040928572753555,1.234804023358536,2.1736747906632536
0.5246191024780273,0.8882225311472027,0.16035393454902486,1.089820429438504,-0.6113676642584531,1.2853231406976695,2.257206939197709
0.5446999073028564,0.12286027642165542,0.16218709924971902,0.8662245478451883,-0.639746363360314,1.371709436286591,1.4238736058643755
0.5647749900817871,0.4966167965621506,0.16367128925832633,0.6851118837546025,0.04420426489822993,0.7804861824262159,1.72504799203778
0.5850224494934082,0.7993596188766874,0.1648736972757921,0.9439060359871145,-0.526594996219957,0.9627938911538989,1.968999823441075
0.6049301624298096,0.33443822615282814,0.1658477900941108,0.7480340770813524,0.135858714165626,1.110462470327755,1.3677881598234924
0.625115156173706,0.5099944076062881,0.16626294126725025,0.6645306693732171,0.41827218313676906,1.1734163015007264,1.5319097383715927
0.645402193069458,0.8101954630129278,0.16697307015868532,0.7318678979555505,0.3092013311403192,1.281067372830655,1.812556427573108
0.6653389930725098,1.0533583096607737,0.16754847746880658,0.7653982475309161,-0.3119445177631557,1.3682641072789896,2.039879590439683
0.6855015754699707,1.1570224695954248,0.16779339979809332,0.6801584227778246,-0.5767517801893787,1.405438678062231,2.136792367904149
0.7056021690368652,1.3342881831022821,0.16821240360501455,0.5343983224500378,-1.0295703379538639,1.469006780420104,2.3025122904392776
0.7257359027862549,0.5479518113834693,0.16855223447514867,0.7367823522975068,-1.0201247927846835,1.5192255631165035,2.436744805603608
0.7458271980285645,0.3720211089512423,0.16882749190773755,0.5802637053100599,-1.3887004407045402,1.5611716679456948,2.5454731350478825
0.7659451961517334,0.5438189980561074,0.16894474271659712,0.5135373347790539,-1.5458303966346347,1.579054501153322,2.5918258215431775
0.7860355377197266,0.8375933884252589,0.16914524158271263,0.39943524117102813,-1.8145226212822623,1.6096341460417318,2.671088915450502
0.8063633441925049,0.8769295024772257,0.16930752055269757,0.3070125453485328,-1.6461809015582167,1.6344043171908897,2.7352919507578717
0.8262484073638916,0.9286538687418899,0.16943871392745707,0.3397695295225337,-1.5484229899827178,1.6544696108462493,2.7872965450528193
0.8463349342346191,1.044788481867701,0.1694948425347114,0.4047119443605025,-1.689580690984446,1.6630226497616243,2.8094668905475375
0.8666982650756836,1.243378670312838,0.16959082245311827,0.3112866749320014,-1.9309603596974014,1.6776483463069138,2.8473781813435024
0.8865909576416016,1.4042367229533987,0.1696685661870258,0.23561220669492114,-2.126477891354895,1.6894951605086004,2.8780863268882366
0.9067010879516602,0.8941789253617741,0.16973138485365735,0.17431588742288612,-1.2931445580215617,1.6990916004326793,2.833518763037632
0.9267852306365967,1.0137610362008405,0.16975816399127996,0.31367951428728696,-1.459830488605626,1.703182732536742,2.851066992755326
0.9468708038330078,1.2182464393226806,0.16980411283293673,0.38649610061872314,-1.744862695770557,1.710178013354761,2.881074264131814
0.9669630527496338,1.3838796138322622,0.1698411804421492,0.29653184150116046,-1.9757383825171866,1.7158448069266703,2.9053800794025326
0.9871237277984619,1.2910676932704146,0.16987127992966125,0.22366079161593994,-1.8895883317348403,1.6589707851997928,2.9250677462278873
1.0076861381530762,1.1439861306416133,0.16988409223105985,0.19259471245434595,-1.7234699838927026,1.6056103240019437,2.9334609315584452
1.0278172492980957,1.3237287658310248,0.16990612256472068,0.13947171708802023,-0.8901366505593691,1.3768426395612083,2.9478133876859314
1.0478851795196533,1.469320300323023,0.16992395927268725,0.7095720908412964,-1.2834106869744717,1.445842538076639,2.959438844032962
1.0679678916931152,0.6359869669896896,0.16993853144518017,0.55822339358145,-0.4840692422812195,1.5017317002060688,2.126105510699629
1.0880651473999023,0.7813882628547297,0.16994454041423832,0.493701054223305,-0.1396634393520878,1.5255591056602609,2.214395304136533
1.1081666946411133,1.0300244930125624,0.16995508054556632,0.6549562854699493,-0.1427273582449884,1.5663028640905294,2.365370187495089
1.128249168395996,0.7193553769884307,0.1699639913787931,0.7584141796248239,-0.6780068257811285,1.599303790596482,2.013066507838215
1.148296594619751,0.5090778797756671,0.16997103666481495,0.5977854854961074,-0.5195842329694003,1.278035204561461,1.5842267968923482
1.1695311069488525,0.6671700932506744,0.16997396247855814,0.5293069369464967,-0.17162558068852218,0.976231522502579,1.5732708091341083
1.1896641254425049,0.9375077763883126,0.1699789434273053,0.6127226035162391,-0.7014164023110763,1.1213473554651079,1.8460591508664634
1.2097415924072266,1.156481295640703,0.16998287711515822,0.4797753088481537,-0.6884917008036503,1.2388917920526945,2.0670181603763713
1.2299814224243164,1.1809080786103774,0.1699858938418132,0.3720880001670045,-0.6773171700397607,1.3341038521889865,2.2459955956072313
1.249995231628418,1.3536355462633436,0.16998854810054892,0.6763645951358077,-0.9588665544741093,1.3830809574487974,2.390966667280463
1.2701029777526855,0.9369688795966769,0.16999008197312532,0.600028135622227,-1.1589782721296313,1.4187703219491028,2.452769396524445
1.2902436256408691,0.6853447747993515,0.16999144728499455,0.46949278985400383,-0.9935835575165188,1.1318075084836487,2.55845354100398
1.3102750778198242,0.952229268746444,0.16999309480670263,0.42621405570726495,-0.910371472783987,0.9341639019453022,2.6440572232543023
1.3303587436676025,1.1684057099148246,0.16999448498781902,0.38491277896761444,-1.299800545583658,1.0872720539901086,2.7133960851763206
1.3506486415863037,1.2605651371081554,0.16999493969596605,0.337721501070853,-1.4658207672452568,1.1525457447405911,2.7429566342925047
1.3707737922668457,0.9326000364890616,0.16999570685144455,0.2570244158673909,-0.9686310868142596,1.2641637805109707,2.793505107961527
1.3908514976501465,1.1525060337060422,0.16999658190440048,0.5915205606965808,-1.0213809382511179,1.3545722615915874,2.834449092115619
1.410937786102295,1.330629887455335,0.16999723527627356,0.46260165158012295,-1.3897185463887791,1.4278035086084018,2.8676137574497687
1.4310452938079834,1.4065668987096809,0.16999751174186029,0.4076414864221106,-1.546746691761288,1.4188483764737265,2.881752381707991
1.4512536525726318,1.3568185475667107,0.16999768705170426,0.3136596040019096,-1.2891304147818297,1.422105761136344,2.9059295034512482
1.4715886116027832,1.3344824512947018,0.16999789289474884,0.5513356738948672,-0.8159211386862345,1.4630614843930692,2.925513375079764
1.4914119243621826,1.4780308284846473,0.16999876734805588,0.7124731510428307,-0.937854440795974,1.5156772623900714,2.9413750607320392
1.5114591121673584,1.5392277159490906,0.1699985530083867,0.6325258359385476,-1.1400703893756616,1.5381114273280259,2.9481379122079137
1.5316884517669678,1.6438744176490052,0.16999807026181865,0.4958159271102236,-1.4858588153542835,1.3762300660156679,2.959702138616438
1.551802635192871,1.155172068683082,0.16999788732025797,0.3850809009592811,-0.8964280709456671,1.2295179701316448,2.6431254510630424
1.57183837890625,1.332789365251036,0.1699982299260065,0.2953854244235668,-0.163707169620809,0.9943801604524849,2.712641318302258
1.5919036865234375,1.4766593781781832,0.1699986381434365,0.8358621237445395,-0.6950021167931013,1.1360475014463374,2.7689485260282507
1.6120021343231201,1.0599927115115164,0.1699988962497675,0.7435759113700856,-0.4074204538304982,1.1964419412961584,2.352281859361584
1.6320784091949463,0.7879934401449755,0.16999912178658427,0.5857664882097693,0.16226210733586982,1.299717738081076,2.042954045144813
1.6521456241607666,1.0353746880233077,0.16999929965905528,0.7806408554499131,0.10183243027091288,1.3833710627249198,2.226502670796626
1.672450065612793,1.140837209792203,0.16999957508994806,1.016576769904922,-0.20434910401856782,1.4190335495494542,2.3047517097486283
1.6925501823425293,0.3377535149556168,0.17000036728352852,0.8068971836229867,-0.5446344202669281,1.4800141608448714,1.4714183764152948
1.7126455307006836,0.6706803282503917,0.17000016396401918,0.6370567187346192,0.1212455366329922,0.8682122000818605,1.4991969308819002
1.7327053546905518,0.9403510851701473,0.17000007582563675,0.7292652840550433,-0.4641917391841758,1.0338519148745322,1.786060714196958
1.752793312072754,1.0553159899616131,0.17000004866062363,0.6476389759248612,-0.2032627443276478,1.1044668134300357,1.882562000933785
1.772939920425415,1.1353501912506645,0.1700000504764364,0.5080575704991377,-0.18494608993895897,1.225218264316599,2.073371066584739
1.7929487228393555,1.2118334554847183,0.16999997731914718,0.44303256454793294,-0.21231556981854197,1.323026972448113,2.2511405265219033
1.8130102157592773,1.3786851001539868,0.1699999738814506,0.7082588379781387,-0.3514099381289575,1.40225172715916,2.3951338587543414
1.8332014083862305,1.4498166018808145,0.17000021707556756,0.9514329541803249,-0.6122671031235802,1.4360255225031375,2.456519739774699
1.8532757759094238,1.5714514435470655,0.17000016043932809,0.7541306928860632,-1.0583361923757295,1.4937808889536002,2.5614908568095127
1.8733489513397217,1.6699756184376173,0.16999939204182132,0.5943158612377112,-1.4196543809837665,1.5405669438086609,2.646518105354405
1.8935432434082031,0.8366422851042838,0.16999933765479003,0.7567316685158609,-0.6086012320979204,0.9172600944150753,2.715389452619782
1.9135422706604004,0.8740280169498595,0.16999938554161936,0.6723586696436116,-0.8437411088881284,0.9995341645898239,2.7447511040773596
1.9336178302764893,1.0259076395193367,0.1699993606248638,0.5280803199391187,-1.245831036345949,1.1402240319401844,2.7949582807089635
1.9537107944488525,1.1438069030464353,0.169998762524944,0.41121505915068624,-1.171801285775589,1.2541876219855175,2.835626936865314
1.9738199710845947,1.2477331342079907,0.16999885293930445,0.3755010490245311,-1.1518087448834922,1.3464933330415305,2.8685677486216954
1.993945598602295,1.3319598169079465,0.16999872534822824,0.3881979636514206,-1.332628843672175,1.385845801558575,2.88261134619362
2.01406192779541,1.4759874524167906,0.16999890620358116,0.2979103505576507,-1.6418291971693135,1.4531355550930942,2.9066251234311893
2.0341458320617676,1.5926498352098974,0.16999894821252529,0.28611504035905333,-1.892281482379186,1.2674226591556166,2.926076283344946
2.0542120933532715,1.4971624992095363,0.16999919586671966,0.2152231826908332,-2.0951480714076114,1.3572119325806593,2.941831827519704
2.0743539333343506,1.5526137781611145,0.16999930646294054,0.40185516462393833,-1.9816093643097494,0.8677703311585976,2.9545936975246594
2.094437599182129,1.1359471114944477,0.1699994599311876,0.3529696481615445,-2.0794487564683295,0.9549924346598658,2.9600345639994585
2.114532947540283,0.8563523981776667,0.16999958124638886,0.26937541501085105,-1.7508368366572815,1.0513631997729131,2.9693380944941907
2.134610414505005,1.0907454419946563,0.16999960671947612,0.5243640804459597,-1.4967533250451301,1.1347022556800725,2.9768739631167342
2.1548678874969482,0.7740042355741141,0.1700002664846819,0.6986349051612274,-1.2264110031610773,1.2497038588002738,2.5634197348336745
2.1750664710998535,0.3826038218524827,0.17000046467555738,0.6200714146451046,-0.8097443364944106,1.298731742868074,2.146753068167008
2.1951215267181396,0.7070090810735429,0.17000009187763462,0.4857278458625347,-0.09349496842210347,1.3825742993733692,2.3105808947318027
2.215179204940796,0.9697773635232341,0.17000016461241152,0.9900395551486532,-0.6381304771676495,1.4504846527177377,2.443280371023548
2.2352890968322754,0.18891972332598933,0.17000077440615338,0.7854020396704091,-0.3686312655049575,1.505489349646894,1.6099470376902147
2.2553980350494385,0.379027735654901,0.17000046704167007,0.6981618357033682,-0.03576973002226158,1.2002592373204561,1.74985283356998
2.275486707687378,0.7041124478864944,0.17000043797095624,0.8716810123163061,-0.058572790489828275,1.0069959474453498,1.9890899075288178
2.295560121536255,0.4444310767111299,0.17000054519469138,0.9799616199762079,-0.017842651127027043,1.1462659010688065,1.6744138449830668
2.315615653991699,0.28638917236784656,0.1700005011308926,0.7772389121807284,0.5479478167063612,1.2590749891777804,1.4328728641748751
2.336725950241089,0.4667502379934382,0.17000060602125303,0.6908150209626556,0.7891542807683859,1.3071677007158757,1.5904850127311663
2.3568150997161865,0.7751676958167133,0.17000047632765178,0.679212386394462,0.07681505842260389,1.3894054751702105,1.8600028140994
2.376986503601074,1.024985825116344,0.17000025767073737,0.5336320329795143,-0.5001809641981079,1.4560189982527871,2.078312704068535
2.3969860076904297,0.46346754537235,0.1700004065971606,0.8387110510034151,-0.9675459899086034,1.509974166903134,2.2551431696651623
2.417041778564453,0.6261208321310775,0.17000078561403495,0.7461399459030736,-1.1667899043691135,1.5329743928837671,2.3305284532758814
2.4371161460876465,0.9042578431147953,0.1700001502048739,0.5878433561814898,-1.507500965005566,1.5723120861050064,2.4594382821676315
2.457355499267578,1.1295488497602046,0.1699995927198893,0.45962311850700677,-1.7834757761325317,1.6041759393225148,2.5638549852073256
2.4773318767547607,1.312034568908522,0.16999941262986343,0.3557647259906755,-2.007014908329044,1.629983973051138,2.648432450237452
2.497382879257202,1.3898311113831041,0.16999939973312458,0.3114882533916079,-2.1023131447242194,1.6409859297129232,2.6844891488807954
2.5174872875213623,0.822181845142791,0.16999950691647647,0.5093993892656046,-2.2652735520427627,1.2066518767613275,2.746146340737495
2.537571430206299,0.49219548922360046,0.16999972494951,0.396083375439698,-2.397272113392652,0.9940676301156781,2.796089229857999
2.557708263397217,0.7957783481973361,0.1699997757620179,0.30429753463698933,-2.504190411848048,1.1357947793418401,2.836542280505836
2.578097343444824,1.041680471199265,0.16999982848708706,0.22995089882622238,-2.590794233596919,1.2505937101469662,2.869309686264402
2.5979301929473877,1.0090653031289158,0.16999988203755492,0.19825580894360015,-2.534307593217504,1.2995341324640535,2.8832789301132493
2.6183183193206787,1.0108095355703892,0.16999977634935703,0.14405720524431612,-2.4928259322837625,1.3832233774400988,2.907165264252817
2.638230085372925,1.143917869070164,0.1699997605293389,0.4132921615957964,-2.5471228789060243,1.4510112439025615,2.9265135615586955
2.65830397605896,0.8218594115965026,0.17000022775315643,0.6000588937057055,-2.6255725419374434,1.5059170566638809,2.9421870147179083
2.678445339202881,0.4256734471929119,0.17000057256993942,0.531353004335135,-2.65901789328408,1.529323700903979,2.9488691152254685
2.6985392570495605,0.7418954944057882,0.17000030094591062,0.4138659335114594,-1.8256845599507467,1.2645138793089923,2.9602937249929644
2.7185981273651123,0.9980353450476238,0.17000023227535266,0.9318314061442823,-2.041204533372494,1.354856501389367,2.9695479277337085
2.7388064861297607,0.21180861572778809,0.17000078140292868,0.7382534389768686,-1.2078712000391607,1.428029770128402,2.1362145944003754
2.758833885192871,0.39962778533902005,0.1700012271565586,0.6557280950791817,-0.791204533372494,1.459223341900562,2.2234927457908706
2.7789371013641357,0.7207984840084651,0.1700006553288693,0.8373097570141372,-0.670478001666994,1.512572535713491,2.3727398728064903
2.7989895343780518,0.45794685174060223,0.17000127626322842,0.9521209031814512,-0.8027571481118212,1.5557799410130035,2.0196986878634617
2.819047212600708,0.29733696900075823,0.17000119241345069,0.7546879315769753,-0.34817857032830096,1.2427808941260168,1.7436291104989823
2.839165449142456,0.4766032773185007,0.1700012512973155,0.6705191384192778,-0.017359354525232795,0.9445019605938624,1.8701654881096998
2.8592255115509033,0.7831486542128538,0.17000107129059572,1.074407795553758,-0.5764607852433147,1.0956461678213973,2.0865438631171576
2.8794140815734863,0.037750408964858984,0.1700011673526127,0.853740314398544,0.09546860887089992,1.2180718664101307,1.253210529783824
2.8994295597076416,0.4276778203449886,0.17000103234392167,0.6749996546628207,0.6397303581401216,1.3172384330944993,1.586810209010801
2.919516086578369,0.5939100463572033,0.17000084854835665,0.6530904177178857,0.2797566730624062,1.3595143731228585,1.7290294497591947
2.939605712890625,0.878167126006387,0.170000981302596,0.5613348940206998,-0.3357943342835817,1.4318063550548739,1.9722227309707312
2.959676504135132,0.7297808457141519,0.17000039772226166,0.6458075153011761,-0.834396688839659,1.4903649242632346,2.1692115504655787
2.980107307434082,0.6474514893029903,0.17000106978077398,0.6934647134239209,-1.2382582086686644,1.5377913636777805,2.3287705077085454
3.0002200603485107,0.7917063276951949,0.1700007426929775,0.6154182420815288,-1.4104328880427994,1.5580135227674883,2.3967935559836144
3.020263195037842,1.0383821167738243,0.17000023805053213,0.4819587760860383,-1.7048510124129144,1.592593132754888,2.5131128315147255
3.0404582023620605,1.238189514901479,0.1699998632873833,0.37385660862969106,-1.9433289473194566,1.6206023779051304,2.6073313199252883
3.0604889392852783,1.4000335057486821,0.1699997613074561,0.2862938529900497,-2.1364959752058357,1.6432885691002568,2.6836482699337014
3.08058762550354,1.0455689452970456,0.16999970396851036,0.2606329870583224,-2.2188459024363603,1.528293352363639,2.7161833274306453
3.100675582885742,0.8585568723823651,0.16999994988211153,0.205084386947791,-2.359666519621865,1.1083165708431737,2.7718189482739684
3.120776891708374,1.0886260627099162,0.16999999753339948,0.1495883534277107,-2.4737302293275265,0.9151361133864505,2.8168835542926867
3.1408629417419434,1.2788871115903797,0.169999998967863,0.10463656627644567,-2.10569008082604,1.0718602697067188,2.8533856946286225
3.160926103591919,1.3599984006337702,0.16999993247769346,0.08547290964880111,-1.7081059747873082,1.1386749184876703,2.8689468367471536
3.183375835418701,1.4986987045077818,0.16999976294014538,0.6130141418298722,-1.4318485306211084,1.2529287925571868,2.895556682761886
3.2035746574401855,1.082032037841115,0.17000007981287257,0.543012727646885,-1.0151818639544417,1.3016335674592168,2.4788900160952196
3.2290689945220947,0.8078288302746068,0.16999975383497268,0.4233103093939769,-0.2598989990853652,1.3849252929078264,2.1569013200658356
3.2490930557250977,1.0514413507842473,0.16999963171163213,0.6490513506091213,-0.2401201639860452,1.4523898273529716,2.3188008791546153
3.26918888092041,0.7386305537562943,0.17000022107083626,0.7996315939933882,-0.6892767448426012,1.5070334597429378,1.9711536799937066
3.289341688156128,0.5246907770074479,0.17000044702890924,0.6311715911346444,-0.4678571300573723,1.2032957663005965,1.6854179560060663
3.3093409538269043,0.6812217142121852,0.1700003941616153,0.5593546066056175,-0.12507141705163494,0.908966254902011,1.8032561395503504
3.329460620880127,0.948889589217521,0.17000038825866834,0.8966614636808725,-0.663707406473379,1.06686217884499,2.0323471925618444
3.349684953689575,0.5180068815996998,0.17000043240357188,0.7097660896199707,0.02479817859070904,1.1947577773696247,1.199013859228511
3.3696415424346924,0.8166855741624865,0.17000029561358165,0.5583805325921762,0.5824860502163868,1.2983540750030849,1.5429115189012692
3.3899779319763184,1.0586153138150054,0.17000025602453375,1.0488882313996626,-0.09058628106803407,1.3822662989623122,1.8214683327565622
3.410076379776001,0.6419486471483387,0.17000052101083307,0.9352994082596964,-0.37752583513460314,1.418038631787341,1.9402206974757603
3.430166721343994,0.39131674080445095,0.17000047041274366,0.7803403889135443,-0.27619549828913714,1.1514694649027708,2.056745841828453
3.450228214263916,0.6645110808546445,0.17000046752523035,0.6508958869606309,-0.25331770327612796,0.9683223043382849,2.1597858602461297
3.470278263092041,0.8070599728963159,0.1700003607678213,0.5771062982645678,-0.5239865161290033,1.0454903267335085,2.2447076744513788
3.490408182144165,1.0508185625462476,0.17000033399465647,0.450925781524284,-0.9868290780644926,1.1774470115448081,2.38992210425038
3.510484457015991,0.6153315799147051,0.17000036624106019,0.5978153825788136,-1.1933274561115983,1.284331338428132,2.5075467795238557
3.5305676460266113,0.8583135009506245,0.17000039420411234,0.467700459888839,-1.5289947153199441,1.3709076491466243,2.6028226436577637
3.5506420135498047,1.0923339330026416,0.1699999680485184,0.3623073725099596,-1.8008858184135335,1.4410378538011852,2.6799963648857803
3.5707345008850098,1.1384327940274623,0.16999970300898748,0.31737663525896365,-1.9167967835776902,1.47093600025209,2.7128965822555084
3.5911736488342285,1.2709295864655312,0.16999940525810833,0.33443706946523233,-2.115004040395477,1.3493827269010792,2.769155814474699
3.611027479171753,1.3093721271707806,0.16999955454054197,0.3388669675493768,-2.2755535932343,1.2681896332320421,2.8147259890173753
3.6311826705932617,1.3522286736665974,0.16999948183945493,0.304364379625983,-2.1861736402459986,1.1438602235527808,2.85163754258306
3.651287794113159,1.4260058074141866,0.16999944523135432,0.31164007757437256,-2.044132078552775,0.9895004737582273,2.867373496014747
3.6713669300079346,1.029457240843492,0.16999955318507934,0.23589844777469002,-2.2181469836277476,1.1320953621313086,2.8942826412899225
3.6914572715759277,1.2309603740493593,0.16999937703665924,0.40438990551366694,-1.3848136502944142,0.7845898912439248,2.916078942015866
3.7115228176116943,1.3941779016106186,0.16999970083296578,0.9241558234660703,-1.6840993880269122,0.9661161110834592,2.9337342053300772
3.7316198348999023,0.9775112349439519,0.17000006864191947,0.8230402411194633,-1.2674327213602454,1.0435015340773794,2.5170675386634107
3.7516961097717285,0.7181841060842398,0.17000036506299962,0.6501325953067653,-0.4696901118561325,1.1758334768065708,2.1912611770706163
3.7718539237976074,0.9788291224546426,0.17000014004963768,0.8327774021984798,-0.4100503777999466,1.2830257862445706,2.346632308280582
3.791914939880371,1.0899462186497741,0.170000326728612,1.0634996619786319,-0.6650439832749534,1.3287222020698113,2.412868400670443
3.8120036125183105,0.29195160856443697,0.1700008875658625,0.8449047262026919,-0.23742590098605407,1.4068616246881427,1.5795350673371096
3.832089900970459,0.6335807923604596,0.17000059239025778,0.6678428282241804,0.370084278600598,1.1079972028234308,1.8511336209865719
3.8521947860717773,0.9103004425037926,0.17000049234906062,1.137552690861586,-0.2626318328542434,1.2280773491748158,2.0711282932060153
3.8722422122955322,0.14074335458351506,0.17000082664074725,0.9048876795978846,-0.09267558877065295,1.325340837990283,1.2377949598726818
3.8923516273498535,0.3356690214772156,0.1700005913682337,0.8056989116380961,0.2125908633294531,1.145359626928602,1.376581072911982
3.912473678588867,0.6689918712983371,0.17000052039340913,0.9587859913127865,0.14259926353946917,1.0590384697345132,1.6522381501012224
3.9326672554016113,0.4159833991292262,0.17000069834057674,1.0505166529633572,0.14510728352818808,1.1884202965067965,1.3712470159448196
3.9526302814483643,0.060385044907705576,0.17000079992318193,0.9367649876670214,0.4265977433741789,1.243577859294717,0.9545803492781528
3.9728035926818848,0.4460118739399753,0.1700007452450489,0.7422496400102874,0.907944796831345,1.3378984449092652,1.3449199002578718
3.992945671081543,0.7583695865261693,0.17000082721558632,1.1978222084083328,0.17303685289030468,1.414296832981732,1.6610945073723673
4.012960195541382,0.017679312946277947,0.17000146572926195,0.9537059888107494,0.15113277537122968,1.4761782496005997,0.8277611740390338
4.033032655715942,0.41142025739498767,0.17000094329858267,0.755971850936707,-0.0036743295203550824,0.9215193467459324,1.242196866073177
4.053170919418335,0.5792782284519957,0.17000091845709975,0.6716746658430364,-0.2993062166869881,1.0033672624831715,1.4188766986832368
4.07349419593811,0.8663153560780356,0.17000070160259106,0.5275263182069542,-0.8048385904102693,1.1433276850865277,1.7209999274683676
4.093487501144409,0.9587868949857818,0.17000044265258826,0.5061852214489083,-1.2143199873352681,1.2566965380828283,1.9657198901717146
4.113555431365967,0.8417893675647191,0.17000080401188525,0.4793571779589353,-1.5459982102040748,1.348520692780999,2.1639426946069005
4.134234666824341,0.7607080775395471,0.1700002838938173,0.42272146016304174,-1.6873985919196197,1.3876720203763901,2.2484484839033567
4.154370069503784,1.0132735444503065,0.16999979907092264,0.3454746932166818,-1.9291921793361024,1.0240987238463983,2.3929529270315824
4.174427032470703,1.2178515718199563,0.16999976374826878,0.2633045015055122,-2.1250452816661483,1.1601206080105095,2.5100016551209747
4.19451904296875,1.1556919061197688,0.1699997311411312,0.3583877844830056,-2.283686394569202,0.9602089834591724,2.6048106833287297
4.2148191928863525,0.9777593694001929,0.16999977726543222,0.27376410543123453,-2.4121858902354893,1.1083692824836202,2.6816066141005637
4.234807968139648,1.0889834406070225,0.16999982102612324,0.5243908292944741,-2.4669673012119406,1.171532254766305,2.714346623835373
4.255053281784058,0.7724184233821789,0.17000006704242884,0.6662596726674962,-2.560644874569815,1.2795397407558367,2.770331075481171
4.275008916854858,0.5520589062627225,0.17000036944044822,0.523140334860672,-2.183914835749323,1.2069135759578091,2.815679173095896
4.29505181312561,0.8442677190746862,0.17000001738959283,0.7299136712371443,-1.8865231196961416,1.164101773055194,2.8524097298466273
4.315364599227905,0.9688409399645826,0.17000034969186997,0.97092230411343,-1.9938714325015596,1.2216888842788125,2.8680691167913555
4.335451602935791,0.18816114852800303,0.1700012906435737,0.7699170663318782,-1.1605380991682261,1.3201605927020075,2.0347357834580224
4.355545520782471,0.5495105421490244,0.17000128981813095,0.6071028237288213,-0.37763563635285763,1.3999281857410286,2.219845879493475
4.375639915466309,0.8422035603809878,0.17000121817025524,1.0883532872203454,-0.8682842967948445,1.4645407830204964,2.369784977602753
4.3959574699401855,0.0855849658069121,0.17000178132926183,0.8650361626484797,-0.6730699073916339,1.516873760786128,1.5364516442694196
4.415984153747559,0.2860264473127846,0.17000139709219556,0.7698325463836317,-0.30976395290542985,1.1911874183327211,1.6837067832633894
4.435957908630371,0.6287814262197475,0.17000118507919376,0.8933138847036153,-0.2805085414312532,0.9822613944621101,1.9355124399628287
4.45636773109436,0.38341295164936295,0.17000126862746803,0.9647058165295145,-0.19760997227242416,1.1262300505313647,1.6261938976058137
4.476293563842773,0.031071652208653933,0.17000130190563711,0.859535234876563,0.11815216371044701,1.187606383389923,1.209527230939147
4.496378660202026,0.4222680372737714,0.1700010386735231,0.679693540250016,0.6581031494765696,1.2925613708039505,1.5514271559181412
4.516482591629028,0.7391371071737375,0.17000091528557942,0.6946668204217651,-0.029335682032463894,1.3775744532864,1.8283656660209908
4.53654670715332,0.9958010462120296,0.1700006492854665,0.5461501245416297,-0.5861626441677059,1.4464358603033913,2.0526864425046716
4.556627035140991,0.4898415795324934,0.17000062485851825,0.8219233055334136,-1.037191623405942,1.5022123878288731,2.2343860292954747
4.576798439025879,0.6498574456173876,0.1700008282438316,0.7310309749800723,-1.2294716118112554,1.5259896123396908,2.3118471996785273
4.596868276596069,0.9234844975391754,0.169999916552391,0.5756050897338585,-1.558273278218529,1.5666560934724583,2.4443064713920224
4.616919040679932,1.1451224422133415,0.1699994472146455,0.44971012268442534,-1.8246011795128756,1.599594353440464,2.5515981927175244
4.637038230895996,1.3246491788467667,0.16999926636954915,0.3477351993743846,-2.0403263081039684,1.5524517100564383,2.638504412810674
4.6584792137146,1.4011842599294277,0.16999921309034718,0.3042616794369461,-2.13229316303328,1.4973859346782483,2.6755538394908855
4.678513526916504,0.7702864130311653,0.16999927871157844,0.22992196034392634,-2.2895571039981633,1.2268398273033023,2.738908546805108
4.6985814571380615,1.0210319943881268,0.16999947690769476,0.16970686255309442,-2.416941793824118,0.663139792409861,2.790225768537361
4.732331991195679,1.0210319943881268,0.16999947690769476,0.16970686255309442,-2.416941793824118,0.663139792409861,2.790225768537361
4.75764012336731,1.0210319943881268,0.16999947690769476,0.16970686255309442,-2.416941793824118,0.663139792409861,2.790225768537361
4.77774715423584,1.2241359131271021,0.16999958036050877,0.12093248893213293,-2.5201228588962383,0.867743163977535,2.83179344676287
4.797818660736084,1.388650088134469,0.169999697769137,0.08142520907092288,-1.9811717384050564,1.0334716385602076,2.865463553505917
4.818212985992432,1.5219065689667068,0.16999970672959322,0.3271080325182816,-2.167148952162293,1.1677123853480014,2.8927350538633103
4.83812952041626,1.10523990230004,0.16999970467910425,0.2856973768824569,-2.2464340569460637,1.2249412091800937,2.89078938176182
4.8581862449646,0.8287159126807098,0.16999989621794812,0.21488487527479008,-1.9011245894007887,0.9748013761647288,2.901035295529643
4.8782570362091064,1.068359889127137,0.16999990417400387,0.35474260285441594,-1.6320121527399538,0.8069892799559041,2.921548605292798
4.898345708847046,0.99911891144904,0.17000054898238026,0.44830577680572925,-1.7611319607988345,0.9842545916739517,2.563108800019707
4.9185168743133545,0.9693689891533278,0.1699998472109076,0.34659767921264073,-1.3411532526631496,1.127851968956485,2.1333584783147197
4.938619375228882,1.081432088774959,0.16999975394037628,0.30323791129137667,-0.9244865859964828,1.1890677662694389,2.044004075756517
4.958714962005615,1.2730599959957527,0.16999983331629606,0.8422227081460151,-1.3112343775733928,1.293744650957591,2.2273534523607896
4.978830337524414,0.45675401223440026,0.1700003535044672,0.6656703935982722,-0.9295639467949297,1.3785296841753343,1.3940201190274562
4.998870372772217,0.7670707239255024,0.1699998744769742,0.5226630188146004,-0.19054920547414955,1.2785994776983958,1.7008673006145583
5.01913595199585,0.899363650054335,0.16999978490333567,0.7843967169331404,-0.4674953418856591,1.324739844591589,1.8316810951286318
5.039100170135498,0.6025846050790786,0.17000048162262366,0.9092613407158437,-0.7305955792787882,1.4036356672178325,1.5327455444619515
5.0591912269592285,0.41449352796771444,0.17000037264563453,0.7199716859798334,-0.3727575526865893,1.1195449741096493,1.3053714388446875
5.079267501831055,0.7328397466316248,0.1700004190405342,0.8228275331646222,-0.33153263716996456,0.9242308268210364,1.6290596419909626
5.099388122558594,0.8685557836124449,0.17000036778251912,0.9880254900611364,-0.5943793734529681,1.0058077939745584,1.7670542821670772
5.119470596313477,0.10693019115897617,0.1700003912399969,0.783770951006378,0.08095363827366436,1.1453038920701748,0.9337209488337437
5.139563798904419,0.4837134538347091,0.17000029459320504,0.6183244703151661,0.6279722878188958,1.25829641269899,1.3280241088435516
5.1596457958221436,0.7889079029801642,0.17000019612126926,0.7016047888526997,-0.05374278310446928,1.349819677881675,1.6474096840874206
5.179791688919067,0.9190171118024995,0.17000026363983553,0.6227443099674297,-0.3443677343823301,1.388837481231473,1.7835683768891424
5.1998279094696045,0.7592857400298432,0.1699999569881814,0.6905495284561254,-0.8413398406172083,1.4555595988622216,2.016401133369961
5.2199578285217285,0.6681251947409885,0.1700004550524036,0.7252060916937181,-1.2438833446941828,1.509600398169475,2.204994332843067
5.240251541137695,0.9382813744806909,0.1699995705674899,0.5708869342719116,-1.5699467945177732,1.5533812029304948,2.3577556685419974
5.260236740112305,1.0534532355364656,0.16999944598946,0.5050982408447204,-1.7089521594263384,1.5720441167650447,2.422880102237597
5.280303001403809,1.2503971224605814,0.16999904055047166,0.39259957508422355,-1.9466506772368175,1.6039588153081277,2.5342427626814046
5.30067253112793,1.4099216640690275,0.16999913368590847,0.5473628840973349,-2.1391868842625206,1.2126650823841079,2.6244467278934294
5.320577383041382,1.1510596191094322,0.1699993087041266,0.42683393611884124,-2.2951413380511188,1.3128585967786832,2.697511848251987
5.3414857387542725,1.2449536601977726,0.16999924668419242,0.4735223131273032,-1.878474671384452,1.031545750845182,2.7286603239746334
5.361539840698242,1.405512461525851,0.1699988210803959,0.5744032570008447,-1.6116278520019671,0.8745329617487191,2.781925148423572
5.38164758682251,1.5355650920321042,0.16999983205321129,0.5559406689991602,-1.8678191364970465,1.0389640370506397,2.825069795936618
5.401970386505127,1.5910085859206702,0.16999964485970054,0.49164660209924416,-1.9770367868945495,1.1090694899346687,2.8434625360202537
5.422050476074219,1.0352198619163233,0.1699996676730744,0.5711145117079561,-1.1972929834691377,1.2289466956609356,2.8749142213746044
5.442158222198486,1.235628093653194,0.16999977133606672,0.4460727544834444,-1.5322068880751483,1.3260465062325992,2.900390288518709
5.46222710609436,1.3979587529474475,0.16999940673478522,0.3447889311315899,-1.8034876862649825,1.404700877384426,2.921026163382687
5.483023405075073,1.5294465869805647,0.16999911944478635,0.2627490342165878,-2.0232241352597264,1.468410638425129,2.937740886217939
5.502596378326416,1.1509961651426943,0.16999895970885504,0.2948065561508403,-2.0292289080132506,1.4955711897366957,2.944866435553235
5.522674083709717,0.8466945941719635,0.16999955076584555,0.28259249330250075,-2.1271725867819953,1.1940105398654455,2.957052444727276
5.542803525924683,1.0004312099765955,0.16999966408264075,0.2123699195750256,-2.285409986499955,0.9845482714569211,2.9669226044002284
5.562861204147339,1.207449279530349,0.16999978039624344,0.15548963485577075,-2.0753378253789876,1.128083657820828,2.9749176200905953
5.5842859745025635,1.2957043514480535,0.16999975888900595,0.13124067137019366,-1.8255590126648404,1.189275699805614,2.978325708916733
5.6041929721832275,1.341073847893574,0.1699996902635836,0.38198073769604146,-2.041102514950919,1.293914465819772,2.9841536588577067
5.624283075332642,0.5179664620922306,0.1699996212578123,0.2928743975337936,-1.2077691816175857,1.3786717652493037,2.1508203255243736
5.6443891525268555,0.81665282918108,0.16999963143059568,0.2206981554962269,-0.415992263455827,0.7861246210708827,2.3138740767656985
5.664438962936401,1.0585887929024962,0.16999976525795996,0.7500217553581967,-0.8993531775966553,0.9673604380528245,2.445947217068589
5.68457293510437,0.6419221262358294,0.16999975349737348,0.666319825691807,-0.6388711851085962,1.04462448505357,2.0292805504019227
5.704713821411133,0.44635691255262544,0.1699998860146782,0.52318890861224,-0.0679931142264919,1.1767452689017954,1.7522519336476128
5.724738836288452,0.7586491006218476,0.16999982571508443,0.7299530159759144,-0.08467538331219637,1.2837636677080448,1.9910345892676864
5.744867324829102,0.8917841897498971,0.16999991892166458,0.970957714378323,-0.3722071876967377,1.3293870770070075,2.092830807024178
5.7649641036987305,0.12574521590256138,0.17000034240999196,0.7699457486464417,-0.6042481169682635,1.4074015175075005,1.2594974736908444
5.785048484802246,0.49895361031018365,0.1700001624954811,0.6071260564036178,0.07295854679619918,0.8093959247751971,1.3952664480551822
5.805089235305786,0.8012524111246132,0.17000018606593065,0.6034144532343697,-0.5033029267019189,0.9862104878159788,1.7018747597543893
5.825211763381958,0.9301271718132824,0.17000023554329374,0.5343730079109328,-0.40588479748874357,1.0615890204499858,1.8325868876541715
5.84525728225708,0.9526301062446875,0.1700001115208459,0.4163122415849808,-0.5823888987556062,1.190487534303223,2.056106305711573
5.865357160568237,0.9658144740206337,0.1700000264699337,0.5200458293526082,-0.7673682644184299,0.9468953708229506,2.237156114410306
5.885422229766846,0.6851354958509606,0.1700000752465673,0.5841340594243966,-0.9438768489961523,0.7843847193164594,2.383806661093983
5.905534505844116,0.3536949601426317,0.16999999286847442,0.5170206534819569,-1.1454896374880499,0.8799469363966683,2.446326349548183
5.925682783126831,0.6835929120329716,0.16999984453883765,0.4022567293203851,-0.8041727189632106,0.9114144760450199,2.5532349054397376
5.946049690246582,0.950810260082597,0.16999988703013802,0.3092979507495119,-1.2137796789569713,1.0688456531008903,2.6398301048123822
5.965905666351318,1.167256307779869,0.1699995716885518,0.23400134010710463,-1.5455624020928243,1.1963681453148047,2.7099728571263553
5.986027240753174,0.9053178000277838,0.16999953427127523,0.33963778761266006,-1.4067972007010021,1.2507320673592,2.7398755969565034
6.006086826324463,0.733018255575586,0.17000000981645672,0.3825395313308939,-1.4497168073457987,1.3436897675716675,2.7910088865982985
6.02616810798645,0.9201069637378892,0.1699995674674125,0.2933270203780241,-1.7366708183001105,1.4189921374091636,2.832427260789152
6.046626091003418,1.0370962661699434,0.16999947958100942,0.2552943183402217,-1.859003574504675,1.4510939076055855,2.850084477643089
6.066718578338623,0.9505348421151503,0.1699994270234749,0.19025839785557958,-1.1223927041043584,1.5059870065267602,2.880278281996475
6.086801767349243,1.1670332279978641,0.16999976156007113,0.594618421296833,-1.1704656402565798,1.5504481225906115,2.904735235063942
6.106884717941284,1.3423969207520872,0.16999986295725494,0.46511092125043463,-1.5104768638122825,1.5864626755911004,2.924545471483323
6.126992225646973,1.484441503001671,0.1699996047647848,0.36020984621285207,-1.7858863796113664,1.61563648769376,2.940591839150859
6.147054672241211,1.249306413787942,0.169999582492156,0.31548886159156686,-1.7247794903802471,1.6280731739504393,2.9474326302021656
6.1671295166015625,1.1429163464344583,0.16999939881646475,0.23901597788916917,-1.253116535443564,1.4129792517415796,2.959130413038559
6.192996978759766,1.237624712341766,0.16999940668232413,0.20641438010025226,-0.8364498687768973,1.2093200163069224,2.9641174424472165
6.2169859409332275,1.399576023633285,0.16999964489302336,0.7637956478812045,-1.2399240436778478,1.3101482587735696,2.972644995258116
6.237071752548218,0.5706184431674413,0.17000020385368472,0.6021444747837756,-0.44493010404692007,1.3918167888667743,2.139311661924783
6.257362365722656,0.7225565931341872,0.17000007276605303,0.533230027305398,-0.1044379822555021,1.4266356229052812,2.2262808509538736
6.277345657348633,0.9823708422473096,0.16999988398860552,0.7380863221173725,-0.11419664384555783,1.4861749878867403,2.374998171606947
6.297637462615967,0.6764670952627634,0.17000043234108014,0.8717499209150716,-0.44880146103916807,1.5343998483192898,2.0217308242233702
6.3175153732299805,0.47433834870976416,0.1700003787216219,0.689587435941208,-0.14844443154778814,1.2254637343363433,1.7454583319761507
6.337759971618652,0.6359045137791118,0.17000040078529294,0.6119286923470871,0.1624005495282263,0.9289171614856746,1.871812211375513
6.357744216918945,0.9121826339586585,0.1700003726839196,0.8516289922534975,-0.43085497195858474,1.0830227433406838,2.087876809007345
6.377925634384155,0.48713400829712256,0.17000032513806107,0.6732894837253329,0.21340751515301964,1.2078481209173955,1.3883344541363836
6.397969007492065,0.7916785410796889,0.17000031856762146,0.5288344818175197,0.7352606228627571,1.3089573496847813,1.6962606950395318
6.418046474456787,0.9215106929298267,0.17000020692150836,0.6790048180061901,0.36573387558748705,1.352061144929283,1.827534917044217
6.438143014907837,1.1435236478037807,0.17000045411403208,0.724042308518394,-0.26615318493220336,1.425769067400564,2.052012317024965
6.458230257034302,1.3233541320409823,0.169999940776588,0.5699442698998992,-0.7779872781910758,1.4854747812077755,2.2338411365982394
6.4785475730896,0.9833520424803908,0.1699996959177388,0.6334109830390844,-0.9219507657876753,1.4950449056061366,2.3811217049001487
6.498837947845459,0.5710168505524766,0.16999989111310307,0.7496560091553419,-0.8551346396960737,1.4807483744832937,2.443909327789051
6.518996715545654,0.3630380957738873,0.16999993798108268,0.590691367415827,-1.25505875860006,1.5300060799681823,2.551276435193403
6.539095640182495,0.6911608488330228,0.16999969531621936,0.46193000760681985,-1.5789980928549583,1.5699064844826163,2.6382440072100044
6.559248208999634,0.9569402856065177,0.16999945730112928,0.35763330616152406,-1.841388412099711,1.6022260942569253,2.708687626571623
6.579295873641968,0.7866493561288262,0.16999896222227065,0.2731529779908345,-1.349365821760311,1.6284062389433673,2.7657467047925177
6.599350929260254,0.9169844219981094,0.16999889823176656,0.29556859502291255,-1.510429722269973,1.6395665111930244,2.7900721308118452
6.619541883468628,1.1398573816206496,0.169999166174864,0.2754683853166045,-1.7858481397556913,1.6586488886243795,2.831668373631501
6.639535903930664,1.320384474871446,0.16999917348141938,0.20659939210644962,-2.008936575011979,1.674106338080089,2.865361281305907
6.659728288650513,1.3973460231176151,0.16999917375829549,0.17723945289580467,-2.1040424796722066,1.680696008449876,2.8797250312014993
6.679829835891724,0.9952107156801145,0.1699992157351278,0.1945413073190057,-1.9568546065440036,1.6919641390732405,2.9042870626090225
6.700005531311035,1.1295690635265838,0.16999940348189732,0.14104846485081557,-2.147452421162963,1.7010908185930789,2.9241825881744137
6.720064401626587,1.3120509414566484,0.1699995168213782,0.09771925652916062,-2.3018364611524813,1.7084835630583797,2.9402978964240165
6.740211725234985,1.389845847310987,0.16999956513926673,0.07924733087624457,-2.3676528150375424,1.7116352067524991,2.947168106781691
6.760262727737427,1.2311127660383214,0.1699997407115807,0.04766033800975811,-2.01022161810954,1.7170243922307495,2.958916458079502
6.78036904335022,1.13171519277561,0.1699997535988573,0.27131640344336055,-1.7301994711337705,1.7213898787405941,2.968432307493655
6.800399541854858,1.3137893030605792,0.16999992269070788,0.42755391592926767,-1.9638618005950559,1.724924961976019,2.9761403709255294
6.821180105209351,1.3914103732181593,0.16999986073415232,0.3760985243363409,-2.063475398848357,1.7264327241882682,2.979426302586076
6.841296195983887,1.5241424009604287,0.16999977722426482,0.2881098047124361,-2.233814499246228,1.7290108307047451,2.985045203609502
6.861619710922241,1.0301945323987338,0.16999978437252058,0.21683894181707325,-2.371789530554856,1.730530731012132,2.9895965695777655
6.881547212600708,1.2315575750134538,0.16999987788965054,0.15910954287182932,-1.8499911925546508,1.071129812303439,2.9932833252655895
6.901612281799316,1.3174018179664186,0.16999980565249484,0.1344985885846464,-1.9609918080618256,1.1380177030658938,2.994854828148859
6.921691179275513,1.4641954715204666,0.16999975154166694,0.09241385675356358,-2.1508028913979147,1.252395202631811,2.9975421460172456
6.941771507263184,1.3186168025534757,0.1699997710596514,0.05832513202608969,-1.8150559355914566,1.2245753195689764,2.9997192234629444
6.961855411529541,1.2271462292328075,0.16999968570871699,0.16604467646399035,-0.9913779491008954,1.2140888616139753,3.0014827094357126
6.982250690460205,1.3910884556904342,0.16999964261993186,0.5624645097687617,-0.8326170110287378,1.3140125124596873,3.0029119025487097
7.002356767654419,1.4609796160504689,0.16999978505855898,0.8202180587918856,-1.0453547012295172,1.3566105515200932,3.0035204487445624
7.022456169128418,0.6314602340165938,0.1700005888128427,0.6478466276214273,-1.0599584948668306,1.4294494849367363,2.3669472982225352
7.04252552986145,0.9085827754809293,0.17000023104352324,0.5082257683733562,-0.2961676014411193,0.8605731605796173,2.4889378721975794
7.062921047210693,1.0267244970171159,0.1700001587134238,0.7714031915360207,-0.5625513981254031,0.9485160638513384,2.540944490522772
7.082781553268433,0.7163853815019592,0.17000043241581558,0.8987365851441766,-0.5057852661520894,1.0988959332318162,2.1710827816018017
7.102898359298706,0.5066721680538431,0.17000022213482374,0.7114468777290608,0.08096476847076584,1.1510064552827772,1.879874998449669
7.122949838638306,0.8075044576508257,0.17000018252188825,0.8824419709605393,0.03598143225612194,1.2001852018735302,2.09440875607347
7.143012762069702,0.935754004330552,0.17000030565041624,1.1081977738644855,-0.2636155877121796,1.254166316831629,2.1858672598526407
7.163229465484619,0.16136075044243758,0.17000060712256324,0.8811101968302333,-0.5783790060475179,1.3464730334525847,1.3525339265193073
7.183241844177246,0.5278021860424064,0.17000030091808446,0.697169259432489,0.09391219325286881,0.7600443236192826,1.2216594113202057
7.203309059143066,0.8246197546889874,0.1700003002766633,0.5481769788859354,-0.4863305218971409,0.9462358439788007,1.5612529171693832
7.223403453826904,0.9660724306104727,0.17000022640862253,0.6911870172595797,-0.9563277227366841,1.0970510675141971,1.8363248655172006
7.243475675582886,0.901883059072641,0.17000031342100755,0.6133683155336217,-1.156694439407834,1.1613450956988893,1.9535920745986077
7.263578653335571,0.9401783600661426,0.1699995683790137,0.6881631910624276,-1.238478618976222,0.9232951608480472,2.15412042796268
7.283663511276245,0.6099737966312913,0.1700000395016246,0.727960554692741,-1.3308053834024753,0.7652654050502066,2.3165465839873867
7.30403995513916,0.2349764189524629,0.17000024850070197,0.6464644992234669,-1.4937243266677005,0.8627367169947744,2.385791521236252
7.32416558265686,0.5874308917308514,0.16999982776089798,0.5071062443710083,-0.6733526314719277,1.0294203282204686,2.5042017721124648
7.344237327575684,0.8729190236749749,0.17000005363285703,1.0073559136388122,-1.107814804625506,1.1644290683882508,2.6001123711406495
7.364365100860596,0.1104644340791281,0.17000053417048294,0.7994282900474378,-0.7101412250028816,1.2737840267792222,1.7667790378073163
7.384446620941162,0.30841797883057154,0.17000030764694815,0.710785461042694,-0.3431280396726297,1.1044079516344671,1.8910015936532227
7.40481162071228,0.6469185430440012,0.1700003274666171,0.881906090543524,-0.3075329949402027,1.0307711645615416,2.103420069945123
7.4247658252716064,0.39810401931708556,0.17000053273999152,0.9882439333402543,-0.3518582887175581,1.1655231937131965,1.777310792340802
7.445207595825195,0.2488642576735737,0.1700004187236627,0.783947586005606,0.15827218305604446,1.1797616925193504,1.525480193052047
7.4655985832214355,0.43297782393147577,0.1700004979979291,0.6968528274050454,0.43844604416425104,1.1408733480517992,1.6738315774029846
7.485473155975342,0.7478120369296727,0.17000043343648888,1.1610507901980869,-0.2072586559186237,1.2547069563146973,1.927513550129884
7.505534887313843,0.009127742421147444,0.17000070843602694,0.9239211400604503,0.04875723895147087,1.3469112580563471,1.0941802167965504
7.5255982875823975,0.40449347013310766,0.17000049417458918,0.7318461234489648,0.6018929114010056,0.9859259279941983,1.4579960888508081
7.545722484588623,0.5730440950598827,0.17000040929593996,0.972661397261538,0.24570362026090514,1.0613334488029957,1.613095858893039
7.565779447555542,0.3382656961412292,0.17000061816163795,1.0617557317818458,0.2286218717129856,1.190279336277816,1.3360189777238036
7.5859010219573975,0.2003952177361266,0.17000049950441984,0.8434921427432951,0.7475836738468207,1.2947260048314329,1.1283175719557437
7.605919361114502,0.5594201173607409,0.1700004456998942,0.989398635622069,0.5759432521129149,1.3793278334597938,1.485646986574143
7.626181125640869,0.7124780552249103,0.1700007998635446,1.204458772059862,0.22235143552853853,1.4153947487804412,1.6379813715734706
7.646282196044922,-0.01949283787271122,0.1700013837917993,0.9590816053684881,0.4407136217852379,1.4770679578631207,0.8046480382401371
7.66637110710144,0.3813108182995753,0.1700010377285132,0.7603261003484753,-0.19303604551764797,1.0977522406086615,1.2234747658354663
7.686469316482544,0.7059617499502402,0.17000094636542332,0.5993339490940339,-0.7187584311294328,1.2197788992742995,1.5627235242218849
7.706758499145508,0.9689290010975599,0.1700006005573124,0.4689302960606064,-1.1445953145498466,1.3186222309410052,1.8375160304972291
7.726943731307983,1.0810360952820108,0.17000035605247601,0.4133372664545457,-1.3261364583098019,1.360761391191257,1.9546646991847039
7.74695611000061,0.9240646161370845,0.16999982172189765,0.4849719265012472,-1.6365712672061759,1.4328202635236849,2.154988650744872
7.767018795013428,0.5835532363935456,0.17000029564239957,0.526326127071769,-1.8880229630864178,1.491181318522769,2.317250890126409
7.78712272644043,0.48596597026922617,0.17000002365700614,0.4649935143645921,-1.995220179025604,1.5160647738564141,2.3864256683539975
7.807242155075073,0.7907324402906089,0.16999954780723137,0.36011474663531956,-2.1785265372957996,1.5586153965226104,2.5047143636813156
7.827362298965454,1.0375932685273286,0.16999938246137586,0.2751629937462658,-2.327005182462588,1.5930797511770236,2.600528274538354
7.847432374954224,0.8462925054247646,0.1699995113443881,0.31014532952565416,-2.447274329938787,1.6209945804885615,2.678137927483876
7.867522239685059,0.8538629781825269,0.16999974668114606,0.2704307965730887,-2.4985485547297777,1.632894504938935,2.7112245333683944
7.887591600418091,0.9836087593843851,0.1699997948006233,0.20251894522420186,-2.5862243292203413,1.6532445490326828,2.7678018720019657
7.907689571380615,1.1938230950983124,0.16999983374979688,0.14751034563160348,-2.6572417061477975,1.6697280847877314,2.8136295162040064
7.927775859832764,1.3640967080990194,0.16999987556838914,0.10295337996159881,-2.6505433787481705,1.6830797361960097,2.8507499436409938
7.947948694229126,1.4366870371411538,0.16999988678357691,0.08395804196543893,-2.6172664499972202,1.6887717640439288,2.8665749449264015
7.968052864074707,1.0193360714797985,0.16999990931379774,0.06339587975921626,-2.6823858541222783,1.6985051298190272,2.8936357101466212
7.988203763961792,1.222762219723298,0.16999993943183384,0.05413041057909271,-1.849052520788945,1.0451891437008922,2.9155549739583044
8.008249521255493,1.3875373970061713,0.17000000611973518,0.6404456325690653,-2.0601327167324954,1.1772027888645855,2.9333096220087373
8.028324604034424,0.5597836570282873,0.16999986577033832,0.5022309623809429,-1.226799383399162,1.284135435454874,2.0999762886754043
8.048424005508423,0.7128052849009421,0.16999966725719048,0.4433078661428486,-0.8101327167324952,1.2676639894309822,2.1908789210213135
8.06850528717041,0.974472276954652,0.1699996040299863,0.6652493715757074,-0.6858086141105718,1.301554955057086,2.346322477196861
8.088573932647705,0.6693583929763898,0.17000019072949646,0.8127519909763231,-0.5833385461693579,1.384856290550673,1.9959231106466435
8.108735084533691,0.2884225746041752,0.17000043722659783,0.7227767918786908,-0.2864389787278213,1.4203692300841537,1.5792564439799768
8.128799438476562,0.6307222750690616,0.17000037531813264,0.5689192014217396,0.33038488375230607,1.4465073628735947,1.8509075743672427
8.148903369903564,0.9079850464019691,0.1700004541146417,1.057424553151609,-0.2947874230056461,1.502269998070072,2.0709448641316013
8.169225931167603,0.13886794432214106,0.17000120992944967,0.8399838880528033,-0.4942218426830389,1.547435160194301,1.2376115307982678
8.189156770706177,0.5095830122567316,0.17000087172069922,0.6638569493227706,0.16207997308855215,0.9228230721267532,1.2438491510363996
8.209256887435913,0.667624693508764,0.17000077270217995,0.7165560794284559,-0.15012802422030314,1.004540815822277,1.4203636436266085
8.229321002960205,0.8195908918588368,0.170000803181955,0.6788868509861429,-0.09200222121678353,1.1442772251961202,1.6059015636793175
8.249410390853882,0.9545120220891837,0.1700006028027997,0.5333683492987757,-0.04110690435864611,1.257464857414809,1.7678187004718393
8.26951551437378,1.1702547365279354,0.17000036401478882,0.41549836293200837,-0.3640335813654527,1.349146886452093,2.0036437954953934
8.289952754974365,1.2622292618964897,0.17000028321998964,0.3652485266388075,-0.44868012158832926,1.3882323714024334,2.1041796235459325
8.310047149658203,1.4195057068480483,0.1700003146834084,0.5685114654500385,-0.9258304042297485,1.1980063477247826,2.2760952425876275
8.330139398574829,0.6072113740006704,0.1700002044180221,0.4439642870145312,-1.3123226646575061,1.3009855667060608,2.4153471327672307
8.350252628326416,0.888941207231527,0.16999994685905861,0.3430810724817703,-0.6508844571743084,0.7282339963681403,2.5281416085715462
8.370316982269287,1.1171423790200476,0.1699999411334436,0.39144908067266576,-1.0896164103111896,0.9204695835785036,2.6195050285172994
8.390419244766235,1.2144281451028727,0.17000005143122102,0.34360417260539916,-1.276654213142368,1.0024216035590547,2.6584541491592244
8.410496473312378,1.0141790698880402,0.16999954705608314,0.2735459113961263,-1.1739271371520414,1.142566332315577,2.725058458304297
8.430554866790771,0.8886380957438781,0.1699995981075501,0.21562306665803993,-1.1329735384588258,1.2560791166538554,2.7790073452835378
8.450607061386108,1.1168968598097806,0.16999941251615946,0.15812468399301235,-1.4801096454430334,1.348026253499356,2.822706441116359
8.470712661743164,1.2142071740792812,0.16999941651750475,0.13361221559371111,-1.6280987676600598,1.3872240788813108,2.841335832165712
8.490957736968994,1.3806078067739225,0.1699992478797228,0.09169589463090601,-1.881159734815015,1.4542537023617939,2.8731919047180727
8.510989904403687,0.774014355671742,0.16999917706396497,0.07806548773775218,-1.0607237352548937,1.5085470077666383,2.8989955127471414
8.53106427192688,1.0240516415841632,0.16999916142669283,0.04670304506757926,-1.4215875945221856,1.5525240336140491,2.91989687932957
8.551174640655518,1.1306464829050629,0.16999907311567602,0.03333274056082133,-1.575429359417272,1.5712727159485773,2.92880734417626
8.571228504180908,1.3129236499725572,0.1699991456164748,0.01046951985426528,-1.5309620616063462,1.6033315329411426,2.944043901811962
8.591318368911743,1.1916416922506134,0.1699993101726064,-0.00804968891804512,-0.9496635452877791,1.6292985698955205,2.9563854570103683
8.61141300201416,1.012551067637876,0.16999933866211786,-0.015944720026240606,-0.5586977342089718,1.6403688466148383,2.9616470780609294
8.631570100784302,1.2172663769011522,0.16999958299708684,0.583684776778745,0.1098558340270494,1.6592986764053308,2.9706440181516696
8.651731729507446,0.957329491119733,0.16999963601353615,0.45625466919078334,-0.47341721038084206,1.6746321718675687,2.9779317451216736
8.67206335067749,1.1725368778585308,0.1699993504585117,0.35303628204453447,-0.9458712218215732,1.1554111567559198,2.9838353708928347
8.691904544830322,1.26428318298615,0.16999944653693527,0.30903248864566324,-1.147284099639416,1.0840384247990396,2.986351334268874
8.712002515792847,1.1665208936463518,0.16999942278420188,0.2337863158029872,-1.491700595019214,0.9481865573563077,2.9906548644343305
8.732194185256958,1.1127982903734068,0.16999917797738187,0.17283691580041963,-1.4375227289088337,0.62136149762053,2.9642974416755927
8.75222134590149,1.298466619161594,0.16999930871074612,0.14682226996049505,-1.4269539151782904,0.5207030814824153,2.94593208466699
8.772560119628906,1.3776199542991159,0.1699993212094248,0.1467944111266007,-1.5802587203354361,0.6426337693602835,2.952239033304004
8.792642593383789,1.5129721694922846,0.1699993979614541,0.10237347301254654,-1.84240906790327,0.8511338702981999,2.9630232378062313
8.81270170211792,1.244185847451296,0.16999953251252398,0.0663925131401627,-1.2408740630264263,0.9660041498260659,2.9717592252321836
8.832934379577637,1.4048905358102333,0.16999955051318244,0.046664175306298246,-0.7140566847169179,1.1130641566825905,2.9788353663251175
8.852938652038574,1.5350613367460721,0.16999968878895855,0.6343979819981016,-1.1407858796046695,1.2321815710630617,2.984566671848199
8.873017311096191,1.1183946700794054,0.16999997016542345,0.5622581837982914,-0.7307064833291935,1.2829614705793875,2.5679000051815324
8.89303970336914,0.8405552003406714,0.17000006121681152,0.43889912887661603,-0.029471965544704826,1.369798044043948,2.237010387108797
8.913368701934814,0.9654996803233881,0.16999994550308334,0.3863092159889544,0.2694739382986279,1.4068183815630508,2.3142099057926044
8.933382987976074,1.1791547411815912,0.17000009845701092,0.909510464951053,-0.3441249506527166,1.4701223700278858,2.4462196178166464
8.953479290008545,0.372239281225499,0.17000066422862786,0.720173476610353,-0.1563291127057344,1.521396811301748,1.6128862844833132
8.973548650741577,0.6986138418611155,0.17000032604137527,0.5668106517664542,0.4357715444941361,0.9017320545580025,1.8781489762015613
8.993666410446167,0.8377524387056066,0.17000027003651727,0.7386956585018547,0.09619439004472252,0.9855589355230187,1.9912335211475036
9.013763427734375,0.5526794956381431,0.17000032215173347,0.7953531545572796,0.10751817288251658,1.1289023057769103,1.6763442942849724
9.03381896018982,0.3740704259641317,0.17000017102018508,0.6277062119749391,0.6494887786652546,1.245010703039025,1.4346103567281279
9.053901195526123,0.7000970329122216,0.17000028316815038,0.5264209561362699,0.49648704869965515,1.3390594934548055,1.7337438879779865
9.073991775512695,0.8390873238727972,0.1700003445109624,0.49958778495921213,0.15083923909058827,1.3791538372226828,1.8612691214176462
9.094086170196533,1.0767607302233666,0.17000026111853783,0.38813610581696184,-0.44022042919417165,1.4477147736758327,2.0793380593271276
9.11416745185852,0.5492736775801752,0.17000028975856035,0.6623497522234273,-0.8371585816968747,1.503248396060246,2.2559738860505023
9.134234189987183,0.842011681951244,0.17000023086085495,0.5199732993009761,-1.2404983020864828,1.5482312649285233,2.399048780771331
9.15433406829834,0.9668105079681834,0.17000004189110826,0.4592759693708785,-1.4124489201676418,1.5674091313508154,2.4600439884684135
9.174413204193115,1.1802165066444397,0.1699996930742362,0.3554835351904116,-1.7064840360413762,1.6002035007009356,2.56434569000801
9.194514513015747,1.35307536417328,0.1699992166076826,0.2714116635042334,-1.9172106639618314,1.6170819269868926,2.6488298432491626
9.214725732803345,1.153374261985546,0.16999916297000872,0.36014281526679814,-1.8367243257967256,1.5274271081228223,2.6911853853065177
9.235028266906738,0.9073200600714885,0.16999942919512687,0.47225790156848746,-1.6951332848155856,1.444390382468204,2.6968903448551402
9.255157470703125,0.24799975345205172,0.16999957460497583,0.3659989002704748,-1.9354578944845258,1.5005559277555192,2.756191164580364
9.275220155715942,0.59797979953097,0.16999950754371385,0.2799291092190846,-2.1301203558650057,1.1762488815359466,2.804224663830751
9.29532790184021,0.881463636946653,0.16999949388164398,0.21021257846745853,-2.146612275899835,1.283362450286784,2.8431316594374163
9.315390348434448,0.8251465807586744,0.16999959853725158,0.25284796067350807,-1.7299456092331684,1.3290257907143865,2.859718653895224
9.335469722747803,0.906015105231528,0.1699994415969061,0.4515434270868868,-1.5113726954927613,1.4071127299378372,2.888082184714722
9.355562210083008,1.1309722392260066,0.1700001916143493,0.5275512185448248,-1.7866116629062267,1.4703566529977528,2.911056522276417
9.381019353866577,1.2268750176668608,0.16999994532893686,0.4660960966903423,-1.9039502073085328,1.497322533047402,2.9208507845804466
9.406730651855469,1.3131875171249106,0.16999984722537054,0.41078648702130804,-2.0095549498393486,1.5215909581097793,2.929665642752903
9.446510076522827,1.3131875171249106,0.16999984722537054,0.41078648702130804,-2.0095549498393486,1.5215909581097793,2.929665642752903
9.467891216278076,1.3908687674877864,0.16999954318802163,0.36100783831917727,-2.1045983729063433,1.5434338246737693,2.9375987953279683
9.487990617752075,1.0200404855589211,0.16999940723996926,0.31620705448725955,-2.1901376987193792,1.5328639419121857,2.9447386884445548
9.508076906204224,0.8266655390174187,0.1699999591719872,0.23959771413468023,-1.8504586947030541,1.197012746213503,2.9569491886161785
9.528215408325195,1.0666990844724824,0.1699998158506323,0.500244148449091,-1.5864132880295343,0.9869822361588261,2.96683923045051
9.548276901245117,0.7523625103925238,0.17000033089696284,0.6790977602437638,-1.3071052452644076,1.1300511779878633,2.5543886197683126
9.568303346633911,0.36312626681859084,0.17000054655447405,0.6024879842193874,-0.8904385785977409,1.191043963104838,2.137721953101646
9.588483572006226,0.6912322642714116,0.1700001991580111,0.4714852672177038,-0.158856763601392,1.2953472764289153,2.3032655653996583
9.60852336883545,0.9569981420504863,0.1700002631342284,0.9785030664463401,-0.6910734773768892,1.3798306577286499,2.4373549085541346
9.628599882125854,0.17856856934207227,0.17000105238556745,0.7760574838215355,-0.6794668670281858,1.4482581472740537,1.6040215752208014
9.648688554763794,0.369711688992027,0.17000069167734466,0.689751735439382,-0.31552157193827784,1.1294337132213121,1.7445198991375266
9.669119358062744,0.6965664520437316,0.17000066595116223,0.7229797814885492,-0.28517150092296745,0.9322408099401319,1.9847697398744437
9.68898057937622,0.6366370212523903,0.1700005697085589,0.7318137627143554,-0.20138841078841285,1.0857149078326562,1.7678106763667
9.70903730392456,0.6205623570863449,0.1700003166548735,0.5762391477986278,0.3992740140728665,1.2100294353376448,1.6332305928671085
9.729806661605835,0.7675061552364293,0.17000031749723404,0.5099153456803172,0.6553466126655798,1.2630263900687315,1.7708080059049425
9.749915361404419,1.0187799871766026,0.17000024384228532,0.7177199194381602,-0.03156936313052955,1.3536509967850203,2.0060645522924703
9.770028114318848,1.2223117826445882,0.17000021213049107,0.5648231347449097,-0.5879710121401914,1.4270574528001116,2.196622180576109
9.790099859237671,1.3310441383816394,0.16999964179688418,0.47450030149901445,-1.0386600315236934,1.4865194036318292,2.35097516370964
9.81016230583191,0.5089397352984413,0.1699996684090334,0.6369949245902545,-0.6678106680455711,1.1080516473888864,2.4551767066113537
9.830257892608643,0.38400547196004997,0.16999979056831294,0.5645954321312291,-0.8970289825580516,1.171245876220431,2.510558668757522
9.850334167480469,0.4534081591747725,0.16999976993047378,0.44079207342828675,-1.2889938725569918,1.2419896783884863,2.6052622040443207
9.870452880859375,0.7643606035196873,0.16999943254836422,0.34051157947691224,-1.6064857288648149,1.3030266469571739,2.6819726914115685
9.890510559082031,0.8969245426225936,0.16999937015332664,0.297760421529221,-1.7418371575895297,1.3467249624267619,2.7146754191905
9.910618782043457,0.7395052621904238,0.16999917514000298,0.22465594143866902,-1.3355678347972713,1.4214497001407993,2.7705970393780466
9.930697917938232,0.9960992649359253,0.16999886510691475,0.19263812738430022,-1.6442109886761958,1.4819776803892803,2.815893952277966
9.95078992843628,1.2039404047093152,0.16999921875204801,0.13950688318128318,-1.894210794778495,1.5310008921858003,2.8525840654658876
9.971230745315552,1.3722917195030557,0.16999922325607356,0.09647057537683937,-2.096710036009044,1.5707115487859111,2.8823028344961883
9.991342306137085,1.4440625397673807,0.16999921236218044,0.07812351783915543,-2.183038358018826,1.5876408072370658,2.8949723070052946
10.011442422866821,1.3268622698903718,0.16999907385017557,0.0467500494497159,-2.330658025464352,1.6165901115853119,2.9166365416574958
10.031726121902466,1.2559229214123393,0.16999925001548777,0.0331697097479783,-1.976925558794511,1.2920379897840326,2.9341855995340915
10.05169677734375,1.414397566941292,0.16999914406079572,0.3436864176202,-1.7002332016393924,1.063953931971915,2.948400398480762
10.071773767471313,1.4819578088947312,0.16999957665648172,0.6233177758581799,-1.8262101933099926,1.1315551819975882,2.9544605558931747
10.09188961982727,0.6486244755613977,0.16999982799663915,0.4883573984451258,-0.9928768599766591,1.2471582171825086,2.1211272225598417
10.111991882324219,0.9224858176428038,0.16999965899148098,0.3790394927405519,-0.24183153623490228,1.2638052801187052,2.2898236680145874
10.132086277008057,1.1443135211730893,0.1699998290791338,0.903621989119847,-0.7582831272807351,1.3542815419306868,2.426467025416988
10.152467966079712,0.7276468545064225,0.17000027291124997,0.8045597902078623,-0.4878684330854265,1.3928508366009522,2.0098003587503217
10.172358989715576,0.5157939629020181,0.17000026642373403,0.6351634300683685,0.07595249229476916,1.359802346533209,1.734720954269431
10.192473888397217,0.8148931115399036,0.17000023931542202,0.8206523783553784,0.03192169405912165,1.3429339380429794,1.9768339216362647
10.212578535079956,0.5341634224113052,0.17000060668957287,0.9386284264678566,-0.3638505652981656,1.4183749770795542,1.6633833199439942
10.232797384262085,0.1667470971268249,0.1700008546799352,0.8360655838210709,-0.45077347647630756,1.4505360924495763,1.2467166532773275
10.252926349639893,0.5321651402799352,0.17000029313994958,0.6606832943037986,0.19727097064479826,0.8443361028517163,1.335815543600861
10.272990703582764,0.8281537470140438,0.1700003070427657,0.773916908419901,-0.4026097296930549,1.0145120405116286,1.6537194812553428
10.29305911064148,0.7779431564386424,0.17000023192207384,0.6103427120243341,0.2362861189486255,1.1523548261772552,1.668352346570009
10.313156604766846,0.9091488367439573,0.17000028419690516,0.5406084408219007,0.020553739877031907,1.2111193942812288,1.8024166534061925
10.333251237869263,1.1335105594611408,0.1700002644825602,0.4213628370657396,-0.4522452161293925,1.3116065406315116,2.0316673157472573
10.353420734405518,1.1831208933056183,0.17000005879921679,0.5167533527313485,-0.9287200104548526,1.2645127620525973,2.2173611306932615
10.3734610080719,0.7344506466502765,0.17000051234412358,0.5748217249496816,-1.3146613028079674,1.2392113261851387,2.3677715782280404
10.393785953521729,0.3679386696240497,0.17000027473653423,0.5086395524547135,-1.479195562938808,1.2892916945274753,2.431894599513503
10.413889646530151,0.695130316459354,0.169999924221156,0.39546803748831794,-0.660276417231523,0.7137287529182572,2.5415449695348937
10.434221744537354,0.9601555594976894,0.1700000336241694,0.523145288539554,-1.0972232522765637,0.9087194321110034,2.6303604183144436
10.454213380813599,1.1748260031439726,0.1699999881398262,0.4072176837170387,-1.4511507939806472,1.066663127011986,2.702301890772964
10.474277019500732,0.9321600670923577,0.1699996584357286,0.4224455913821696,-1.224138971358674,1.1339999470941364,2.7329719698337263
10.494378089904785,0.8513846548740855,0.16999966558138208,0.3838356374527086,-1.2138451379065407,1.2491405282199592,2.785417341970748
10.514476537704468,1.0867215674371726,0.16999948023734887,0.29437686633669397,-1.545615210099619,1.342405857815544,2.8278983275559297
10.534520387649536,1.2773444674793384,0.16999921778302757,0.2219152617327221,-1.814348378827474,1.4179516277314153,2.8623076595156682
10.554626226425171,1.358610019664672,0.1699992385959676,0.1910237355594499,-1.92891341162575,1.450156893797808,2.876976845957449
10.574699640274048,0.7544325873703641,0.16999924280087053,0.21985601471735808,-1.76491613849937,1.5052280860502052,2.9020611213208056
10.59511113166809,0.7225058155419845,0.16999951122003928,0.16155337192106006,-1.9919822913994705,1.4063093252993673,2.9223795776894472
10.615045070648193,0.9823297105889587,0.16999960408740555,0.11432823125605865,-2.1759056560280223,1.4697105534977768,2.9388374579262377
10.635088205337524,1.0930967395300628,0.16999964367866435,0.09419540813045278,-2.254315090425215,1.496739498148003,2.9458537121336117
10.655194997787476,1.029376541799535,0.16999977797552648,0.05976828058566676,-1.9082170212941338,1.5429586813307996,2.9407277265432334
10.67528510093689,1.0030763567774994,0.169999785828573,0.2892099699330815,-1.4423733023898637,1.5803967750477537,2.9382878808881143
10.695339679718018,1.209591859070384,0.1700003986706636,0.44932497203861826,-1.5543015905906632,1.6107180243904915,2.95172305656227
10.715791702270508,1.2976326719413906,0.17000022246727953,0.39569247483475645,-1.6948714920257195,1.6236470247437773,2.957450753456351
10.735911130905151,1.4481824600554112,0.16999970627518501,0.3039809046161527,-1.9352450514747397,1.537661495223665,2.96724491901047
10.755993127822876,1.1528468324922936,0.16999978575458885,0.22969453273908366,-1.1019117181414062,1.5761051583070549,2.7993356817263977
10.776069402694702,1.3309059450820644,0.16999972383800643,0.5827915632560235,-1.2030368209503908,1.6072456360738314,2.8391721934507608
10.79621434211731,1.4751338214475829,0.1699997037955401,0.45553116623737905,-1.5368596048027212,1.6324694177169408,2.8714394240559478
10.816283226013184,1.5366204376960961,0.16999957184165626,0.40127804961364116,-1.6791737388747667,1.5610127372423204,2.885195485919073
10.836379289627075,1.5104518147987103,0.16999953641336252,0.30850522018704934,-1.3905896367075479,1.4213790423391515,2.9087182569753245
10.856431007385254,1.5023863043373997,0.16999950649944076,0.55605922835151,-0.5920408045317682,1.3774162341849931,2.927771977550613
10.876776695251465,1.5611476797968367,0.1699996637482716,0.814453305516359,-0.2368359187029282,1.3988594302920725,2.9358944562791702
10.89688777923584,1.6616296018955738,0.1699996336073499,0.8056688316544995,-0.7542374116654846,1.463676838939299,2.949784567987535
10.916970014572144,1.7430199652724043,0.1699995225463913,0.6360617536401446,-1.1733327891231216,1.5161793661743381,2.961035577426658
10.937070846557617,1.209489132005701,0.16999952865144854,0.7630950962560885,-1.512800004710947,1.407883773270705,2.9701489098483176
10.961366415023804,1.2975402229529345,0.16999980255542743,0.6780855866304797,-1.65751988035079,1.4410938405971354,2.9740339865247187
10.984963417053223,1.448107583576513,0.1699993752950237,0.5327193251706885,-1.9049908457018803,1.4978891540003514,2.980677437545444
11.005088329315186,1.5122968301339672,0.16999920589795536,0.4707473926536197,-2.010491269045519,1.5221017368018432,2.9835095625121495
11.025148153305054,1.6220604381741013,0.16999887409958347,0.36477538804943194,-2.1908959958368652,1.5635051881800115,2.9883522545759043
11.045207262039185,1.7109689501122736,0.1699984702182479,0.27893806432003987,-2.3370220479211814,1.4428912903951105,2.992274250679689
11.065348863601685,1.297996459185355,0.16999864135879333,0.2094098320992323,-2.4553868824984924,1.499342586665572,2.9954517891929626
11.085606098175049,1.3771968133302148,0.16999877843429415,0.29323768538756956,-2.038720215831826,1.175408322712953,2.9968066145802115
11.105632066726685,1.5126294201438333,0.16999866859204596,0.6458144780123658,-1.7558481613712467,0.9694842140137666,2.99912307972295
11.125717639923096,1.1536998089898332,0.1699996106271667,0.7970097271900164,-1.4595972288134185,1.1158760456087735,2.58344449785422
11.146516799926758,0.7370331423231664,0.17000012925258054,0.7086087544710148,-1.0429305621467517,1.1782844227888891,2.1667778311875536
11.166587352752686,0.9940968293880699,0.16999999179007877,0.5574428757361153,-0.2823742842284682,1.2850113723232137,2.326799827256131
11.186709880828857,1.2023184481441738,0.1700001620981611,1.0481287293462536,-0.7911225520048797,1.3714580975950115,2.456417615822564
11.206776142120361,0.39308662548009654,0.1700008954734555,0.8324542707704654,-0.1920856728392914,1.4414769062006547,1.6230842824892309
11.226876258850098,0.5627779585726256,0.17000062768194898,0.7405088436934189,0.12312159479658019,1.3572240569360423,1.7616763404057945
11.246939897537231,0.8529501460115247,0.17000056022262006,0.9059821633916694,0.07012890262758109,1.3272559918708773,1.9986676808375645
11.26703929901123,0.5649896162954735,0.17000099803908236,1.0077455523472523,-0.3305318814512008,1.40567532271861,1.683033717916037
11.287108421325684,0.38404158272114575,0.17000084447461847,0.7997438974012743,-0.08057631822773315,1.1211969201040535,1.270198500274146
11.307512521743774,0.5546374211154785,0.17000086699609082,0.7110695076611468,0.22348223033447961,0.8350768943846298,1.273645474253343
11.327611207962036,0.8463563105099877,0.17000073283475536,0.8746399643448722,-0.3813792093998365,1.0070119873622638,1.6033627108090387
11.347740411758423,0.6927463642557787,0.1700005893808819,0.6919283711193465,0.25348263783311886,1.146279452781833,1.4915613100821865
11.368046045303345,0.958224560656082,0.17000036541484004,0.5439319806066707,-0.01892356799142192,1.2590863918564306,1.7798752890295189
11.388267993927002,0.9224867351872836,0.17000031995824214,0.42911597918785804,-0.5777277963900815,1.3504600593601075,2.013408813815264
11.408292770385742,1.0392380577688647,0.1700001644840339,0.6321883633552539,-0.815956102988396,1.3536123770457646,2.112968395711974
11.428375244140625,0.727647593350707,0.17000060231520936,0.7247581581953191,-1.2233226569054194,1.3948008398209875,1.7859046301558619
11.448475122451782,0.515794557645441,0.17000051855613993,0.5705241081382084,-0.9803230770863316,1.283652137940455,1.533214248651387
11.468549013137817,0.673215094383342,0.17000031991186307,0.5047716973243875,-0.5862914406864737,1.1525516416580008,1.6807931232065678
11.488710880279541,0.942404238274448,0.17000042961396347,1.005465074832754,-1.0372954641505716,1.2641656021007153,1.9331521331440598
11.50879454612732,0.16674746582254119,0.1700008497265201,0.7978967106145308,-0.2778074430170561,1.3545708897252418,1.0998187998107263
11.528878450393677,0.5321654421178018,0.17000069796753195,0.62976633559777,0.21461231214739507,1.4278025884239467,1.4625631646852542
11.54898452758789,0.8281540168498891,0.1700006661628213,1.1067107318341938,-0.3885636560161174,1.48711933991772,1.7563860318884341
11.569335699081421,0.43133863851968884,0.17000095497034334,0.9873396586507743,-0.5774940661687454,1.5124058507226381,1.3397193652217674
11.58924150466919,0.2757842805843131,0.17000064705938583,0.7832151235071272,-0.37678042174206117,1.2076494428881879,0.9347845347927572
11.609307527542114,0.6204852876295612,0.1700006239008705,0.617874377596443,-0.3347914318761524,0.9955955581426938,1.1517088075038981
11.629396438598633,0.7674367439077938,0.17000057077853037,0.5473867748127242,-0.5973122886885371,1.0700359476306933,1.3374371596527386
11.649503231048584,1.0187237525278916,0.1700002288720697,0.5316927621857471,-1.0462245938668349,1.1973307844533023,1.6550350625427817
11.669587135314941,0.8588473839070956,0.17000002345562773,0.4141411373704551,-1.4098421690070297,1.3004392639030138,1.912288472214152
11.68969464302063,0.8401008294599243,0.16999998373867034,0.6362778774548373,-1.5055714968350908,0.98226366105069,2.045102148532437
11.710086584091187,0.371197230883793,0.17000004328651122,0.4988550807384182,-1.7819126303890163,1.1262329835351756,2.228242556289357
11.730150938034058,0.4912976586818045,0.16999982986082826,0.4402695726645764,-1.3652459637223495,1.1619002281938782,2.306318126788004
11.750218629837036,0.7484492322797723,0.1699995957436376,0.6627883538583069,-1.149721791801364,1.2486012758548586,2.439828104273833
