liuyurong129/humanoid-gym/humanoid/data/robot2_actual_20250621-221030.csv
timestamp,joint_1,joint_2,joint_3,joint_4,joint_5,joint_6
0.00034928321838378906,0.0,0.0,0.0,0.0,0.0,0.0
0.020323991775512695,0.0,0.0,0.0,0.0,0.0,0.0
0.04049277305603027,0.0,0.0,0.0,0.0,0.0,0.0
0.06053805351257324,0.0,0.0,0.0,0.0,0.0,0.0
0.08065319061279297,0.0,0.0,0.0,0.0,0.0,0.0
0.10071182250976562,0.0,0.0,0.0,0.0,0.0,0.0
0.1208655834197998,-0.1344983137604484,0.032299998865361855,0.04506272673606872,0.08238065191508155,-0.18964767783139336,0.008292247746494244
0.1409454345703125,0.08795151549467162,0.046070000063469174,0.03185646040084633,0.3701425867235734,0.003317092794407006,0.3083627585276065
0.1610407829284668,-0.054659285823090153,-0.07218837992500106,0.009273733453082335,0.8622157543810166,0.3332873020118473,0.8214836770501869
0.18116307258605957,-0.6408740356812404,-0.15379722647318933,-0.009018337383903669,1.260794503573133,0.6005619167898385,1.0382093526809748
0.2012021541595459,-1.115708012609151,-0.11344640168127819,-0.023834853280961972,1.58364415473978,0.8170603456247247,1.2336470648782818
0.22203826904296875,-1.31813722590192,-0.10627241699409168,-0.030151367952865774,1.7212794568138388,0.9093588140597786,1.4111825795683886
0.24224233627319336,-1.3506069457713554,-0.295897867958111,-0.04095260804182128,1.9566362405610946,1.0671821138772486,1.7147679876990891
0.26227450370788574,-1.6905916293316665,-0.20737726558415914,-0.04970161251387523,2.1472751597260253,1.1950176650129303,1.5749634366875433
0.2823829650878906,-1.9659792142760448,-0.1356755077975324,-0.056788228299536156,2.3016925958035652,1.298564605905732,1.0507511891105787
0.302443265914917,-2.0833813026035766,-0.10510793254894892,-0.059809405469582536,2.3675227331499458,1.342708666619191,0.6447764591572005
0.3225264549255371,-2.284138866029232,-0.05283739685597209,-0.06497561843036186,2.4800926979736784,1.4181944959133457,-0.04944064672594384
0.3426499366760254,-2.4467524979327444,-0.01049824654239771,-0.06916025092859311,2.571273945486343,1.479338246709372,-0.6117563165364581
0.36281371116638184,-2.5784695210713404,0.02379638994914078,-0.07254980325216043,2.6451327760588232,1.5288652947412593,-1.0672327259620078
0.384080171585083,-2.6346208119901466,0.03841583265548369,-0.07399484684429632,2.6766199117345892,1.5499813113903438,-1.2614095975537984
0.4042782783508301,-2.730642835304712,0.06341673088499869,-0.07646582594388002,2.7304647001779023,1.586084825732264,-1.5934526118877248
0.42439723014831543,-2.808420687182157,0.08366750881679347,-0.07846731901454282,2.7740776344256206,1.6153285845357361,-1.8624069821439584
0.4445967674255371,-2.8714207438742956,0.10007061767503217,-0.08008852840177969,2.8094047494227734,1.639016004340191,-2.08026016197411
0.4645402431488037,-2.8982786635462143,0.10706352333974507,-0.08077967556160172,2.8244652308234666,1.649114339229533,-2.1731343866154593
0.4846231937408447,-2.9442057073574475,0.11902139406373508,-0.08196153720489739,2.850218617556657,1.6663825109232717,-2.3319492717156165
0.5047237873077393,-2.9814065371451095,0.12870715204632693,-0.08291884079933692,2.8710802348455724,1.6803692795574603,-2.460589717955361
0.5247931480407715,-3.0115392902821827,0.13655275972477407,-0.0836942610474629,2.8879760110242856,1.6916990712550553,-2.5621834019684497
0.5459651947021484,-3.024385344443669,0.1398973570180094,-0.0840248349427166,2.895182314032787,1.696529052640356,-2.604261324217973
0.5660743713378906,-3.0463521247195806,0.14561682533451814,-0.08459011630360044,2.907498726640041,1.7047884948352316,-2.681161866226596
0.5861563682556152,-2.2130187913862476,0.15024964756273157,-0.08504799420591636,2.9174733732141114,1.7114787024501084,-1.8478285328932629
0.6063046455383301,-1.8798786178106732,-0.4406977078948714,-0.08541887146382152,2.9255510031826293,1.7168978308920042,-1.0144951995599294
0.6265730857849121,-2.1193016806629794,-0.32466514342152536,-0.08571928630861388,2.93209631257793,1.72128724295707,-1.3934511120242912
0.6466872692108154,-1.9740132069051812,-0.27519862907958714,-0.08584735768086302,2.934886681320137,1.7231585186611285,-1.4183823742113226
0.6667735576629639,-1.4499282224697423,-0.49740120995087794,-0.08606635972134534,2.9396582118693106,1.7263584001155212,-1.0241538435097322
0.6868190765380859,-1.1019983630436654,-0.6467062045463687,-0.08624375137428973,2.9435207980712352,1.728950048974989,-0.8193518577674869
0.7069220542907715,-1.1074550099126692,-0.5650355840917318,-0.08631937623686076,2.9451687182641115,1.73005504407749,-0.998014282464371
0.7270064353942871,-0.49993854206508953,-0.594963264185648,-0.08644869475185721,2.947988494401561,1.7319448006044023,-0.6859660348748073
0.7471115589141846,-0.00785025515833751,-1.0443201762528624,-0.08655344274900434,2.950267451136579,1.7334748961638853,-0.4413133288697023
0.7671692371368408,-0.6029587553410037,-0.8135992681406936,-0.08663828862669352,2.9521126236784943,1.7347142722477804,-0.9291733096583676
0.7872583866119385,-0.8566629230945435,-0.7152392553654553,-0.08667445976402417,2.9528973371143312,1.7352423506912853,-1.1371554481776578
0.8073484897613525,-1.2904970120204426,-0.5470436775443529,-0.08673631240885958,2.954241962735289,1.7361456989010169,-1.492805230467141
0.827406644821167,-1.6419026190268968,-0.41080523689645443,-0.08678641305117626,2.955330745562725,1.7368774541158454,-1.7808814773040411
0.8475601673126221,-1.7917123711904737,-0.35272465424278426,-0.08680777174605864,2.955795578203813,1.7371895140975966,-1.903693023300474
0.8677024841308594,-2.047887043410987,-0.25340685950615993,-0.0868442951143075,2.9565906325190117,1.737723240257297,-2.113700785413753
0.887814998626709,-2.255388529613096,-0.17295943841504152,-0.08687387904258907,2.9572344971286877,1.7381558614100439,-2.2838069591885755
0.907921314239502,-2.4234647134419833,-0.10779715125631743,-0.08689784202449714,2.9577601760502956,1.7385066606524533,-2.4215935134446425
0.9279758930206299,-2.5596064068887885,-0.05501579729976325,-0.08691725203984269,2.9581891898689165,1.738790834081576,-2.5332011196512245
0.9481165409088135,-2.617645758044481,-0.032514290777405655,-0.08692552683585841,2.958372662461144,1.7389119569727123,-2.5807812969512693
0.9681546688079834,-2.716893046521596,0.005963266329497202,-0.08693967673704531,2.9586870012322106,1.739119014738416,-2.6621435006050294
0.9882261753082275,-2.7972833683558442,0.03713025138650296,-0.0869511381570067,2.958936287345208,1.739286401161031,-2.7280462087728563
1.0082874298095703,-2.862399528724198,0.062375506756683,-0.08696042190717543,2.9591382912005058,1.7394219853128605,-2.781427414310857
1.0292143821716309,-2.8901595759400704,0.0731379568776281,-0.08696437971645789,2.959224436277213,1.7394797870949836,-2.8041846690862484
1.0492560863494873,-2.9376292565185103,0.09154174510586294,-0.08697114757033088,2.959371792228321,1.7395786279701568,-2.843099581634611
1.0693349838256836,-2.9760796976108774,0.10644881185671179,-0.08697662953196801,2.959491206003366,1.739658688532825,-2.8746206687382396
1.0894312858581543,-3.0072245500588983,0.11852348702649645,-0.08698106992089409,2.9595895125147877,1.7397235247601575,-2.9001529724406034
1.109487533569336,-2.886576859539426,0.1283039749059149,-0.08698466663592422,2.959669104285427,1.7397760973607257,-2.4793380522129405
1.1295793056488037,-2.4699101928727596,-0.18052638806824203,-0.0869861999723318,2.959701077385628,1.7397985047665037,-2.062671385546274
1.1497838497161865,-2.03484295116447,-0.39562620076546995,-0.08698882197758875,2.9597518158635188,1.7398363146690796,-1.3988939241369647
1.169790267944336,-1.6480435584560071,-0.6011572816381034,-0.0869909458018469,2.9598009976493174,1.7398675716477594,-0.7598278896695907
1.189915657043457,-1.3148286306815775,-0.8370414677895466,-0.0869918512216622,2.9598175286896824,1.7398804097309253,-0.38294463638278825
1.2099854946136475,-1.348852032022344,-0.6457035149708077,-0.08699339948954637,2.959848815934544,1.7399027180667517,0.024418287112728893
1.2301113605499268,-0.6954701512822882,-1.085419846121684,-0.08699465358653256,2.959877256169857,1.7399211790084588,0.5914888338001788
1.250220775604248,-1.1599308665800208,-0.8468900077948732,-0.08699566940509137,2.9598967995078334,1.7399358396294022,0.5754001138148063
1.2703170776367188,-1.3579378209812973,-0.7713474637076454,-0.08699610246458224,2.959903181758833,1.7399417897560292,0.5142130865059601
1.2903516292572021,-1.696529687041933,-0.6160232068105194,-0.08699684299631161,2.959916121815689,1.7399521679645773,0.4014351045156234
1.3103952407836914,-1.9707890679694031,-0.46667872835875857,-0.0869974428270124,2.9599293634915296,1.7399609373752878,0.2130817354381313
1.3305988311767578,-2.0877101764350017,-0.40301079505398124,-0.08699769854431115,2.959934223891683,1.739964617533691,0.09030870880759578
1.3506767749786377,-2.287645269254802,-0.29413862157854126,-0.08699813582089203,2.959942448738985,1.7399709915376393,-0.49855932741251135
1.370786428451538,-2.4495926811327053,-0.2059522154069736,-0.08699849001492255,2.9599510728503975,1.73997636958054,-0.9755427125689193
1.3908360004425049,-2.580770083106476,-0.1345212534037742,-0.08699877691208725,2.959959030579026,1.73998111721667,-1.3618992749305407
1.4109280109405518,-2.6366930729209708,-0.1040691534830819,-0.08699889922087853,2.959963976892445,1.7399831927460552,-1.5266094103950427
1.4310691356658936,-2.7323213785036606,-0.05199611152005629,-0.0869991083689116,2.959974018526412,1.739986736883907,-1.8082639845171713
1.451080560684204,-2.8097803014082885,-0.009816985607418258,-0.0869992777788184,2.9599833692875186,1.7399895570813158,-2.036404380240785
1.471527338027954,-2.84280226230583,0.008164631999351715,-0.08699935000093656,2.95998766509585,1.739990734772571,-2.1336642825486782
1.4919648170471191,-2.8992698142199043,0.038913183489140316,-0.08699947350075861,2.959995474206663,1.7399927005048879,-2.2999787898456843
1.5118434429168701,-2.945008538003415,0.06381957054114973,-0.08699957353561448,2.9599998363555153,1.7399941684200313,-2.4346932931908305
1.5319304466247559,-2.982056913563611,0.08399383126604619,-0.08699965456384773,2.9600005434075194,1.7399952787923831,-2.543811662478965
1.5520029067993164,-3.0120660998681643,0.10033500215454452,-0.08699972019671666,2.9600004780445883,1.73999617585451,-2.6321974518826203
1.5723767280578613,-3.0248594897538466,0.10730150066826122,-0.08699974817704499,2.960000471357961,1.7399965580229726,-2.6698777124864286
1.5922958850860596,-3.0467361863521276,0.11921421201313656,-0.08699979602340643,2.960000495945441,1.7399972109133057,-2.7343109632361196
1.6125397682189941,-3.064456310481039,0.1288635069450663,-0.08699983477895921,2.9600005565332284,1.7399977389023606,-2.7865019021090616
1.632730484008789,-3.0788096109325185,0.13667943479199474,-0.08699986617095695,2.9600006395077187,1.739998165736597,-2.828776567391183
1.6531519889831543,-3.0849286495159634,0.14001148789447124,-0.08699987955386125,2.9600006861413246,1.7399983473960703,-2.8467989262860023
1.6729953289031982,-3.095392203203985,0.1457092741300333,-0.08699990243862761,2.960001560608893,1.7399986457717744,-2.877617271761506
1.6930766105651855,-3.103867681451626,0.15032447811332894,-0.08699992097528837,2.960002361741406,1.7399988843649985,-2.9025801447535016
1.7132563591003418,-3.110732818639283,0.15406279098815415,-0.08699993598998358,2.96000308679065,1.7399990749606706,-2.9228000826566087
1.733273983001709,-3.1136595349566574,0.15565649201951523,-0.08699994239098523,2.960003420925003,1.7399991553097156,-2.9314201649886247
1.7533483505249023,-3.1186642197561594,0.15838171949543692,-0.08699995333669804,2.9600040339950655,1.7399992911603304,-2.946160511671909
1.7734503746032715,-3.122718014330473,0.1605891523250893,-0.0869999622027254,2.960004576761138,1.7399993994516405,-2.9581001990104454
1.7934918403625488,-3.126001587844047,0.1623771717536673,-0.08699996938420758,2.960005054087241,1.7399994857124517,-2.967771351076526
1.8135802745819092,-3.127401427049004,0.16313943228748523,-0.08699997244578682,2.9600052699040553,1.739999522004329,-2.9718943176445265
1.833702564239502,-3.129795152040362,0.16444289716947252,-0.08699997768108733,2.9600056593882176,1.7399995832544957,-2.978944593359809
1.8537530899047852,-3.1317340692294047,0.16549870302796904,-0.08699998192168074,2.9600059974174417,1.7399996319665876,-2.9846553198700145
1.873828411102295,-3.133304592108856,0.166353905207659,-0.0869999853565614,2.9600062895503676,1.7399996706846799,-2.9892810109283614
1.8939692974090576,-3.1339741307958944,0.16671849121555105,-0.08699998682090525,2.960006420069676,1.73999968694837,-2.9912530169067706
1.9140188694000244,-3.1351190419272923,0.1673419329838051,-0.08699998932493325,2.9600066531488465,1.7399997143561206,-2.9946251485243627
1.9341387748718262,-3.1017426070888274,0.16784701610743744,-0.08699999135319593,2.9600037546833664,1.739999843136689,-2.997356126037048
1.954197645187378,-3.074213302558041,0.16825602582309712,-0.08699999299608871,2.9600048936372176,1.7399998249253392,-2.999568725655436
1.9743545055389404,-3.07686720558847,0.1684303999140051,-0.08699999369647984,2.960005159067816,1.739999825808145,-3.000511959398654
1.994791030883789,-2.970694780829505,0.16872861194862965,-0.08699999489414868,2.9600045669552615,1.739999846228482,-3.0021247432527116
2.014724016189575,-2.9230366747259593,0.16897005785433583,-0.08699999586426044,2.9600075148640657,1.7399997600299926,-3.0034315906828635
2.0347936153411865,-2.600117527794566,0.1691657324605748,-0.08699999665005095,2.9600065532894893,1.7399997927963025,-3.0044896550177693
2.054882764816284,-2.1834508611278993,-0.06276935825492871,-0.08699999698504586,2.960005341654161,1.73999982632095,-2.8156535508411156
2.0750062465667725,-1.9041057861961417,-0.22735975350887302,-0.08699999755788715,2.9600007245582014,1.7399996843974774,-2.3060715777636935
2.095094919204712,-1.6159256886809248,-0.3148541368203346,-0.0869999980218886,2.960000329210295,1.7399997385142107,-1.5837386182282207
2.115126371383667,-0.9117998322690576,-0.5593845435950152,-0.08699999839772976,2.959996209775122,1.739999451981586,-0.7504052848948872
2.135220527648926,-0.6116198658698203,-0.676405371887608,-0.08699999855795679,2.9599944069772386,1.7399992541242484,-0.3744644529424368
2.1553103923797607,-0.09831214745716732,-0.9870289723781746,-0.08699999883194501,2.9599895342945506,1.739998668591504,0.26839456913648163
2.175403356552124,0.3174671168323774,-0.7903715423835072,-0.08699999905387545,2.959987536601834,1.7399984944549554,0.5804128248366209
2.195469379425049,0.6542483300745245,-1.2026008860509063,-0.08699999923363912,2.959986708718506,1.7399984482731259,1.0418447736453096
2.215555191040039,0.27482348186260525,-1.0653407776346278,-0.0869999993102752,2.9599867863724363,1.7399985852638336,0.6367604184777789
2.2356715202331543,-0.3739930468847069,-0.8306259243787508,-0.08699999944132292,2.959983479203816,1.739998342707444,-0.055933397258544904
2.2557339668273926,-0.8995344020083947,-0.6405069201595784,-0.08699999954747156,2.959983097968342,1.7399982221148218,-0.6170155949758602
2.275843381881714,-1.325222911621451,-0.48651046344247323,-0.08699999963345197,2.9599806899281305,1.7399978830461535,-1.071491860668076
2.2959237098693848,-1.5067006283453064,-0.4208593868366539,-0.08699999967010677,2.959981507484504,1.739997976723864,-1.265242517479617
2.3160436153411865,-1.8170275325426208,-0.3085959988085204,-0.08699999973278648,2.9599813227699037,1.7399980259771377,-1.5965559101369686
2.3360955715179443,-2.0683923283672425,-0.21766261977920082,-0.08699999978355705,2.959980124837373,1.739998099757902,-1.8649195895276827
2.3561694622039795,-2.2719978134142913,-0.14400659781277025,-0.0869999998246812,2.9599797995426598,1.7399987104532848,-2.0822940899806777
2.37626576423645,-2.358798032466115,-0.11260595356284811,-0.08699999984221309,2.959982349187638,1.7399990783105026,-2.1749646733193875
2.396357774734497,-2.507226396068471,-0.05891092452184139,-0.0869999998721926,2.9599890711967993,1.7399997144224795,-2.3334317340078257
2.416594982147217,-2.62745336462587,-0.015417996840276865,-0.086999999896476,2.959995981485573,1.740000162259402,-2.461790288237482
2.4368577003479004,-2.724837207056673,0.019811253436223867,-0.08699999991614556,2.9600022429359663,1.7400004399901536,-2.5657608312104943
2.4571382999420166,-2.766353476331165,0.034830033805274475,-0.086999999924531,2.9600050771251682,1.7400005274108392,-2.610085144789601
2.4771368503570557,-2.8373463137868176,0.06051230893085127,-0.0869999999388701,2.9600047107913254,1.7400004356085288,-2.685879050598779
2.497190237045288,-2.8948505143042085,0.08131497147423945,-0.08699999995048478,2.9600037755424484,1.740000353420911,-2.7472720250706626
2.5172839164733887,-2.9414289165241634,0.09816512626353485,-0.08699999995989267,2.960003078578787,1.7400002865351993,-2.7970003430578654
2.5373499393463135,-2.9612860247741835,0.10534861266334362,-0.08699999996390341,2.9600028022260796,1.7400002577863005,-2.8182003131624502
2.5574774742126465,-2.995241679773903,0.11763237329110698,-0.08699999997076176,2.9600023657627994,1.7400002080435666,-2.854452267176955
2.5775556564331055,-3.022745758822137,0.12758220370197587,-0.08699999997631702,2.960002519811882,1.7400001645631185,-2.883816420510168
2.5975987911224365,-3.0450240624163896,0.13564156153181403,-0.08699999998081678,2.960002799982341,1.7400001251839916,-2.907601406895902
2.6176910400390625,-3.0545216548585303,0.13907739140954656,-0.08699999998273511,2.960002971782369,1.7400001068635336,-2.917741329607766
2.637799024581909,-3.0707625376967416,0.14495265774720373,-0.08699999998601544,2.960003354662995,1.740000072749539,-2.935080610127887
2.657893419265747,-3.0707625376967416,0.14495265774720373,-0.08699999998601544,2.960003354662995,1.740000072749539,-2.935080610127887
2.6782262325286865,-3.0839176525321945,0.1497116203766856,-0.0869999999886725,2.960003765266594,1.7400000418134274,-2.9491254416332136
2.700204610824585,-3.0945732953337526,0.1535663775268689,-0.08699999999082472,2.96000418137043,1.7400000138756668,-2.9605017670116887
2.7202835083007812,-3.10320436582757,0.15668872868465988,-0.08699999999256802,2.9600045875078176,1.7399999887760313,-2.9697166003698494
2.7403340339660645,-3.106883927401795,0.15801983557898613,-0.08699999999331122,2.9600047834656324,1.7399999772400891,-2.9736450325621058
2.7604053020477295,-3.1131759775986634,0.1602960271908745,-0.08699999999458209,2.960005156686742,1.73999995608983,-2.9803626570135964
2.780520439147949,-3.1182725381532927,0.16213974108911366,-0.08699999999561149,2.9600055013429896,1.7399999373522173,-2.985803938816197
2.8005263805389404,-3.1224007521173487,0.16363314827689038,-0.08699999999644531,2.9600058151694606,1.7399999208402581,-2.990211381981507
2.820842981338501,-3.1241606748847706,0.1642698109906219,-0.08699999999680078,2.960005960314553,1.7399999133590447,-2.992090346200907
2.8409557342529297,-3.094434460778047,0.16535854116705676,-0.08699999999740862,2.9600050119122474,1.739999941280201,-2.9953032007241123
2.86108136177063,-3.0222749899527495,0.16624042212628734,-0.08699999999790099,2.960003935458463,1.7399999738165197,-2.9979055682395557
2.8811428546905518,-2.7340674841970443,0.1669547320943243,-0.0869999999982998,2.960003507877833,1.7399999501159087,-3.0000135632081704
2.9012205600738525,-1.900734150863711,-0.04430126183817096,-0.08699999999862283,2.960000943075743,1.7399999701582034,-2.858183729496685
2.9214043617248535,-1.9807838157945796,-0.16750430989038048,-0.08699999999876054,2.959999940569867,1.7399999550273375,-2.4415170628300187
2.9414665699005127,-1.6385456526881033,-0.2335484027522448,-0.08699999999899603,2.9600010061756867,1.7400000718614448,-1.6473551082537046
2.961550235748291,-0.9301219930894413,-0.46987412049594723,-0.08699999999918678,2.9599979441250612,1.739999899504716,-0.8909420636948797
2.9822115898132324,-0.6281098093367524,-0.7188866470184303,-0.08699999999926811,2.9599959078259164,1.7399996774763777,-0.5009475401959748
3.0023505687713623,-0.11166900407299316,-0.5499980218716136,-0.08699999999940716,2.959989984154913,1.739998908086759,0.16594339593689222
3.022388219833374,0.3066480691077173,-1.0078982937449865,-0.08699999999951981,2.9599875786000607,1.73999860289452,0.7061247290071453
3.0424656867980957,-0.34821512029302715,-0.784097523516255,-0.08699999999961104,2.9599849352349636,1.7399983736851274,0.30435484881465136
3.06254243850708,-0.878654296010323,-0.6028188785692452,-0.08699999999968494,2.959982694927384,1.7399980475123535,-0.32518190543741254
3.082627058029175,-1.1047888923462799,-0.5255369094400423,-0.08699999999971644,2.9599812262110174,1.7399978580715276,-0.5935632744800978
3.102729320526123,-1.4914790204692148,-0.3933848303665199,-0.08699999999977032,2.9599823371542273,1.7399980006707436,-1.052495906617653
3.1227867603302,-1.8046980258184386,-0.28634162362711185,-0.08699999999981395,2.9599825767715595,1.7399981135619045,-1.4242312372059218
3.1432595252990723,-1.93822823882111,-0.24070738024009652,-0.08699999999983256,2.9599815614059555,1.7399981289414652,-1.5827077083010652
3.163339853286743,-2.1665648963373476,-0.16267286573507325,-0.08699999999986438,2.9599813381382214,1.7399985592558582,-1.8537025955215405
3.1834185123443604,-2.3515175686582044,-0.09946504134130685,-0.08699999999989014,2.959985578198974,1.7399992930517998,-2.0732090337304663
3.203511953353882,-2.501329218295333,-0.04826680199961113,-0.08699999999991101,2.9599922157667637,1.7399998965390018,-2.251009741721055
3.2236244678497314,-2.565196287794656,-0.026440201256269905,-0.0869999999999199,2.9599955902696706,1.740000124308625,-2.326809079142312
3.2436933517456055,-2.67440897493075,0.010883269246734554,-0.08699999999993512,2.9600018867172286,1.7400004450643558,-2.456426037249841
3.263787031173706,-2.7628712582044948,0.04111534151379756,-0.08699999999994744,2.960004987248919,1.7400005044271492,-2.561415542148133
3.2838642597198486,-2.8005841299002197,0.05400378471059725,-0.0869999999999527,2.9600052227934164,1.7400004621475484,-2.6061740905071726
3.30391788482666,-2.8650731454217695,0.07604306744617248,-0.08699999999996169,2.960004171128681,1.7400003749284667,-2.6827110046499465
3.324112892150879,-2.9173092477833538,0.09389488451971427,-0.08699999999996896,2.960003382204646,1.740000304102823,-2.7447059141134327
3.3441102504730225,-2.9596204905256758,0.10835485467248406,-0.08699999999997486,2.960002797444125,1.740000246166412,-2.7949217985215555
3.3641915321350098,-2.9776584413230673,0.11451936768861155,-0.08699999999997737,2.9600025667636762,1.7400002211782712,-2.8163296255759778
3.3842766284942627,-3.0085033370932117,0.12506068394844333,-0.08699999999998168,2.9600022045743013,1.7400001778179945,-2.852937014422268
3.4043924808502197,-3.0334877009440175,0.13359913194197404,-0.08699999999998516,2.960002498992797,1.7400001372495142,-2.8825890814093196
3.4244771003723145,-3.0537250352851317,0.1405152705521651,-0.08699999999998798,2.9600028754605505,1.740000100390529,-2.906607275349551
3.444507360458374,-3.070117275791752,0.14611733924249884,-0.08699999999999027,2.960003296386362,1.740000066892417,-2.9260620289562222
3.464860200881958,-3.0771055466428945,0.14850558838111472,-0.08699999999999124,2.9600035146043036,1.7400000513307128,-2.93435590311294
3.484849452972412,-3.0890554896291595,0.1525894923857081,-0.0869999999999929,2.960003953230613,1.740000022470376,-2.948538437223145
3.5048859119415283,-3.0987349432608227,0.15589745236429847,-0.08699999999999425,2.9600043818589308,1.7399999964943584,-2.960026300263689
3.5249831676483154,-3.106575300549808,0.158576898077167,-0.08699999999999533,2.9600047895979484,1.7399999732431275,-2.9693314779147553
3.5450432300567627,-3.1099177686073145,0.15971918747516411,-0.0869999999999958,2.9600049833881363,1.739999962587135,-2.9732984249012917
3.565138578414917,-3.1156333889029364,0.16167250131678843,-0.0869999999999966,2.960005348097484,1.739999943103918,-2.980081908970277
3.585214376449585,-3.120263041251168,0.16325468438711305,-0.08699999999999725,2.9600056804853585,1.7399999259047922,-2.9855765363024767
3.6053237915039062,-3.124013059579103,0.16453625174106376,-0.08699999999999777,2.9600059799454908,1.7399999107995272,-2.990027188720519
3.6257541179656982,-3.125611751578944,0.16508260383383302,-0.086999999999998,2.9600061175075183,1.7399999039720961,-2.991924573520524
3.645857334136963,-3.1100976176412116,0.16601688646010532,-0.08699999999999837,2.9600056870568747,1.7399999149987884,-2.99516900456203
3.6659770011901855,-3.053623560069568,0.1667736803339873,-0.08699999999999869,2.9600045302200853,1.7399999512589581,-2.9977968761977585
3.686047077178955,-2.9495822010629853,0.16738665240996886,-0.08699999999999893,2.9600045974657765,1.739999934055851,-2.999925602696128
3.706113815307617,-2.2180707930619348,0.1678831582485729,-0.08699999999999913,2.9600047022392233,1.739999915218414,-3.0016498795855213
3.7262182235717773,-2.016965501200525,-0.0803125623294228,-0.08699999999999922,2.960003486613376,1.739999940703571,-2.584983212918855
3.7463107109069824,-1.7551117440063182,-0.2563197249147719,-0.08699999999999937,2.9599982575767827,1.7399996723408133,-2.1689643970222257
3.7664105892181396,-1.3051047636393527,-0.3886652484343224,-0.0869999999999995,2.9599989870222143,1.7399997517430017,-1.7528810545467428
3.7870066165924072,-0.965594294570135,-0.5461449497643976,-0.08699999999999955,2.9599979272912265,1.7399996724262254,-1.336214387880076
3.8071494102478027,-0.3850314068997501,-0.6689056576525069,-0.08699999999999963,2.959994740838869,1.739999312946478,-0.5266926891743703
3.827256679534912,0.08522451719759397,-1.1042134760336912,-0.0869999999999997,2.9599911018307377,1.7399988831346442,0.14508953029750987
3.847327470779419,0.46613186644235116,-0.8621129214541179,-0.08699999999999976,2.95999332467432,1.7399990572203359,0.6597348430418245
3.8674426078796387,0.6285186508635332,-1.0719015732951263,-0.08699999999999979,2.959991251854488,1.7399988327891742,0.8946616984981846
3.887509822845459,0.3832000636194574,-1.1176402151290314,-0.08699999999999984,2.9599892737089926,1.7399989640514777,0.6945863409578695
3.907608985900879,-0.2862080008097249,-0.872988499987213,-0.08699999999999987,2.959986938321338,1.7399988856678363,-0.009094593351178237
3.9278392791748047,-0.8284285288904756,-0.6748205817387853,-0.0869999999999999,2.959984621568815,1.7399985169794074,-0.5790760097695817
3.948051929473877,-1.2676271401054036,-0.5143045745721656,-0.08699999999999992,2.959983698791519,1.7399983337027585,-1.0407610412467916
3.9681437015533447,-1.4548644362827519,-0.4458740798296777,-0.08699999999999992,2.959983937071888,1.7399983472079978,-1.2375847416944503
3.988402843475342,-1.7750402233369744,-0.32885787700812424,-0.08699999999999992,2.959982427861048,1.7399982281002817,-1.5741529903791418
4.008303165435791,-2.034382598673822,-0.23407478868942122,-0.08699999999999994,2.9599826387843766,1.739998361024155,-1.8467734640850444
4.028336524963379,-2.244449922568762,-0.15730049502946847,-0.08699999999999994,2.9599831630721156,1.7399987817613867,-2.0675960035447396
4.048451900482178,-2.3340049331487474,-0.12457044592748151,-0.08699999999999994,2.959984878775667,1.7399991282428966,-2.1617363210907494
4.068509340286255,-2.487143987763726,-0.06860214826252309,-0.08699999999999994,2.9599906324348253,1.7399997565908378,-2.3227166941493316
4.0885820388793945,-2.6111866146759097,-0.023267881256747943,-0.08699999999999994,2.959997029724479,1.7400002096924505,-2.4531110715061843
4.109236001968384,-2.6640679439619555,-0.0039411777864914906,-0.08699999999999994,2.960000083792707,1.7400003703189304,-2.508700308261638
4.1294941902160645,-2.754495026294258,0.029107568826171416,-0.08699999999999994,2.9600025760719255,1.7400004430025011,-2.6037575670058866
4.149474620819092,-2.8277409717426565,0.05587713464476453,-0.08699999999999994,2.9600019602530208,1.7400003589664808,-2.680753610988537
4.169626951217651,-2.8870701872926046,0.07756048070059093,-0.08699999999999994,2.960001534703924,1.7400002913406265,-2.7431204171379755
4.189702033996582,-2.9351268516800477,0.09512398907786473,-0.08699999999999994,2.960001252461814,1.7400002363411713,-2.7936375390568426
4.20977520942688,-2.9556141664303364,0.10261158935643089,-0.08699999999999994,2.960001153537911,1.7400002126802683,-2.815173788823526
4.229870557785034,-2.9906474745411558,0.11541538468279967,-0.08699999999999994,2.960001021581971,1.7400001716590718,-2.852000781220144
4.250023365020752,-3.0190244532490897,0.12578644988068194,-0.08699999999999994,2.9600012062569796,1.7400001362808837,-2.8818306856867952
4.270103216171265,-3.0420098049779334,0.13418700178821302,-0.08699999999999994,2.96000170844909,1.740000103040652,-2.9059929577658092
4.290978670120239,-3.051808823198162,0.13776828803397198,-0.08699999999999994,2.960001976664193,1.7400000873149868,-2.9162937235795265
4.31084942817688,-3.068565144107572,0.14389228466558096,-0.08699999999999994,2.960002527497445,1.7400000575825199,-2.9339080462457687
4.330933332443237,-3.0821377637703535,0.1488527187231477,-0.08699999999999994,2.9600030776995303,1.74000003011639,-2.948175662397981
4.3511011600494385,-3.0931315854735937,0.15287066763648793,-0.08699999999999994,2.9600036099048803,1.7400000049098954,-2.959732443771995
4.3711302280426025,-3.0978184251791703,0.15458358181345283,-0.08699999999999994,2.9600038654819123,1.739999993150181,-2.964659286218142
4.391252756118774,-3.105832920954311,0.15751266357035074,-0.08699999999999994,2.9600043506289144,1.7399999712961356,-2.973084193622669
4.411383628845215,-3.1039042790768914,0.15988524005343843,-0.08699999999999994,2.960004087244829,1.7399999755893554,-2.9799082726008943
4.4314048290252686,-3.0728099617145648,0.1618070580351525,-0.08699999999999994,2.9600028686258826,1.7400000130748263,-2.9854356299165996
4.451534986495972,-3.0491548040139818,0.16262632286240739,-0.08699999999999994,2.960003532346865,1.739999988407147,-2.9877922022239454
4.471663951873779,-2.951308351695412,0.16402729523335619,-0.08699999999999994,2.9600037122178344,1.7399999670228798,-2.991821805763657
4.491694688796997,-2.1355324008624876,0.1651621302133316,-0.08699999999999994,2.960002301341159,1.7400002288150285,-2.9950854757832284
4.511802673339844,-2.0051426287660585,-0.3141861391127435,-0.08699999999999995,2.959997588958026,1.7400001959762168,-2.1617521424498953
4.532967805862427,-1.5691147592510268,-0.22219071271270352,-0.08699999999999995,2.9599960311643376,1.7400000385791319,-2.274621172086918
4.553021669387817,-1.3947581603503654,-0.40900469777013304,-0.08699999999999995,2.9599955028960876,1.739999982120625,-1.857954505420251
4.57309889793396,-0.9050534892555313,-0.5024235800173293,-0.08699999999999995,2.9599965798477164,1.740000079391071,-1.0506082191820385
4.593188762664795,-0.33599335985165557,-0.6876629686887472,-0.08699999999999995,2.9599924289606485,1.739999564562635,-0.32819585288261427
4.613284587860107,-0.09339403676761682,-0.9148966371911851,-0.08699999999999995,2.9599917365222197,1.7399994263709426,0.005523926805387214
4.633364677429199,0.32145079809451416,-0.7087662126965208,-0.08699999999999995,2.959990234483546,1.739999178759317,0.5761847629758693
4.653525114059448,0.6574750715509063,-1.1365004743936857,-0.08699999999999995,2.9599846857053955,1.7399984839041323,1.0384205918576408
4.673559665679932,-0.06404523305090287,-0.8882653254054349,-0.08699999999999997,2.9599841556392974,1.7399985452411568,0.2694110521362296
4.693636655807495,-0.37164073707997713,-0.7824387424121237,-0.08699999999999997,2.9599832077755384,1.7399984063827227,-0.05842974395063577
4.713726043701172,-0.8976290440659063,-0.6014752691553645,-0.08699999999999997,2.9599814485922202,1.7399980927714847,-0.6190374452436724
4.739451169967651,-1.1218661650187667,-0.5243276625890774,-0.08699999999999997,2.9599801711333034,1.7399979071982725,-0.8580332693971584
4.771080732345581,-1.1218661650187667,-0.5243276625890774,-0.08699999999999997,2.9599801711333034,1.7399979071982725,-0.8580332693971584
4.79665994644165,-1.1218661650187667,-0.5243276625890774,-0.08699999999999997,2.9599801711333034,1.7399979071982725,-0.8580332693971584
4.816778659820557,-1.5053116109587936,-0.39240534169750785,-0.08699999999999997,2.9599815314534403,1.739998046136161,-1.2667166093405196
4.83696985244751,-1.8159024237277792,-0.2855482394687555,-0.08699999999999997,2.959981983482593,1.7399981560353364,-1.5977500148686756
4.857025384902954,-2.067480984369533,-0.19899396173173897,-0.08699999999999997,2.959981604376737,1.7399982893557886,-1.8658869496594501
4.87704610824585,-2.271259616133258,-0.12888503363525347,-0.08699999999999997,2.9599826333969346,1.7399989625377932,-2.083077887599352
4.8972227573394775,-2.358133652788163,-0.0989965599643696,-0.08699999999999997,2.9599853632296966,1.7399993211043598,-2.1756701583172453
4.91737961769104,-2.5066882464822506,-0.047887331619555086,-0.08699999999999997,2.959992026018028,1.739999915867631,-2.334003251428225
4.937419176101685,-2.6270174625756555,-0.006488895265167546,-0.08699999999999997,2.9599986512148173,1.7400003182767363,-2.4622532576120526
4.957545042037964,-2.678315706598375,0.011159904216113865,-0.08699999999999997,2.9600017134829746,1.7400004553347825,-2.516928301899374
4.977631092071533,-2.766035713647154,0.04133944070125607,-0.08699999999999997,2.96000404029117,1.7400005008372343,-2.6104222638755483
4.997732877731323,-2.837088928379363,0.06578494986597495,-0.08699999999999997,2.9600031786752017,1.7400004061243637,-2.6861520201079796
5.017840623855591,-2.894642032076527,0.08558581019530245,-0.08699999999999997,2.960002548667349,1.7400003295220356,-2.7474931323940295
5.037903070449829,-2.941260045882624,0.10162450526337725,-0.08699999999999997,2.9600020965971536,1.740000267068649,-2.797179441668221
5.058038949966431,-2.961134041180457,0.10846205359549828,-0.08699999999999997,2.9600019238676603,1.74000024018947,-2.818361502682288
5.078096389770508,-2.995118573036959,0.1201542601684816,-0.08699999999999997,2.960001663273346,1.740000193625437,-2.854582831960653
5.098283290863037,-3.022646042274068,0.1296249310594291,-0.08699999999999997,2.9600019835644598,1.7400001521026263,-2.8839221826273747
5.118605136871338,-3.0343814368871596,0.133662425750405,-0.08699999999999997,2.960002179858363,1.740000132783878,-2.8964300196017065
5.138712644577026,-3.054448961397061,0.14056653851381976,-0.08699999999999997,2.9600026177125245,1.740000096736909,-2.91781843539765
5.158782243728638,-3.070703655940804,0.14615886627237795,-0.08699999999999997,2.960003088228284,1.7400000639010305,-2.935143068687621
5.179094076156616,-3.083869958268015,0.15068864876486973,-0.08699999999999997,2.9600035661936115,1.7400000340795805,-2.949176035422431
5.1989991664886475,-3.0945346629460966,0.1543577700972914,-0.08699999999999997,2.9600040338470426,1.7400000071232262,-2.9605427499103327
5.219151735305786,-3.0990811948726718,0.15592197363111654,-0.08699999999999997,2.960004259885944,1.7399999946758689,-2.965388563555663
5.239290237426758,-3.1068557643546373,0.158596760293592,-0.08699999999999997,2.9600046911144653,1.7399999717520334,-2.9736749112283056
5.259462833404541,-3.106464940440235,0.16076335349673437,-0.08699999999999997,2.9600045218508044,1.73999997056598,-2.9803867769840404
5.279492378234863,-3.1031302175962923,0.1616869949672054,-0.08699999999999997,2.9600048196982947,1.7399999574291471,-2.9832482052521874
5.299633741378784,-3.056497500696153,0.1632664674088434,-0.08699999999999997,2.960003854135945,1.7399999846606982,-2.9881410325763214
5.319735527038574,-2.974194200244746,0.16454581076357047,-0.08699999999999997,2.960004023018343,1.7399999637047145,-2.9921043650988186
5.339861154556274,-2.262518677261075,0.16558207955896048,-0.08699999999999997,2.960004138221105,1.739999943628412,-2.9953146626044282
5.360558748245239,-1.9300312868652019,-0.2242255474391919,-0.08699999999999997,2.9599997877269604,1.7399999842401719,-2.3004628634684696
5.3806445598602295,-1.8691410008772225,-0.18480302616365385,-0.08699999999999997,2.9600009289424483,1.7400000269733777,-2.1446680301712506
5.400733709335327,-1.4239057882853159,-0.4303903648998932,-0.08699999999999997,2.959997886582379,1.7399998926474838,-1.5877855156397753
5.420821905136108,-0.756263717220168,-0.5980161022726804,-0.08699999999999997,2.959994651792571,1.7399995016010128,-0.7544521823064418
5.440927267074585,-0.4716373543289581,-0.5212144641316409,-0.08699999999999997,2.9599940912772027,1.7399994201947295,-0.378106813145491
5.4610490798950195,0.015073706894983024,-0.9845836114686044,-0.08699999999999997,2.9599909624245164,1.739999029301571,0.26544405640574775
5.481088161468506,0.16158125184218491,-0.7652126162263635,-0.08699999999999997,2.959987104441586,1.7399986170970803,0.6807098652986648
5.501171827316284,0.5279808124153343,-1.1300661652737811,-0.08699999999999997,2.959989610522339,1.7399989197355301,1.123084967911206
5.521401882171631,0.2731130995043265,-1.0000595282819162,-0.08699999999999997,2.9599893907765167,1.7399989734758041,0.914008352571581
5.541380167007446,-0.2746411179673301,-0.7777480909814066,-0.08699999999999997,2.95998477154638,1.7399984909297679,0.3523561297705291
5.561540603637695,-0.8190593535760726,-0.5976758381415668,-0.08699999999999997,2.9599825873477905,1.7399981446672226,-0.286300869294796
5.581559181213379,-1.2600381125317541,-0.45181730883268123,-0.08699999999999997,2.9599812667141143,1.7399979579617173,-0.8036130618767281
5.6021997928619385,-1.4480343076791293,-0.38963555191166377,-0.08699999999999997,2.9599821977969256,1.7399980674415267,-1.0241516219940512
5.622292518615723,-1.7695078086989893,-0.28330470644237776,-0.08699999999999997,2.959982410744065,1.7399981652641494,-1.401272358864722
5.642376899719238,-2.0299013469088947,-0.19717669580048514,-0.08699999999999997,2.9599818110481895,1.7399982906784064,-1.7067400276479545
5.664089918136597,-2.1409112284633034,-0.16045895057696907,-0.08699999999999997,2.9599811361017014,1.7399986034178834,-1.8369655583656013
5.684307813644409,-2.2408201104052696,-0.12741304543269374,-0.08699999999999997,2.959982709526979,1.7399989762288586,-1.9541688613512278
5.704617261886597,-2.411664282354748,-0.07090464970713702,-0.08699999999999997,2.959988742227101,1.7399996672012448,-2.154587018247147
5.724506855010986,-2.484497846528156,-0.04681425568172453,-0.08699999999999997,2.9599921946502303,1.7399999440616336,-2.2400285814117207
5.7445666790008545,-2.60904323834251,-0.005619706681538758,-0.08699999999999997,2.9599988826333585,1.740000349739483,-2.3861337854478197
5.764673233032227,-2.7099250041251244,0.027747860665898023,-0.08699999999999997,2.9600048413865063,1.7400005879976472,-2.50447909765436
5.784889221191406,-2.752932501229156,0.04197305237753541,-0.08699999999999997,2.960005078093447,1.740000540067244,-2.554931288356255
5.804906129837036,-2.8264753263176337,0.06629817529786255,-0.08699999999999997,2.960004020136692,1.7400004379196623,-2.6412043300565573
5.825040102005005,-2.8860450144044805,0.08600152277615843,-0.08699999999999997,2.9600032308655844,1.74000035528368,-2.711085503537699
5.845200538635254,-2.934296461567124,0.10196123244169869,-0.08699999999999997,2.960002649570957,1.740000287937052,-2.76768926234772
5.865265607833862,-2.9548668152962065,0.10876510805213029,-0.08699999999999997,2.9600024216684404,1.7400002589707257,-2.7918203413099434
5.88536524772644,-2.990042120070589,0.12039973427507954,-0.08699999999999997,2.96000206659708,1.7400002088369846,-2.8330844912610194
5.90541934967041,-3.018534116823806,0.12982378028099298,-0.08699999999999997,2.960001818927538,1.7400001673914536,-2.866508458388723
5.925487756729126,-3.0416126323278614,0.13745723773908392,-0.08699999999999997,2.9600022588395793,1.740000126774912,-2.893581961304525
5.946239233016968,-3.0514513677478488,0.140711499621756,-0.08699999999999997,2.960002496861204,1.740000107947138,-2.9051238302705746
5.966345548629761,-3.068275605087785,0.1462762847896898,-0.08699999999999997,2.9600029896907945,1.7400000730187701,-2.9248604384203354
5.986602306365967,-3.08190323707986,0.15078375778478587,-0.08699999999999997,2.960003485698618,1.7400000414977395,-2.9408471047907407
6.006659984588623,-3.0929416187862806,0.1544348084236555,-0.08699999999999997,2.9600039679886456,1.7400000131603521,-2.9537963159898113
6.02672553062439,-3.101882707799325,0.15739215738284967,-0.08699999999999997,2.960004425293398,1.7399999878062269,-2.9642851865203967
6.046844005584717,-3.1056944351653275,0.15865292125933972,-0.08699999999999997,2.960004642265017,1.7399999761864162,-2.968756760763841
6.066919803619385,-3.1122124888693787,0.16080882635173432,-0.08699999999999997,2.960005050093093,1.7399999549363017,-2.9764031579376953
6.087024211883545,-3.117492112268336,0.16255510821442978,-0.08699999999999997,2.9600054213168234,1.739999936168353,-2.982596745441323
6.107064485549927,-3.1217686071390935,0.163969595490203,-0.08699999999999997,2.960005755472233,1.7399999196749614,-2.987613556058721
6.127189874649048,-3.1235917443992185,0.16457261341134316,-0.08699999999999997,2.960005908895396,1.7399999122162009,-2.9897523031905155
6.147267818450928,-3.1220878714366473,0.16560377881211638,-0.08699999999999997,2.9600060171819154,1.7399999046435388,-2.9934095382783488
6.167394161224365,-3.081328593522136,0.16643906148967066,-0.08699999999999997,2.9600048510418135,1.7399999412487863,-2.996371716202741
6.1874680519104,-3.0054844577151787,0.1671156346346528,-0.08699999999999997,2.9600040952055413,1.7399999637409773,-2.9987711080285564
6.2075560092926025,-2.7720094847488137,0.16740409850502755,-0.08699999999999997,2.9600028010903903,1.739999988224624,-2.9997938720479027
6.2276811599731445,-2.1655493070981584,0.04469036621270403,-0.08699999999999997,2.960000727673253,1.7400000237031856,-2.8310282660282153
6.2478110790252686,-1.8889552883684009,-0.1294100045933299,-0.08699999999999997,2.9599949985426655,1.7399999341159194,-2.261643838132375
6.268176078796387,-1.5559451107343092,-0.1508429724155497,-0.08699999999999997,2.9599993976859187,1.7400001015743058,-1.4665444263604133
6.288431167602539,-1.1913506048971045,-0.11875864074984334,-0.08699999999999997,2.959998319300479,1.7400000436510175,-1.0498777596937465
6.3084540367126465,-0.5678940066031499,-0.6585944135383119,-0.08699999999999997,2.9599956938249488,1.7399998261078096,-0.27869056344591564
6.328510284423828,-0.06289418651514855,-0.5011613480076345,-0.08699999999999997,2.9599914826556146,1.7399992535302378,0.3459713340015271
6.348638534545898,0.15239521687438004,-0.7470451560634899,-0.08699999999999997,2.959990215988785,1.7399990989986274,0.6122744989968288
6.368726015090942,-0.0024599117499918277,-0.8545065052784712,-0.08699999999999997,2.9599885553726324,1.7399988905369552,0.46585277448691625
6.388795375823975,-0.5985925777340795,-0.6598501604008195,-0.08699999999999997,2.959985751221178,1.73999849217827,-0.19436861318466953
6.40887975692749,-1.0814600211582754,-0.502178526118809,-0.08699999999999997,2.9599843680110047,1.7399982886450727,-0.7291480140398685
6.429198741912842,-1.287314029847485,-0.43496063313082545,-0.08699999999999997,2.9599844336419285,1.7399982975865615,-0.957133001874731
6.449306488037109,-1.6393243962435338,-0.3200179737640998,-0.08699999999999997,2.9599824438533613,1.7399981603737185,-1.3469870251044957
6.469404935836792,-1.924452780027272,-0.2269144591083554,-0.08699999999999997,2.9599823882370804,1.7399982951414492,-1.6627689932585272
6.489518165588379,-2.155406770605898,-0.15150062210181825,-0.08699999999999997,2.959982766323362,1.7399987475869172,-1.9185523444045718
6.509679555892944,-2.2538660964843484,-0.11935056108771612,-0.08699999999999997,2.9599845488471623,1.7399991192285582,-2.0275970239374894
6.529700517654419,-2.4222315294987298,-0.06437404839501043,-0.08699999999999997,2.9599905889019253,1.73999978486189,-2.214063883779023
6.549818277359009,-2.5586075227562,-0.01984312838606018,-0.08699999999999997,2.9599972542904025,1.7400002579272933,-2.365102323491571
6.569887399673462,-2.669072074907066,0.016226894031114176,-0.08699999999999997,2.960003368927278,1.7400005489128365,-2.4874435839503906
6.589938163757324,-2.7161648649410215,0.031604182834514535,-0.08699999999999997,2.9600037394893275,1.7400005071041804,-2.539599323960274
6.6103410720825195,-2.7966935385518146,0.05789936962386928,-0.08699999999999997,2.9600036280760103,1.7400004201669186,-2.628785535633569
6.630282402038574,-2.8619217663953336,0.07919849092018849,-0.08699999999999997,2.9600028893190515,1.7400003409462068,-2.7010262766195896
6.6503236293792725,-2.9147566307457606,0.09645077728185326,-0.08699999999999997,2.960002352090332,1.7400002765241376,-2.7595412855698673
6.6704511642456055,-2.937280967587105,0.10380569871423548,-0.08699999999999997,2.96000214403667,1.7400002488405548,-2.7844871607995136
6.690497636795044,-2.9757975834758668,0.11638261323354179,-0.08699999999999997,2.9600018248242077,1.7400002009365905,-2.8271446126459274
6.710603475570679,-3.0069960414865458,0.1265699049844819,-0.08699999999999997,2.960001857591538,1.7400001600461794,-2.8616971891898766
6.730638027191162,-3.0322667914549477,0.13482160042930302,-0.08699999999999997,2.960002235783799,1.7400001223877672,-2.889684825485226
6.751187562942505,-3.0430401110310417,0.1383394268275254,-0.08699999999999997,2.960002450720737,1.7400001047743905,-2.9016164044106554
6.7713141441345215,-3.0614624872600427,0.14435490713457463,-0.08699999999999997,2.9600029099747713,1.740000071806918,-2.92201941743954
6.7914063930511475,-3.0763846117321236,0.14922744297887253,-0.08699999999999997,2.960003385689495,1.7400000417117276,-2.938545872752349
6.811580657958984,-3.088471532330616,0.1531741943414798,-0.08699999999999997,2.9600038574973557,1.7400000143672048,-2.9519323138468203
6.831615686416626,-3.0936243773544567,0.15485675587765713,-0.08699999999999997,2.9600040873506246,1.740000001692795,-2.957639169127825
6.851733922958374,-3.1024357422232294,0.15773393461560495,-0.08699999999999997,2.9600045286147947,1.739999978268526,-2.9673978985002516
6.871788740158081,-3.1095729476321003,0.16006444773371536,-0.08699999999999997,2.960004939788168,1.7399999573033802,-2.975302476914612
6.891856670379639,-3.115354083903469,0.16195216199608603,-0.08699999999999997,2.9600053169963485,1.7399999386531353,-2.9817051916888726
6.911991834640503,-3.1178186735411866,0.16275692394423483,-0.08699999999999997,2.960005492315547,1.7399999301466553,-2.984434772148232
6.932119131088257,-3.1192782510641424,0.16413306925926205,-0.08699999999999997,2.960005714887319,1.7399999181198522,-2.989102343382551
6.952353000640869,-3.0819035004238646,0.16524778650547303,-0.08699999999999997,2.960004614180516,1.7399999518696423,-2.992882889494981
6.972380876541138,-3.007617336433193,0.16615070434318793,-0.08699999999999997,2.9600038241226803,1.739999975062795,-2.995945146867546
6.992408275604248,-2.768053941202278,0.1665356620310268,-0.08699999999999997,2.9600025316158476,1.739999998852669,-2.997250503377429
7.012523889541626,-2.1931994000718857,0.06681478241257933,-0.08699999999999997,2.9600009608485967,1.7400000215046836,-2.846669016459105
7.032625198364258,-1.8781879072773962,-0.11476270530271661,-0.08699999999999997,2.9599972246348076,1.7399999847145236,-2.2934214932452566
7.052633762359619,-1.4881012102367526,-0.2028802642838252,-0.08699999999999997,2.9599982477446414,1.7400000216278582,-1.4765161237059754
7.072755336761475,-1.1302910964542674,-0.20805724429469072,-0.08699999999999997,2.9599969568000914,1.739999941943269,-1.0598494570393087
7.092843294143677,-0.5184358106739769,-0.730926269062385,-0.08699999999999997,2.9599940135210225,1.7399996379453042,-0.28676755962236716
7.11292290687561,-0.02283306567629831,-0.5597501179447572,-0.08699999999999997,2.959988478852572,1.739998876894135,0.3394291726485692
7.133028507232666,0.3786051783397626,-1.0157974908349405,-0.08699999999999997,2.9599863006929796,1.7399985694169842,0.8466482143530838
7.153079509735107,0.026744627761312867,-0.8972176926355311,-0.08699999999999997,2.9599848876106822,1.7399984832140947,0.504893994755417
7.173158884048462,-0.5749369188317774,-0.6944461929781626,-0.08699999999999997,2.959981202584772,1.7399979935073469,-0.12331577833203239
7.193279266357422,-1.062298946853297,-0.530201290784974,-0.08699999999999997,2.9599797143805744,1.7399977560318702,-0.6715950909455588
7.213391304016113,-1.4570621658316858,-0.39716297525541844,-0.08699999999999997,2.9599809581825283,1.7399978997218069,-1.1157016565356241
7.233481168746948,-1.6253559636527048,-0.3404466137256184,-0.08699999999999997,2.9599805995909847,1.739997904729469,-1.3050311671318953
7.2535765171051025,-1.9131383540306026,-0.24346163770881155,-0.08699999999999997,2.959980199124916,1.7399980241592345,-1.6287846487330073
7.273669481277466,-2.14624209168625,-0.16490380326258838,-0.08699999999999997,2.9599798647338997,1.7399984575640923,-1.8910248616150471
7.2937469482421875,-2.335056098081746,-0.10127209375288887,-0.08699999999999997,2.959984155010389,1.7399992095624959,-2.103440032789533
7.313863515853882,-2.415550483132533,-0.07414493716912493,-0.08699999999999997,2.9599874829327613,1.7399995467311389,-2.193996203295053
7.333935260772705,-2.553195876102887,-0.027757540225774306,-0.08699999999999997,2.9599944812788355,1.7400000722916833,-2.3488474638147587
7.354038953781128,-2.6646886414974706,0.009816224913725427,-0.08699999999999997,2.960000981610367,1.740000408839746,-2.474277126180873
7.3744590282440186,-2.7549977881293954,0.04025103567370492,-0.08699999999999997,2.960004252116772,1.740000477755253,-2.575874923210115
7.394526958465576,-2.793498006832321,0.05322590947634839,-0.08699999999999997,2.960004560496539,1.7400004383733705,-2.619187533336466
7.414650201797485,-2.859333385744938,0.07541298857889794,-0.08699999999999997,2.9600036323185472,1.7400003556717376,-2.693251893003338
7.434736728668213,-2.9126600424523277,0.09338452070575212,-0.08699999999999997,2.9600029435494735,1.7400002885234245,-2.7532440333614163
7.454814672470093,-2.9353940381377837,0.10104606794426739,-0.08699999999999997,2.960002671544505,1.7400002596987127,-2.77881963312821
7.474903106689453,-2.9742691706455813,0.1141473125576927,-0.08699999999999997,2.960002244089309,1.740000209865198,-2.8225539140942826
7.494985818862915,-3.0057580278497067,0.12475931934814105,-0.08699999999999997,2.9600019414046472,1.7400001686905013,-2.8579786878653204
7.515300989151001,-3.0191822240277073,0.12928337656746763,-0.08699999999999997,2.960002098000692,1.7400001489331296,-2.873080868038074
7.535368204116821,-3.042137599181019,0.13701951094138778,-0.08699999999999997,2.9600024780885743,1.7400001120080846,-2.898905612163907
7.555724620819092,-3.0607314527103266,0.14328577584593832,-0.08699999999999997,2.9600029134034904,1.7400000782511085,-2.919823673069696
7.57564115524292,-3.0757924737862705,0.14836144711400148,-0.08699999999999997,2.9600033729665896,1.740000047448986,-2.9367673176240974
7.595722436904907,-3.0879919006263328,0.15247273808556264,-0.08699999999999997,2.960003834417096,1.7400000194630738,-2.950491682391313
7.61580491065979,-3.0931927088349185,0.15422544542685804,-0.08699999999999997,2.9600040607659905,1.7400000064895194,-2.956342599998781
7.636050701141357,-3.1020860907455705,0.15722257344398605,-0.08699999999999997,2.9600044975765987,1.7399999825065886,-2.966347676167211
7.656220197677612,-3.1092897299539386,0.15965024542494782,-0.08699999999999997,2.960004906866736,1.7399999610327728,-2.9744517957299594
7.676226377487183,-3.1151246775993235,0.16161665832223882,-0.08699999999999997,2.960005283973258,1.7399999419213896,-2.981016139035314
7.696342468261719,-3.1176122078742754,0.16245497072656043,-0.08699999999999997,2.9600054597186425,1.7399999332015004,-2.9838146243556953
7.7164130210876465,-3.1218658845831238,0.16388848416821136,-0.08699999999999997,2.96000578517903,1.7399999173267238,-2.988600037784445
7.736527681350708,-3.1253113626497147,0.16504962920404692,-0.08699999999999997,2.9600060764012186,1.7399999033915612,-2.9924762265685976
7.756587028503418,-3.0978668251451125,0.16599019083932431,-0.08699999999999997,2.9600052057352917,1.7399999298198496,-2.995615778331474
7.776668548583984,-3.0607466724474888,0.16639121462497536,-0.08699999999999997,2.96000329535979,1.7399999940183273,-2.9969539948177686
7.796756267547607,-2.914603627774587,0.1670768978691158,-0.08699999999999997,2.9600022153214076,1.7400000068891346,-2.9992426712105744
7.816925048828125,-2.3964755415822347,0.049050564412732284,-0.08699999999999997,2.960003157984683,1.739999957955707,-2.9439508869179134
7.83696174621582,-2.0564285684775396,-0.1672671850319473,-0.08699999999999997,2.9600000843861216,1.7399999473114331,-2.4766430082325908
7.8570685386657715,-2.125386297695975,-0.26611511800369747,-0.08699999999999997,2.9599982823816275,1.739999891025358,-2.0599763415659242
7.877167463302612,-1.328847675879342,-0.183253264565962,-0.08699999999999997,2.959999268669024,1.739999969517779,-1.249956145099837
7.897228956222534,-0.6792666379531219,-0.710835049229788,-0.08699999999999997,2.9599960634385494,1.7399996977934487,-0.4490602267152479
7.917330265045166,-0.15310603288555716,-0.5434762315672369,-0.08699999999999998,2.959990316655348,1.7399989526555264,0.2079720947226208
7.937397241592407,0.07120455195889694,-0.7851285442159056,-0.08699999999999998,2.9599888492662436,1.7399987800361396,0.48807522547323234
7.957658529281616,-0.06822436150453604,-0.8853540336879466,-0.08699999999999998,2.9599865164132626,1.7399985581912787,0.3652514657434915
7.9776387214660645,-0.6518617918282987,-0.6848366437229936,-0.08699999999999998,2.959983271961976,1.7399981362977113,-0.2758555778192484
7.997731447219849,-1.1246080894223318,-0.5224175674417959,-0.08699999999999998,2.9599818858249023,1.7399979350662373,-0.7951523943886614
8.017860174179077,-1.3261472926006805,-0.45317576695296913,-0.08699999999999998,2.9599820570562034,1.739997959291927,-1.0165369250002376
8.03806447982788,-1.6707793424491977,-0.33477222187494654,-0.08699999999999998,2.9599801135197663,1.739997832089625,-1.3951041467637333
8.058085918426514,-1.949931288558263,-0.23886539122169725,-0.08699999999999998,2.959980184684136,1.739997996403605,-1.7017438169006551
8.078176498413086,-2.176044365643046,-0.16118085990480557,-0.08699999999999998,2.9599804002128596,1.7399984603401801,-1.9501218700668173
8.098290920257568,-2.2724399334951113,-0.12806276558335702,-0.08699999999999998,2.9599821047547605,1.7399988417066057,-2.056009553367279
8.118392705917358,-2.4372763389957446,-0.07143092238335678,-0.08699999999999998,2.9599882308332606,1.7399995452641446,-2.237077980546163
8.138476610183716,-2.5707938191719815,-0.025559189346885024,-0.08699999999999998,2.9599951210027475,1.7400000608447286,-2.383743711544239
8.158520698547363,-2.6789429753850045,0.011596889190049153,-0.08699999999999998,2.960001496471566,1.7400003903787042,-2.502543088878919
8.178638219833374,-2.7250486678479335,0.027437106540005265,-0.08699999999999998,2.9600043891334376,1.7400004977241055,-2.553189170847238
8.19871473312378,-2.803889418943834,0.05452403828316419,-0.08699999999999998,2.960004139589645,1.7400004129614808,-2.639793309559871
8.218837976455688,-2.8677504295418133,0.07646447279287605,-0.08699999999999998,2.9600032952598823,1.7400003350889057,-2.7099425723014527
8.238966941833496,-2.9194778479163963,0.09423622281054891,-0.08699999999999998,2.9600026740458394,1.7400002718228034,-2.7667634840964808
8.259018898010254,-2.96137705663019,0.10863133865519299,-0.08699999999999998,2.960002224898939,1.7400002200041085,-2.8127884303597637
8.279303789138794,-2.9792393508156887,0.11476820325791864,-0.08699999999999998,2.9600020519624874,1.7400001976230066,-2.832409594300207
8.29924464225769,-3.0097838730622866,0.1252622332473075,-0.08699999999999998,2.9600020304808474,1.7400001576038466,-2.8659618227701973
8.319336652755737,-3.0345249350701593,0.13376238677659702,-0.08699999999999998,2.960002361131078,1.7400001207793234,-2.893139176625936
8.339407682418823,-3.0450724403017366,0.13738613474505987,-0.08699999999999998,2.960002556904633,1.7400001035120225,-2.904725319510161
8.3595130443573,-3.0631086739961817,0.14358274088045345,-0.08699999999999998,2.960002985223101,1.7400000711104713,-2.924537637167793
8.37960171699524,-3.0777180230095453,0.1486019885830396,-0.08699999999999998,2.9600034379048523,1.7400000414356585,-2.940585629515126
8.399709463119507,-3.089551595482044,0.152667576499892,-0.08699999999999998,2.960003892703218,1.740000014392852,-2.953584515838777
8.419790029525757,-3.0945964341981447,0.15440079991888453,-0.08699999999999998,2.96000411584255,1.740000001832601,-2.959126150476945
8.439868450164795,-3.103223108278446,0.15736461044893996,-0.08699999999999998,2.9600045465153606,1.7399999785771056,-2.9686023526743788
8.459968328475952,-3.110210714146258,0.15976529528837155,-0.08699999999999998,2.9600049500893606,1.7399999577172607,-2.976278084213594
8.479986906051636,-3.115870674787477,0.16170984862044283,-0.08699999999999998,2.9600053219370266,1.7399999391249352,-2.982495433129626
8.500730276107788,-3.118283605340159,0.16253884195346213,-0.08699999999999998,2.9600054952299257,1.7399999306337979,-2.985145989232786
8.520835638046265,-3.1224097165248597,0.1639564197941754,-0.08699999999999998,2.9600058161406526,1.7399999151630703,-2.9896784436490864
8.540958404541016,-3.0900174012458153,0.16510469786033588,-0.08699999999999998,2.9600047797259337,1.7399999466606126,-2.993349542860731
8.561222553253174,-3.016465535547566,0.1660348075569637,-0.08699999999999998,2.9600037956960406,1.7399999764586576,-2.9963231124190277
8.581214189529419,-2.821657085776344,0.16643142201781747,-0.08699999999999998,2.9600003339313905,1.7400000587695443,-2.9975903620823603
8.601271152496338,-2.2296627976856196,0.05170653670352013,-0.08699999999999998,2.9600025157439718,1.7399999599354323,-2.8846745137501424
8.621382236480713,-1.93570260533257,-0.15654581107255283,-0.08699999999999998,2.959999271561515,1.7399999482554658,-2.3653560926157122
8.641563177108765,-1.6220397413752834,-0.20868128898754665,-0.08699999999999998,2.960003284907049,1.7400002983758542,-1.5320227592823787
8.661642074584961,-1.2508357748009802,-0.17081311465618476,-0.08699999999999998,2.9600014372498404,1.740000186478253,-1.1180095789077922
8.681765079498291,-1.2508357748009802,-0.17081311465618476,-0.08699999999999998,2.9600014372498404,1.740000186478253,-1.1180095789077922
8.703093528747559,-0.9167522034737559,-0.44973176397301556,-0.08699999999999998,2.959999991845909,1.7400001077179028,-0.7053084331552892
8.723151922225952,-0.34546932488944554,-0.6136826050127163,-0.08699999999999998,2.9599950789495093,1.7399995177318777,0.0004108410497208892
8.743231058120728,0.11726980365671902,-0.7777827692785821,-0.08699999999999998,2.9599905492765726,1.7399989668083828,0.5720435377275814
8.76333212852478,-0.030911504934325096,-0.8794039599943603,-0.08699999999999998,2.959988121706018,1.7399987279200648,0.4935066793815216
8.783511400222778,-0.3418203804973261,-0.7744635151228415,-0.08699999999999998,2.9599868778090173,1.7399985785737826,0.20349721605552196
8.803550243377686,-0.8734745534917744,-0.595015337630401,-0.08699999999999998,2.959984567148251,1.739998249409481,-0.40687662453721046
8.823639154434204,-1.3041144224933032,-0.44966230944626323,-0.08699999999999998,2.9599831097164793,1.7399980719190051,-0.9012794565053889
8.843708753585815,-1.6529327174223123,-0.33192632147417744,-0.08699999999999998,2.9599809803767685,1.7399979278122915,-1.3017455989446947
8.863804817199707,-1.8016394524625021,-0.2817336558989763,-0.08699999999999998,2.959981727825755,1.7399980451534915,-1.4724708726715
8.883936882019043,-2.055927977101056,-0.19590415140542067,-0.08699999999999998,2.9599814810320324,1.739998208326471,-1.7644108563162346
8.90401315689087,-2.261901679264675,-0.126382293238155,-0.08699999999999998,2.959982733017096,1.739998913331827,-2.0008822789156215
8.924451351165771,-2.3497115092978147,-0.09674409589195315,-0.08699999999999998,2.959985527613792,1.7399992811589413,-2.1016941205162567
8.94452691078186,-2.4998663098744656,-0.04606283897911591,-0.08699999999999998,2.9599922646035446,1.739999887793978,-2.2740826748351517
8.964659214019775,-2.6214916936962114,-0.005011058511135674,-0.08699999999999998,2.9599989178747035,1.7400002971972417,-2.413717600240424
8.98477292060852,-2.720008253021614,0.028240866376298624,-0.08699999999999998,2.9600048471787126,1.7400005399910734,-2.526821986064487
9.004844903945923,-2.7620074252442386,0.04241675758054277,-0.08699999999999998,2.9600050812233833,1.7400004966502909,-2.575039887673332
9.02493929862976,-2.833826014763849,0.06665757646042478,-0.08699999999999998,2.9600040243551464,1.7400004027554414,-2.657492295746234
9.045035123825073,-2.8919990720409467,0.08629263767192918,-0.08699999999999998,2.9600032357696566,1.740000326790696,-2.7242787559606247
9.065152406692505,-2.9167991648049862,0.09466337358258713,-0.08699999999999998,2.9600029226086613,1.7400002942663033,-2.75275088176493
9.085254669189453,-2.959207323307095,0.1089773307510436,-0.08699999999999998,2.9600024271889356,1.740000238171823,-2.801438222605753
9.105333805084229,-2.9935579315556806,0.12057163462268942,-0.08699999999999998,2.9600020723148215,1.7400001919662278,-2.840874975289139
9.125406503677368,-3.021381923310051,0.12996301099148605,-0.08699999999999998,2.9600021007089117,1.7400001516794354,-2.8728187890328787
9.145525455474854,-3.033243729813723,0.13396669762074173,-0.08699999999999998,2.9600022875035314,1.7400001323506404,-2.8864369656751094
9.165604591369629,-3.053527418658351,0.1408129986171511,-0.08699999999999998,2.9600027085151495,1.7400000962917594,-2.909724062218653
9.18582558631897,-3.0699572063151734,0.14635849886514593,-0.08699999999999998,2.960003164719404,1.7400000634554886,-2.9285866268201666
9.20593523979187,-3.0832653340654987,0.1508503510910841,-0.08699999999999998,2.960003630543054,1.7400000336441102,-2.9438653178404808
9.226059675216675,-3.0889387989712525,0.1527652976294209,-0.08699999999999998,2.960003861168029,1.7400000198248342,-2.950378869615987
9.246153354644775,-3.0986404238228977,0.15603985454584604,-0.08699999999999998,2.9600043094204693,1.7399999942706132,-2.9615170508004107
9.266236066818237,-3.106498739801073,0.15869224379065539,-0.08699999999999998,2.960004732657343,1.7399999713737027,-2.970538986092104
9.286315679550171,-3.112863975619854,0.16084067755096637,-0.08699999999999998,2.9600051249675463,1.7399999509770587,-2.977846760693228
9.306417465209961,-3.115577576112771,0.16175658828310627,-0.08699999999999998,2.9600053084927587,1.7399999416636132,-2.980962182697744
9.326780319213867,-3.1202178328888146,0.16332279479796574,-0.08699999999999998,2.9600056494377927,1.7399999246950497,-2.9862895581658493
9.34666919708252,-3.121582467097086,0.16459142764034426,-0.08699999999999998,2.9600057453022317,1.7399999169809761,-2.9906047059120633
9.367023706436157,-3.0998230184982387,0.16561906850998676,-0.08699999999999998,2.960004259219837,1.739999964290985,-2.9940997478457922
9.387343883514404,-3.0807365098321204,0.1660571323897735,-0.08699999999999998,2.9600047806322682,1.7399999445248542,-2.9955899076040176
9.407452821731567,-3.0055795397500664,0.166806271909714,-0.08699999999999998,2.9600040431671832,1.7399999662208767,-2.99813784379279
9.42756986618042,-2.5537466691490716,0.16741308125623897,-0.08699999999999998,2.9600032425845515,1.7399999705289804,-3.0002016499120288
9.447670936584473,-1.8358663939316382,-0.04532620492194454,-0.08699999999999998,2.959998737223532,1.7400000176058894,-2.6893333094119227
9.478574991226196,-1.8807454174604101,-0.12417433340895634,-0.08699999999999998,2.9599962107644915,1.7399999611415913,-2.272666642745256
9.521812200546265,-1.8807454174604101,-0.12417433340895634,-0.08699999999999998,2.9599962107644915,1.7399999611415913,-2.272666642745256
9.542185068130493,-1.5200228563558014,-0.1652086113766342,-0.08699999999999998,2.9600009569881314,1.740000107284397,-1.4682395527726875
9.56208872795105,-0.8341185241994118,-0.4204449849998686,-0.08699999999999998,2.9599984809121715,1.7399999905487886,-0.6455154217312236
9.582313060760498,-0.5417066846070693,-0.674400431496849,-0.08699999999999997,2.9599966694885076,1.7399998042805243,-0.2800635999074172
9.602471828460693,-0.04168245858770678,-0.5139642173758788,-0.08699999999999997,2.959992012076808,1.7399991982344707,0.34485920710870216
9.622526407241821,0.3633371778321481,-0.9787109249747615,-0.08699999999999997,2.959989858072658,1.739998920820833,0.8510464567476659
9.642640590667725,-0.3022969326200366,-0.7604557671030077,-0.08699999999999997,2.959987550467786,1.739998680689493,0.11763813710706195
9.662701845169067,-0.5860672709526917,-0.6674101164026751,-0.08699999999999997,2.9599855039083964,1.7399984007207843,-0.19502524745764493
9.682793855667114,-1.071314524688921,-0.5083020855646689,-0.08699999999999997,2.9599839533279924,1.739998186278899,-0.7296798594722589
9.702909708023071,-1.4643647988710828,-0.3794245535970291,-0.08699999999999997,2.959982070750922,1.7399980306845217,-1.1627499870267612
9.72299075126648,-1.631928331395926,-0.324482041487745,-0.08699999999999997,2.9599818709751933,1.739998053700872,-1.3473747026219707
9.743074178695679,-1.9184619685124846,-0.23053034927554483,-0.08699999999999997,2.9599817604375045,1.7399981944440843,-1.6630829885308114
9.76319146156311,-2.1505542146859087,-0.15442948534391787,-0.08699999999999997,2.9599819962262535,1.7399986512778245,-1.9188066422919976
9.7832612991333,-2.3385489146085816,-0.09278791608110755,-0.08699999999999997,2.9599865335722164,1.7399993903209359,-2.125943370243377
9.803369283676147,-2.4186940172525953,-0.06650918296422158,-0.08699999999999997,2.959989807605527,1.7399997107198113,-2.2142492340370477
9.823442220687866,-2.555742138025366,-0.02157258573279366,-0.08699999999999997,2.95999656882192,1.7400002004201698,-2.3652524490116646
9.843865394592285,-2.6667511133499704,0.01482603445615725,-0.08699999999999997,2.960002786144606,1.7400005052742686,-2.4875651811885158
9.86374020576477,-2.756668397105329,0.04430904605432954,-0.08699999999999997,2.9600036149042337,1.74000043167422,-2.586637985882798
9.88416051864624,-2.795001557587847,0.056878143163639164,-0.08699999999999997,2.960003197812328,1.740000388717758,-2.6288741792357437
9.904270887374878,-2.860551261823971,0.07837129757221536,-0.08699999999999997,2.960002538056277,1.7400003154704105,-2.70109807754356
9.924412965774536,-2.9136465220504717,0.0957807507423936,-0.08699999999999997,2.9600020652238546,1.7400002559068752,-2.759599443983815
9.944435834884644,-2.9566536826680343,0.10988240616897495,-0.08699999999999997,2.9600017353437633,1.7400002070654574,-2.806985558376419
9.964557409286499,-2.9749883142452016,0.11589416397110444,-0.08699999999999997,2.960001612954346,1.7400001859496594,-2.8271870097396246
9.984647750854492,-3.006340533421781,0.12617426121411743,-0.08699999999999997,2.9600016817002976,1.7400001480098637,-2.8617315302270976
10.00471305847168,-3.031735829938532,0.13450112915601461,-0.08699999999999997,2.960002087465756,1.7400001127988143,-2.889712640893937
10.024803876876831,-3.052306019746598,0.1412458880000514,-0.08699999999999997,2.960002551679944,1.7400000803037194,-2.912377359868163
10.04581093788147,-3.061075416332256,0.1441212837826188,-0.08699999999999997,2.960002795176089,1.7400000650222307,-2.9220396939253344
10.065959453582764,-3.076071084290229,0.14903820817906951,-0.08699999999999997,2.960003288971154,1.7400000363406103,-2.938562296177311
10.086257219314575,-3.0882175751105025,0.15302091424907915,-0.08699999999999997,2.960003776065707,1.740000010124504,-2.951945616383892
10.106199264526367,-3.09805623249046,0.15624690393386262,-0.08699999999999997,2.960004242879826,1.739999986320548,-2.962786116012243
10.126274585723877,-3.1022506074183576,0.15762219353488924,-0.08699999999999997,2.96000446579784,1.7399999753014088,-2.967407595561761
10.146352529525757,-3.1094229884448104,0.15997393751691094,-0.08699999999999997,2.96000488700934,1.7399999549713392,-2.97531033126658
10.166457891464233,-3.115232616965544,0.1618788487684293,-0.08699999999999997,2.9600052726921797,1.739999936823701,-2.9817115534947747
10.18649935722351,-3.1199384159772765,0.1634218257564614,-0.08699999999999997,2.960005621560647,1.7399999207255723,-2.9868965486653556
10.206605911254883,-3.1219445723686747,0.1640796208400712,-0.08699999999999997,2.9600057822488237,1.7399999133990596,-2.9891069956686085
10.226685285568237,-3.0983919138675864,0.16520448071320426,-0.08699999999999997,2.9600050760502548,1.7399999342328982,-2.992886717125172
10.247059106826782,-3.0323502007049243,0.16611563337456442,-0.08699999999999997,2.960003980403319,1.7399999684879097,-2.9959482154518535
10.267001152038574,-2.8504469200950533,0.16685364235716968,-0.08699999999999997,2.9600038942915186,1.7399999483310051,-2.998428153111285
10.287288188934326,-2.4337802534283868,0.06954040492113403,-0.08699999999999997,2.9600032045568785,1.739999960280401,-2.9738370177417606
10.307272911071777,-2.079982433435451,-0.16934915798859956,-0.08699999999999997,2.9600006651250124,1.7399999626034974,-2.535038200133239
10.327356815338135,-1.7198977315654707,-0.2579735326613874,-0.08699999999999997,2.960002241496902,1.740000127344462,-1.8237659812602263
10.347418069839478,-0.9960171781110705,-0.4896584723300607,-0.08699999999999997,2.959998815277596,1.739999922828183,-1.1419536485549406
10.368961334228516,-0.6874154770279839,-0.7366925612188315,-0.08699999999999997,2.959996579613757,1.739999679738782,-0.7268579517696558
10.38906717300415,-0.15970660130196435,-0.5644207998614239,-0.08699999999999997,2.9599899221325052,1.739998830996818,-0.017043961223463633
10.40912938117981,0.267737611857932,-1.0195807374325705,-0.08699999999999997,2.9599872055600933,1.7399984998730447,0.5579050096020832
10.429223775863647,-0.33926984718845954,-0.7935603050821031,-0.08699999999999997,2.9599846861408023,1.7399983115041282,0.3724160224051639
10.449338674545288,-0.6193428753696766,-0.6972042461927337,-0.08699999999999997,2.9599849166585877,1.739998319810306,0.04919436265806104
10.469402313232422,-1.0982677713260043,-0.532435315421435,-0.08699999999999997,2.9599827753044856,1.7399980259389034,-0.5184340865019387
10.489604711532593,-1.4861969134283637,-0.39897253630734353,-0.08699999999999997,2.9599834753121534,1.7399981216510498,-0.9916412483731092
10.509825706481934,-1.6515772362841636,-0.34207521976865685,-0.08699999999999997,2.9599829021782957,1.7399981070990695,-1.1933768051671094
10.529935359954834,-1.934377584495458,-0.24478081074549393,-0.08699999999999997,2.95998213571796,1.7399981916821239,-1.5383446260633886
10.550047874450684,-2.1634458679146595,-0.16597233595049982,-0.08699999999999997,2.9599815165821233,1.739998591773736,-1.81776845724569
10.570100545883179,-2.3489911566460115,-0.10213760588195761,-0.08699999999999997,2.9599855143689,1.7399993121269282,-2.0441023510624645
10.590159177780151,-2.4992828249176493,-0.050431576548560716,-0.08699999999999997,2.959992076360979,1.7399999126891559,-2.2274333156074335
10.610510110855103,-2.5633545338392523,-0.028388497544651177,-0.08699999999999997,2.9599954392774626,1.7400001400985698,-2.305590291736865
10.630524396896362,-2.672917154306935,0.009305150219889407,-0.08699999999999997,2.9600017340303793,1.7400004605722925,-2.439238814721205
10.650801181793213,-2.7616628835215957,0.03983706549071873,-0.08699999999999997,2.9600048513793937,1.7400005184745135,-2.5474938900058532
10.670722246170044,-2.799496592687319,0.0528533363498176,-0.08699999999999997,2.960005098613949,1.7400004750036373,-2.593644603306873
10.690813064575195,-2.8641922402901625,0.07511120437013398,-0.08699999999999997,2.9600040674243298,1.740000385334277,-2.672562119571085
10.710897207260132,-2.9165957146350654,0.09314007550745212,-0.08699999999999997,2.9600032956357967,1.7400003125477197,-2.736485316833068
10.73097562789917,-2.959042528682066,0.10774345943859215,-0.08699999999999997,2.96000272518678,1.7400002530353138,-2.788263114420563
10.751317977905273,-2.9934244479192706,0.11957219896562751,-0.08699999999999997,2.960002310263959,1.7400002040713163,-2.8302031371732346
10.771403312683105,-3.008082002916144,0.12461497689785862,-0.08699999999999997,2.960002149475378,1.740000182874299,-2.8480828333691606
10.79151177406311,-3.033146421883322,0.13323812630422865,-0.08699999999999997,2.9600019022731416,1.740000145983447,-2.8786571177959597
10.811586141586304,-3.0534486001271,0.14022286533707767,-0.08699999999999997,2.960002089695865,1.7400001108701588,-2.9034223425217616
10.832038164138794,-3.062103738691014,0.14320056358796443,-0.08699999999999997,2.960002372854484,1.7400000927415564,-2.913980177397027
10.85214638710022,-3.0769040254267366,0.14829242514962468,-0.08699999999999997,2.9600029362695577,1.740000059154395,-2.9320340863019645
10.872227430343628,-3.0888922574516076,0.15241683026200978,-0.08699999999999997,2.960003481742327,1.7400000289161632,-2.9466577651774335
10.892659187316895,-3.0986027252030857,0.15575759612106396,-0.08699999999999997,2.9600039974612047,1.7400000018082198,-2.9585029555551343
10.912589311599731,-3.1027424508669843,0.1571818166010836,-0.08699999999999997,2.9600042417570323,1.739999989364009,-2.9635527507088657
10.932650327682495,-3.109821381649848,0.1596172323590829,-0.08699999999999997,2.9600047004013685,1.7399999665676475,-2.9721879062197285
10.952715635299683,-3.1155553154709543,0.16158991771925782,-0.08699999999999997,2.9600051173719337,1.7399999463880158,-2.9791823886261306
10.97321605682373,-3.117999781957795,0.16243090417478473,-0.08699999999999997,2.9600053100718573,1.7399999372137747,-2.982164249030967
10.993324279785156,-3.1221798195892068,0.16386899024618784,-0.08699999999999997,2.9600056644535426,1.7399999205639178,-2.9872632338435716
11.013493299484253,-3.1255656500033426,0.16503383911466496,-0.08699999999999997,2.960005979019656,1.7399999060030917,-2.9913934154364235
11.033531188964844,-3.1283081725841453,0.16597736600553725,-0.08699999999999997,2.960006256257928,1.739999893324491,-2.994738865701693
11.053946256637573,-3.130529615830247,0.16674162222309635,-0.08699999999999997,2.960006499096838,1.7399998823292369,-2.9974486830018305
11.07404637336731,-3.1166729230267483,0.1670674775310877,-0.08699999999999997,2.9600052802979073,1.7399999231829728,-2.998603728482234
11.09411907196045,-3.0676627637383036,0.1676246749564813,-0.08699999999999997,2.960003687026488,1.7399999760113005,-3.000578927769665
11.114487171173096,-2.954808096894621,0.16807598024022416,-0.08699999999999997,2.960003196071824,1.7399999751469024,-3.0021789613326435
11.134424686431885,-2.8828355931582563,0.16826833401871003,-0.08699999999999997,2.960004437308136,1.7399999303208218,-3.0028612897620177
11.154518127441406,-2.0495022598249233,0.013314484253419093,-0.08699999999999997,2.9600024599883463,1.7399999593750033,-2.9450457844528333
11.174598455429077,-2.1042954291186313,-0.3203280090913133,-0.08699999999999997,2.9599988102919212,1.739999850180552,-2.1117124511195002
11.194736003875732,-1.3098658967100647,-0.22716570458534588,-0.08699999999999997,2.959999656649931,1.7399999454754993,-1.7142647285620747
11.21485710144043,-0.9698793142190172,-0.5004490922205467,-0.08699999999999997,2.959998284064074,1.7399998694851182,-1.297598061895408
11.234869718551636,-0.38850229620713167,-0.6547636189771701,-0.08699999999999997,2.9599926180072975,1.7399991805119568,-0.4978997445111895
11.25494384765625,0.08241311047340716,-0.8110584374116715,-0.08699999999999997,2.9599903383688138,1.7399988976962897,0.16304592894229103
11.275040864944458,-0.059145437154077996,-0.9063572366285193,-0.08699999999999997,2.959987071982894,1.739998611899821,0.31162124529217483
11.295146226882935,-0.3672309246652355,-0.7987214571568764,-0.08699999999999997,2.9599855134157393,1.739998439697781,0.18920290614564672
11.315290689468384,-0.8940571024502351,-0.6146642565492746,-0.08699999999999997,2.9599827285545066,1.7399980499490444,-0.41845492677318147
11.335352897644043,-1.3207862915815636,-0.465577923262365,-0.08699999999999997,2.9599811583670936,1.7399978470459372,-0.9106578202965188
11.355490446090698,-1.6664369165792179,-0.3448180305469822,-0.08699999999999997,2.959981622018177,1.7399979610879381,-1.3093423900646497
11.375486612319946,-1.9464139257587136,-0.24700248678281617,-0.08699999999999997,2.959981071971437,1.7399980691409926,-1.6322767461456165
11.395566940307617,-2.0657725413222305,-0.20530219370917746,-0.08699999999999997,2.9599814699150238,1.7399981876564525,-1.7699488486700954
11.415714263916016,-2.2698757800028173,-0.13399468592514724,-0.08699999999999997,2.9599820030284847,1.7399988506676765,-2.0053679502469
11.435753583908081,-2.43519937583641,-0.07623576965251871,-0.08699999999999997,2.959987881680607,1.73999954735068,-2.1960582428885833
11.456202030181885,-2.5056794310416595,-0.05161226006132895,-0.08699999999999997,2.9599913050878106,1.7399998310838367,-2.2773526687824712
11.476279973983765,-2.6262003222857304,-0.009506085018219916,-0.08699999999999997,2.959997995009424,1.7400002530054408,-2.416366274904828
11.4965500831604,-2.723822242410699,0.024599897887941306,-0.08699999999999997,2.9600040049805867,1.740000507613433,-2.528967399343287
11.51651382446289,-2.8028960143597748,0.05222589953143138,-0.08699999999999997,2.9600038202101784,1.7400004213184452,-2.62017367346688
11.536818504333496,-2.866945771850158,0.07460298059408066,-0.08699999999999997,2.9600030303983655,1.7400003418419252,-2.694050666183633
11.55696177482605,-2.8942511946938336,0.08414268279022909,-0.08699999999999997,2.9600027190707845,1.7400003079385813,-2.7255455982940737
11.577083587646484,-2.9409434676148565,0.10045557218572604,-0.08699999999999997,2.960002230725781,1.7400002496242477,-2.779401938492234
11.597136735916138,-2.9787642085244386,0.11366901102014382,-0.08699999999999997,2.960001886157717,1.7400002017175669,-2.8230255813181913
11.61767864227295,-2.994887787492397,0.11930210808882614,-0.08699999999999997,2.9600017567204677,1.74000018098506,-2.8416230315308124
11.63779616355896,-3.022459107441758,0.12893470314327102,-0.08699999999999997,2.9600015655624596,1.7400001448894624,-2.8734246756756865
11.657899856567383,-3.034213195551372,0.13304122077876715,-0.08699999999999997,2.960001798710612,1.7400001264275498,-2.8869822626451023
11.67804479598999,-3.0543126859353933,0.1400633627277318,-0.08699999999999997,2.9600023011880006,1.7400000918250014,-2.9101657511611543
11.698269605636597,-3.062881415920803,0.14305701126900533,-0.08699999999999997,2.960002562245244,1.740000075626103,-2.9200492450418136
11.71841812133789,-3.0775339439865195,0.1481761478187438,-0.08699999999999997,2.960003088140953,1.7400000453345814,-2.936950030884072
11.738531351089478,-3.0894024914878835,0.1523226456621911,-0.08699999999999997,2.960003603522849,1.740000017760142,-2.9506396801202848
11.758713006973267,-3.099016014774706,0.15568130662595164,-0.08699999999999997,2.960004095108973,1.7399999928043686,-2.9617283065233893
11.778698205947876,-3.106802968482726,0.15840182011686077,-0.08699999999999997,2.9600045544890174,1.739999970360072,-2.970710102588651
11.798775911331177,-3.110122669749925,0.159561617350525,-0.08699999999999997,2.960004770506517,1.7399999600412515,-2.974539186928819
11.818866491317749,-3.115799358833259,0.16154486958024236,-0.08699999999999997,2.9600051735772355,1.7399999411226152,-2.9810869259218498
