liuyurong129/humanoid-gym/humanoid/data/robot2_actual_20250621-220904.csv
timestamp,joint_1,joint_2,joint_3,joint_4,joint_5,joint_6
0.00013971328735351562,0.0,0.0,0.0,0.0,0.0,0.0
0.020226716995239258,0.0,0.0,0.0,0.0,0.0,0.0
0.04030299186706543,0.0,0.0,0.0,0.0,0.0,0.0
0.06042170524597168,0.0,0.0,0.0,0.0,0.0,0.0
0.08072090148925781,0.0,0.0,0.0,0.0,0.0,0.0
0.10067462921142578,0.0,0.0,0.0,0.0,0.0,0.0
0.12109565734863281,-0.006666596464824497,0.006666667248405537,0.006666654927369221,0.006666666666666668,-0.006666659476462625,0.00666616353886014
0.14099335670471191,-0.009999926427357706,0.010000000616596304,0.003333329458833208,0.010000000000000002,-0.009999991731180349,0.0033327524510202607
0.1611778736114502,-0.016666592974094736,0.0166666718344555,-0.003333336310361879,0.016666657432871903,-0.01666665764999311,-0.0033339243238794934
0.18116998672485352,-0.023333259411194334,0.023333342896753876,-0.010000002097947028,0.023333308827648558,-0.023333321069463207,-0.010000605684489173
0.20136141777038574,-0.029999925638504114,0.030000013868847465,-0.01666666760960837,0.029999954384569413,-0.02999998123826127,-0.01000069027651199
0.22151803970336914,-0.03333325904958814,0.03333335135711893,-0.020000000942941704,0.03333326095741263,-0.033333307090085904,-0.0066673512405772285
0.24159574508666992,-0.03999993488052057,0.0357958185115079,-0.013333339704104843,0.026666539910342627,-0.03999997067537812,2.7877983164439554e-07
0.2616851329803467,-0.04666660227898225,0.029129156126037805,-0.020000003747934553,0.03333317309870436,-0.03333328757596673,0.006666695789863921
0.28177332878112793,-0.053333250449530724,0.026262023919344693,-0.013333348093291768,0.039999839029039475,-0.039999963460016504,0.013334220812804892
0.3018476963043213,-0.05666658397857909,0.022928697298499914,-0.016666681426625102,0.04333303069736469,-0.04333324232119506,0.016667567620935554
0.3219635486602783,-0.06333325797315391,0.02292870115812769,-0.01666668560051624,0.04924714664868861,-0.049999895487708446,0.02333454544871555
0.342390775680542,-0.06999992109712477,0.022928704797186266,-0.016666680975536974,0.05490321032691823,-0.04999988204720169,0.030000871148264184
0.3622269630432129,-0.07333325461699126,0.019595375805625207,-0.020000014308870308,0.058236500431856374,-0.04666652798232338,0.03333421457487755
0.38231587409973145,-0.07999992454064567,0.0224792712653605,-0.013333350769948248,0.05920025986120965,-0.05333316268906045,0.04000115368329362
0.4024624824523926,-0.08666658802585803,0.015812609292526668,-0.02000001341634934,0.06586688358281798,-0.046666469185325084,0.046667524125665674
0.42249321937561035,-0.09333326044307091,0.02247927965692187,-0.013333350748062647,0.0725335152063745,-0.05333312268498214,0.05333448306855746
0.44256138801574707,-0.09999992037433826,0.01581261788318108,-0.02000001203500082,0.07920013874850197,-0.04666642474368324,0.06000080995385419
0.46268153190612793,-0.10333325651129122,0.019145951017655392,-0.023333347896629913,0.0825334720818353,-0.049999760170599504,0.06333431686500558
0.4828004837036133,-0.10999992308340456,0.025812620531381406,-0.029848509669519914,0.08920012378839542,-0.05666642042950577,0.07000098174545569
0.5028877258300781,-0.11666659577036369,0.032479291396429515,-0.03538059427100828,0.09586674447420888,-0.056666396515189836,0.0766677231779434
0.5239143371582031,-0.1199999292436195,0.035812626475295074,-0.03735946849368582,0.09920007847664304,-0.05333306467410014,0.08000106088197664
0.5438699722290039,-0.12666660041992353,0.04247929673178485,-0.030692803857651378,0.10586671435506947,-0.0466663751554319,0.0866678447440035
0.5639669895172119,-0.13333325240763488,0.035812635128236604,-0.03735946311621663,0.1125333431197404,-0.039999669547392314,0.08000085026397831
0.5840435028076172,-0.1399999295853245,0.042479305451915444,-0.0440261343021982,0.11919997999245178,-0.03333297325278607,0.07333437591016909
0.6041197776794434,-0.14333325774860997,0.04581263900546779,-0.04735946583685738,0.12253331332578511,-0.0366663061294251,0.07000100712147363
0.6245541572570801,-0.14999992273075055,0.052479309902666874,-0.05402613110559974,0.12919994975821525,-0.04333293839570062,0.0663944448966439
0.6443800926208496,-0.15666659099830063,0.05914598016725288,-0.059580685997678816,0.13288871205255112,-0.049999576253985496,0.0694819836043395
0.664456844329834,-0.16333326336755827,0.06581264762378414,-0.058278806309723284,0.12987529942825124,-0.05666624558668877,0.07614881554344523
0.6845555305480957,-0.16666659712339038,0.06914598473276164,-0.05494547297638995,0.12654193009453535,-0.059999548203993044,0.0794821593664703
0.7046351432800293,-0.1599999304567237,0.062479318066094976,-0.06103583311087584,0.133208596761202,-0.05333288153732636,0.0861488260331359
0.7247264385223389,-0.16666659712339035,0.06914598473276164,-0.05436916644420917,0.13041988661854653,-0.05999954820399303,0.09281549269980263
0.7448201179504395,-0.1599999304567237,0.06247931806609496,-0.06056902481980943,0.1370865532852132,-0.05333288153732636,0.09948215936646929
0.764904260635376,-0.16333326379005705,0.0658126513994283,-0.05723569148647611,0.1404198866185465,-0.056666214870659704,0.10281549269980336
0.785020112991333,-0.1633332637900347,0.06581265139943,-0.057212122337813906,0.14708655328521317,-0.0566662148706516,0.10281549269906284
0.8050777912139893,-0.16333326379005064,0.06581265139942884,-0.06287181909363851,0.15375321995187982,-0.049999548203989684,0.09614882603283276
0.8254351615905762,-0.1666665971233841,0.06914598473276216,-0.06528463718427473,0.15708655328521315,-0.04666621487065639,0.09281549269950283
0.8456392288208008,-0.17333326379004102,0.07581265139942948,-0.06941055611925802,0.1637532199518798,-0.0533328815373211,0.09948215936599553
0.8657565116882324,-0.1799999304566997,0.0824793180660967,-0.07275255045659465,0.17041988661854646,-0.05999954820398642,0.1061488260325352
0.8858168125152588,-0.17333326379003205,0.08914598473276343,-0.0709365234008164,0.1770865532852131,-0.05333288153731951,0.11281549269917837
0.9060571193695068,-0.1766665971233281,0.08581265139943313,-0.06760319006746052,0.18041988661854644,-0.04999954820397754,0.10948215936504245
0.9260077476501465,-0.18333326379001047,0.08581265139943185,-0.0665428710607237,0.1870865532852131,-0.04333288153731416,0.10281549269867324
0.9462759494781494,-0.18440226691551137,0.09247931806609752,-0.07042972555919295,0.19375321995187975,-0.0366662148706495,0.09614882603218011
0.9662187099456787,-0.18236436972844947,0.0958126513994309,-0.07208675300327329,0.19708655328521307,-0.03333288153731607,0.09281549269883825
0.9864192008972168,-0.17569770306178528,0.10247931806609736,-0.0749202699326526,0.20375321995187967,-0.026666214870649695,0.08614882603220256
1.0064842700958252,-0.1690310363951182,0.10914598473276406,-0.07721541864544838,0.21041988661854633,-0.019999548203982975,0.07948215936553174
1.0265073776245117,-0.16236435434942306,0.11581265295718754,-0.07907447698263134,0.21708655328521248,-0.013332880780819324,0.07281544237467062
1.04659104347229,-0.15569768543282894,0.1224793198612317,-0.08058032495356639,0.22375321995187913,-0.006666214000938666,0.0661487685709213
1.0666823387145996,-0.1523643528887354,0.12581265727772883,-0.08122229245820975,0.22708654718516788,-0.003332835339832951,0.06281543829861655
1.086778163909912,-0.1456976846304403,0.1324793286552004,-0.08232005549394765,0.23375321057847256,0.003333881604417966,0.0561487690035055
1.1068751811981201,-0.13903101624296765,0.13914600039832584,-0.08320924341250963,0.24041987755760416,0.010000602881091244,0.049482101656234276
1.1269936561584473,-0.13236434445772047,0.14500827747487835,-0.08392948234729206,0.24708656563176662,0.016667467945889938,0.04281544381409427
1.147160291671753,-0.12903100158357422,0.14750745102740215,-0.08423652797828451,0.2504198989651,0.020000800958784495,0.039482138204879544
1.1672601699829102,-0.12236432945421694,0.15178104980498505,-0.08476158196991206,0.2570865998351064,0.026667646635276248,0.032815504581749345
1.1874630451202393,-0.11569765788064498,0.15524266367968909,-0.08518687605606146,0.26375331017868264,0.033334476716691853,0.02614887542842017
1.2074353694915771,-0.10903098676874778,0.15804656997404648,-0.08553136455158973,0.27042002753226346,0.04000129391200252,0.01948224914849689
1.2275617122650146,-0.11236425970392147,0.159241923044732,-0.08567818715960353,0.2737533608655968,0.043334622542601044,0.016149229734142727
1.2475991249084473,-0.11903092254670675,0.16128596874893875,-0.08592932694532714,0.28042008594953627,0.050001422010683985,0.009482606311494245
1.2676818370819092,-0.12569758568979597,0.1629416451602783,-0.08613275034242435,0.2870868140629561,0.05666821335070995,0.002815983146425177
1.2878639698028564,-0.1323642491021779,0.1642827425078485,-0.08629752344726303,0.29375354420526006,0.06333499751816142,-0.0038506404476907475
1.3078992366790771,-0.13569758476341326,0.16485447747108836,-0.08636777110253673,0.2970869421412436,0.06666844303325646,-0.007183995043842247
1.3279812335968018,-0.1423642409196606,0.16583212889034002,-0.08648788671551984,0.3037536088079103,0.07333510723473402,-0.0138505351450936
1.3480632305145264,-0.1490308977028635,0.1666240265153767,-0.08658518064508185,0.310420275474577,0.08000177135544627,-0.02051707614040676
1.3681621551513672,-0.15569755510927483,0.16726546355560049,-0.0866639890332597,0.3170869421412437,0.08666843543280628,-0.0271836197652294
1.3882274627685547,-0.1590308840507539,0.1675389182746391,-0.08669758642397322,0.3204202754745771,0.09000176746901051,-0.03051689315017197
1.4083054065704346,-0.1656975424292708,0.1680065257931521,-0.08675503825246393,0.3270869421412438,0.09666843156895642,-0.037183444341659114
1.42840576171875,-0.17236420150631285,0.16838528779419606,-0.08680157467152577,0.3337536088079105,0.10333509575685867,-0.043850003300737087
1.4485454559326172,-0.17903086134146887,0.16869208489405424,-0.08683926969363706,0.3404202754745772,0.11000176010535209,-0.050516572510247666
1.4688987731933594,-0.18236419156627043,0.1688228772827213,-0.08685533991196243,0.34375360880791056,0.11333509236646558,-0.0538498618163375
1.4890220165252686,-0.18903085268454262,0.16904653212230764,-0.0868828205239598,0.35042027547457727,0.1200017571246712,-0.06051645172404672
1.5091133117675781,-0.19569751477754355,0.16922769230831775,-0.08690508064145167,0.357086942141244,0.12666842229389297,-0.06718305947059701
1.5291945934295654,-0.2023641779578536,0.16937443176459083,-0.08692311231604802,0.3637536088079107,0.13333508800761318,-0.07384968871219685
1.5492656230926514,-0.20903084235238104,0.16949329035964086,-0.0869377191331545,0.3704202754745774,0.14000175442174292,-0.08051634349009422
1.569406270980835,-0.21236417504848187,0.1695439614886534,-0.08694394676502427,0.37375360880791075,0.14333508794688393,-0.08384968182710331
1.589505672454834,-0.21903084153292016,0.16963060873442692,-0.0869545971725139,0.38042027547457746,0.15000175575870667,-0.09051638336522871
1.6095530986785889,-0.22569750960962187,0.16970079241549402,-0.08696322572812842,0.3870869421412442,0.15666842477401552,-0.09718312231749013
1.6296634674072266,-0.22903084429915907,0.16973071256391475,-0.08696690497338795,0.3904202754745775,0.16000175981066841,-0.10051650752124716
1.6497952938079834,-0.23569751509586384,0.16978187542348866,-0.0869731981579232,0.39708694214124424,0.1666684311150391,-0.10718331301124799
1.669865369796753,-0.2423641879455784,0.16982331644936366,-0.08697829810300138,0.40375360880791095,0.1733351043166204,-0.1138501704244766
1.6899569034576416,-0.24903086305430408,0.16985688264413973,-0.0869824318731764,0.41042027547457766,0.18000177975407722,-0.12051708630670073
1.7100281715393066,-0.25569754063963995,0.16988407006460557,-0.08698578342248757,0.41708694214124437,0.18666845780413596,-0.12718406762051357
1.730142593383789,-0.2590308804320494,0.16989565997083314,-0.08698721361117526,0.4204202754745777,0.19000179793749042,-0.13051758510165581
1.7502269744873047,-0.26569756216404505,0.1699154775659975,-0.08698966220881237,0.42708694214124443,0.19666848070064075,-0.13718467850379454
1.7702853679656982,-0.2723642469628919,0.16993152814662038,-0.08699164986398798,0.43375360880791114,0.20333516719655828,-0.14385185649191656
1.7904078960418701,-0.2790309350810469,0.16994452722575,-0.0869932646526987,0.44042027547457785,0.2100018579486262,-0.15051912738237117
1.8112692832946777,-0.2823642804659545,0.1699500681296446,-0.08699395508811386,0.4437536088079112,0.21333520509649626,-0.15385280035862148
1.8313813209533691,-0.28903097405347844,0.16995954132407395,-0.08699514007197286,0.4504202754745779,0.22000190331230765,-0.16052022693257423
1.851461410522461,-0.29569767162374866,0.16996721209217375,-0.08699610608689214,0.4570869421412446,0.22666860729018726,-0.16718776862613494
1.871544599533081,-0.302364373452037,0.16997342261139659,-0.08699689535122171,0.46375360880791133,0.23333531771274954,-0.17385543481543836
1.8916330337524414,-0.3056977260500207,0.16997606907075694,-0.08699723466701008,0.4670869421412447,0.23666867556664098,-0.17718931758869852
1.9117152690887451,-0.31236443478927495,0.16998059198730567,-0.08699782091158287,0.4737536088079114,0.24333539703616502,-0.183857188583112
1.9318594932556152,-0.3190311484880274,0.16998425195667793,-0.08699830423651199,0.4804202754745781,0.25000212685583756,-0.19052520840714673
1.9518733024597168,-0.3256978674283931,0.16998721259073182,-0.08699870491864352,0.4870869421412448,0.2566688658649365,-0.19719338703662978
1.9719648361206055,-0.3290312289519928,0.16998847311085136,-0.0869988795383885,0.49042027547457817,0.260002239089249,-0.20052753904034365
1.9920549392700195,-0.33569795628016214,0.16999062512241975,-0.08699918610989513,0.4970869421412449,0.2666689935466966,-0.20719597471312404
2.01216459274292,-0.34236468954541105,0.16999236336376364,-0.08699944554228088,0.5037536088079115,0.27333575946903405,-0.21386459430564286
2.0322210788726807,-0.34903142901769435,0.16999376604355912,-0.08699966760030155,0.5104202754745781,0.28000253783046364,-0.2205334077923931
2.052309036254883,-0.3523648011639069,0.16999436183948977,-0.08699976715333062,0.5137536088079114,0.28333593198902707,-0.22386789033043172
2.0723886489868164,-0.3590315017951746,0.16999539256358542,-0.08699987419108714,0.5204199779411783,0.29000241806380944,-0.2305355736516711
2.0924527645111084,-0.3656981887893034,0.169996253596181,-0.08699993213082685,0.5270866446078449,0.29666911797026047,-0.23720284439038417
2.1127116680145264,-0.36903153297854724,0.16999662000470728,-0.08699995828925718,0.5304199779411782,0.3000024694287156,-0.24053650175235283
2.1328203678131104,-0.3756982228004994,0.16999724516517828,-0.0870000060704414,0.5370866446078448,0.3066691755691168,-0.24720386259920735
2.152975082397461,-0.3823649146182366,0.16999774959053687,-0.08700004900512733,0.5437533112745114,0.31333588628889886,-0.25387128758759536
2.1730129718780518,-0.38903160851461344,0.1699981560704002,-0.08700008829821712,0.550419977941178,0.32000260193279206,-0.2605387798368723
2.193225145339966,-0.3923649562672553,0.16999832849366403,-0.08700010689300074,0.5537533112745113,0.323335961710838,-0.26387255213764554
2.2133586406707764,-0.3990316534292164,0.16999862153420664,-0.08700014250239328,0.5604199779411779,0.33000268540098493,-0.2705401509444272
2.2334988117218018,-0.4056983528605048,0.16999885639942194,-0.087000176586669,0.5670866446078445,0.33666941490134805,-0.2772078244097005
2.2536189556121826,-0.4123650546292416,0.16999904397985158,-0.08700020972753218,0.5737533112745111,0.34333615057080674,-0.28387557527528656
2.2740354537963867,-0.4156984064099442,0.1699991228638339,-0.0870002260948736,0.5770866446078444,0.34666952083094765,-0.2872094805478228
2.294154644012451,-0.4223651118003334,0.16999925551561107,-0.08700025867253686,0.583753311274511,0.3533362664245916,-0.29387735230685197
2.3142342567443848,-0.42903181967308535,0.1699993598881866,-0.08700029131434929,0.5904199779411776,0.3600030190758703,-0.30054530759056647
2.3343453407287598,-0.4356985300746232,0.16999944118740634,-0.08700032428884441,0.5970866446078442,0.3666697791302837,-0.30721334850274123
2.3543944358825684,-0.44236524304405045,0.1699995036305404,-0.08700035780648042,0.6037533112745108,0.3733365469238087,-0.313881476920305
2.374490976333618,-0.4456986005018346,0.16999952887586176,-0.08700037482118332,0.6070866446078441,0.3766699338244768,-0.3172155744636668
2.394604444503784,-0.4523653173793599,0.16999956923514487,-0.08700040944346696,0.6137533112745107,0.3833367138292823,-0.3238838371183666
2.4146790504455566,-0.4590320368878111,0.1699995981083491,-0.0870004449375199,0.6204199779411773,0.39000350235408315,-0.3305521908634484
2.4358320236206055,-0.4623653976322332,0.16999960888611845,-0.08700046303430263,0.6237533112745106,0.3933368999003358,-0.33388640220323396
2.455909252166748,-0.46569875903760605,0.169999617520013,-0.08700048137277179,0.6270866446078439,0.3966702996806316,-0.3372206366489926
2.475989580154419,-0.4690321211038444,0.16999962420440973,-0.08700049995724234,0.6304199779411772,0.400003701726823,-0.34055489427302493
2.4962263107299805,-0.4756988472157376,0.16999963240878307,-0.0870005378739206,0.6370866446078438,0.40667051273673843,-0.34722347924856833
2.5162203311920166,-0.4823655759558121,0.16999963470631108,-0.08700057679006942,0.6437533112745104,0.41333733315357907,-0.3538921573180831
2.5363097190856934,-0.48903230730271674,0.1699996320816435,-0.08700061669129078,0.650419977941177,0.4200041631732873,-0.36056092834906284
2.5563583374023438,-0.4956990412258006,0.16999962534017657,-0.08700065754537609,0.6570866446078436,0.42667100296201066,-0.36722979188213123
2.5764472484588623,-0.4990324091412901,0.16999962063705737,-0.08700067831529873,0.6604199779411769,0.4300044265630115,-0.3705642581029721
2.5966696739196777,-0.505699146850873,0.16999960892272106,-0.08700072050411531,0.6670866446078435,0.4366712812465332,-0.37723325880334135
2.616647243499756,-0.5123658870195476,0.16999959453407087,-0.08700076349965306,0.6737533112745101,0.4433381459708899,-0.38390234940587686
2.636960506439209,-0.5156992580067926,0.1699995864685586,-0.08700078527517868,0.6770866446078434,0.44667158211443997,-0.38723692792664
2.6570611000061035,-0.522365908665175,0.16999963841498703,-0.08700063607289474,0.6837525242897666,0.45333750179334065,-0.3939030209174916
2.677154064178467,-0.5290325587262241,0.16999967966561547,-0.08700051521904473,0.6904183712852064,0.4600033837011816,-0.40056908783244777
2.6974294185638428,-0.5356992484249911,0.16999971045320256,-0.08700047694804938,0.697085037951873,0.4666701162163735,-0.40723652325522053
2.717369318008423,-0.5423659388410799,0.16999973375036997,-0.08700044879297142,0.7037517046185396,0.4733368518935138,-0.4139039853565362
2.7374656200408936,-0.5456992843113372,0.16999974303743084,-0.0870004378972661,0.7070850379518729,0.4766702209160396,-0.4172377262198987
2.7575488090515137,-0.5523659757580669,0.16999975763877748,-0.0870004214395188,0.7137517046185395,0.4833369613091205,-0.4239052270257039
2.7776389122009277,-0.5590326678534648,0.16999976777906872,-0.08700041094324712,0.7204183712852061,0.49000370479619065,-0.430572752463714
2.797797679901123,-0.5623660141339414,0.16999977144523212,-0.08700040755995579,0.7237517046185394,0.4933370776829097,-0.4339065240929837
2.817894458770752,-0.5690327071381377,0.1699997764195622,-0.08700040390108614,0.730418371285206,0.5000038257009187,-0.4405740844636629
2.837958574295044,-0.5756994007018728,0.16999977875304048,-0.08700040368825754,0.7370850379518726,0.5066705766458061,-0.4472416666364408
2.8580422401428223,-0.5823660947855104,0.16999977895335844,-0.0870004062152583,0.7437517046185392,0.5133373304265008,-0.4539092693155405
2.878140449523926,-0.5890327893474352,0.16999977743731834,-0.0870004108998753,0.7504183712852058,0.5200040869384913,-0.46057689112080785
2.8982036113739014,-0.5923661367942618,0.1699997761453953,-0.0870004138974,0.7537517046185391,0.5233374661824881,-0.46391070874307244
2.918325185775757,-0.5990328319917886,0.1699997726792899,-0.08700042094159094,0.7604183712852057,0.5300042265671142,-0.47057835648233065
2.9384002685546875,-0.6056995275563357,0.16999976824681973,-0.0870004290877091,0.7670850379518723,0.5366709893659448,-0.47724601957468493
2.9584662914276123,-0.6123662234411089,0.16999976306276332,-0.08700043803082314,0.7737517046185389,0.5433377544313759,-0.4839136964020233
2.978573799133301,-0.6156995714886907,0.16999976024617117,-0.08700044271961527,0.7770850379518722,0.5466711377649689,-0.48724753944676213
2.9986603260040283,-0.6223662677640516,0.16999975426210712,-0.08700045239118152,0.7837517046185388,0.5533379059301777,-0.49391523373569146
3.018744468688965,-0.6290329642390264,0.16999974792312286,-0.08700046229286015,0.7904183712852054,0.5600046759476448,-0.5005829375145542
3.0388121604919434,-0.6356996608645564,0.1699997413466397,-0.08700047225611744,0.797085037951872,0.5666714476358421,-0.5072506490281702
3.058905601501465,-0.6390330092184139,0.16999973800121515,-0.08700047721508403,0.8004183712852053,0.5700048340476443,-0.5105845071314583
3.0790135860443115,-0.6456997059776293,0.16999973125169413,-0.08700048700791403,0.8070850379518719,0.5766716078853471,-0.5172522269161247
3.0990664958953857,-0.6523664027648141,0.1699997244891538,-0.08700049654092591,0.8137517046185385,0.5833383829092598,-0.5239199499818289
3.119302988052368,-0.6590330995315661,0.1699997177826542,-0.08700050571630044,0.8204183712852051,0.5900051589161489,-0.5305876745437952
3.139498710632324,-0.662366447892338,0.16999971446951218,-0.08700051014310217,0.8237517046185384,0.5933385472236592,-0.5339215368309126
3.1595840454101562,-0.669033144539261,0.16999970795736633,-0.0870005186280232,0.830418371285205,0.6000053243161992,-0.5405892603171465
3.1797022819519043,-0.6756998410482328,0.16999970163772513,-0.08700052656661568,0.8370850379518716,0.6066721018700312,-0.5472569809038649
3.1996970176696777,-0.6823665373741664,0.16999969555383332,-0.08700053390150828,0.8437517046185382,0.6133388796740865,-0.5539246968803895
3.219784736633301,-0.6856998854547751,0.16999969261237335,-0.08700053732700495,0.8470850379518715,0.6166722686040577,-0.5572585526156062
3.2398674488067627,-0.6923665814246633,0.16999968695203635,-0.08700054366726155,0.8537517046185381,0.6233390463888024,-0.5639262585557379
3.2599782943725586,-0.6990332771051627,0.16999968161423656,-0.08700054929597778,0.8604183712852047,0.6300058239001628,-0.5705939557932412
3.2805492877960205,-0.7023666248244482,0.16999967907504712,-0.08700055183361029,0.863751704618538,0.6333392124891394,-0.573927800663161
3.3004558086395264,-0.709033319997224,0.16999967427166018,-0.08700055633903607,0.8704183712852046,0.6400059892074921,-0.5805954819675309
3.320539951324463,-0.7157000147852209,0.16999966985328796,-0.08700056006706561,0.8770850379518712,0.6466727651483481,-0.5872631508216344
3.34062123298645,-0.7223667091537823,0.16999966583926737,-0.08700056300134051,0.8837517046185378,0.6533395401191002,-0.59393080584273
3.3610191345214844,-0.7257000561705281,0.16999966398913394,-0.08700056416712279,0.8870850379518711,0.6566729271822669,-0.5972646277537844
3.380902051925659,-0.7323667498496627,0.16999966061159918,-0.08700056589125589,0.8937517046185377,0.6633397003512987,-0.6039322595946358
3.4010233879089355,-0.7390334430322524,0.16999965767442443,-0.08700056680256037,0.9004183712852043,0.6700064720992123,-0.610599874475683
3.4212327003479004,-0.742366789428856,0.1699996563741472,-0.08700056695334113,0.9037517046185376,0.6733398573879794,-0.613933675206263
3.4413394927978516,-0.7490334818169809,0.16999965411522708,-0.08700056664733957,0.9104183712852042,0.6800066266955458,-0.6206012625935912
3.461622714996338,-0.7557001736457766,0.1699996523167906,-0.08700056553706709,0.9170850379518708,0.6866733941840296,-0.6272688304066714
3.4815549850463867,-0.7623668648942453,0.16999965098282127,-0.08700056363279848,0.9237517046185374,0.6933401597112807,-0.633936377751072
3.5016868114471436,-0.7657002102949407,0.1699996504906573,-0.0870005623871056,0.9270850379518707,0.6966735416978707,-0.6372701434921536
3.5217461585998535,-0.7723669006387059,0.1699996498561068,-0.08700055931882478,0.9337517046185373,0.7033403040397168,-0.6439376586499334
3.541898488998413,-0.7790335903599386,0.16999964968662612,-0.08700055549728149,0.9404183712852039,0.7100070641114795,-0.6506051514905183
3.562535524368286,-0.7823669349830079,0.16999964977533985,-0.08700055331070587,0.9437517046185372,0.7133404432630946,-0.6539388893558887
3.582669734954834,-0.7890335856581456,0.1699996880583604,-0.08700044818167176,0.9504173839395205,0.7200056134821592,-0.6606047783907867
3.6027488708496094,-0.7957002368560633,0.16999971966400307,-0.08700036302715412,0.9570830883477223,0.7266708001690433,-0.6672706866612038
3.623180389404297,-0.8023668885852515,0.16999974587729785,-0.08700029405199483,0.9637488187293279,0.7333360052994898,-0.6739366149230892
3.643009662628174,-0.8090335408482912,0.16999976773064712,-0.08700023818211582,0.9704145756232252,0.7400012303887817,-0.6806025636567534
3.6633992195129395,-0.8123668671803368,0.16999977728982849,-0.08700021436390423,0.9737474641553382,0.7433338508693752,-0.6839355458299988
3.683298349380493,-0.8190335202452297,0.16999979411704427,-0.08700017363476242,0.9804132616261784,0.7499991085594084,-0.6906015260076998
3.703383445739746,-0.8257001738430269,0.16999980838071266,-0.08700014064415756,0.9870790865558499,0.7566643896343518,-0.6972675275317126
3.723417043685913,-0.8290335008408443,0.16999981470820455,-0.08700012657974181,0.9904120093910558,0.759997039325469,-0.7006005363711006
3.743612051010132,-0.835700155231678,0.16999982601474853,-0.08700010252959087,0.9970778759023098,0.7666623577346924,-0.7072665703114849
3.7638795375823975,-0.8423668101449212,0.16999983581114922,-0.0870000830489686,1.003743770274764,0.7733277024066583,-0.7139326260270517
3.783785343170166,-0.8490334655740164,0.16999984438397206,-0.08700006726966457,1.0104096925270014,0.7799930743332524,-0.7205987035721116
3.8038852214813232,-0.8557001215111999,0.16999985196421108,-0.0870000544884283,1.0170756426012997,0.7866584744141204,-0.7272648029378892
3.823955774307251,-0.8590334496675931,0.16999985544176083,-0.08700004903958547,1.0204086280337221,0.7899911852682635,-0.7305978607842629
3.8440515995025635,-0.865700106349956,0.16999986187032612,-0.08700003972206423,1.0270746195750855,0.7966566290651866,-0.7372639927338255
3.864380121231079,-0.8723667635163662,0.1699998677055409,-0.08700003217487202,1.0337406384850218,0.8033221028616049,-0.7439301462255724
3.8842968940734863,-0.8790334211556129,0.169999873055265,-0.08700002606164634,1.0404066844689355,0.8099876072354194,-0.7505963210537803
3.9044113159179688,-0.8823667501488348,0.1699998755758283,-0.0870000234554817,1.0437397175054757,0.8133203710448103,-0.7539294163913071
3.924454689025879,-0.8890334084746699,0.16999988035407843,-0.08700001899894018,1.0504058034213155,0.8199859221719533,-0.7605956227324784
3.94454288482666,-0.8957000672421794,0.16999988483202058,-0.08700001538914154,1.0570719154283346,0.8266515049312618,-0.7672618496894917
3.964663505554199,-0.9023667264378927,0.16999988905923863,-0.08700001246520465,1.0637380530462026,0.8333171195934085,-0.7739280969007313
3.984726905822754,-0.9057000561919939,0.1699998910915222,-0.08700001121868418,1.067071131297135,0.8366499389498506,-0.7772612279785671
4.004814863204956,-0.9123667160038199,0.16999989501423046,-0.08700000908713419,1.0737373063370486,0.8433156017927921,-0.7839275048139422
4.024941921234131,-0.9190333762084436,0.16999989877047803,-0.0870000073605787,1.0804035056068275,0.8499812968576967,-0.790593800846928
4.045042276382446,-0.9257000367912317,0.1699999023825215,-0.08700000596206875,1.087069728493231,0.8566470241365612,-0.7972601156030322
4.065104246139526,-0.9290333672198209,0.1699999041401219,-0.08700000536586187,1.0904028485931236,0.8599798998337168,-0.8005932798471902
4.085207223892212,-0.9357000283421065,0.16999990756766423,-0.08700000434634811,1.0970691056933934,0.8666456752600733,-0.8072596217456696
4.105285406112671,-0.9423666898054687,0.16999991088825872,-0.08700000352054196,1.1037353847612936,0.8733114825690714,-0.813925981081218
4.125417470932007,-0.9490333515950529,0.16999991411155443,-0.08700000285163899,1.1104016851012428,0.879977321512786,-0.8205923573080544
4.145677804946899,-0.955700013696088,0.1699999172450904,-0.08700000230982757,1.117068006002747,0.8866431917828281,-0.8272587498671543
4.165591478347778,-0.9590333448588205,0.1699999187800872,-0.08700000207884481,1.1204011739388537,0.8899761385532464,-0.8305919520937163
4.185714960098267,-0.9657000073996566,0.1699999217895614,-0.08700000168386429,1.1270675243266046,0.8966420551116053,-0.8372583680813045
4.2057671546936035,-0.972366670064799,0.16999992422542243,-0.08700000136393007,1.1337338817629556,0.9033079735699395,-0.8439247896984615
4.226141691207886,-0.9757000014258678,0.1699999252268053,-0.08700000122753707,1.137067061788043,0.906640930393255,-0.8472580015601514
4.2462568283081055,-0.9823666643517335,0.16999992732950922,-0.08700000099430502,1.1437334359996052,0.9133068678489488,-0.8539244365400541
4.266318321228027,-0.9890333180386462,0.1699998978666976,-0.08700000080538706,1.150399079899697,0.919970932177908,-0.8605902931589391
4.286410808563232,-0.9956999725679412,0.16999987557557053,-0.08700000065236352,1.157064783134251,0.9266350958498221,-0.8672561969562326
4.3064963817596436,-0.9990333001352116,0.16999986667308178,-0.08700000058712716,1.1603976562999212,0.9299672145167303,-0.8705891659882722
4.3266441822052,-1.0056999558477544,0.16999985260784983,-0.087000000475573,1.1670634442257806,0.936631524333471,-0.8772551371232318
4.346649885177612,-1.012366612295626,0.1699998427010598,-0.08700000038521413,1.1737292856289274,0.943295929158463,-0.8839211507735215
4.368012428283691,-1.015699940782384,0.16999983904204172,-0.08700000034669272,1.177062225648967,0.9466281665669628,-0.8872541729555357
4.388116359710693,-1.0223665982564702,0.16999983387228546,-0.08700000028082111,1.183728142875268,0.9532927100721086,-0.8939202468759971
4.408267974853516,-1.0290332563656155,0.16999983107845196,-0.0870000002274651,1.190394107779088,0.959957343375957,-0.9005863586851915
4.428318500518799,-1.0356999150722717,0.1699998301726119,-0.08700000018424672,1.1970601181150449,0.9666220642864108,-0.9072525065900455
4.448391675949097,-1.0390332446383415,0.16999983030114826,-0.08700000016582204,1.2003931396315992,0.9699544568954861,-0.9105855935283422
4.468573808670044,-1.0456999041741377,0.1699998315109462,-0.08700000013431586,1.2070592140130452,0.9766193050009786,-0.9172517922988154
4.48873233795166,-1.0523665642201403,0.16999983375811942,-0.08700000010879584,1.2137253284334075,0.983284235036949,-0.9239180228552639
4.508918046951294,-1.0556998944243214,0.1699998351962231,-0.08700000009791625,1.2170584000118365,0.9866167300523861,-0.9272511495365301
4.529068231582642,-1.0623665551755699,0.16999983857781958,-0.08700000007931216,1.2237245706444229,0.9932817786127909,-0.9339174246971628
4.549151182174683,-1.069033216359121,0.16999984249638236,-0.08700000006424286,1.2303907762742243,0.9999469032469391,-0.9405837276130266
4.569258689880371,-1.0756998779464102,0.16999984681544994,-0.0870000000520367,1.237057014990825,1.006612101587378,-0.9472500567567232
4.589327812194824,-1.0790332088829282,0.16999984908987303,-0.08700000004683303,1.2403901461768883,1.0099447276563622,-0.9505832307005001
4.609598875045776,-1.085699871025437,0.16999985381004815,-0.08700000003793475,1.2470564310799672,1.0166100321102636,-0.957249596433
4.6296563148498535,-1.0923665335065686,0.16999985869414008,-0.08700000003072714,1.253722744572112,1.0232754043480052,-0.9639159847981906
4.649739980697632,-1.0990331963027158,0.1699998636780558,-0.08700000002488899,1.2603890849677915,1.0299408420148373,-0.97058239444937
4.669947862625122,-1.1023665278119104,0.16999986619094198,-0.08700000002240009,1.2637222647456465,1.0332735846526406,-0.9739156068507993
4.690352916717529,-1.109033191039237,0.16999987123139187,-0.08700000001814406,1.2703886424796473,1.0399391160851383,-0.9805820460214596
4.7103564739227295,-1.1156998545283352,0.16999987626161414,-0.08700000001469668,1.2770550431901266,1.0466047071422788,-0.9872485033425455
4.730372667312622,-1.12236650875471,0.1699998212260214,-0.0870000000119043,1.2837206722722223,1.053267056854222,-0.9939143532949063
4.769500255584717,-1.12236650875471,0.1699998212260214,-0.0870000000119043,1.2837206722722223,1.053267056854222,-0.9939143532949063
4.7976601123809814,-1.12236650875471,0.1699998212260214,-0.0870000000119043,1.2837206722722223,1.053267056854222,-0.9939143532949063
4.817773342132568,-1.1256998361956687,0.16999979900249235,-0.08700000001071387,1.287053516390405,1.056598307912539,-0.9972473016128797
4.837817192077637,-1.1323664916993916,0.16999976340935338,-0.08700000000867823,1.2937192612225794,1.063260959705835,-1.0039132428853912
4.857898473739624,-1.1390331479844389,0.1699997376651821,-0.08700000000702937,1.3003850777891848,1.0699238056200613,-1.0105792406989802
4.8780341148376465,-1.145699804996499,0.16999971981549908,-0.08700000000569379,1.30705096177264,1.0765868391615179,-1.017245291609754
4.8980553150177,-1.1490331337590936,0.1699997133440957,-0.08700000000512441,1.3103839277444738,1.0799184242793156,-1.020578335939362
4.918242931365967,-1.1556997917670326,0.16999970446577412,-0.08700000000415077,1.317049905141297,1.086581727220216,-1.0272444603500033
4.938295602798462,-1.1623664503803859,0.16999970007286286,-0.08700000000336212,1.3237159399255358,1.0932452018394452,-1.0339106298687806
4.958378314971924,-1.1690331095558504,0.1699996992327249,-0.08700000000272332,1.3303820283864232,1.0999088418973273,-1.040576841544443
4.978483200073242,-1.175699769252978,0.1699997011907771,-0.08700000000220588,1.33704816698158,1.1065726412472745,-1.0472430925624003
4.998552083969116,-1.179033099285274,0.1699997030235485,-0.0870000000019853,1.3403812540178464,1.1099045987633396,-1.0505762319819578
5.018686771392822,-1.1856997596949792,0.16999970807196277,-0.08700000000160808,1.3470474615335164,1.116568625749054,-1.057242537028914
5.038764476776123,-1.1923664205368585,0.16999971460478477,-0.08700000000130255,1.35371371104422,1.1232327971167002,-1.0639088749630035
5.05883264541626,-1.1990330817794272,0.1699997222636516,-0.08700000000105507,1.3603799995718557,1.1298971071018162,-1.0705752434271223
5.079330921173096,-1.2023664125417555,0.16999972642263023,-0.08700000000094955,1.3637131575782857,1.133229312307862,-1.0739084384052848
5.099450588226318,-1.2090330743312572,0.16999973524610665,-0.08700000000076914,1.370379499380721,1.139893819679803,-1.0805748485146984
5.119610548019409,-1.2156997364523974,0.1699997445740225,-0.08700000000062301,1.3770458734147057,1.146558451803439,-1.0872412837953422
5.139980316162109,-1.2223663988810962,0.1699997542378422,-0.08700000000050465,1.3837122772188963,1.1532232033615615,-1.09390774230799
5.159795045852661,-1.2256997302037624,0.16999975915228868,-0.08700000000045419,1.387045489553452,1.1565556223040185,-1.097240979700811
5.179893255233765,-1.2323663930526516,0.16999976907469372,-0.0870000000003679,1.3937119336980994,1.1632205433421314,-1.103907469667564
5.200040578842163,-1.2390330424381049,0.1699996481533568,-0.08700000000029799,1.40037762993691,1.1698792538636242,-1.1105733607758184
5.220060586929321,-1.245699692825955,0.16999955786149537,-0.08700000000024137,1.4070434269611447,1.176538391317976,-1.117239330404393
5.240196228027344,-1.2490330183810514,0.16999952232589582,-0.08700000000021724,1.410376361187055,1.179868117835964,-1.120572343036518
5.260314226150513,-1.2556996701754815,0.16999946725190468,-0.08700000000017596,1.417042296475062,1.1865278767323724,-1.127238420343778
5.280419588088989,-1.262366322834961,0.16999942993233008,-0.08700000000014253,1.423708315033575,1.1931880307028782,-1.1339045624758208
5.300510883331299,-1.269032976306778,0.16999940679497322,-0.08700000000011546,1.4303744101737939,1.1998485647334884,-1.140570764215595
5.320616960525513,-1.2723663033320278,0.16999939961793092,-0.08700000000010391,1.433707484470799,1.203178969666919,-1.1439038858879063
5.340710163116455,-1.2790329579328723,0.16999939250729962,-0.08700000000008416,1.440373682728643,1.2098400463399346,-1.1505701678914988
5.361020565032959,-1.2856996132325174,0.16999939334746056,-0.08700000000006816,1.4470399424009432,1.2165014669570837,-1.1572364977130423
5.380906105041504,-1.2890329411321144,0.1699993962028267,-0.08700000000006135,1.4503730935440073,1.2198323018997912,-1.1605696792204312
5.4017133712768555,-1.295699597408167,0.16999940587692536,-0.08700000000004969,1.457039435173893,1.22649421255039,-1.1672360729001312
5.4216578006744385,-1.3023662542920904,0.1699994198303931,-0.08700000000004025,1.4637058251303732,1.2331564331354816,-1.173902504278152
5.443075180053711,-1.305699582952224,0.16999942809049517,-0.08700000000003623,1.4670390367529074,1.2364876555778181,-1.1772357329653864
5.463157892227173,-1.3090329117529413,0.16999943706031667,-0.0870000000000326,1.4703722587202503,1.2398189506567023,-1.1805689697403456
5.483404874801636,-1.3156995697625227,0.16999945675630107,-0.08700000000002642,1.4770387315426607,1.2464817524658245,-1.1872354659058149
5.503493070602417,-1.322366228295161,0.1699994782640173,-0.08700000000002141,1.4837052394775478,1.2531448262662532,-1.1939019896172465
5.523691177368164,-1.329032887327495,0.16999950105567216,-0.08700000000001734,1.4903717786742081,1.259808160113665,-1.2005685379313216
5.543558835983276,-1.332366217024331,0.16999951279665623,-0.0870000000000156,1.4937050588632144,1.2631399209186855,-1.203901820450741
5.563628196716309,-1.339032876766978,0.16999953674366494,-0.08700000000001264,1.500371638293781,1.2698036232109433,-1.2105684005948634
5.583721399307251,-1.345699536959755,0.16999956106268144,-0.08700000000001024,1.5070382404636489,1.276467557227562,-1.2172349988576423
5.603921890258789,-1.3523661975858985,0.16999958550810096,-0.08700000000000829,1.5137048623764333,1.2831317122509238,-1.2239016129709546
5.624183654785156,-1.3556995280566586,0.16999959771522566,-0.08700000000000746,1.5170381798603632,1.2864638693855193,-1.227234925310174
5.644320964813232,-1.3623661893046628,0.16999962199513755,-0.08700000000000604,1.5237048262466042,1.2931283365790553,-1.2339015593214495
5.664395332336426,-1.3690328509503675,0.16999964598358647,-0.08700000000000489,1.5303714858221793,1.2997929994910116,-1.2405682042484685
5.684473752975464,-1.3756995129816294,0.1699996695708618,-0.08700000000000396,1.5370381563133912,1.3064578485988316,-1.2472348583890023
5.704558610916138,-1.382366175387323,0.1699996926710854,-0.0870000000000032,1.5437048356302152,1.3131228747122075,-1.2539015201836674
5.724785804748535,-1.385699506727355,0.16999970401711623,-0.08700000000000288,1.5470381779929407,1.3164554513636517,-1.2572348535010918
5.745210409164429,-1.392366160896873,0.1699996384802722,-0.08700000000000233,1.5537049343493035,1.3231174195642865,-1.2639015513129999
5.765012264251709,-1.3990328076854308,0.16999952095796844,-0.08700000000000188,1.5603717847902094,1.3297767169768204,-1.270568305103137
5.78508448600769,-1.4056994563612721,0.16999944459051683,-0.08700000000000152,1.5670386609082907,1.3364368396781316,-1.2772350901472576
5.805675268173218,-1.4090327814024834,0.16999941913951774,-0.08700000000000137,1.5703721060271048,1.3397672004716603,-1.280568492512482
5.825811147689819,-1.4156994328833665,0.1699993892105942,-0.0870000000000011,1.577039005609969,1.3464285012321116,-1.2872353134509644
5.8459577560424805,-1.4223660862191387,0.16999938226100278,-0.0870000000000009,1.5837059117544259,1.353090548565639,-1.2939021517154932
5.866006135940552,-1.4290327413991484,0.16999939330746452,-0.08700000000000072,1.5903728179240482,1.359753312432191,-1.3005690025714778
5.8860814571380615,-1.4356993984135724,0.16999941831198662,-0.08700000000000058,1.5970397181814158,1.3664167636474431,-1.307235861730709
5.9061524868011475,-1.43903272760576,0.16999943500019923,-0.08700000000000052,1.6003731643958994,1.3697487381242637,-1.3105692932009745
5.926316976547241,-1.4456993873543402,0.16999947500495857,-0.08700000000000042,1.6070400459083685,1.376413167508961,-1.3172361577007163
5.946343898773193,-1.4523660489141441,0.16999952191213133,-0.08700000000000034,1.6137069091425778,1.3830782150108822,-1.3239030216023109
5.966430902481079,-1.4590327122756068,0.169999573786011,-0.08700000000000027,1.6203737500887194,1.3897438544206246,-1.3305698820207206
5.986703634262085,-1.4623660446288127,0.16999960108264217,-0.08700000000000024,1.6237071610895202,1.3930768881306375,-1.333903310120303
6.006857395172119,-1.469032710673426,0.1699996575583452,-0.08700000000000019,1.6303739621866211,1.3997433680981834,-1.340570160680402
6.027171611785889,-1.4756993784925359,0.1699997156139927,-0.08700000000000016,1.6370407331442227,1.4064103781188482,-1.3472370020659432
6.047022104263306,-1.4823660480732868,0.16999977431813565,-0.08700000000000013,1.6437074716446498,1.4130778949037055,-1.3539038325605164
6.0671327114105225,-1.4856993835198553,0.1699998036709759,-0.08700000000000012,1.6470408281214448,1.4164118362795577,-1.357237243267993
6.087243556976318,-1.4923660557156087,0.16999986197366296,-0.08700000000000009,1.653707514561386,1.4230800713377443,-1.3639040548447718
6.1072838306427,-1.4990327296337784,0.16999991928799646,-0.08700000000000006,1.6603741646675891,1.4297487585139748,-1.3705708524852511
6.127423286437988,-1.5056994052552553,0.16999997516020082,-0.08700000000000005,1.6670407776192262,1.4364178773615408,-1.3772376354251255
6.147965431213379,-1.509032743698147,0.17000000243670133,-0.08700000000000005,1.6703740700146854,1.439752592490182,-1.380571021208124
6.167935848236084,-1.5156994218337339,0.17000005547070463,-0.08700000000000005,1.6770406265626567,1.4464223222449466,-1.3872377811732723
6.188000917434692,-1.5223661016144872,0.17000010625438003,-0.08700000000000005,1.6837071456202437,1.4530924360168673,-1.3939045255197469
6.208402872085571,-1.52903278301249,0.17000015455845555,-0.08700000000000005,1.6903736277120012,1.4597629161083725,-1.4005712542366482
6.228553056716919,-1.5356994659968808,0.17000020019174114,-0.08700000000000005,1.6970400737253994,1.4664337455891825,-1.407237967494173
6.248624801635742,-1.5390328080734779,0.1700002219555573,-0.08700000000000005,1.7003732835773904,1.4697692862676537,-1.4105713184247919
6.268709421157837,-1.5456994933726997,0.1700002632886908,-0.08700000000000005,1.7070396779126837,1.4764406097464273,-1.4172380091728414
6.2888243198394775,-1.5523661801670945,0.17000030159210358,-0.08700000000000005,1.7137060399287425,1.4831122435919457,-1.4239046855847406
6.309180974960327,-1.5590328684140924,0.17000033675549217,-0.08700000000000005,1.7203723717302428,1.4897841734950412,-1.430571348352176
6.3293616771698,-1.5623662130679987,0.17000035312881026,-0.08700000000000005,1.723705527050454,1.4931202451965828,-1.4339046748680362
6.349348306655884,-1.5690329034058756,0.17000038340260598,-0.08700000000000005,1.7303718182125059,1.4997925939525967,-1.4405713187204692
6.369479417800903,-1.57569957365296,0.17000033033255302,-0.08700000000000005,1.7370383842670627,1.5064600268342756,-1.447237932968942
6.3894829750061035,-1.5823662440718933,0.17000028786877033,-0.08700000000000005,1.7437049451309232,1.513127483135785,-1.453904544475255
6.409611940383911,-1.585699579345173,0.1700002699530588,-0.08700000000000005,1.7470382236691844,1.516461219764917,-1.457237849229102
6.429670333862305,-1.5923662500146656,0.17000023963674,-0.08700000000000005,1.7537047771775096,1.5231287087439094,-1.463904456857153
6.449779272079468,-1.5990329208416596,0.17000021543518523,-0.08700000000000005,1.7603713262377694,1.529796217130769,-1.4705710621428123
6.469812631607056,-1.6056995918182688,0.17000019611109182,-0.08700000000000005,1.7670378712419406,1.536463743172441,-1.4772376652878432
6.489899158477783,-1.609032927360151,0.1700001879571776,-0.08700000000000005,1.7703711423518702,1.5397975122997276,-1.4805709661220374
6.510009527206421,-1.615699598545879,0.17000017413238086,-0.08700000000000005,1.777037682057955,1.5464650618046083,-1.4872375664447737
6.530083656311035,-1.622366269860447,0.1700001630269617,-0.08700000000000005,1.7837042187902499,1.5531326251116224,-1.4939041651501186
6.550145149230957,-1.6290329412950777,0.1700001540500102,-0.08700000000000005,1.7903707530232138,1.5598002008824525,-1.500570762452004
6.570267200469971,-1.6323662770545937,0.17000015020634193,-0.08700000000000005,1.793704019357399,1.5631339930540233,-1.5039040606438279
6.5903520584106445,-1.6390329486522122,0.17000014355351512,-0.08700000000000005,1.8003705507848313,1.5698015852533862,-1.5105706562437526
6.610431909561157,-1.645699620346619,0.1700001379966979,-0.08700000000000005,1.8070370810081893,1.5764691870504206,-1.517237250977632
6.630503177642822,-1.6523662921279163,0.17000013325213817,-0.08700000000000005,1.8137036105917552,1.5831367974833965,-1.5239038450588864
6.651920557022095,-1.655699628047955,0.17000013111058557,-0.08700000000000005,1.8170368753276405,1.5864706056657547,-1.5272371419208621
6.672029733657837,-1.66236629994021,0.17000012716556,-0.08700000000000005,1.8237034050717664,1.5931382274718002,-1.5339037354179812
6.692124843597412,-1.6690329718929304,0.17000012353353056,-0.08700000000000005,1.8303699357137946,1.5998058559508561,-1.5405703287837202
6.7122108936309814,-1.6756996438948046,0.17000012007553042,-0.08700000000000005,1.8370364679239557,1.6064734904891516,-1.5472369222191036
6.7322587966918945,-1.6823663159340545,0.1700001166773483,-0.08700000000000005,1.8437030024068735,1.61314113056833,-1.5539035159193906
6.752353668212891,-1.6856996519638798,0.17000011497053352,-0.08700000000000005,1.8470362707307455,1.6164749525495006,-1.5572368129280614
6.772554397583008,-1.6923663240360154,0.17000011149018487,-0.08700000000000005,1.8537028100245818,1.623142600173355,-1.5639034073766491
6.7925639152526855,-1.699032996113841,0.17000010786233566,-0.08700000000000005,1.8603693535178583,1.6298102524507716,-1.5705700025461826
6.8129541873931885,-1.7023663321506441,0.1700001059737676,-0.08700000000000005,1.8637026271010424,1.6331440802702744,-1.573903300453793
6.833024740219116,-1.7090330042112134,0.1700001020137576,-0.08700000000000005,1.8703691784885732,1.6398117391918108,-1.580569897013925
6.853117942810059,-1.7156996762421821,0.17000009777058525,-0.08700000000000005,1.8770357362697025,1.6464794024502183,-1.5872364946910804
6.873213291168213,-1.722366348228306,0.17000009320230058,-0.08700000000000005,1.8837023014067913,1.6531470700759325,-1.59390309362261
6.8932952880859375,-1.729033020153646,0.1700000882717321,-0.08700000000000005,1.890368874915179,1.659814742188405,-1.6005696939318041
6.9134202003479,-1.7323663560883418,0.17000008566000402,-0.08700000000000005,1.8937021651411827,1.6631485799887598,-1.6039029946373555
6.9335198402404785,-1.7390330278910109,0.17000008012408818,-0.08700000000000005,1.9003687532341527,1.6698162592492656,-1.610569597209883
6.953582048416138,-1.7456996995897751,0.17000007414710652,-0.08700000000000005,1.9070353524900412,1.6764839436826702,-1.617236201397097
6.973661184310913,-1.7490330353943988,0.17000007098445744,-0.08700000000000005,1.9103686566848732,1.6798177879698408,-1.620569504116439
6.993770360946655,-1.7556997069020805,0.1700000642940605,-0.08700000000000005,1.9170352750068855,1.6864854809946577,-1.6272361108356288
7.0139501094818115,-1.7623663782576415,0.17000005709519217,-0.08700000000000005,1.923701907688499,1.6931531804305513,-1.6339027192844497
7.034013986587524,-1.7690330494402564,0.17000004936242416,-0.08700000000000005,1.930368556134441,1.6998208869273845,-1.6405693294684356
7.054078102111816,-1.7756997204281761,0.1700000410707526,-0.08700000000000005,1.9370352218270557,1.7064886012234985,-1.647235941367072
7.0742270946502686,-1.7790330558420693,0.1700000367075788,-0.08700000000000005,1.9403685616262505,1.7098224615512416,-1.6505692479453382
7.094306468963623,-1.7856997268991401,0.17000002877956755,-0.08700000000000005,1.947035245623335,1.7155572567249486,-1.657235855934616
7.114389419555664,-1.792366397622957,0.17000001988743108,-0.08700000000000005,1.953701951672036,1.7202024354793213,-1.663902466984456
7.134441614151001,-1.799033067999378,0.17000001028405973,-0.08700000000000005,1.9603686797074311,1.7239650233371722,-1.6705690811600822
7.156028985977173,-1.802366403055924,0.1700000052840545,-0.08700000000000005,1.96370205192756,1.725569071220784,-1.6739023894077696
7.176147222518921,-1.8090330715987604,0.17000000038760704,-0.08700000000000005,1.9703687614044774,1.7283114921238911,-1.6805690279422707
7.196216344833374,-1.815699745175114,0.17000002489894267,-0.08700000156710705,1.9770354273461206,1.730532359554098,-1.6872357035611112
7.216288328170776,-1.8223664188611974,0.17000004431074506,-0.08700000335370406,1.9837020941420433,1.7323312615770086,-1.6939023809997684
7.236393213272095,-1.8256997591266277,0.17000006627561914,-0.08700000591291972,1.9870354274753768,1.7330981364761386,-1.6972357303129288
7.256480932235718,-1.832366433042255,0.17000007961489624,-0.08700000827377494,1.993702095159635,1.7344095356602989,-1.7039024114046555
7.2765631675720215,-1.8390331070620585,0.170000089912497,-0.08700001079314437,2.000368763776516,1.7354717684963201,-1.7105690945159924
7.296705961227417,-1.8456997811846299,0.17000009773118985,-0.08700001346383893,2.0070354333797935,1.736332176588659,-1.717235779732016
7.317235708236694,-1.8490331146577397,0.17000008758025073,-0.08700001211745503,2.010368770698833,1.7366990054964788,-1.7205691103255205
7.337339401245117,-1.8556997888614555,0.17000009268365432,-0.08700001465654947,2.017035442471515,1.7373262417692978,-1.7272357979637463
7.3574488162994385,-1.862366463164663,0.1700000962915204,-0.0870000173346483,2.0237021154439487,1.7378343025294127,-1.733902487919288
7.3775811195373535,-1.8690331375666571,0.17000009867100532,-0.08700002015842441,2.030368789703621,1.738245831118877,-1.740569180303661
7.397849082946777,-1.875699812066962,0.17000010003805074,-0.08700002313685098,2.0370354653459617,1.7385791686454157,-1.7472358752362063
7.417950868606567,-1.8790331533088924,0.17000011284546585,-0.08700002920064513,2.040368798679295,1.7387212542791703,-1.7505692409475326
7.43813419342041,-1.885699828033305,0.17000011281751976,-0.08700003289054431,2.04703547580765,1.7389642570013024,-1.7572359410427572
7.458119630813599,-1.892366502857588,0.17000011215006364,-0.087000036791499,2.0537021545333105,1.7391610886925106,-1.7639026440658898
7.478605270385742,-1.8956998361559574,0.17000009964823734,-0.08700003311234909,2.0570355016422637,1.7392450206612906,-1.7672359766296182
7.498682498931885,-1.9023665110485748,0.1700000984057999,-0.08700003682658677,2.063702183928648,1.7393885096207375,-1.7739026830981774
7.518775939941406,-1.9090331860398275,0.17000009674594144,-0.0870000407581247,2.0703688681949144,1.7395047350363837,-1.7805693928226565
7.538853168487549,-1.9156998611301945,0.17000009472817323,-0.08700004492126549,2.0770355545853487,1.7395988769822521,-1.7872361059658157
7.558980464935303,-1.9223665363202564,0.17000009240028494,-0.08700004933061858,2.083702243252954,1.7396751313192613,-1.793902822697249
7.579119682312012,-1.925699878493079,0.17000010218725364,-0.08700006000117128,2.0870355765862874,1.7397076226943693,-1.7972362085109275
7.599197864532471,-1.9323665539277262,0.17000009925842283,-0.08700006549741852,2.09370226769302,1.7397632118947992,-1.803902932444044
7.619237422943115,-1.9390332294668642,0.1700000961002514,-0.08700007131756918,2.100368961410044,1.7398082386673286,-1.8105696604826789
7.6396543979644775,-1.9456999051114643,0.17000009273453695,-0.08700007747889459,2.107035657917997,1.7398447098821868,-1.8172363928218773
7.659740447998047,-1.949033238091897,0.17000008064578925,-0.08700006973100513,2.1103690240739406,1.739860272246211,-1.82056972913326
7.680141448974609,-1.9556999137917994,0.17000007720730642,-0.08700007559901993,2.11703572674498,1.739886858345665,-1.8272364665849836
7.7000885009765625,-1.962366589596305,0.17000007359781433,-0.08700008180584735,2.1237024328085643,1.7399083924770533,-1.8339032087829616
7.720133304595947,-1.9690332655063598,0.1700000698262808,-0.08700008836771135,2.130369142486119,1.73992583452262,-1.8405699559432467
7.740243673324585,-1.9723666087651324,0.1700000774883002,-0.08700010589008512,2.1337024758194523,1.7399332585822846,-1.8439033693143747
7.76031231880188,-1.9790332849526764,0.17000007327788158,-0.08700011402517263,2.140369189343355,1.7399459738285883,-1.8505701263108283
7.7803990840911865,-1.9856999612519926,0.17000006891922187,-0.08700012261045902,2.1470359069572433,1.7399562727822702,-1.8572368889149709
7.80045485496521,-1.9923666376641083,0.17000006441529442,-0.08700013166508061,2.153702628916324,1.7399646145550294,-1.863903657367192
7.820509433746338,-1.9956999702210085,0.1700000532293552,-0.08700011849857255,2.157036022154349,1.739968179155048,-1.8672369987557575
7.840636491775513,-2.002366646672861,0.17000004871720004,-0.08700012708761573,2.163702753617257,1.7399742588853269,-1.8739037741951767
7.86095929145813,-2.009033323235699,0.1700000440621471,-0.08700013613428423,2.1703694902634747,1.7399791829357703,-1.8805705560288353
7.880886793136597,-2.0156999999102854,0.17000003926403345,-0.08700014565657704,2.1770362323975525,1.7399831709005071,-1.8872373445176411
7.9009690284729,-2.0190333444595843,0.17000004497236987,-0.08700017296971851,2.180369565730886,1.7399848656177734,-1.8905707946858796
7.921088457107544,-2.02570002144941,0.17000003975504946,-0.08700018466810316,2.187036313670458,1.7399877731307298,-1.8972375962048686
7.941144943237305,-2.0323666985570106,0.1700000343934157,-0.08700019695661616,2.19370306774653,1.7399901279547354,-1.9039044051458418
7.961233377456665,-2.039033375782904,0.17000002888600685,-0.08700020985633304,2.2003698283037583,1.739992035123996,-1.910571221792484
7.981306314468384,-2.04236670773857,0.17000001862135045,-0.08700018887069974,2.2037032623673887,1.7399928497309767,-1.9139045704590396
8.00159740447998,-2.0490333849803752,0.1700000130902986,-0.08700020104971344,2.21037003697685,1.7399942386818377,-1.9205713963527322
8.021555423736572,-2.0557000623365576,0.17000000740714977,-0.08700021381738396,2.217036819186005,1.7399953633257128,-1.927238230595258
8.041614294052124,-2.059033408173577,0.17000001147111699,-0.08700025243698585,2.2203701525193384,1.7399958437420266,-1.9305717208911841
8.061697006225586,-2.0657000858751435,0.17000000536178414,-0.08700026799685537,2.2270369427300514,1.7399966642123685,-1.937238571313849
8.081815242767334,-2.07236676369547,0.16999999909657992,-0.08700028427658867,2.233703741359083,1.7399973286868895,-1.943905430947043
8.101874828338623,-2.07570009509052,0.1699999894221925,-0.0870002558489298,2.2370372155049627,1.739997607905126,-1.9472387864723424
8.12207579612732,-2.082366762091375,0.16999999105995128,-0.08700020837155684,2.24370390153515,1.7399980821124816,-1.9539054565855547
8.142085552215576,-2.0890334290410326,0.16999999206566824,-0.08700017014565113,2.250370591604958,1.739998465392872,-1.9605721279837838
8.162156105041504,-2.095700095936301,0.1699999925420284,-0.08700013943247104,2.2570372860415286,1.7399987750122783,-1.967238800756059
8.182239770889282,-2.0990334289025205,0.16999999112310613,-0.08700012548922394,2.2603706518308635,1.7399989160444929,-1.9705721368492863
8.202350378036499,-2.1057000956687824,0.16999999084131256,-0.08700010334218006,2.267037355973195,1.7399991399701422,-1.9772388119924802
8.222410202026367,-2.1123667623706073,0.16999999020344747,-0.08700008566491187,2.2737040654832157,1.7399993203811923,-1.9839054887415983
8.24249792098999,-2.119033429004769,0.1699999892580138,-0.08700007162808976,2.2803707807236266,1.7399994655397522,-1.9905721671926622
8.262690782546997,-2.122366762913266,0.1699999906070962,-0.08700006728992647,2.28370411405696,1.739999519760705,-1.9939055073896375
8.282768249511719,-2.1290334294906788,0.16999998941265645,-0.08700005769012309,2.290370835405336,1.7399996247961944,-2.0005721884134484
8.302881002426147,-2.1357000959947463,0.16999998800116808,-0.0870000503003884,2.2970375632543,1.7399997090136303,-2.0072388713865483
8.323023557662964,-2.1423667624220184,0.16999998639473807,-0.08700004472743199,2.303704298011684,1.7399997763658557,-2.013905556416222
8.3434157371521,-2.1490334287689645,0.1699999846108637,-0.08700004065386231,2.3103710401006623,1.7399998300550858,-2.020572243613024
8.363335609436035,-2.15236676104212,0.1699999810313283,-0.08700003658847608,2.313704456626533,1.739999857055876,-2.0239055885667434
8.383382797241211,-2.1590334271981195,0.16999997882833237,-0.08700003404140622,2.320371214710139,1.7399998943024433,-2.0305722794290824
8.40344786643982,-2.165700093261694,0.16999997646854864,-0.08700003242802062,2.3270379814879347,1.7399999234690924,-2.0372389727570916
8.423596858978271,-2.1723667592290203,0.16999997395917268,-0.08700003159920054,2.3337047574453553,1.7399999460885998,-2.0439056686728887
8.443644523620605,-2.175700093280225,0.16999997593472735,-0.08700003492808321,2.3370380907786887,1.7399999532229493,-2.0472390163964675
8.463735580444336,-2.1790334250962116,0.16999997130566244,-0.08700003143527489,2.3403715430834966,1.739999963402963,-2.050572367301782
8.48394227027893,-2.1857000908593207,0.16999996851208515,-0.0870000318404359,2.3470383389190963,1.7399999764186558,-2.057239068772239
8.503991603851318,-2.1890334249566354,0.16999997077207837,-0.08700003637579348,2.3503716722524297,1.7399999808393987,-2.0605724189033876
8.524062871932983,-2.1957000906362407,0.1699999679987557,-0.08700003785312353,2.357038478817824,1.7399999895915188,-2.067239124637113
8.544123888015747,-2.202366756204695,0.16999996510009802,-0.08700003975680816,2.3637052966608687,1.7399999958130061,-2.0739058335378844
8.564199924468994,-2.2090334216578658,0.16999996207728396,-0.08700004204483551,2.370372126344835,1.7399999999865305,-2.080572545744586
8.584296703338623,-2.215700086991571,0.1699999589310075,-0.08700004468445477,2.3770389684482693,1.740000002503526,-2.087239261399009
8.604391813278198,-2.2190334179717475,0.16999995251965158,-0.0870000402160093,2.380372490231487,1.7400000007374279,-2.090572623459392
8.624454021453857,-2.225700083024585,0.16999994892288264,-0.0870000428853736,2.387039358969703,1.7400000006006993,-2.0972393448476367
8.644534826278687,-2.2323667479443543,0.16999994519375028,-0.08700004583118291,2.393706241952792,1.7399999994837683,-2.1039060700607024
8.664817571640015,-2.239033412726774,0.1699999413319775,-0.08700004904059486,2.400373139818347,1.7399999975752218,-2.11057279925022
8.684911012649536,-2.2423667470465953,0.1699999451139349,-0.0870000583381536,2.4037064731516806,1.7400000015251504,-2.1139061614272343
8.705027103424072,-2.24903341171881,0.16999994135060323,-0.08700006246224819,2.4103733865513726,1.739999999483445,-2.1205728965434183
8.725103616714478,-2.255700076245676,0.1699999374628425,-0.08700006685731197,2.417040316150602,1.7399999969900122,-2.127239636014572
8.745512247085571,-2.2623667406227965,0.16999993345018297,-0.08700007152089305,2.423707262628121,1.7399999941363296,-2.1339063800004148
8.765388011932373,-2.2657000703967594,0.1699999245501386,-0.08700006436880374,2.4270408933422782,1.739999984692297,-2.137239758891762
8.785460948944092,-2.272366734427718,0.169999920018751,-0.08700006880697513,2.4337078756639,1.7399999806277024,-2.1439065103227737
8.805557012557983,-2.2790333982954247,0.1699999153521995,-0.08700007348656207,2.4403748769757962,1.739999976356155,-2.1505732666892636
8.825607061386108,-2.285700061995583,0.16999991055020267,-0.087000078408966,2.4470418980055637,1.739999971922834,-2.1572400281581365
8.845714092254639,-2.28903339654568,0.16999991614207277,-0.08700009286257451,2.450375231338897,1.739999980420092,-2.1605734043568603
8.865808963775635,-2.295700060108008,0.16999991149907084,-0.08700009887922747,2.4570422728250203,1.7399999766458263,-2.1672401733818454
8.88589358329773,-2.302366723494234,0.16999990672933124,-0.08700010517448609,2.4637093355162647,1.7399999727983508,-2.17390694791983
8.905976057052612,-2.3090333867000323,0.1699999018328619,-0.08700011175214022,2.4703764201710365,1.7399999689004444,-2.180573728142506
8.926239013671875,-2.3123667150357563,0.16999988998566476,-0.0870001005769262,2.473710194223369,1.7399999532226476,-2.183907128450116
8.9467134475708,-2.3190333778347765,0.1699998845059116,-0.08700010675458658,2.4803773251155405,1.7399999484231117,-2.1905739179868045
8.966544389724731,-2.3257000404411987,0.16999987889138643,-0.08700011319375706,2.487044480297322,1.7399999436076607,-2.1972407136564156
8.986651182174683,-2.3323667028510364,0.16999987314268095,-0.08700011989822927,2.4937116605585206,1.739999938788609,-2.2039075156339805
9.006909370422363,-2.3357000376338797,0.16999988098417862,-0.08700014096865394,2.497044993891854,1.7399999531383492,-2.2072409093484096
9.027065753936768,-2.3423666998742063,0.16999987545860543,-0.08700014902018083,2.5037122000281573,1.7399999492166809,-2.213907720601829
9.047119855880737,-2.349033361909189,0.16999986980909113,-0.08700015737886417,2.5103794328402746,1.7399999453208141,-2.220574538586656
9.067192554473877,-2.3557000237349186,0.16999986403660758,-0.08700016604857588,2.5170466931330435,1.739999941457609,-2.2272413634783397
9.087257385253906,-2.362366685347576,0.16999985814228172,-0.08700017503299265,2.5237139817145042,1.7399999376329978,-2.233908195452077
9.107388973236084,-2.3657000118174634,0.16999984241818106,-0.08700015752969338,2.5270479660616085,1.7399999149574688,-2.237241626287503
9.127434253692627,-2.3723666729687,0.16999983588572873,-0.08700016590200518,2.533715313652564,1.7399999102919224,-2.2439084697995835
9.147526025772095,-2.379033333897918,0.16999982922776086,-0.0870001745635211,2.5403826919658137,1.739999905672231,-2.2505753208460875
9.167804956436157,-2.3823666688704392,0.16999983974189578,-0.08700020390760908,2.543716025299147,1.739999926439389,-2.253908735609343
9.187909364700317,-2.38903332959469,0.1699998333746513,-0.08700021418256623,2.5503834351456556,1.7399999228150815,-2.2605755976507433
9.207978248596191,-2.395699990088397,0.16999982689359963,-0.08700022478658129,2.5570508773345004,1.7399999192499067,-2.2672424676388556
9.228100061416626,-2.402366650348444,0.16999982030083727,-0.08700023572153433,2.5637183526717684,1.7399999157467794,-2.2739093457427786
9.24813199043274,-2.4090333103718597,0.1699998135986253,-0.08700024698892266,2.5703858619594313,1.739999912308352,-2.2805762321297953
9.268423795700073,-2.412366635106928,0.16999979412837937,-0.08700022229003039,2.573720072660861,1.7399998833959156,-2.283909695096633
9.288368701934814,-2.419033301769919,0.16999981850919527,-0.08700023273085707,2.5803869157392407,1.7399999084285769,-2.283909820129187
9.308433055877686,-2.425699967539342,0.16666649879184683,-0.08700018851199422,2.5870536840941596,1.739999953316336,-2.2772431620710956
9.329246520996094,-2.4290332918346236,0.16333312533308822,-0.0870001696607948,2.5903879594846884,1.7399999188938127,-2.2739099677926533
9.349320411682129,-2.422366620350724,0.15666643063071253,-0.08700010480173653,2.597055646184237,1.7399998868322002,-2.267243397052181
9.369433403015137,-2.4156999460133197,0.14999971031641146,-0.08700014693665713,2.6037233789678327,1.7399998830071133,-2.260577002190453
9.389519214630127,-2.409033271693644,0.14333298813766998,-0.08700018400525178,2.6103911584833805,1.7399998810794146,-2.25391061933324
9.409638404846191,-2.4023665974165214,0.13666626407877389,-0.0870002170448064,2.6170589857452162,1.7399998808514554,-2.2472442487056443
9.429715156555176,-2.3990332682147844,0.13333292092474539,-0.08700027432743268,2.6203923190785496,1.739999909342719,-2.2439110421207302
9.458232164382935,-2.3990332682147844,0.13333292092474539,-0.08700027432743268,2.6203923190785496,1.739999909342719,-2.2439110421207302
9.4938063621521,-2.3990332682147844,0.13333292092474539,-0.08700027432743268,2.6203923190785496,1.739999909342719,-2.2439110421207302
9.513901233673096,-2.3923665945839336,0.12666619468907706,-0.08700030470419205,2.6270601950825,1.7399999108411313,-2.237244688605209
9.534040451049805,-2.3856999210821055,0.11999946654580727,-0.0870003329008516,2.6337281208037093,1.7399999135917308,-2.2305783478113685
9.554132223129272,-2.3823665751064134,0.1166660804825804,-0.08700029961076644,2.6370627638611137,1.7399998889171606,-2.2272452123403115
9.574231147766113,-2.3756998928413626,0.1099993492240512,-0.08700024268472081,2.643731046529743,1.73999987178414,-2.220578790620147
9.594316244125366,-2.369033209972166,0.10333261592554019,-0.08700019657462386,2.6503993932752192,1.7399998601628652,-2.2139123791127915
9.614365339279175,-2.3623665264947262,0.09666588057347132,-0.08700015922544532,2.6570678052500503,1.7399998532238439,-2.207245977977761
9.634519577026367,-2.3590331903622332,0.09333253586628443,-0.08700014330290079,2.6604014288863453,1.739999861759365,-2.203912689067351
9.654582738876343,-2.3523665061595636,0.08666579805275622,-0.08700011607534963,2.6670699196175147,1.7399998596251691,-2.197246300399383
9.674662351608276,-2.3456998213426763,0.07999905815909254,-0.0870000940210332,2.673738478037611,1.7399998606529377,-2.1905799224343196
9.694745302200317,-2.3390331359110372,0.0733323161769839,-0.08700007615703689,2.6804071051748184,1.7399998644461219,-2.183913555303728
9.714843273162842,-2.3356997864589513,0.06999891841516616,-0.0870000685413332,2.6837421271617625,1.7399998606310918,-2.1805804800497537
9.73495626449585,-2.329033099917914,0.06333217264928964,-0.08700005551847989,2.690410881199316,1.7399998692404979,-2.173914132861221
9.75504994392395,-2.3223664127682073,0.056665424783503296,-0.0870000449699687,2.6970797065180503,1.7399998799895258,-2.167247796811076
9.775161266326904,-2.31569972501425,0.049998674816263876,-0.08700003642567465,2.703748603956109,1.7399998926839966,-2.160581471991056
9.795475006103516,-2.309033036661867,0.04333192274787229,-0.08700002950479646,2.7104175742955077,1.739999907164262,-2.153915158481547
9.81540322303772,-2.305699699601813,0.03999857477236722,-0.08700002655431681,2.713751304248453,1.7399999154968142,-2.1505818860610875
9.83552074432373,-2.2990330105427756,0.03333182018458876,-0.08700002150899662,2.720420362525212,1.7399999308565235,-2.143915586120578
9.855575323104858,-2.292366320902365,0.02666506350053382,-0.08700001742228726,2.7270894952807425,1.739999947647133,-2.137249297637281
9.875646829605103,-2.2856996306911714,0.019998304726572172,-0.08700001411205269,2.733758703100478,1.7399999657846639,-2.130583020652977
9.895890474319458,-2.282366277436067,0.016664893534519054,-0.08700001270084742,2.73709419819439,1.7399999806035977,-2.1272500187389802
9.915875434875488,-2.2756995862309304,0.009998131030823476,-0.0870000102876864,2.743763542622832,1.7400000024061852,-2.1205837625659054
9.936107158660889,-2.2690328944940066,0.0033313664675466616,-0.08700000833302599,2.7504329633211992,1.7400000254513257,-2.1139175179281495
9.956193208694458,-2.2623661997389064,0.00999792245075665,-0.08700000674975106,2.7571027612198353,1.7400000483984388,-2.1205846632944083
9.97628927230835,-2.2556995086259497,0.01666449019306219,-0.08700000546729836,2.7637722397179427,1.7400000608065203,-2.127251756913211
9.99666690826416,-2.2523661710616887,0.019997806157720812,-0.08700000492056852,2.7671060680408606,1.7400000578808603,-2.1305851652372176
10.016652345657349,-2.25236614649589,0.02666437085340638,-0.08700000398566049,2.7737756483270464,1.7400000488438951,-2.137252275620859
10.036737203598022,-2.259032788916156,0.033330933798605675,-0.087000003228385,2.7804452923146874,1.7400000502712432,-2.1439193894925768
10.056915521621704,-2.262366102531276,0.03666418070833909,-0.08700000290554649,2.7837811167514386,1.7400000516558687,-2.1472530952332067
10.077108383178711,-2.269032762416509,0.03501671968294448,-0.08700000235349266,2.7904486858693107,1.7400000514400735,-2.1405865603356933
10.097120761871338,-2.2623660840375885,0.028349999530315483,-0.08700000190632905,2.797116914444326,1.740000064610998,-2.1339201203831175
10.117472410202026,-2.2556993931008638,0.021683223190284234,-0.08700000154412652,2.8037867945896244,1.7400000662286026,-2.127253932277102
10.137325763702393,-2.2490327018570193,0.01501644495681765,-0.08700000125074248,2.8104567497737185,1.7400000732325798,-2.1205877552196335
10.157421112060547,-2.2456993641180105,0.011683091563773998,-0.08700000112566823,2.8137906764400724,1.740000070083771,-2.1172545102031175
10.177520275115967,-2.2390326725333867,0.005016311070560978,-0.08700000091179126,2.820460721550579,1.7400000815884449,-2.110588346300752
10.197622060775757,-2.2323659807022893,-0.0016504712546096564,-0.08700000073855091,2.827130840972998,1.740000096534012,-2.1039221932159706
10.21767807006836,-2.225699288654992,-0.00831725538024754,-0.08700000059822624,2.833801034215563,1.7400001143883848,-2.0972560508172
10.238326072692871,-2.222365934371839,-0.011650686334400848,-0.08700000053840362,2.83713731353832,1.7400001397665255,-2.0939231552516473
10.258475065231323,-2.2156992420264894,-0.018317473587001476,-0.08700000043610694,2.8438076376577377,1.7400001632970399,-2.087257031648306
10.278545618057251,-2.209032564554686,-0.024984191479561792,-0.08700000035324662,2.850475865547646,1.7400001567853514,-2.080590596060661
10.298738479614258,-2.202365885555739,-0.03165091722753432,-0.08700000028612977,2.857144342273417,1.7400001585663458,-2.073924196734615
10.318670749664307,-2.1956992065346412,-0.03831764373929084,-0.08700000023176511,2.863812852148353,1.7400001631781343,-2.0672578020148644
10.338780879974365,-2.1923658670213615,-0.04165100727589772,-0.0870000002085886,2.867147119382365,1.740000166383667,-2.063924606353372
10.35895848274231,-2.185699188000838,-0.04831773489873649,-0.08700000016895677,2.8738156781509527,1.7400001743225528,-2.05725821836564
10.379005670547485,-2.179032509004142,-0.054984463238043436,-0.08700000013685498,2.880484268898673,1.740000183994274,-2.050591834738216
10.399026870727539,-2.1756991695207857,-0.05831782767005021,-0.08700000012316948,2.8838185760964827,1.740000189381489,-2.0472586445256273
10.419138431549072,-2.169032490596485,-0.0649845570457032,-0.08700000009976727,2.8904872137800584,1.7400002010925166,-2.0405922672313084
10.439384460449219,-2.1623658018272387,-0.058318004822988184,-0.08700000008081149,2.8971574915333935,1.7400002398436376,-2.047259467497601
10.45929741859436,-2.1556991234246405,-0.05165140204543128,-0.08700000006545731,2.903826180848887,1.7400002410489768,-2.0539264296667774
10.479575872421265,-2.152365784373246,-0.04831810081487128,-0.08700000005891158,2.907160532698806,1.7400002404911907,-2.0572599114780425
10.499666213989258,-2.152365772514258,-0.041651497184493104,-0.08700000004771838,2.9138292005647344,1.740000136719984,-2.0639269048295303
10.519667148590088,-2.1590324284657365,-0.03498489534675189,-0.08700000003865188,2.920497934375971,1.740000150511123,-2.070593871429605
10.53973913192749,-2.1656990848225743,-0.02831829390800154,-0.08700000003130802,2.9271666868621535,1.7400001589158491,-2.0772608399845707
10.559818744659424,-2.169032413122425,-0.024984993539106562,-0.08700000002817722,2.930451074548625,1.7400001615370104,-2.080594325940733
10.579931497573853,-2.175699069701197,-0.018318395227982447,-0.08700000002282354,2.936067455536846,1.7400001649263304,-2.087261309223418
10.59999966621399,-2.182365745290659,-0.024985009322854478,-0.08700000001848707,2.9406132296317207,1.7400002479213448,-2.080594344626246
10.620103597640991,-2.1756990661436344,-0.03165176522693729,-0.08700000001497453,2.9442994182325903,1.7400002520942703,-2.0739280903310386
10.640190362930298,-2.172365728066191,-0.034985132623319815,-0.08700000001347707,2.9458705779739933,1.7400002466703963,-2.0705949155620695
10.66025185585022,-2.165699051967932,-0.0416518674050959,-0.08700000001091643,2.9485572642079125,1.7400002396161351,-2.063928566440635
10.680347681045532,-2.1590323759188452,-0.04831860218118151,-0.08700000000884231,2.950733483864249,1.740000236817538,-2.057262217863559
10.700420618057251,-2.1523656998917553,-0.054985336962457484,-0.08700000000716226,2.952496225451461,1.7400002374765815,-2.0505958698313895
10.72243881225586,-2.1490323618791813,-0.05831870435832939,-0.08700000000644603,2.953247711427316,1.7400002388965472,-2.0472626960226687
10.742395639419556,-2.142365685843501,-0.06498543916669887,-0.08700000000522128,2.9545327552139122,1.7400002435759616,-2.04059634882948
10.762478590011597,-2.1356990097795068,-0.07165217400477804,-0.08700000000422924,2.955573644347527,1.7400002503305498,-2.0339300022173594
10.782782077789307,-2.129032333672482,-0.07831890888078448,-0.08700000000342568,2.956416768286951,1.74000025878412,-2.0272636562065185
10.802736282348633,-2.1256989955988828,-0.0816522763353251,-0.08700000000308311,2.95677620681581,1.7400002635506395,-2.023930483433161
10.822834253311157,-2.1190323194046994,-0.0883190112816392,-0.08700000000249732,2.9573908496826187,1.7400002740015827,-2.0172641383638745
10.842895984649658,-2.1123656431400137,-0.09498574628257479,-0.08700000000202282,2.9578887144102413,1.7400002854974508,-2.0105977939487683
10.863027572631836,-2.105698966796632,-0.10165248134350528,-0.08700000000163849,2.9582919889671477,1.7400002978596172,-2.003931450208615
10.883484125137329,-2.102365628593198,-0.10498584889798242,-0.08700000000147463,2.9584639129194565,1.7400003043192525,-2.0005982785979985
10.90359354019165,-2.0956989521189313,-0.11165258405770434,-0.08700000000119446,2.9587579061899603,1.7400003177186987,-1.9939319359080965
10.923796892166138,-2.0890322755501916,-0.11831931928845414,-0.08700000000096751,2.9589960451900024,1.7400003316730894,-1.9872655939428003
10.943750143051147,-2.0823655988820606,-0.12498605459391371,-0.08700000000078367,2.959188942364998,1.7400003460972295,-1.9805992527210958
10.963853120803833,-2.0790322605093476,-0.1283194222757245,-0.0870000000007053,2.9592711792980544,1.7400003534633606,-1.9772660823949109
10.983927965164185,-2.0723655836841437,-0.13498615769949657,-0.0870000000005713,2.959411808125664,1.7400003684670444,-1.9705997423233326
11.00400710105896,-2.0656989067495504,-0.14165289320596758,-0.08700000000046275,2.959525722404733,1.7400003837919626,-1.9639334030412308
11.024194478988647,-2.0623655682401796,-0.1449862609911115,-0.08700000000041647,2.959574287817022,1.7400003915618854,-1.9606002337018467
11.044291496276855,-2.0556988911353384,-0.15165299662693196,-0.08700000000033734,2.959657338612694,1.7400004072951047,-1.953933895637571
11.064376831054688,-2.049032213913262,-0.15831973235233748,-0.08700000000027323,2.9597246150422416,1.7400004232623378,-1.9472675584074566
11.084464073181152,-2.0423655282515685,-0.1516531884774307,-0.08700000000022132,2.959780711358581,1.7400005002052636,-1.9539348146068587
11.104521751403809,-2.0390321896437986,-0.1483198897692051,-0.08700000000019918,2.959803785589141,1.7400004990287845,-1.9572683130605877
11.124618291854858,-2.0323655125245916,-0.14165329227521103,-0.08700000000016134,2.9598432382484843,1.7400004945324814,-1.9639353092954903
11.144705295562744,-2.0323655091102877,-0.13498664130901059,-0.08700000000013068,2.959873421627518,1.7400003327312608,-1.9706020824775021
11.164758205413818,-2.0390321656039405,-0.12832004341483116,-0.08700000000010585,2.9598996263852246,1.7400003531077155,-1.9772690760281542
11.184972763061523,-2.042365493895415,-0.12498674443878897,-0.08700000000009527,2.959910796104481,1.7400003605663543,-1.9806025725205834
11.205098390579224,-2.049032150567774,-0.11832014642097169,-0.08700000000007715,2.9599298926215676,1.7400003709052827,-1.987269564906071
11.225204467773438,-2.055698807357798,-0.11165354831708141,-0.0870000000000625,2.9599453560565645,1.7400003761307434,-1.9939365565046974
11.24528193473816,-2.0623654642637272,-0.104986950128912,-0.08700000000005063,2.959957876820185,1.7400003772327715,-2.0006035473306647
11.265365600585938,-2.0656987927596346,-0.10165365100375723,-0.08700000000004557,2.9599632128672484,1.7400003764943073,-2.0039370424581793
11.28732442855835,-2.0690321212839033,-0.09832035185816329,-0.08700000000004102,2.9599680141413574,1.7400003750128892,-2.0072705373975954
11.307267189025879,-2.075698778416754,-0.0916537535064504,-0.08700000000003322,2.959976220992007,1.7400003701199598,-2.0139375267185846
11.327539920806885,-2.082365435660783,-0.08498715507531136,-0.0870000000000269,2.959982864276089,1.7400003630792207,-2.0206045153062426
11.347490310668945,-2.081900666289996,-0.07832057313227751,-0.08700000000002178,2.9599887295899374,1.7400003710699665,-2.0162646465258836
11.367687463760376,-2.078567339028555,-0.08165387586319729,-0.0870000000000196,2.9599888612638674,1.7400004876087294,-2.012931101338825
11.387743949890137,-2.0719006630527295,-0.08832061066345984,-0.08700000000001588,2.9599930981276317,1.7400004552512582,-2.0062647557537243
11.407883167266846,-2.065233986966407,-0.09498734555233322,-0.08700000000001286,2.9599965344670065,1.7400004321101676,-1.999598410940657
11.428128957748413,-2.0585673107696802,-0.1016540805206236,-0.08700000000001042,2.959999322179308,1.7400004164427125,-1.9929320668614008
11.448149681091309,-2.055233972629484,-0.10498744803500475,-0.08700000000000938,2.9600005123200503,1.740000410962149,-1.9895988951007508
11.468188285827637,-2.048567296264548,-0.11165418312517368,-0.08700000000000759,2.9600025508694725,1.7400004039603345,-1.9829325521451966
11.488252878189087,-2.0419006197856935,-0.11832091829849939,-0.08700000000000614,2.960004206660175,1.7400004014091093,-1.9762662099546169
11.50837755203247,-2.0352339431914594,-0.12498765355656266,-0.08700000000000498,2.960005552536684,1.7400004024806963,-1.9695998685421074
11.52843689918518,-2.031900604850609,-0.12832102121787875,-0.08700000000000448,2.960006128161791,1.740000404160306,-1.9662666981318229
11.548554182052612,-2.02523392808049,-0.13498775660612383,-0.08700000000000363,2.9600071162143298,1.7400004094503372,-1.9596003579117893
11.568758249282837,-2.0185672511911834,-0.14165449208328362,-0.08700000000000294,2.9600079215371355,1.7400004169191636,-1.9529340185042119
11.588871479034424,-2.0119005741810994,-0.14832122765112252,-0.08700000000000238,2.9600085789800494,1.740000426171655,-1.9462676799235257
11.608938932418823,-2.0085672356302577,-0.1516545954696131,-0.08700000000000215,2.9600088612913162,1.7400004313643198,-1.9429345109478877
11.629111766815186,-2.001900558435937,-0.15832133117690023,-0.08700000000000174,2.960009348131243,1.7400004427123381,-1.9362681736354872
11.649141311645508,-1.995233881116683,-0.16498806697952212,-0.08700000000000141,2.9600097479454557,1.7400004551554218,-1.9296018371878454
11.669487476348877,-1.9885672036707567,-0.17165480287944201,-0.08700000000000115,2.9600100774118063,1.7400004685054442,-1.922935501620844
11.689408302307129,-1.9852338648997356,-0.17498817086651847,-0.08700000000000103,2.9600102200935807,1.7400004754718281,-1.9196023341726651
11.709469318389893,-1.9785671872604405,-0.18165490691619682,-0.08700000000000084,2.9600104685528987,1.7400004899065213,-1.9129359999573545
11.729562282562256,-1.9719005094899225,-0.18832164306834379,-0.08700000000000069,2.960010675794926,1.7400005049210423,-1.9062696666643073
11.749607563018799,-1.9652338315862754,-0.19498837932513563,-0.08700000000000055,2.9600108498067272,1.7400005204263438,-1.8996033343109648
11.769753217697144,-1.9619004925839192,-0.19832174749347073,-0.0870000000000005,2.960010926425087,1.740000528340027,-1.8962701684922605
11.789898872375488,-1.9552338144768935,-0.20498848391144917,-0.0870000000000004,2.9600110623363642,1.7400005444514075,-1.889603837582201
