liuyurong129/humanoid-gym/humanoid/data/robot1_actual_20250621-220758.csv
timestamp,joint_1,joint_2,joint_3,joint_4,joint_5,joint_6
0.00013756752014160156,0.0,0.0,0.0,0.0,0.0,0.0
0.02020096778869629,0.0,0.0,0.0,0.0,0.0,0.0
0.04028820991516113,0.0,0.0,0.0,0.0,0.0,0.0
0.06065082550048828,0.0,0.0,0.0,0.0,0.0,0.0
0.08086633682250977,0.0,0.0,0.0,0.0,0.0,0.0
0.1007697582244873,0.0,0.0,0.0,0.0,0.0,0.0
0.12084341049194336,-0.006666598929470917,-0.0066666661060512614,-0.006666651887992451,-0.006666666666666667,-0.0066666679432000496,0.006666802473044716
0.14092350006103516,-0.013333258951566888,4.553989392183655e-09,-0.013333336951972415,-0.013333340641727712,-0.01333334418516864,0.01333369339333107
0.16130995750427246,-0.01666660494236796,-0.003333328620746865,-0.016666650802284806,-0.016666673975061046,-0.016666671728564047,0.016666573169852084
0.18124699592590332,-0.023333267776836676,-0.009999991535737605,-0.023333314783737666,-0.016666687180877927,-0.02333333083312615,0.023332560525196885
0.20134735107421875,-0.0299999293698315,-0.01666665620781852,-0.023095699409560164,-0.010000024037228234,-0.029999998056578173,0.029999661115897087
0.2213902473449707,-0.036666595767519086,-0.023333319208821757,-0.016429031959255016,-0.0033333811905290564,-0.03666666293780732,0.03666630636786523
0.24205613136291504,-0.03999992904930015,-0.026666648673607372,-0.013095698625921682,-7.718373087146554e-08,-0.03999999247477918,0.03999964597802832
0.2622058391571045,-0.046666595646460925,-0.03333331123010156,-0.006429031896417428,0.006666554606437437,-0.04666665291189201,0.04666631695074911
0.282437801361084,-0.05333326180787371,-0.03999997350288355,0.00023763573406901687,0.013333180830502762,-0.05333331051815927,0.0533329561672237
0.302715539932251,-0.0599999285102874,-0.0466666351983103,0.0069043024007356835,0.019999796521565145,-0.05999996488799201,0.059999635210590575
0.3226161003112793,-0.06666659513925696,-0.05333329693931928,0.013570969169933738,0.026666411748120053,-0.06666661804368952,0.06666630988343701
0.34271836280822754,-0.06999992833986764,-0.05666663026656713,0.016904302623082006,0.029999745081453387,-0.06999995130296023,0.06999963686312845
0.3628087043762207,-0.07666659496169474,-0.06333329171701896,0.023570969428746914,0.03666635499162487,-0.07666660210696143,0.07666631232239339
0.38292646408081055,-0.08333326160469595,-0.06999995287891853,0.030237636255293222,0.04333295980501293,-0.08333325068442782,0.08333298940616939
0.40314459800720215,-0.08999992827363915,-0.07666661376069712,0.03690430310410094,0.049999559831980414,-0.08999989721410015,0.08999966821894988
0.423159122467041,-0.09333326186787529,-0.07999994105732368,0.04023763643743428,0.05333282215582328,-0.09333320870989635,0.09333302462911428
0.4432501792907715,-0.09999993001559648,-0.08666660099934019,0.04690430197796361,0.051513595212030534,-0.09999985108703249,0.09999978517795671
0.46329832077026367,-0.10666658806308156,-0.09333326355144496,0.04536145563847883,0.0581802302335508,-0.10666650849827754,0.10666614683759257
0.484050989151001,-0.11333326342883975,-0.09999992426080348,0.05202811685378985,0.06484681944232945,-0.11333315524454296,0.113333091833245
0.5043759346008301,-0.1166666065051224,-0.10069866054865123,0.0553614422517594,0.06694094610376744,-0.11666649189618154,0.11666677183761487
0.5244314670562744,-0.12333327895427862,-0.09799419075397743,0.057687025676169075,0.0654923740822649,-0.12333318266079824,0.12333374572364775
0.5451197624206543,-0.12666661239069094,-0.09466085583374793,0.05678005791604347,0.062159042021026976,-0.12666654111142145,0.126667086543161
0.5693163871765137,-0.13333327315418744,-0.08799418325988723,0.05011339665866288,0.055492301897537066,-0.13333320476360835,0.13333355749788356
0.5897257328033447,-0.1399999549213448,-0.08132751028532526,0.0434467265108815,0.048825554545394244,-0.12666653712796438,0.14000034955933396
0.609830379486084,-0.14333327204721277,-0.08466084206789941,0.04011341368574835,0.04549222121206091,-0.12333319420427753,0.14333275671025655
0.6302058696746826,-0.1499999373817416,-0.09132750324957206,0.03344674938280907,0.03899813417303748,-0.11666650941334139,0.14999935282797594
0.6500968933105469,-0.15666661193073103,-0.09799416273309708,0.03344674361688936,0.03948673022663286,-0.10999981940090064,0.15666634147011851
0.6702773571014404,-0.1599999454545854,-0.101327490644258,0.036780076950222694,0.04281999385388531,-0.10666646970254036,0.15999969987614168
0.6904206275939941,-0.1666666121605986,-0.10799415173712866,0.043446743811942204,0.04948659315201105,-0.09999978485320365,0.1666663819210313
0.7106103897094727,-0.1733332217827154,-0.1146608187743147,0.050113430838387096,0.056153467801109566,-0.09333255873925653,0.1733330068962396
0.7305853366851807,-0.17999987701454842,-0.12132748943918888,0.056780117419763784,0.06282032042329735,-0.09999913395031372,0.17999964869363863
0.7510035037994385,-0.18666652939383643,-0.12799425442161538,0.05848030118241794,0.05615308025433782,-0.10666590379373878,0.186666834214398
0.7711596488952637,-0.18999985773556213,-0.13132758923244742,0.061813642238277684,0.0594864830390532,-0.10999919700706737,0.19000015488451913
0.7911982536315918,-0.19666651795666973,-0.13132759018851353,0.061813650217973026,0.05948655575686115,-0.11666580869925909,0.19666680710598045
0.8112902641296387,-0.2033331846232378,-0.13080454257827384,0.055146983551375685,0.05281988909019448,-0.11666580869923174,0.20333347376961852
0.8315532207489014,-0.20666651795658098,-0.1333337997290616,0.05181365021803854,0.049486555756861145,-0.1133324753658998,0.2066668071031047
0.8516824245452881,-0.21333313244272778,-0.14000047316869813,0.04514697253058602,0.056153073201181354,-0.10666531845725755,0.2133334701505478
0.8717861175537109,-0.21999978713369836,-0.14666713211137805,0.0518136464996824,0.06281973430098567,-0.09999813826907542,0.22000012792214357
0.8918848037719727,-0.2266664538007842,-0.14000046544471123,0.058480313166230084,0.056153067634319,-0.09333147160244638,0.22666679459328895
0.9119727611541748,-0.2299997871337464,-0.14070275390027914,0.05514697983299443,0.05281973430098567,-0.0899981382690784,0.2300001279228444
0.9320464134216309,-0.23666645380049575,-0.13800148017695626,0.048480313166304696,0.046153067634319,-0.08515649955299709,0.23666679459055753
0.9521377086639404,-0.24333312046687272,-0.1374159994199087,0.04181364649969677,0.03948640096765233,-0.08713235804182308,0.2433334612546525
0.9723646640777588,-0.24666645380021196,-0.13988906673856463,0.038480313166362086,0.036153067634319,-0.09046569137515702,0.24666679458805016
0.9924654960632324,-0.25333311173403805,-0.13566489083471361,0.031813625156613755,0.0428194872323349,-0.09713188951314147,0.25333356672845997
1.01283860206604,-0.2599997690390991,-0.12899822269729344,0.038480291793085826,0.036152797087036996,-0.0904650735098334,0.2600002336882083
1.0328586101531982,-0.2666664357199544,-0.1223315554190704,0.03181362512644537,0.029486120168717364,-0.08494758959835047,0.26666690293219636
1.0528416633605957,-0.26999976905328776,-0.12566488875240373,0.02848029179311204,0.02615278683538403,-0.08161425626501714,0.2700002362655297
1.0729966163635254,-0.276666436754432,-0.1279733411698204,0.023227666075575932,0.02615272527075104,-0.07494731021915294,0.27666694884567655
1.0930447578430176,-0.2833331030993732,-0.13038427824571633,0.024833639956828153,0.032819356806268296,-0.06828065220087305,0.2833335502900526
1.1134366989135742,-0.2899997748115999,-0.13038426464397482,0.03145406116633556,0.03281916311311958,-0.06161316242603068,0.29000034515630074
1.1336076259613037,-0.2933331081449293,-0.1270509313106415,0.03441244932641695,0.029485829779786248,-0.058279829092697,0.2933336784895983
1.153792381286621,-0.29999977481153733,-0.12038426464397484,0.02774578265975854,0.02281916311311958,-0.05161316242602533,0.30000034515577173
1.1738026142120361,-0.30666644189358055,-0.11371759794602737,0.021079116977531648,0.01615249644645291,-0.04494649547904641,0.30666698349312677
1.1942243576049805,-0.31333310855831004,-0.1203842646126726,0.014412450311379811,0.009485829779786244,-0.038279828811969514,0.31333365011931
1.2145569324493408,-0.31999975589107715,-0.1270509313108348,0.021079118167145992,0.01615249644645291,-0.0449464945305208,0.32000022838270714
1.2350311279296875,-0.3233331185361802,-0.12371759811735097,0.024412446431102727,0.012819163113119578,-0.041613164878850646,0.3233339325049256
1.2549142837524414,-0.32999977904335975,-0.12242735906979739,0.024204935482879126,0.0061524504224490986,-0.034946485367301015,0.33000036964158264
1.2750563621520996,-0.3366664439968885,-0.12093281613296958,0.01753826711280835,-0.0005141945199848667,-0.02930546632912897,0.3366671305832839
1.295125961303711,-0.33999977726178976,-0.11759947867048577,0.014204933779475015,-0.0038475605053316804,-0.02722848639869148,0.3400004712674077
1.3152391910552979,-0.33333311040827296,-0.12426613286661034,0.007538267112808347,-0.007661253099412445,-0.02056236490845566,0.3466671313412379
1.3353509902954102,-0.339999737825443,-0.13093279577904926,0.014204933245891335,-0.000994600287730617,-0.013895684815968846,0.3533336356144606
1.3555941581726074,-0.3466664043084174,-0.13759945855781522,0.02087159996442006,0.005672056487821179,-0.007229004897292427,0.3600003031010165
1.3757715225219727,-0.3499997145026513,-0.1409327916715689,0.024204933634974123,0.009005389821154513,-0.01056233736350275,0.3633335545390439
1.39607834815979,-0.35666640258507504,-0.14759945445275538,0.024204933738592487,0.015672046253012585,-0.010562322246167367,0.37000026828205146
1.4160475730895996,-0.3599997359181733,-0.15093278425047016,0.020871600405259153,0.01900536977093072,-0.007228980393146368,0.3733336035415682
1.437972068786621,-0.36333310192916213,-0.15426611964859752,0.024204941015442117,0.022338742062937594,-0.010562321111081158,0.3766674652007288
1.4598031044006348,-0.3699997675241705,-0.1609327786946665,0.030871605326688145,0.029005353505916997,-0.01722878939198897,0.383334179036561
1.47987699508667,-0.37333309146792293,-0.16426610561862087,0.03420493589897638,0.03233863838620301,-0.02056201609614989,0.38666749952101925
1.4999947547912598,-0.3799997641047979,-0.17093275841466807,0.04087159297437526,0.03900517836000227,-0.027228337938266352,0.3933342665909719
1.5200915336608887,-0.38666643077136614,-0.1775994250813336,0.03432037480090767,0.032338511693335605,-0.033895004604929335,0.4000009332572358
1.540428638458252,-0.39333301263815923,-0.18426607378180893,0.04098702645661988,0.03900501519025511,-0.04056141993741821,0.4066664291712007
1.560462474822998,-0.39666634597149375,-0.1809327404484756,0.0443203597899531,0.03567168185692177,-0.04389475327075158,0.4099997625045395
1.5805232524871826,-0.4033330126384164,-0.17426607378180925,0.044320359789932685,0.029005015190255105,-0.043894753270760006,0.4166664291721427
1.600600004196167,-0.4033330126391119,-0.16759940711514432,0.03765369312321752,0.022338348523588437,-0.037228086604120025,0.4233330958417245
1.6217777729034424,-0.3999996793057764,-0.16426607378181096,0.034320359789884354,0.019005015190255103,-0.03389475327078658,0.4266664291750457
1.6418530941009521,-0.4066663459717495,-0.1709327404484752,0.031180678079044823,0.02567168185692177,-0.027228086604090648,0.43333309583857776
1.6620478630065918,-0.41333302169553976,-0.16426607426289264,0.037847293931441504,0.03233780709032178,-0.020561651946617097,0.4400002505035296
1.682166576385498,-0.41999969188668,-0.15759940758613658,0.04451397168894298,0.0256711404234972,-0.02722831836463778,0.44666688754726575
1.7021379470825195,-0.42666636376272393,-0.15093273675883978,0.037847305750426975,0.019004465684321587,-0.02798160173119444,0.4400001872872071
1.722294807434082,-0.4233330986382208,-0.14759940374360497,0.03451396924679822,0.015671132350988253,-0.024648270820093306,0.4433337550969904
1.7423527240753174,-0.41666639745928796,-0.14759939883058493,0.02784733531387013,0.009004447644251689,-0.01798157986362408,0.4499994615280233
1.7624566555023193,-0.40999975608606704,-0.14759939565800578,0.024948790283149596,0.002337776053671361,-0.011314927217994803,0.45666694002945096
1.7824933528900146,-0.40666642269076075,-0.14426605822928174,0.025340132067632182,-0.0009955680759456834,-0.007981583950166187,0.4600002757055485
1.802595615386963,-0.39999975578404723,-0.150932713115813,0.03200679873429885,-0.007662261196679663,-0.0013149346053096598,0.46666694513570295
1.8226749897003174,-0.4066663691739598,-0.14426604186088726,0.02534012998865145,-0.01432892343126859,0.005351718560082739,0.47333342688899227
1.8427650928497314,-0.3999997020192852,-0.1509326944853963,0.01888168620222298,-0.015467804650083196,0.01201767888003466,0.4800000633445306
1.8628604412078857,-0.40333297884776864,-0.15426602719053983,0.022215016870028654,-0.012134471316749862,0.015351014853145209,0.4833331218212912
1.8829407691955566,-0.40999964538687106,-0.16093269005298597,0.028881683536695322,-0.005467816527445586,0.021007297922291415,0.48999978889228857
1.9030582904815674,-0.41666633381928936,-0.1675993519681487,0.03554835321469,0.0011988187580242982,0.019764677744193077,0.49666685471439126
1.923703670501709,-0.419999663924388,-0.17093268380850063,0.0388816874685373,0.004532154882748919,0.016431379302064703,0.5000001874954912
1.9438068866729736,-0.4266663305910385,-0.17759935047516698,0.03221502080187045,-0.002134511783886228,0.022026858085613,0.5066668541620931
1.9638898372650146,-0.41999968368900464,-0.18426590114783048,0.03323554682632396,0.004533564289326285,0.028693856219357154,0.513334000942965
1.9841539859771729,-0.4266663464788334,-0.1909325622020219,0.03990220393031473,0.01120012378533919,0.03536058518225493,0.5200006355760817
2.0040764808654785,-0.4333330225127943,-0.19759921643478873,0.04656885442290061,0.017866501972759928,0.04202773746422988,0.526667538252799
2.0241873264312744,-0.43666635584617586,-0.19426588310145707,0.04551713431316492,0.01583052694337234,0.044571701376783825,0.5300008715861846
2.044604539871216,-0.4366663558466842,-0.19451254113525887,0.04790391954774161,0.01733148275025684,0.043527935564732,0.5366675382547984
2.0645480155944824,-0.43666636155664473,-0.19451253687421707,0.04790390784418427,0.01733137337319733,0.03907611213452783,0.5433341695665771
2.0849227905273438,-0.4399996948899924,-0.1911792035408842,0.044570574510850884,0.013998040039863997,0.03806948617691202,0.5466675028999625
2.1049914360046387,-0.43333299780134205,-0.19784578453444476,0.037903952940662455,0.012206767411690614,0.04473681383902474,0.5533338537235435
2.1251204013824463,-0.4399996569354695,-0.204512436468641,0.044570604433928775,0.018873216716035333,0.038070416515360674,0.5600005914075874
2.1451988220214844,-0.44666632360304365,-0.1978457698020029,0.05123727110058664,0.012206550049368665,0.04473708318200201,0.566667258077226
2.165379047393799,-0.4475116310554746,-0.19117910313535438,0.04457060443392495,0.0055398833827019975,0.05140374984865026,0.5733339247459598
2.1854960918426514,-0.4441782977227406,-0.18784576980204082,0.04123727110060506,0.002206550049368664,0.05473708318196386,0.5766672580814931
2.205566883087158,-0.437511631055869,-0.1878457698020335,0.0345706044339351,-0.004460116617298003,0.05747607187798403,0.5833339247477564
2.2256336212158203,-0.43751158188319916,-0.18784573344854266,0.029647036418014024,-0.011126592626898335,0.05360840029845943,0.5900006302613611
2.2456915378570557,-0.44084491521653246,-0.18451240011520934,0.02821580382409089,-0.014459925960231669,0.0502750669651261,0.5933339635946946
2.265885829925537,-0.4341782485507552,-0.17784573344856597,0.021549137157477388,-0.021126592626898335,0.04360840029842697,0.6000006302652591
2.2859678268432617,-0.42751166570941124,-0.1845123938182568,0.028215742032443515,-0.027793693639214155,0.03694081561532791,0.6066669590698872
2.3060402870178223,-0.43417825489497947,-0.1778457258031969,0.021549068477591686,-0.03446036030588082,0.030274151981846482,0.6133332526350407
2.326057195663452,-0.4275115882332942,-0.1711790591365975,0.014882401811329465,-0.04112702697259675,0.023607485315174336,0.6199999193238571
2.3461644649505615,-0.42417825489996086,-0.16784572580326418,0.011549068477996131,-0.044460360305930084,0.020274151981841,0.6233332526571904
2.3663063049316406,-0.4175115882332179,-0.1611790591365972,0.00892781447223391,-0.05112702697259675,0.013607485315177494,0.6299999193234854
2.386347770690918,-0.410844921566621,-0.15451239246993048,0.006235352533729437,-0.05779369363926342,0.006940818648507905,0.6366665859904792
2.4063758850097656,-0.4041782548999543,-0.14784572580326383,-0.00043131413293723015,-0.0644603603059301,0.0002741519818412431,0.6433332526571458
2.4264800548553467,-0.40084492156662094,-0.1445123924699305,-0.0037646474662705637,-0.06779369363926352,-0.003059181351491864,0.6466665859904791
2.4465689659118652,-0.39417825415665303,-0.13784572580557883,-0.01043131364453088,-0.07446036043020354,-0.009725847742712998,0.6533332426643208
2.4666454792022705,-0.3875115862794645,-0.14451238054788548,-0.004934590504420628,-0.08112702520712782,-0.016392704381410942,0.6599999074571427
2.4867148399353027,-0.39076719985984526,-0.13784571063827075,-0.011601257171087296,-0.08779369285768508,-0.023059407205551528,0.6666665755931717
2.5068106651306152,-0.3874338633498617,-0.14027616079134525,-0.01493459050442063,-0.09112682449235932,-0.019727138569723603,0.6699998932250183
2.5268826484680176,-0.38076719858667407,-0.145796944390842,-0.014934590504420628,-0.09779362242358079,-0.019726520857866008,0.6766665735026826
2.5469603538513184,-0.3741005298390758,-0.15246359470978862,-0.011099240493046787,-0.09779360390298185,-0.019726993692492565,0.6833332358014477
2.5670101642608643,-0.367433862995046,-0.15246359346197258,-0.007314092149476996,-0.09779361965001492,-0.013060279112743819,0.6899999057443426
2.587124824523926,-0.36410052926929126,-0.14913025711841668,-0.004063113388545028,-0.10112696428492861,-0.009726956256765878,0.693333240274163
2.607207775115967,-0.35743385995674964,-0.15579690361924375,0.002603553278121639,-0.10779356700350477,-0.003060747245466372,0.699999896133001
2.627650499343872,-0.3507671930823157,-0.14913023560552485,-0.004063113388545028,-0.11446024971060449,0.0036059604916264584,0.7066665642125965
2.647491455078125,-0.3441005256201475,-0.15579689703357835,-0.0030780271930224063,-0.12112689731681917,0.010272552458894515,0.7133332266165009
2.667570114135742,-0.3454174351841287,-0.15913023443187843,0.0002553061403109272,-0.11779361410284117,0.012062449300660583,0.7166665665488394
2.6877777576446533,-0.34993599142736836,-0.16113875815752557,0.006921977905482194,-0.1131259837403568,0.010340755580366146,0.7233334087512033
2.7078874111175537,-0.3566026580943596,-0.16327977357839027,0.013168404005279796,-0.10859157321743222,0.0036740889136874003,0.7300000754192437
2.728048086166382,-0.3597875873980183,-0.16327977021015336,0.012456851116026374,-0.1085916259091561,0.0036741784286422746,0.7366667865709154
2.74817156791687,-0.35965402192508283,-0.15994643687682006,0.009123517782692615,-0.11192495924248942,0.007007511761975694,0.7400001199042391
2.7683804035186768,-0.3529873593180937,-0.16661307657347282,0.0024568638111276474,-0.10525824814879423,0.013674722183941172,0.7466667277553833
2.7883691787719727,-0.359653983909255,-0.1732245391373398,0.009123530943819286,-0.09859175819202008,0.02034205974858827,0.7533334232259112
2.80843448638916,-0.3663206558153581,-0.17989119633541711,0.01579019480606374,-0.09192526050764759,0.027009185613932705,0.7600002222784563
2.828582286834717,-0.36965398914815384,-0.176557863002086,0.019123528139303028,-0.08859192717431426,0.030342518947285565,0.763333555609166
2.848628520965576,-0.3763206558152176,-0.16989119633541935,0.01912352813937209,-0.08859192717431426,0.03700918561393633,0.770000222277877
2.8687033653259277,-0.3763206558157917,-0.16322452966875264,0.01245686147281516,-0.09525859384098091,0.04126488463138364,0.7766668889475931
2.889186382293701,-0.3729873224824514,-0.15989119633541932,0.009123528139480454,-0.09859192717431424,0.04209501374710965,0.7800002222808899
2.9092977046966553,-0.3663206558160904,-0.15882952668120606,0.0024568614728773643,-0.1052585938409809,0.04876168041376293,0.786666888949342
2.929483652114868,-0.35965399432056966,-0.16549618588372805,0.00912352761568223,-0.09859247653598655,0.04209644655573852,0.7933339548965052
2.9495511054992676,-0.3663206609864839,-0.15882951921706284,0.002456860948862374,-0.1052591432026532,0.03542977988910235,0.8000006215589885
2.9696593284606934,-0.3629873276542467,-0.160665496347702,-0.0008764723842392698,-0.10859247653598653,0.03534068058597783,0.8033339548984934
2.9897525310516357,-0.3612059279182662,-0.16127443499195612,-0.0008764723845154109,-0.10859247653598653,0.03192715787993037,0.8100006215578782
3.009799003601074,-0.3659360014905345,-0.1570020049626149,-0.0008764723845024998,-0.10859247653598653,0.025433043382518002,0.8100006215582806
3.0302069187164307,-0.36926933482388424,-0.15366867162928138,-0.004209805717832415,-0.11192580986931985,0.022588340334849133,0.8066672882250339
3.0503108501434326,-0.36260266815765857,-0.14700200496260887,-0.010876472384405294,-0.11859247653598651,0.015921673668163907,0.8000006215607084
3.070387125015259,-0.35593600149058685,-0.14033533829595085,-0.017543139051157904,-0.12525914320265316,0.0092550070015159,0.7933339548918209
3.090466260910034,-0.3492964014779862,-0.1336686716905415,-0.02420980579218803,-0.13192580986931982,0.0025883404604569006,0.7866672737119177
3.1105458736419678,-0.34596306814262456,-0.1303353383449861,-0.027543139125521365,-0.13525914321674512,-0.0007449930367221715,0.7833339403706976
3.130659580230713,-0.3392964011720257,-0.1236686699106758,-0.03420980579218803,-0.14192582100814696,-0.0074116494453613764,0.776667274086429
3.150972843170166,-0.33262973380734384,-0.11708359829238993,-0.0408764724588547,-0.14859249395708155,-0.01407835256275088,0.7700006071346389
3.1714694499969482,-0.32596306683642506,-0.11041692996295958,-0.04754313912552137,-0.1552591761887977,-0.020745013037437175,0.7700006083622613
3.1915347576141357,-0.32262973319618515,-0.10708359500032416,-0.0508764724588547,-0.15859252588677472,-0.02407834254263432,0.7733339433049891
3.2116217613220215,-0.3159630644726152,-0.10129328958304565,-0.05754313912552137,-0.1652592182477603,-0.03074518095882285,0.7800006152328278
3.2317004203796387,-0.3092963991846517,-0.09462663000188412,-0.06255240448032665,-0.17192589541743106,-0.03741166203397586,0.7733339468827503
3.2517855167388916,-0.30262972822345513,-0.10129327517131095,-0.06431942361840633,-0.17859261440608168,-0.044078739096209935,0.7674850942934817
3.2718653678894043,-0.29929639544010705,-0.0979599444743303,-0.06765275695173965,-0.18192594506837553,-0.04741201551233839,0.7708184252071144
3.291964292526245,-0.292629722428825,-0.09795991491313273,-0.07106153951509916,-0.18859269190903258,-0.04930037248378528,0.7774851304123592
3.312040090560913,-0.2859630591080194,-0.10462659651834058,-0.0677961104887894,-0.18859278652826725,-0.04879233535784379,0.7841517841625391
3.3321168422698975,-0.27929639145757895,-0.11129325872762585,-0.06112944382212274,-0.18192613462911103,-0.046173162712483416,0.790818457086166
3.3528802394866943,-0.2759630576763911,-0.11462658999092044,-0.05779611048878941,-0.17859282074698643,-0.04283984272652204,0.7941517940309352
3.3730077743530273,-0.26929639026215896,-0.12129325316303732,-0.06446277715545608,-0.18525949573900122,-0.03617322748917326,0.8008184646985701
3.3934214115142822,-0.2626297242299018,-0.1279599226859906,-0.05779611048878941,-0.17859286885816716,-0.0350706871051738,0.8074851317800491
3.4133083820343018,-0.25596305971713057,-0.1334176877070169,-0.05112944382212274,-0.17761653927357443,-0.04173712383986941,0.8141517927814711
3.433391571044922,-0.25262972640516557,-0.13008435447276728,-0.054462777155456076,-0.1809498720374994,-0.04507045512367399,0.81748512603192
3.453601837158203,-0.2459630586716008,-0.12999076570090023,-0.06112944382212274,-0.1876165661278846,-0.05173719177502994,0.8241517994141099
3.4739537239074707,-0.2392963965949653,-0.12957322731017476,-0.06112944382212274,-0.19428319753485435,-0.05840341969216982,0.8308184412726218
3.493741273880005,-0.2326297296816654,-0.12290655960230304,-0.05661158616347652,-0.20094986939969692,-0.06507010628893889,0.8374851097483997
3.513927459716797,-0.2292963955148655,-0.11957322278779284,-0.05554551427069493,-0.20428324308020276,-0.0684034752852952,0.8408184513290318
3.534066915512085,-0.22262972878404266,-0.1129065558541109,-0.0622121809373616,-0.21094991317478826,-0.07507014535685386,0.8474851186159225
3.5544331073760986,-0.21596306220066316,-0.10623988951829695,-0.06887884760402825,-0.21761660075506392,-0.08173677766634706,0.85415178624697
3.574374198913574,-0.20929639569388353,-0.0995732234717469,-0.0755455142706949,-0.22428328773026524,-0.08840340550490955,0.8608184530182887
3.594572067260742,-0.2059630623674475,-0.09623989016496756,-0.07887884760402823,-0.22761662121785659,-0.09173673816416644,0.8641517862875403
3.6146628856658936,-0.19929639588968204,-0.08957322421094982,-0.08554551427069489,-0.2342833032129307,-0.09840336906278888,0.8708184523093602
3.634803056716919,-0.19262972947190343,-0.08290655846346329,-0.09221218093736154,-0.24094998140780072,-0.10506999917671492,0.8774851172666369
3.6547672748565674,-0.18596306476809438,-0.07623989888632486,-0.09221218093736154,-0.24761660096072136,-0.11173652949905871,0.8841517572160891
3.6751725673675537,-0.18262973207942096,-0.07290656785168677,-0.08887884760402821,-0.25094992916216713,-0.11506980848190186,0.8874850823334631
3.6952741146087646,-0.1759630640820372,-0.06623989641982711,-0.09554551427069487,-0.2576166580516319,-0.12173653577551462,0.894151770437361
3.71549654006958,-0.16929639811001562,-0.05957323213820942,-0.10221218093736152,-0.264283312249411,-0.1284031513854757,0.9008184267523875
3.7354981899261475,-0.16262973144334897,-0.05290656547154275,-0.10887884760402818,-0.2709499789160777,-0.13506981805214235,0.9074850934190541
3.755568742752075,-0.15929639811001564,-0.04957323213820942,-0.10554551427069485,-0.27428331224941105,-0.13840315138547568,0.9041517600857208
3.77565336227417,-0.15929639811001564,-0.04957323213820942,-0.0996569501564191,-0.2789683750464579,-0.14506981805214234,0.8974850934190542
3.795734167098999,-0.16277025705338669,-0.056239897199957326,-0.10069057578690424,-0.28351828459224987,-0.1517365088028886,0.8974851029305737
3.816345453262329,-0.1628967054425985,-0.05957323673763655,-0.10402392858644924,-0.2868516179255832,-0.15506985156711947,0.9008188820243193
3.8364717960357666,-0.1562299732313689,-0.06623992014264975,-0.09735731457121818,-0.2801849512589165,-0.14840321175510157,0.907486807251409
3.8565828800201416,-0.16289656974011202,-0.07290660176367343,-0.09069069371301404,-0.2735182845922498,-0.14173656111615263,0.9141542912012429
3.876659393310547,-0.16645187550168838,-0.07957326735602503,-0.08402402713807078,-0.2668516179255831,-0.13506990450310735,0.9074880951646177
3.896728754043579,-0.15978522930431543,-0.07290659727336939,-0.08820342032850352,-0.2601849512589164,-0.12840323723182273,0.9008213850157691
3.916825532913208,-0.15645191626490265,-0.0695732593850458,-0.09153673786570209,-0.25685161792558303,-0.13173656223033703,0.8974876001515424
3.936901569366455,-0.1497852083503777,-0.06290660118135269,-0.09820343237211773,-0.2501849512589163,-0.1384032407786199,0.8908215796135018
3.9569804668426514,-0.14311850094204653,-0.05623994375698244,-0.1048701296267727,-0.2493348343669343,-0.14506992318389808,0.8841557393902685
3.9770963191986084,-0.13645179642805394,-0.04957328601278152,-0.11153682517471399,-0.25490306249748385,-0.15173660490932592,0.8774898375869181
3.997629404067993,-0.1331184441395395,-0.04623995736254387,-0.1148701734812021,-0.2582363958308172,-0.15506994630147805,0.8741569008851655
4.017390966415405,-0.1264517388031781,-0.03957330076297816,-0.12153687199425971,-0.2649030624974839,-0.16173663078968858,0.8674910822069928
4.037674188613892,-0.11978506548228675,-0.04623996949693827,-0.12820354523022912,-0.2582363958308172,-0.16840330183966462,0.8608246157980097
4.057711362838745,-0.11311836357018903,-0.052906646037934955,-0.1324129740445392,-0.2515697291641505,-0.16173665361982356,0.8541588157422234
4.077809810638428,-0.10978499662655544,-0.056239988233182256,-0.1290796684630582,-0.24823639583081716,-0.15840333583786914,0.8508262398373889
4.097871541976929,-0.1031182959878116,-0.06290666339630413,-0.12241302865326294,-0.2415697291641505,-0.15173668363953263,0.8474465033405499
4.117968559265137,-0.10311824760200121,-0.0695733399620145,-0.11574639230645747,-0.23490306249748386,-0.14507002887279377,0.844071363915943
4.138101100921631,-0.1064515644610935,-0.0729066770084546,-0.11241307109047707,-0.23156972916415053,-0.14173670170763933,0.8407383669791334
4.158208131790161,-0.11311819870007525,-0.07957335057580935,-0.10574642718618099,-0.22490306249748387,-0.13507004612744536,0.8340723269865863
4.178303003311157,-0.1064515649590842,-0.07290667879102573,-0.11241307844861334,-0.21823639583081722,-0.1417367098495589,0.8274054634260107
4.198455095291138,-0.09978487031154712,-0.06624001831420319,-0.11907976574134457,-0.21156972916415057,-0.14840338744880882,0.8207394184370005
4.218491554260254,-0.09645152161120878,-0.06290668905125697,-0.12241311311811905,-0.2149030624974839,-0.1517367297486305,0.8174065821298239
4.238562345504761,-0.08978482817538824,-0.056240029071762065,-0.12907980185644816,-0.22156972916415055,-0.1584034093814706,0.8107406156377188
4.258711814880371,-0.08311813391762111,-0.049573369830455384,-0.1357464927054065,-0.2282363958308172,-0.16507009087927652,0.8040747139692915
4.278743743896484,-0.07645143875041731,-0.0429067114039374,-0.1424131858649836,-0.23490306249748386,-0.17173677446304353,0.7974088815014818
4.299328804016113,-0.0731180907979488,-0.03957338252195539,-0.14574653337803117,-0.23823639583081718,-0.17507011711204376,0.7940759926515273
4.319426774978638,-0.06645139409857005,-0.03290672547577458,-0.15241323041329186,-0.24490306249748384,-0.18173680428646763,0.7874102727240598
4.339516878128052,-0.05978469626299969,-0.026240069465481193,-0.1590799303303064,-0.2515697291641505,-0.18840349419656638,0.7807446340161361
4.3595991134643555,-0.0531179971974315,-0.019573414592133347,-0.16574663338835757,-0.2582363958308172,-0.1950701871450416,0.774079081775406
4.379729509353638,-0.04645129680650217,-0.012906760964362367,-0.17241333986554097,-0.2649030624974839,-0.2017368834612171,0.7674136214994932
4.399813175201416,-0.04311794608384241,-0.009573434653635502,-0.17574669447854155,-0.26823639583081726,-0.20507023299272983,0.764080927633905
4.419905662536621,-0.036451243523091294,-0.002906783114953776,-0.18241340664883687,-0.274903062497484,-0.21173693503959165,0.7574156161512352
4.439991474151611,-0.02978453939295586,0.0037598668722535217,-0.18908012302060048,-0.2815697291641507,-0.2184036414029406,0.7507504114439498
4.460097789764404,-0.026451186708368473,0.007093191241746476,-0.1924134828904044,-0.28490306249748404,-0.2217369963373781,0.7474178511013634
4.480205535888672,-0.019784480494777126,0.01375983892627124,-0.19908020535904183,-0.29156972916415075,-0.2284037091742135,0.7421603552706181
4.500280141830444,-0.013117771525462544,0.020426484116176636,-0.2057469347342968,-0.29823639583081746,-0.23507042917851603,0.7354954752057449
4.5253119468688965,-0.006451072532628516,0.027093133686787528,-0.1990803174412162,-0.30490306249748417,-0.24173713869154245,0.7288301844690432
4.547686576843262,-0.0031177250228606943,0.03042645998842093,-0.19574700394277925,-0.3015697291641508,-0.24507048844886278,0.7254973679299019
4.568093538284302,0.00021563210052386213,0.03375978023388392,-0.1924137081040023,-0.29823639583081746,-0.24840385518842514,0.7221650692346692
4.587916374206543,0.006882304622503107,0.027093110109166627,-0.18574705173812106,-0.29156972916415075,-0.2417371982093997,0.7154987154320209
4.608000040054321,0.013549016903162738,0.02042641928512674,-0.17908045493855704,-0.28490306249748404,-0.23507059296879992,0.7088340194044146
4.628070831298828,0.0068823424072277884,0.013759674238014387,-0.1758551311461584,-0.2782358641262897,-0.22840240063638864,0.702167208205407
4.648157596588135,0.0035489923609550254,0.017093015866359217,-0.1791884400257868,-0.27490253079295635,-0.22506904640374406,0.6988331596768859
4.66823935508728,0.003549016292349222,0.023759688188961174,-0.18585513492722575,-0.2749027557525038,-0.2250693097209641,0.6921674751518656
4.688329696655273,0.01021571746221657,0.03042633810907267,-0.19252185085676743,-0.2815694224191705,-0.23173601805102031,0.6921689097422582
4.708510160446167,0.013549070587879936,0.033759661193180114,-0.1958552142950601,-0.28490275575250384,-0.23506937772589856,0.6955031228615268
4.72857141494751,0.020215778285465353,0.04042630585011338,-0.2025219452088704,-0.29156942241917055,-0.24173610148076863,0.7021716451500447
4.748786211013794,0.026882487993356376,0.04709294835808225,-0.20918868184958248,-0.29823608908583726,-0.24840283155513007,0.7088403012285661
4.768751382827759,0.03354918996927014,0.05375959344230646,-0.21585541127664853,-0.304902755752504,-0.24436060235557625,0.7155087784041306
4.797246217727661,0.03354918996927014,0.05375959344230646,-0.21585541127664853,-0.304902755752504,-0.24436060235557625,0.7155087784041306
4.81727933883667,0.03688253339424233,0.057092921038932445,-0.21252209445185458,-0.30823608908583733,-0.2410272841123429,0.7188425718568424
4.837329149246216,0.04354920817377707,0.057092916127956736,-0.20585544204278938,-0.31490275575250404,-0.2343606309350109,0.7255096484017228
4.857433080673218,0.04354925746376866,0.05042622542795236,-0.19918884324243533,-0.3212730643170776,-0.2276940208855405,0.7321780667659069
4.8775389194488525,0.03688263145497584,0.04375953914469741,-0.19252223226196524,-0.3206730086918604,-0.22102740060484907,0.7388461830523384
4.897989988327026,0.03354932293938551,0.04042619400847125,-0.18918893271577458,-0.31733967535852703,-0.21769409540355208,0.7421804134785286
4.918078184127808,0.026882719674935013,0.03375949898183868,-0.18252234682966254,-0.3106730086918603,-0.22436082606858562,0.7488491635106379
4.938175678253174,0.020216101806491284,0.02709280883880843,-0.17585574754570685,-0.3040063420251936,-0.23102754942561846,0.7555176527253803
4.9582884311676025,0.013549484450104505,0.02042611774656457,-0.169189150948941,-0.2973396753585269,-0.23769427593360573,0.7621862306338244
4.9783244132995605,0.006882872256203997,0.013759422816193374,-0.16252256566766407,-0.2906730086918602,-0.24436101378859482,0.7555218223951096
4.9984259605407715,0.003549564061090378,0.010426076361409934,-0.15918926999186087,-0.28733967535852684,-0.2476943799310742,0.7521895274935071
5.018542051315308,-0.003117051894659118,0.003759382608039912,-0.15252268112126507,-0.2806730086918601,-0.2543611147968035,0.7455250131026397
5.038647174835205,-0.009783667259440508,-0.0029073123275189404,-0.14585609577016873,-0.2740063420251934,-0.2610278531945036,0.7388606033125887
5.058728933334351,-0.013116974717456363,-0.006240660260370892,-0.14252280449678675,-0.27067300869186006,-0.2643612237517671,0.7355284392164553
5.07892632484436,-0.019783589183207034,-0.012907357100480119,-0.1358562249266084,-0.26400634202519335,-0.27102796765022824,0.728864195897376
5.098934888839722,-0.023593812161839225,-0.019574040867802334,-0.12918961301818735,-0.25733967535852664,-0.2776946914723831,0.7221992888117905
5.119050025939941,-0.016927154544147626,-0.02624070509552915,-0.12252294138446479,-0.25067300869185993,-0.2843613568557008,0.7155325697982685
5.13933801651001,-0.010260478005245736,-0.03290737798701133,-0.11585629283431578,-0.24400634202519328,-0.2910280394557333,0.7088664039320403
5.159262180328369,-0.0069271396612114716,-0.03624071455929664,-0.11252296896058907,-0.24067300869185995,-0.29436138107896714,0.7055333315773106
5.179354906082153,-0.0002604628251914984,-0.04290738796931559,-0.10585632206675047,-0.2340063420251933,-0.30102806499126694,0.6988672090398823
5.199421167373657,0.006406214204947504,-0.049574061750181156,-0.09918967638295847,-0.22733967535852664,-0.307694749816846,0.6922011174789662
5.219537973403931,0.013072891423406733,-0.056240735922694025,-0.09252303200058956,-0.22067300869186,-0.3143614355856849,0.6855350586652497
5.23962664604187,0.016406230100758305,-0.05957407316246813,-0.08918971032767656,-0.21733967535852666,-0.3176947788329435,0.6822020421156368
5.25974178314209,0.023072907585204708,-0.06624074796263116,-0.08252306808243966,-0.21067300869186,-0.32436146607072897,0.6755360359336015
5.279919862747192,0.029739585231779064,-0.07290742320872763,-0.07585642739509645,-0.20400634202519335,-0.33102815432193466,0.6688700673111143
5.299973726272583,0.033072924111027274,-0.07624076100601748,-0.0725231076712576,-0.20067300869186003,-0.3343614988355677,0.6655370977326956
5.320050477981567,0.03973960196984833,-0.08290743696331594,-0.06585646953867981,-0.19400634202519337,-0.34102818865380313,0.6588711893892248
5.340169906616211,0.046406279944181755,-0.08957411342344096,-0.059189833266054044,-0.18733967535852672,-0.34769487954485434,0.6522053239975305
5.360201358795166,0.0530729580084873,-0.09624079040963247,-0.052523198988651196,-0.18067300869186007,-0.3543615715282171,0.6455395038842761
5.380289077758789,0.05640629706517848,-0.09957412910730676,-0.049189882642886,-0.17733967535852674,-0.35769491793478947,0.642206611561384
5.400396108627319,0.0630729752065988,-0.1062408069264498,-0.04252325163186293,-0.17067300869186008,-0.3643616115864164,0.635540863946977
5.420475482940674,0.06973965335356075,-0.11290748533013169,-0.035856622994973775,-0.16400634202519343,-0.37102830636486084,0.6288751678675473
5.440673112869263,0.07640633146296093,-0.11957416434158102,-0.029189996901562237,-0.15733967535852678,-0.37769500227705044,0.6222095260052908
5.461018323898315,0.07973967048847769,-0.12290750408240042,-0.025856684864585942,-0.15400634202519345,-0.38102835065920715,0.6188767262722453
5.480889320373535,0.08640634844746412,-0.12957418404836274,-0.01919006292825977,-0.1473396753585268,-0.38769504827469636,0.6122111709928356
5.5009801387786865,0.09307302623385215,-0.13624086467851843,-0.012523444008500929,-0.14067300869186014,-0.39436174701979737,0.6055456770928737
5.521040678024292,0.09973970378145823,-0.14290754599433877,-0.005856828316116136,-0.1340063420251935,-0.40102844688291217,0.59888024762081
5.541158437728882,0.10307304244294489,-0.1462408869158394,-0.002523521749690694,-0.13067300869186016,-0.4043617972283404,0.5955475580264891
5.561288833618164,0.1097397194913088,-0.15290756929836447,0.004143088677036126,-0.1240063420251935,-0.4110284987323785,0.5888822311406213
5.58131742477417,0.11640639610065025,-0.1595742524157806,0.010809695289569205,-0.11733967535852685,-0.41769520129582416,0.5822169767592955
5.601372241973877,0.12307307217562768,-0.1662409362854151,0.017476297827424686,-0.1106730086918602,-0.4243619048819306,0.5755517982922884
5.621485710144043,0.12640640998035974,-0.16957427850726717,0.020809597482649003,-0.10733967535852687,-0.42769525704470607,0.5722192386194946
5.641665935516357,0.13307308505417387,-0.17624096353389457,0.027476193385338084,-0.10067300869186022,-0.434361962077295,0.5655541806343255
5.661662817001343,0.13973975931275967,-0.1829076493479746,0.034142784491458314,-0.09400634202519356,-0.44102866800256463,0.5588892075174463
5.681950092315674,0.14307309609595392,-0.18624099255357998,0.037476078146842035,-0.09067300869186024,-0.4443620212788979,0.5555567539515402
5.702046632766724,0.14973976888333512,-0.1929076795670204,0.04414266145437402,-0.08400634202519358,-0.45102872841127645,0.5488919151870632
5.7221150398254395,0.15640644050797303,-0.19957436738810777,0.050809239133327334,-0.07733967535852693,-0.4576954362452805,0.5422271708168738
5.742220640182495,0.1630731108107016,-0.2062410560196522,0.05747581081750983,-0.07067300869186027,-0.46436214468567677,0.5355625247959815
5.762343645095825,0.16640644541332084,-0.20957440063927835,0.060809094291635314,-0.06733967535852695,-0.46769549910040775,0.5322302399229243
5.78252387046814,0.17307311340828418,-0.2162410904840491,0.067475656252774,-0.060673008691860285,-0.4743622082468172,0.5255657490021255
5.8025805950164795,0.179739779630039,-0.22290778113029813,0.07414221121397285,-0.05400634202519362,-0.48102891771093814,0.518901366628091
5.822748184204102,0.18303915797685918,-0.2295744811256711,0.08080876556791627,-0.04733967535852695,-0.48769562426793706,0.5122369489165391
5.842964172363281,0.18322984494404537,-0.23290782969137966,0.0841420989012496,-0.044006013427456185,-0.4910289482186389,0.508903376982842
5.862907886505127,0.17950709232884576,-0.23957453178543694,0.09080870771579526,-0.037338994566358946,-0.49769563557731444,0.5022375922133459
5.883042573928833,0.1728404245251041,-0.24624121719662478,0.09747535752142059,-0.030672001116386335,-0.5043622506543655,0.49557100516364244
5.903094291687012,0.1664612007450915,-0.2529078903310241,0.10414198819474872,-0.024005334449719667,-0.5110289275536772,0.48890502079910375
5.9232001304626465,0.16312786684809957,-0.25624122718306774,0.10747530315704161,-0.020672001116386333,-0.5143622658194531,0.48557203177808755
5.943293571472168,0.15931117129102443,-0.26290789948540927,0.11414192536829205,-0.014005334449719666,-0.5210289436929736,0.4789061810504362
5.963456153869629,0.15537891227919615,-0.26957458623494407,0.12080857094663694,-0.007338332147604957,-0.5276955029222765,0.4722396375727909
5.983723163604736,0.15204557636097307,-0.27290792321889534,0.12414188181149537,-0.004004998814271623,-0.5310288411394037,0.4689067066389396
6.0036091804504395,0.14537890375728235,-0.2795745973341095,0.1308085010852222,0.002661667852395044,-0.5376955174021841,0.46224087725239704
6.0236945152282715,0.14136194074521513,-0.2862412707975371,0.1374751126122592,0.009328334519061711,-0.5443621941449838,0.4555751613434023
6.043950796127319,0.1346952730852549,-0.29290794617436916,0.14414172960684285,0.01599500118572838,-0.551028868997826,0.44890934732357296
6.063964128494263,0.13180752117067274,-0.2962412831641163,0.14747503249249475,0.019328334519061713,-0.5543622069017032,0.44557652268374554
6.084035158157349,0.12963866322476428,-0.302907955410723,0.15414162406197296,0.02599500118572838,-0.5610288836787156,0.4389110755655614
6.104416608810425,0.12834775420284625,-0.30957463194739304,0.16080823639000158,0.03266166785239505,-0.567695556985351,0.4322453096074597
6.124333143234253,0.12683750874557506,-0.3129079692555399,0.16414153473663723,0.03599500118572838,-0.5710288940568338,0.4289125352426945
6.144484996795654,0.12481216348725795,-0.3195746437248162,0.17080812652944974,0.04266166785239505,-0.5776955677927322,0.42224704565323007
6.164621829986572,0.12366657550208923,-0.326241318335802,0.17747471384205504,0.04932833451906172,-0.5843622406927028,0.4155816035427383
6.184900283813477,0.11699990011420862,-0.3253148997201109,0.18414130927449815,0.05599500118572839,-0.591028912040641,0.408916029364245
6.20482063293457,0.12366654404446958,-0.32430331648552463,0.19080790770443143,0.06266166785239505,-0.5976955826037795,0.402250363321312
6.2249369621276855,0.1269998743971399,-0.32763663999910775,0.1941413012842928,0.06599500118572837,-0.6010289126430011,0.39891611429605744
6.245008230209351,0.1303209230376418,-0.3343033194214832,0.20080789966625273,0.07266166785239503,-0.6076955824258993,0.39225048823556274
6.265092134475708,0.1274342894534347,-0.34096999855086324,0.20747448993748616,0.07932833451906168,-0.614362251470976,0.3855849552207164
6.285221338272095,0.12484625770629496,-0.3440833754917509,0.21080775994723955,0.08266166785239501,-0.6176955860279448,0.3822525055895864
6.305317640304565,0.12686229679362593,-0.3374167350351206,0.21747437080421878,0.08932872122780984,-0.6243623330801441,0.3755863137741018
6.325403690338135,0.1335289498889268,-0.3440834001485933,0.22414101979170892,0.0959953878944765,-0.6310289995895448,0.36891985746485245
6.345476150512695,0.13785821760341255,-0.35075007730218366,0.23080757379704223,0.10266205456114315,-0.6376956659887686,0.36225471120775926
6.365557909011841,0.13452488335653898,-0.3540834196173974,0.23414090713037555,0.10599559265002939,-0.6410284561130143,0.35892116891024384
6.38569188117981,0.12785820418885993,-0.3540834497051683,0.24080750573953846,0.11266270255808379,-0.6476952117529495,0.35225504407062974
6.405884265899658,0.1278581686545589,-0.3474167863778633,0.24747405664059624,0.11932936922475045,-0.6543618760041073,0.34558981571348846
6.4263505935668945,0.1345248259295147,-0.3474167848299346,0.254140714529572,0.1259960358914171,-0.6610285425446369,0.33892324678605257
6.446452617645264,0.13785814362799095,-0.35075012221545626,0.2574739675393734,0.12932936922475044,-0.6643618737032553,0.3355908976777039
6.466589689254761,0.13286145350349593,-0.35251841860206395,0.2641405975262192,0.13599644140176134,-0.6710286506240325,0.32892440140642837
6.486658811569214,0.13639392414117557,-0.34585178416607754,0.27080717696136913,0.14266355945041947,-0.6776954399701056,0.3222584239370019
6.506748914718628,0.13882158835198624,-0.34251341310607986,0.27747376003937013,0.14933013601374073,-0.6843624738131816,0.31559282698241803
6.526870250701904,0.142154920953832,-0.34584674187266456,0.2808071412214631,0.15266346934707406,-0.687695809242011,0.312258918013605
6.546948194503784,0.14215493049291414,-0.35071484351790444,0.2874737705980139,0.15933055719198289,-0.6943625914325389,0.3055923877549094
6.566996097564697,0.13773656231193365,-0.34876280498913326,0.294140397412922,0.16599770957134738,-0.7010293937685542,0.2989257910456995
6.587136745452881,0.13676003726082023,-0.3454295021056635,0.2974737307462553,0.16933150782480558,-0.7043628655417971,0.29559210238818684
6.607219934463501,0.14342671376108973,-0.34257535457665955,0.30414039741292204,0.17599905232074542,-0.7110303910727631,0.288924810588877
6.627347469329834,0.1500933882095511,-0.34924205137927017,0.3108071300000589,0.18266621985477888,-0.7176972143385467,0.2822570415308042
6.647358417510986,0.14342671280848043,-0.3425753878462472,0.31747370678147735,0.18933288652144553,-0.7243638749199639,0.27559132175280043
6.667804718017578,0.14676002825853904,-0.33924205274481045,0.32080697393129803,0.19266621985477886,-0.7276972039313437,0.2722586350563577
6.6876420974731445,0.15342668611168173,-0.3392420188163687,0.3274735990957023,0.19933237966281547,-0.728560772723539,0.2655927789216652
6.707708358764648,0.15355247231521,-0.34590870392904366,0.33414018892256003,0.20599904632948213,-0.7296714508687533,0.25892707065815435
6.728869199752808,0.15066562981589227,-0.34924203760713746,0.3374734754445388,0.20933237966281545,-0.7330047804875357,0.25559419973321057
6.748983383178711,0.14399895032998447,-0.3425753725848896,0.34414002109321773,0.2159990463294821,-0.7396714371165539,0.24892872347430609
6.76903510093689,0.15066559360695922,-0.3359087035926814,0.35080656015849,0.22266571299614876,-0.7449027021906421,0.24226324850784858
6.789123296737671,0.15733225790006222,-0.34257536959186696,0.35747322191806163,0.22933237966281542,-0.7382360350104179,0.2355966213113679
6.810384035110474,0.16368543926432477,-0.34924207511567207,0.3641398343723229,0.2359995787973994,-0.7442806166682243,0.22893005636306082
6.830456495285034,0.16035210994901458,-0.34985442143862827,0.36747316770565625,0.23933339408246732,-0.7476140921281823,0.22559635345044507
6.850537061691284,0.15453776050359766,-0.34707216418920644,0.3741397071943283,0.24600006074913397,-0.7542807462215612,0.21893085148939972
6.8706042766571045,0.15563816720200507,-0.3404054931978338,0.3808062146463098,0.25266672741580065,-0.7549593268179948,0.21226557582052025
6.890726804733276,0.1589714947261738,-0.33707215925833817,0.38413948405789994,0.256000060749134,-0.7525700578366044,0.20893281231092883
6.910788536071777,0.16563815939095058,-0.3437388252091661,0.3908061496671869,0.2626667274158007,-0.7459033910112629,0.20226614710124052
6.930886745452881,0.16534712749750224,-0.3504055294651997,0.397472747051894,0.26933391500183357,-0.7473080662369765,0.19559968725332777
6.950962543487549,0.1586804455597829,-0.34373886017246424,0.40413923015196124,0.2760005816685003,-0.7539747118930761,0.18893462889990228
6.9710533618927,0.1620137581990675,-0.34040552097811466,0.4074724463148148,0.27933391500183363,-0.7521144939051698,0.18560225657301851
6.991132497787476,0.16868042343607992,-0.34040552060689894,0.4141391169350529,0.28600058166850034,-0.747106978199375,0.17893555113925547
7.011226654052734,0.1686804195534844,-0.3470722164097008,0.4208057046556559,0.29266767467254773,-0.7451885219258146,0.1722692222921778
7.031515836715698,0.1653470782662635,-0.35040554733553875,0.4241389552967213,0.2960010080058811,-0.7464618707448579,0.16893658362395073
7.051943302154541,0.15868040929101823,-0.34373892085273394,0.4308055358377864,0.3026681993025066,-0.753128757861693,0.16227022725581475
7.071810245513916,0.16534707375225283,-0.3370722927903907,0.4374721124183803,0.3093353592270338,-0.747848205592314,0.15560392138766702
7.091865301132202,0.17201373878960774,-0.3437389589039088,0.4441387845257177,0.3160020258937005,-0.7411815397195257,0.14893720023113577
7.112352609634399,0.16968438433352853,-0.35040562147267423,0.45080528989886587,0.32266869256036723,-0.7388286856342503,0.1422718671806604
7.132449626922607,0.1663510460887606,-0.3470722859798771,0.45413856588142276,0.3260020258937006,-0.7421620110917119,0.13893899626143563
7.1529762744903564,0.16635104370866333,-0.3404056661318585,0.46080513036567183,0.33266927471261065,-0.742162315279694,0.1322726957291092
7.172781705856323,0.1730177100441752,-0.3404056664216631,0.46747181337412086,0.33933594137927736,-0.7354956514793384,0.12560589413153092
7.193750858306885,0.17301770657016302,-0.3456953205705922,0.4741383682411856,0.3460031533846658,-0.7331994686841516,0.11893968031033025
7.213627338409424,0.16968436122828143,-0.3474559604978983,0.477471568629819,0.34933648671799916,-0.7341326500388569,0.11560737577193435
7.233967542648315,0.16301767877307588,-0.34078928475240816,0.48413805215624794,0.35600315338466587,-0.7407992892879262,0.10894210736069089
7.254009246826172,0.16968432751074972,-0.3341226072490951,0.49080451966066896,0.3626698200513326,-0.7341325919645623,0.1022769299106338
7.274671792984009,0.17635097619126125,-0.34078921818037666,0.4974710525068659,0.3693359503863302,-0.7274656174192786,0.0956116776672396
7.294756889343262,0.17301764678297807,-0.3441225509648438,0.50080432259833,0.37266928371966357,-0.728599943492179,0.09227886595385663
7.314845323562622,0.16635097875989976,-0.34403025302588686,0.5074708937667131,0.37933645331842747,-0.7329544509737606,0.08561251262124389
7.3349409103393555,0.1663509768502808,-0.3373636264472866,0.5141374757372118,0.3860036095047312,-0.733236127657717,0.07894606773893488
7.355177879333496,0.16968431692073216,-0.33403034087932365,0.5174708090705451,0.3893374509118216,-0.7304896917903009,0.07561234139310037
7.375295639038086,0.17635099602303506,-0.3406970621763198,0.5241375464633657,0.3960046493219814,-0.7238233522324794,0.0689447541802315
7.395408391952515,0.1696843398135743,-0.34736378005003254,0.530804135759574,0.40267187071604804,-0.7263285624377379,0.06227825771926508
7.4154746532440186,0.16635099635758036,-0.34403043882487694,0.5341373450196433,0.4060052040493814,-0.7296618751562526,0.058945793429545576
7.435558319091797,0.16635099496573802,-0.33736382034150386,0.5408039080196599,0.4126724429043129,-0.7298376720452516,0.05227938441789969
7.455641508102417,0.17301767650607924,-0.3373638844230082,0.5474706667956013,0.41933970267582227,-0.7236626413640835,0.04561162696452047
7.4756999015808105,0.1763510188834682,-0.34069727918311277,0.5508040001289346,0.42267365792299927,-0.7203297024038485,0.04227780944706215
7.4958176612854,0.16968434646845235,-0.34736393617623584,0.5574704896202415,0.429340324589666,-0.7218121668505684,0.03561238834991242
7.5159173011779785,0.16301768139567188,-0.3406973145397364,0.5641370774756503,0.43600749574864395,-0.7284791493323526,0.02894584854991237
7.5360119342803955,0.16968433117616824,-0.3340306322255781,0.5708035326589032,0.44267416241531066,-0.7218124446749334,0.022280553967553653
7.5560925006866455,0.17301767292806253,-0.3373639742356762,0.5741369868759377,0.446007495748644,-0.7184791339127814,0.01894643240326643
7.5762245655059814,0.17301767429589893,-0.34388010942392966,0.5808035658796249,0.4526746822711842,-0.7150252946124875,0.01227992694149207
7.601365089416504,0.16968433203858727,-0.3467445757592175,0.5841367858828027,0.45600801560451754,-0.7149165025991161,0.008947319822645053
7.625771522521973,0.16301766759483277,-0.3400779631099002,0.5908033558867432,0.46267527047037443,-0.7215835619756383,0.0022808011553887885
7.645980358123779,0.16968431442325724,-0.33341127611281335,0.5974697631910871,0.46934193713704114,-0.7149168467151815,-0.0043842572630914175
7.6660284996032715,0.17635098405032967,-0.34007794652281476,0.6041364802365354,0.47600860380370785,-0.708250190071961,-0.011051241364931373
7.686326026916504,0.17301764063509942,-0.3398963076048059,0.6074696765875495,0.4793419371370412,-0.7078157687375067,-0.014383728982715727
7.706626653671265,0.166350954054306,-0.33639948889737475,0.6141360783957344,0.4860086038037079,-0.7072283284110272,-0.021048780897410337
7.726451396942139,0.16635093236790816,-0.3297327990185881,0.620802459794233,0.4926752704703746,-0.7037181491282285,-0.027713737629932587
7.747042417526245,0.16968425684922012,-0.3263994556060432,0.6241356680844495,0.496008603803708,-0.7003847905117345,-0.031046321992240628
7.767175674438477,0.17635090353844007,-0.3330660445135644,0.630802204037454,0.5026746598403666,-0.6937176370079002,-0.037711728126908005
7.787236213684082,0.1696842203631277,-0.3307531245018624,0.6374686552609348,0.5093413265070332,-0.6870856420416295,-0.044377122362137894
7.80731463432312,0.16740520353458843,-0.3240864329774781,0.6441350208259876,0.5160079931736998,-0.6804189134587998,-0.05104202282280469
7.827406167984009,0.1707385491513482,-0.32366665084443713,0.6474685252538597,0.5193413265070331,-0.6770856164325284,-0.05437636194323492
7.847476959228516,0.17486389018471932,-0.32662216451274373,0.6541351695929,0.5260079931736997,-0.6704189451462219,-0.06104289623969077
7.86759090423584,0.17224333791617094,-0.32662213805298335,0.6608015204861346,0.5326746598403663,-0.665465808594625,-0.06770774690585776
7.887630939483643,0.17224333685842014,-0.31995553194244075,0.6674680248595418,0.5393419645055991,-0.660675213222924,-0.07437400100598977
7.908216714859009,0.17557665615637327,-0.3166221840881393,0.6708011860245968,0.5426752978389324,-0.6573418425643626,-0.0777063592230704
7.9283363819122314,0.18224331838182095,-0.3232888466294213,0.6774678044881078,0.549341964505599,-0.6506751658091408,-0.08437275933985024
7.948467493057251,0.1755766525191523,-0.32707585028187736,0.6841343292313707,0.5560092492589908,-0.6440090039531776,-0.09103913332655239
7.9685728549957275,0.16890995379725757,-0.32040915271448295,0.6908006340290306,0.5626759159256574,-0.6478732160967425,-0.09770380662109379
7.988642454147339,0.17015344946273558,-0.3170758085813514,0.6941338416445094,0.5660092492589907,-0.6445398552997096,-0.10103645549338325
8.008710622787476,0.17326700319043709,-0.3170758057925107,0.7008004759488559,0.5726759159256573,-0.6378731819900779,-0.10770294343384322
8.028784990310669,0.17172862937977135,-0.3207010594216519,0.7074670111579213,0.5793431706339094,-0.6327037308663385,-0.11436938581785912
8.048859119415283,0.1683953098910727,-0.32096381241880084,0.7108003444912546,0.5826771364628985,-0.6310513563984801,-0.11770323643514244
8.068956136703491,0.16172864215562588,-0.3142972099314547,0.7174668403786296,0.5893444379282732,-0.6295045781562795,-0.12436951933571457
8.089050531387329,0.1640678872334046,-0.3076306144315565,0.7241333703187195,0.5960117678940567,-0.6228384954743614,-0.13103601507102394
8.109145641326904,0.16788905245504773,-0.3142971940750194,0.730799926699051,0.602677816804554,-0.6161712290397274,-0.13770160367370454
8.12921953201294,0.16455570402249403,-0.31464572372152283,0.7341330858982715,0.6060111501378873,-0.6128378566867513,-0.14103404173543657
8.14952564239502,0.15788900870067554,-0.3121497857024433,0.7407994284725007,0.6126778168045539,-0.6061711177433209,-0.14769905529629973
8.169413805007935,0.15307363040832822,-0.3066884980764382,0.7474657059296659,0.6193444834712205,-0.5997240346684185,-0.15436375158680168
8.190102100372314,0.15173980367068698,-0.3040491283466314,0.7507988241254195,0.6226778168045538,-0.5963906520667731,-0.1576960020745032
8.210174560546875,0.15045477212168337,-0.30528082066723705,0.757465467198529,0.6293444834712204,-0.5897239801136126,-0.16436255412717773
8.230228662490845,0.14378810188493435,-0.31020525164785534,0.7641320974618777,0.636011150137887,-0.58305730563346,-0.1710290452497133
8.251317739486694,0.13712140601264178,-0.30353855771793864,0.7707984424486604,0.6426778168045536,-0.5826354832976942,-0.1776941378236286
8.271393537521362,0.13704427618862966,-0.3005121992919079,0.7741316181114152,0.6460111501378869,-0.5793021137943417,-0.18102670650469066
8.291471481323242,0.13618314793005332,-0.3011218161804839,0.7807981997497362,0.6526778168045535,-0.5726354277239978,-0.1876929594015191
8.31155014038086,0.1321372325058128,-0.30168927262650186,0.7874644717647541,0.6593444834712201,-0.5671365227582639,-0.194357745512039
8.332150936126709,0.12880391540254446,-0.29920010537104635,0.7907978050980874,0.6626784747373468,-0.565188285878642,-0.19769163296925624
8.35226845741272,0.12479834135075961,-0.2979798021776015,0.7974644352717181,0.6693451414040134,-0.5585216108959717,-0.20435813186208177
8.372458457946777,0.1181316463002155,-0.29802133843392264,0.8041307745828088,0.67601180807068,-0.5518548695060952,-0.2110232770863247
8.392438173294067,0.11146494740213685,-0.29135464110889653,0.8107970691792022,0.6826784747373466,-0.5451881180674527,-0.2176882309007756
8.41256594657898,0.11450609329301348,-0.2901192500630833,0.8141306225402228,0.6860118080706799,-0.5418548354728804,-0.22102257165480335
8.432637691497803,0.11390977245846302,-0.29234071320072297,0.8207972869314215,0.6926784747373465,-0.5351881682517075,-0.2276892241093395
8.452726125717163,0.10744429988912944,-0.29234068185113743,0.8274635661669368,0.699345141404013,-0.5285214145554007,-0.23435415194846537
8.472968101501465,0.10517852651408777,-0.2913908312575161,0.8341302683063035,0.7060118080706796,-0.5218547562301639,-0.24102097208987472
8.492968559265137,0.10613934357546655,-0.29353606103145496,0.8374636016396368,0.7093458241544441,-0.5185221996753874,-0.2443548903783184
8.513067722320557,0.09947267729406283,-0.30020272857440755,0.8441302784171304,0.7160124908211107,-0.5118555361648128,-0.25102160861185224
8.533215761184692,0.09280597716072993,-0.2961857651723347,0.8507965802003218,0.7226791574877773,-0.5082160826221092,-0.2576867061541184
8.55324387550354,0.08700955553518891,-0.29718982066034855,0.8574631649799803,0.7293458241544439,-0.5015493990165457,-0.2643530310152186
8.573631525039673,0.08367619750401825,-0.2966862157245072,0.8607962243290868,0.7326791574877772,-0.49821600826284607,-0.2676852099022306
8.593627691268921,0.07736829824911284,-0.2950982653556937,0.8674623831428123,0.7393458241544438,-0.49154923594196015,-0.2743497547202547
8.61376428604126,0.0732381868802204,-0.29478076937195813,0.8741287968818978,0.7460117975837741,-0.4848816684797831,-0.28101477160268734
8.633753299713135,0.06859715323213615,-0.2987475778085531,0.8807954743638786,0.7526784642504407,-0.4782150036847643,-0.2876814780937758
8.653940677642822,0.06526380546316228,-0.3020291763550731,0.8841286503904612,0.756011797583774,-0.47488163919404547,-0.29101417685642533
8.674371242523193,0.05859713503197781,-0.29550624520383034,0.8907950539594854,0.762679157606604,-0.4682158014931495,-0.29768040115362465
8.694419860839844,0.06140000266504254,-0.29810587377432,0.8974617003775106,0.7693458242732706,-0.46154913136669784,-0.3043469930134561
8.714350938796997,0.05473330098814011,-0.30477242088384066,0.9041281982139863,0.7760118336584575,-0.454881580876473,-0.31101242902569914
8.734640836715698,0.051399987877261445,-0.30290971097163966,0.9074615315473196,0.7793458261505641,-0.45154912180148005,-0.3143463425251902
8.754598379135132,0.04473327075751209,-0.29923638330323715,0.914127659446127,0.7860124928172307,-0.44488235714556834,-0.3210109569925781
8.77469515800476,0.038678960796884,-0.2941059452340281,0.920793760271176,0.7926791594838973,-0.43821558806666416,-0.3276754930406464
8.794761419296265,0.037740185305633896,-0.2913471524647321,0.9274604371107844,0.7993458261505639,-0.4315489233168244,-0.33434219394678416
8.815016984939575,0.039099213819697234,-0.2918642220695518,0.9307935538849808,0.8026791594838972,-0.42821555115225735,-0.33767472816874516
8.835135221481323,0.032432543417459776,-0.2974811999352848,0.9374601829401453,0.8093458261505638,-0.4215488789314368,-0.34434126678112964
8.855200290679932,0.025765918518707704,-0.2951018433847027,0.9441268496068119,0.8160138719540396,-0.414884156072165,-0.35100916001223165
8.875518321990967,0.01909921314705778,-0.2884351466051855,0.9507930637286738,0.8226805386207062,-0.4082174135700547,-0.3576742244925051
8.895494222640991,0.012432509754043895,-0.2817684499493397,0.9574592730477243,0.8293472052873728,-0.4015506702435947,-0.3643392898428833
8.915579795837402,0.009197681282912862,-0.27843510139010824,0.9607923716137654,0.8326805386207061,-0.39821729759769586,-0.3676718081550128
8.935693740844727,0.004630631181372208,-0.2717684034309083,0.9674585503786985,0.8393472052873727,-0.3915505494087932,-0.37433679594895514
8.956058025360107,-0.0001928514746103835,-0.2651017059563252,0.9741247295562019,0.8460138719540393,-0.38488380165166614,-0.3810018052412414
8.975897073745728,-0.006859549616684935,-0.2584350075258942,0.9807908859882778,0.8526805386207059,-0.3782170506577029,-0.3876667590434173
8.996247053146362,-0.010080826064157089,-0.2551016581034918,0.984123957942423,0.8560138719540392,-0.3748836743858254,-0.3909992234456634
9.016358613967896,-0.011237682463309178,-0.24843495847174552,0.9907900829467885,0.8626805386207058,-0.3682169193812329,-0.39766410749049885
9.036747932434082,-0.017801066419423556,-0.2540436381787649,0.9974565346705748,0.8693465673456511,-0.3615492715134419,-0.4043295128469998
9.056640386581421,-0.02446775872299189,-0.247376941493196,1.0041226920579243,0.8760132340123177,-0.3548825264195419,-0.4109945606825196
9.076714277267456,-0.03113445201661225,-0.24071024046296302,1.0107887667513378,0.8826799006789843,-0.34821576980339664,-0.41765937249531515
9.09680724143982,-0.033469397589925474,-0.23737701249828896,1.0141221000846712,0.8860137670192132,-0.34488326005153086,-0.4209931813567262
9.116928339004517,-0.037216893724790874,-0.23071056109347615,1.020788766751338,0.8926815129494525,-0.33821827366832047,-0.42766081017534974
9.136991739273071,-0.041173505826337164,-0.22404411730941323,1.0274554334180048,0.8993492833951724,-0.33155334399885955,-0.4343284597186316
9.157378435134888,-0.04506138960003428,-0.21737767815434741,1.0341221000846716,0.9060170623289447,-0.324888447983512,-0.44099611551243595
9.177435636520386,-0.04655559608708142,-0.2140444614522496,1.037455433418005,0.909350960141165,-0.3215560215531804,-0.4443299502775702
9.19761037826538,-0.04755180782156858,-0.20861220336796563,1.0441215672368718,0.9160176268078316,-0.31488928180015247,-0.45099508387890924
9.217663764953613,-0.05397504459901865,-0.20194564659587047,1.050787983686066,0.922684872031866,-0.3082235373383655,-0.4576615527517263
9.237782001495361,-0.054838265741312064,-0.19527922467700487,1.057454650352733,0.9293526755390907,-0.30155877006060927,-0.4643292247103238
9.258198738098145,-0.05502217804427488,-0.19779311088818338,1.0641213170193997,0.9360193470770338,-0.2948921259487537,-0.4709958960302034
9.278356075286865,-0.058355508911876006,-0.19445989303947994,1.0674546503527331,0.9393531995361796,-0.29155968910223123,-0.4743296881449956
9.298391819000244,-0.06463999565838309,-0.18972679699948797,1.0741213170194,0.9460199081074071,-0.28489308701067845,-0.4809963924217407
9.318552494049072,-0.07062936604724229,-0.1851337933199205,1.0807877042766354,0.952687113908839,-0.2782273540837244,-0.4876628142741102
9.338908195495605,-0.07394634344271218,-0.18180060410152044,1.0841210376099688,0.9560210660925806,-0.2748951394716893,-0.49099669178296934
9.359018087387085,-0.07445049587462434,-0.1751342126385596,1.0907877042766356,0.9626888975268681,-0.2682306094564695,-0.4976643803612873
9.379111766815186,-0.07313253639805807,-0.1801455944125592,1.0974543709433024,0.9693554270700535,-0.26156370083841846,-0.5043309273127029
9.39919638633728,-0.07979920690420284,-0.1734791939899448,1.1041210376099693,0.9760231708947242,-0.2548991028774719,-0.5109985370825048
9.419651508331299,-0.0864658739725606,-0.1716290369431876,1.110787704276636,0.9826898474850978,-0.2482324671834348,-0.517665212025205
9.439497709274292,-0.08979921224050638,-0.16829589669839054,1.1141210376099695,0.9860239328534427,-0.24490063529784897,-0.5209992010023226
9.45954418182373,-0.09285656140292407,-0.16162952800331432,1.1207877042766363,0.9926917416085618,-0.23823628679272565,-0.5276668605746094
9.483438491821289,-0.0926081733019045,-0.1582963674718201,1.1241210376099697,0.9960257255114219,-0.2349042986695329,-0.5310007576929783
9.503563404083252,-0.09159271214422116,-0.16162955435872944,1.1274543709433031,0.9993585139600537,-0.23156982477177696,-0.5343336198330877
9.523630380630493,-0.09401215126486259,-0.16162991108564886,1.13412103760997,1.0060264799221579,-0.2249059362251163,-0.5410014109783998
9.543828010559082,-0.10067881659322847,-0.15757922936168023,1.1407877042766368,1.0126931096070506,-0.21823916913178726,-0.5476680471255428
9.563891172409058,-0.10734549942703119,-0.1536006258291237,1.1474543709433036,1.01936085530525,-0.21157493759208154,-0.5543356416288211
9.584292650222778,-0.1106788436414746,-0.15026748503026427,1.150787704276637,1.0226948406153138,-0.20824310657014225,-0.5576695337432251
9.604407787322998,-0.1096767402189298,-0.14360125260985673,1.1574543709433038,1.029362948896007,-0.20157983106248278,-0.5643374311045559
9.624557256698608,-0.1063408089782294,-0.15026791504962073,1.1641210376099707,1.0360295911891588,-0.1949131309072663,-0.5710040770720679
9.644632577896118,-0.11300750688697134,-0.143601710471532,1.1707877042766375,1.0426977020730042,-0.1882500750801902,-0.577671969695827
9.664702653884888,-0.1196741751456087,-0.1427948118308283,1.1774543709433043,1.0493644135523272,-0.1815835471014353,-0.5843386732894572
9.68481183052063,-0.12300752631449081,-0.13946171345534072,1.1807877042766377,1.052698441852338,-0.1782520520860442,-0.5876725914275809
9.704890251159668,-0.1256180414148962,-0.13279548399191146,1.1874543709433045,1.0593663714570474,-0.17158880925167128,-0.5943403153485289
9.724981546401978,-0.1226480340110836,-0.13279540929174855,1.1941210376099713,1.0660328415054592,-0.16492155554294263,-0.601006820899629
9.745285034179688,-0.12389392111660762,-0.13279585094902885,1.2007877042766382,1.0727007005910634,-0.1582583503205834,-0.6076744757181055
9.765303134918213,-0.12722727553994662,-0.12946275343766725,1.2041210376099716,1.0760346535420422,-0.15492686574732462,-0.6110083202580758
9.785382270812988,-0.13389393928379933,-0.12901596631053205,1.2107877042766384,1.082701220356976,-0.14825992839756857,-0.6176749035844292
9.805697202682495,-0.14056066157613692,-0.12234988368209275,1.2174543709433052,1.089369328564502,-0.14159784405907144,-0.6243427458231842
9.825596570968628,-0.13850362713089448,-0.11568376749809385,1.224121037609972,1.0960373030104127,-0.1349355011282919,-0.6310104689278202
9.845696449279785,-0.13588096787875678,-0.11901685170556016,1.2274543709433055,1.0993700617423814,-0.13160020951919046,-0.6343433415565829
9.86582326889038,-0.1368539907776731,-0.11901741022187191,1.2341210376099723,1.106037976396333,-0.12493792766782852,-0.6410110062375702
9.885889291763306,-0.14352064371658513,-0.11562182969379481,1.240787704276639,1.1127043892167858,-0.11827027904401398,-0.6476774747365961
9.906238794326782,-0.14685400555196576,-0.11556622567689714,1.2441210376099725,1.1160382784541498,-0.11493904502367154,-0.6510112457259489
9.926376104354858,-0.15352075238385207,-0.10890029969202264,1.2507877042766393,1.1227064325488405,-0.1082781936849336,-0.657679074362805
9.946435928344727,-0.15082919270768363,-0.1022345753508166,1.2574543709433061,1.1293749153507184,-0.10161892944718029,-0.6643471436060573
9.966774225234985,-0.14542162653112498,-0.10890117739676494,1.264121037609973,1.1290103373039744,-0.09495174647497845,-0.6710137086717123
9.986701488494873,-0.1520883927104149,-0.10223538627523812,1.2707877042766398,1.1356785528691742,-0.08829190908226206,-0.6776815469800331
10.006826400756836,-0.15542168411783755,-0.10267672375043027,1.2741210376099732,1.1378337461312806,-0.08495574151354154,-0.6810144156355477
10.027837991714478,-0.158755058430749,-0.10307464499710718,1.2774543709433066,1.1397746325398692,-0.08162516747846023,-0.6843481890580255
10.047980546951294,-0.1654218303609311,-0.09640888182017743,1.2841210376099734,1.1464427539007669,-0.07496552671642208,-0.6910159269843904
10.068025588989258,-0.1641893111882167,-0.08974292048768225,1.2907877042766402,1.1531105036838876,-0.06830434470727523,-0.6976833788721238
10.088136196136475,-0.15821121381253367,-0.09503888699989518,1.297454370943307,1.146443824300219,-0.061637660796474134,-0.7043500332764222
10.108257293701172,-0.16154460479718627,-0.09170603253643692,1.3007877042766405,1.1476316257418937,-0.05830800593836382,-0.7076838438587689
10.128325462341309,-0.16821127538579952,-0.08856105190083026,1.3074543709433073,1.1453667004546408,-0.05164161887830482,-0.7143505599454838
10.148400783538818,-0.1748780201169125,-0.08539787938027822,1.3141210376099741,1.1453675220328152,-0.044979743903019634,-0.7210177841171322
10.169132709503174,-0.17821141211041222,-0.08206501694773735,1.3174543709433075,1.1487014439227283,-0.041649974303794815,-0.7243515096692668
10.189267873764038,-0.18083460531928933,-0.07539910540156576,1.3241210376099743,1.1420356811770964,-0.034989003985421034,-0.731018765792312
10.209344148635864,-0.18729633472688187,-0.06980885579423474,1.3307877042766412,1.1353680439144238,-0.028315979930866958,-0.7376848187296262
10.229408264160156,-0.19396310442515488,-0.06314297803090471,1.337454370943308,1.1287022294938855,-0.02165514729795619,-0.7443520050278774
10.249584674835205,-0.19625087831192833,-0.0598100917324283,1.3407877042766414,1.1253693597014878,-0.01832509591858413,-0.7476856127367265
10.269636869430542,-0.19941002790415083,-0.05510130169822839,1.3474543709433082,1.1187027822374056,-0.011659018905882598,-0.7543523352749847
10.289686679840088,-0.2037334596700137,-0.054632713101229725,1.354121037609975,1.112035503227588,-0.004987684252370044,-0.7610186744845661
10.30975866317749,-0.2104002445660212,-0.0519932869920825,1.3607877042766419,1.1053695857530634,0.001672801042002391,-0.7676857239611647
10.330085039138794,-0.2137336318903802,-0.0486603474072819,1.3641210376099753,1.1020365738361773,0.005003353253426931,-0.7710192127115225
10.350509643554688,-0.2204004038629101,-0.04199444326331914,1.370787704276642,1.0953704939639048,0.011664675950669712,-0.7776861447196055
10.370393514633179,-0.22048366803544406,-0.03534775161249526,1.377454370943309,1.0887038703045397,0.018330799699663138,-0.7843528206256035
10.390472650527954,-0.22022433071630199,-0.04201441043971548,1.370787704276642,1.0820371863181697,0.024997527079466952,-0.791019474027948
10.410819292068481,-0.2268911028227379,-0.0468641790422524,1.3641210376099753,1.075370948536568,0.03165903334677912,-0.79768625659646
10.430983304977417,-0.2302244856893716,-0.04353120139958018,1.3607877042766419,1.0720377984376241,0.0349899469678229,-0.8010196271717696
10.451067924499512,-0.2367898905491031,-0.039363382722364955,1.3555987758823638,1.0653710832415773,0.04165751747125789,-0.8076862997461314
10.47120714187622,-0.24303220568265554,-0.035279852493189316,1.357262073660847,1.0640106351381675,0.04831963205485383,-0.8143529551768445
10.49135947227478,-0.246365582297089,-0.03194682936169503,1.3605954069941804,1.0657860882506809,0.051650875844022635,-0.8176862698925186
10.511499404907227,-0.2510892863390024,-0.02528106582374736,1.3672620736608472,1.0591196910982934,0.05831148405058968,-0.8243528443819701
10.531752824783325,-0.25124019156867067,-0.02102922776228132,1.373928740327514,1.0524528214277584,0.06498394844697543,-0.8310196560197272
10.551724195480347,-0.2579068586568594,-0.027695898441023745,1.3672620736608472,1.0457861381709666,0.07165059758032893,-0.837686306071554
10.571834802627563,-0.2645736442782125,-0.021030086707971535,1.373928740327514,1.050661148711422,0.07206007451012313,-0.844352723261916
10.59191107749939,-0.2679069098200188,-0.022957393494080224,1.3772620736608474,1.0473277643552914,0.07539659321527434,-0.8476861950185391
10.61226749420166,-0.27450909968136444,-0.02135992808893304,1.3839287403275142,1.0473277999848611,0.07539139702453378,-0.8543525889843855
10.632174015045166,-0.2811758801039808,-0.014694079567069512,1.390595406994181,1.0473278755780466,0.07538610162104437,-0.8610190141683346
10.652228832244873,-0.28568806252844386,-0.008027500639260759,1.3972620736608479,1.0406612267856963,0.08205219034190883,-0.8676856641044678
10.672332286834717,-0.28674907015335305,-0.004694526668323432,1.4005954069941813,1.037327899896964,0.08538323427301764,-0.8710188658534062
10.692748546600342,-0.28960221810113074,-0.011361347172461502,1.3939287403275145,1.030661209470905,0.09204893758742727,-0.8776854517574907
10.712584018707275,-0.2962688730604925,-0.0085282348597209,1.3872620736608476,1.0239945685324816,0.0987161347338982,-0.884352174994912
10.732695579528809,-0.302935538229736,-0.014312817049268558,1.3805954069941808,1.0173278840603481,0.10538287088268902,-0.8910188292824388
10.752789974212646,-0.30626892351763746,-0.010979863255279363,1.3839287403275142,1.0206611125726617,0.10204717817747684,-0.894351921115195
10.772858619689941,-0.3123332532807214,-0.0086939360395948,1.390595406994181,1.0206610990547873,0.10204732242623113,-0.9010185839697712
10.792949438095093,-0.31812459254144876,-0.00630406281562851,1.3972620736608479,1.020272269868681,0.10204277004855279,-0.9076848060816465
10.813010454177856,-0.32479135754254823,0.00036188897994750323,1.4039287403275147,1.0195890251416897,0.1020383372976247,-0.9143510739746277
10.833137273788452,-0.3281247357236002,0.003694895960484551,1.407262073660848,1.0162556267611342,0.10536965632187249,-0.9176842219615319
10.853274583816528,-0.33479127563897754,0.007198423847936661,1.413928740327515,1.0095891908300574,0.11204198672220353,-0.924351457247903
10.873364210128784,-0.34145795281353986,0.004119606651804008,1.4205954069941817,1.0029224826961398,0.118708196407365,-0.9310180557233295
10.893431186676025,-0.34812453134633176,0.005092103918862435,1.422587114174183,0.9962560495229497,0.11204540777487032,-0.924668190881189
10.913479566574097,-0.35145792059406156,0.00842502771268969,1.4259204475075165,0.9929225871098808,0.11136770625716028,-0.9265454667649315
10.933622360229492,-0.3581247078612767,0.015090812959824172,1.4325871141741833,0.9862556518806771,0.11408833082291014,-0.9249013705875392
10.953656673431396,-0.36479138132724337,0.021225332075107517,1.4354673836222436,0.9795889796249764,0.12075470176058711,-0.9186536460522742
10.973937273025513,-0.37145794798068993,0.023938287514399123,1.4317262927921643,0.972922627152192,0.12742565820087748,-0.9157896824666
10.994061708450317,-0.37479134910969664,0.024109764257536487,1.428392959458831,0.9695890467284203,0.13075608661491978,-0.9157893742637538
11.01415228843689,-0.38145801413106467,0.030163340564148242,1.4217262927921641,0.9629224037793679,0.1374228251714395,-0.9207064147034322
11.034223318099976,-0.3881247880292135,0.03682920113674437,1.4150596261254973,0.9562552288246168,0.14408488986137916,-0.9209986333028822
11.054622650146484,-0.39479155223756546,0.043495129867478236,1.4083929594588305,0.9495880345416643,0.15074736225586943,-0.9275443414489082
11.07485842704773,-0.3981248336941263,0.04016219101587331,1.405059626125497,0.9462550086908258,0.1540829301394454,-0.9248826914732794
11.09486722946167,-0.4047916127900463,0.04016133074111152,1.3983929594588302,0.9395876088338564,0.16074475507731503,-0.9258191005213342
11.114935159683228,-0.41145838265361545,0.04682720084324722,1.3917262927921634,0.9329201863165546,0.16740696656278245,-0.9258181011541603
11.135318994522095,-0.41812513729924666,0.053493182743953364,1.3850596261254966,0.9262528098006609,0.1740698214873496,-0.9255176996203495
11.15543246269226,-0.421458513427745,0.056826180700145314,1.3817262927921632,0.9229191051904337,0.17740129508539404,-0.9282477355545969
11.175536632537842,-0.4281251841119986,0.050159479478548555,1.3750596261254964,0.9162523712008549,0.18406778393678877,-0.9215809960457926
11.195684909820557,-0.43479193830661866,0.05682544675874893,1.368610923072578,0.9095848070395915,0.19073062446640773,-0.9282465770746394
11.21569275856018,-0.4281252701853679,0.05015878898752048,1.3619442564059112,0.9029181300138197,0.1973973505752426,-0.9349132388630111
11.23577880859375,-0.4307824014739822,0.05349176701564175,1.3586109230725778,0.9033163886291771,0.2007287685757985,-0.9382459621051413
11.255865573883057,-0.42984045193695836,0.05349169411535718,1.351944256405911,0.9003419095284296,0.20739504505238937,-0.9449125113364387
11.275949954986572,-0.4298405324334601,0.05272141830333544,1.3452775897392442,0.9003408111045542,0.21405809940151194,-0.9515779300165669
11.296345233917236,-0.43317383846168855,0.055029033664021086,1.3419442564059108,0.9036745363631233,0.21739267275789975,-0.9549117042758994
11.316440343856812,-0.42650717248319664,0.048362358900966955,1.335277589739244,0.897007840931208,0.22405930274360347,-0.961578342864907
11.336578607559204,-0.43317384728137553,0.04978074541159337,1.328610923072577,0.8903410583883443,0.230725598078775,-0.9682448791363577
11.356614589691162,-0.4265071816802577,0.043114066635383606,1.3219442564059103,0.8836743520589213,0.2373922080991403,-0.9749115068320698
11.376757860183716,-0.4298405455858626,0.04035596779128701,1.3186109230725769,0.8803404447590141,0.2407240998148423,-0.9782442250711899
11.396905660629272,-0.4365072734629193,0.03726893615301128,1.31194425640591,0.8736725564323271,0.247387854052508,-0.9849095957466778
11.416937112808228,-0.4428984570185066,0.04005784312440456,1.3052775897392432,0.8670048743593275,0.25405224018892364,-0.9915751971435416
11.43714427947998,-0.44623181621922864,0.0433909307841647,1.3019442564059098,0.8636709559168716,0.25738431688858493,-0.9949079213985109
11.457221984863281,-0.4395651482264617,0.03672427326160826,1.295277589739243,0.8570042945718213,0.26405103797151414,-1.0015745975764947
11.47730565071106,-0.4462318639691242,0.04339045401200727,1.2886109230725762,0.8503363678677501,0.27071526052271894,-1.0082399758877307
11.497382164001465,-0.43956519993503035,0.03672375704285377,1.2819442564059094,0.8436696033813205,0.27738178318519907,-1.0149065469237155
11.517499685287476,-0.44289855286034613,0.040056887269077114,1.278610923072576,0.8403356996026123,0.2807141124415781,-1.0182393065355235
11.537616729736328,-0.4428985579336124,0.04005683602003808,1.2719442564059091,0.8336688961264517,0.2873805235172176,-1.0249058343049329
11.55767273902893,-0.4428985854600566,0.04005653662388622,1.2652775897392423,0.827001324000223,0.29404573469595896,-1.0315716036098301
11.578342914581299,-0.44623193910410813,0.04338964477434527,1.261944256405909,0.8236672904189429,0.29737798028945533,-1.0349042466421272
11.598340511322021,-0.4395652700741727,0.036723002215777255,1.255277589739242,0.8170006913987305,0.304044766862315,-1.0415709816750964
11.618375778198242,-0.4462319279096239,0.04338951429584291,1.248610637057178,0.8103335672122777,0.3107108057183609,-1.0482379364926557
11.638477325439453,-0.4395652302348667,0.03672295404420854,1.2419436759330047,0.8036673222445669,0.317378088261461,-1.0549057952310696
11.658543348312378,-0.44623185908607477,0.04338958782452905,1.2352764549552053,0.7970006555779003,0.3240448214932714,-1.0615739788394665
11.67870283126831,-0.4428985426551554,0.04005626974751187,1.2319433726011184,0.793667322244567,0.3273781233833273,-1.0649066080374665
11.6987624168396,-0.4428985378007185,0.04005607176840081,1.2252764269760812,0.786999967366219,0.3340440025831125,-1.0715734206427565
11.719025611877441,-0.442898509865322,0.040056217020752995,1.2186095017919238,0.7803339343641885,0.34071143587513697,-1.0782414486925866
11.738956451416016,-0.4428985042479908,0.040056048401072686,1.2119425708058826,0.7736666530745726,0.3473774666858226,-1.084908349051234
11.759045600891113,-0.44623182346092793,0.04338936528139699,1.2086089923279302,0.7703333197412393,0.3507108385689375,-1.0882424562581483
11.77948784828186,-0.43956513416258286,0.03672281655891787,1.2019420754206334,0.7636672173652789,0.3573781448473196,-1.0949104627830477
