liuyurong129/humanoid-gym/humanoid/data/robot1_action_20250621-222223.csv
timestamp,joint_1,joint_2,joint_3,joint_4,joint_5,joint_6
0.0002760887145996094,0.0,0.0,0.0,0.0,0.0,0.0
0.020326852798461914,0.0,0.0,0.0,0.0,0.0,0.0
0.0404055118560791,0.0,0.0,0.0,0.0,0.0,0.0
0.060515403747558594,0.0,0.0,0.0,0.0,0.0,0.0
0.08057856559753418,0.0,0.0,0.0,0.0,0.0,0.0
0.1007375717163086,1.3298875,-0.9307179,0.7302446,2.5537727,1.8532199,0.943713
0.12099218368530273,1.3298875,-0.9307179,0.7302446,2.5537727,1.8532199,0.943713
0.140974760055542,2.166619,-1.1750451,1.2393839,3.1714823,3.2983763,2.3338108
0.1610424518585205,2.331102,-1.2051432,1.5678838,3.8393202,3.8249037,2.5039349
0.1811380386352539,2.386741,-1.292274,1.6111861,3.949044,4.0652485,2.2600992
0.20121312141418457,2.3476439,-1.3699856,1.6093442,3.9189343,4.038911,2.0489473
0.2213132381439209,2.330516,-1.4053622,1.5800158,3.8574996,4.01186,1.9808815
0.24135923385620117,2.3277743,-1.4277943,1.5376115,3.7874517,4.0154524,2.01305
0.261476993560791,2.3277743,-1.4277943,1.5376115,3.7874517,4.0154524,2.01305
0.2816903591156006,2.3311331,-1.4498712,1.4805688,3.710765,4.067444,2.126192
0.30173182487487793,2.336459,-1.4724183,1.4068321,3.6266868,4.166158,2.3052351
0.3219282627105713,2.3252826,-1.4970689,1.304299,3.5208554,4.3315015,2.5607333
0.34208202362060547,2.2606995,-1.5176483,1.0946178,3.3589613,4.53285,2.9331765
0.3620622158050537,2.1765509,-1.5347015,0.67462915,3.082673,4.7051826,3.3970428
0.3821144104003906,2.0071998,-1.5418025,-0.08122928,2.5622518,4.911812,4.097676
0.4025146961212158,1.8118862,-1.5750054,-0.59086746,2.0608296,5.2446766,5.140441
0.4226036071777344,1.8118862,-1.5750054,-0.59086746,2.0608296,5.2446766,5.140441
0.4426898956298828,1.6549511,-1.6324325,-1.253985,1.8282909,4.9051485,5.454755
0.4628329277038574,1.5946536,-1.5969806,-1.608044,1.7908435,4.742017,5.6483192
0.48284459114074707,1.5773785,-1.599142,-1.7070498,1.8717672,4.617121,5.5932684
0.5030429363250732,1.4597628,-1.6319717,-1.6787026,1.9228349,4.5047812,5.4788365
0.5231280326843262,1.0080973,-1.75735,-1.4606203,1.9972078,4.0392375,4.9691277
0.5432066917419434,0.2893267,-1.9685053,-1.0318106,2.0892355,3.4928608,4.3878765
0.5637412071228027,0.2893267,-1.9685053,-1.0318106,2.0892355,3.4928608,4.3878765
0.5838513374328613,-0.43173245,-2.159721,-0.5551675,2.1272264,2.9692636,4.1151104
0.6039209365844727,-0.6695683,-2.2644098,-0.03631238,2.3851132,2.9644063,3.684956
0.624032735824585,-0.9873167,-2.4872456,0.5092354,2.5708587,2.9067953,3.109877
0.6441075801849365,-0.91289544,-2.2285743,-0.11158595,2.5954041,3.347678,2.8131351
0.6641952991485596,-0.3407503,-2.4036117,0.5714771,2.643149,3.8043714,3.004098
0.6847198009490967,-0.5397488,-2.2229266,0.08491613,2.597847,3.5822227,2.399424
0.7048404216766357,-0.5397488,-2.2229266,0.08491613,2.597847,3.5822227,2.399424
0.7249119281768799,-0.8077207,-2.2825851,-0.03476032,2.5477693,3.3606062,2.295474
0.7450320720672607,-0.80659366,-2.5927372,0.7593221,2.6499114,3.341285,2.5292819
0.7661864757537842,-1.0515598,-2.486812,0.42136163,2.647018,3.1327336,1.8839496
0.7862658500671387,-0.8410646,-2.6012912,0.49113607,2.5874958,3.2539494,1.9642547
0.8063962459564209,-0.5645313,-2.5735412,0.5260662,2.5880995,3.307064,2.1563737
0.8264446258544922,-0.3328747,-2.4598556,0.45514005,2.546813,3.3852234,2.3701837
0.8465161323547363,-0.3328747,-2.4598556,0.45514005,2.546813,3.3852234,2.3701837
0.8666458129882812,-0.101279944,-2.3241215,0.28092945,2.444138,3.502929,2.6900592
0.8867354393005371,0.122752994,-2.1172419,-0.19818397,2.24675,3.6222064,3.285174
0.9069926738739014,-0.1278986,-2.4155188,0.25867555,2.0542758,3.2293932,4.1695075
0.9270999431610107,-0.21243474,-1.2749021,-0.84761053,2.5362492,2.4963465,2.8978539
0.9471697807312012,-0.8696123,-2.4379315,0.106663756,2.3717713,1.3211707,1.830316
0.9672496318817139,-0.8696123,-2.4379315,0.106663756,2.3717713,1.3211707,1.830316
0.9873373508453369,-1.7291452,-2.336801,-0.2425788,2.495984,1.1149496,1.9855857
1.0076866149902344,-2.1405184,-2.8744478,0.7332591,2.5106463,0.8317098,1.5791092
1.027620792388916,-2.435858,-2.7798243,0.25451854,2.4853134,1.0218238,1.6403216
1.0477235317230225,-2.3709073,-2.6521463,-0.11134719,2.505655,1.2257133,1.9449438
1.068110704421997,-2.107042,-2.8711324,0.6873066,2.5881786,1.3595461,1.9349262
1.0880165100097656,-1.6713767,-2.2736807,-0.19487926,2.5154326,0.9326176,1.9723821
1.1081807613372803,-1.8582047,-2.654295,0.54572123,2.5446963,0.35717788,1.5469891
1.128356695175171,-1.8582047,-2.654295,0.54572123,2.5446963,0.35717788,1.5469891
1.1483888626098633,-1.7937596,-2.2767806,-0.20781799,2.3960915,0.33195034,1.876181
1.168447732925415,-2.1519082,-2.7770696,0.54726875,2.458289,-0.36107394,1.1923128
1.188544750213623,-2.0445483,-2.5094519,-0.12437206,2.2313108,0.15578833,1.6732007
1.208721399307251,-1.9774553,-2.7892113,0.59897393,2.380402,0.16618183,1.3022346
1.2287068367004395,-1.452359,-2.321693,-0.21909644,2.1329236,0.77711743,1.8102114
1.2489426136016846,-1.452359,-2.321693,-0.21909644,2.1329236,0.77711743,1.8102114
1.26930570602417,-1.4773965,-2.611333,0.42956668,2.2907848,0.21520147,1.3839705
1.289919137954712,-1.5671561,-2.5429535,0.16591014,2.1600986,0.7853291,1.9671495
1.3099603652954102,-1.2921289,-1.9826566,-0.5356503,2.3221972,0.8540531,2.4978611
1.3302028179168701,-1.2921289,-1.9826566,-0.5356503,2.3221972,0.8540531,2.4978611
1.350271224975586,-1.1477457,-2.5117698,0.24617243,2.2769485,0.41122344,1.7776457
1.370284080505371,-1.3123865,-2.0522628,-0.4674586,2.1437764,0.7937878,2.5624568
1.3904192447662354,-1.1357629,-2.579193,0.19017383,2.0928497,0.76056224,2.5490332
1.4104664325714111,-1.3790268,-2.35996,0.011550227,1.9112418,0.65242624,1.3862157
1.430574893951416,-1.3790268,-2.35996,0.011550227,1.9112418,0.65242624,1.3862157
1.450650930404663,-1.4569508,-2.9004917,0.611214,2.119753,0.494062,0.31851324
1.4706952571868896,-1.8437626,-2.4859247,0.25322288,2.2254772,0.33993694,-0.5051696
1.4908108711242676,-1.4972954,-2.0396545,0.02144053,2.9032993,0.2655966,-0.3098121
1.5109097957611084,-0.95720357,-2.2141094,0.18184876,2.9906156,0.43646404,-0.23963885
1.5309925079345703,-0.9966097,-2.0590105,0.035875678,3.2514346,-0.35233882,-1.300382
1.5510385036468506,-0.9966097,-2.0590105,0.035875678,3.2514346,-0.35233882,-1.300382
1.5711803436279297,-1.0762408,-2.345428,0.26953772,3.4331498,-1.7429147,-2.6506586
1.5912072658538818,-1.3209848,-1.9685736,0.13907635,4.2506533,-3.0590212,-3.6901867
1.611581563949585,-0.65724874,-1.6784363,0.1539834,5.0007567,-3.7752151,-4.487452
1.631497859954834,-0.00707665,-1.5865031,0.2468515,5.3298593,-4.5780416,-4.97243
1.6516098976135254,-0.28451672,-1.4680183,0.23468807,5.738897,-4.833158,-5.665233
1.6716618537902832,0.34857225,-1.4302312,0.30616888,6.0315795,-5.482764,-5.352047
1.6920802593231201,0.34857225,-1.4302312,0.30616888,6.0315795,-5.482764,-5.352047
1.7122061252593994,0.35228392,-1.2525697,0.280644,6.37431,-5.4831147,-5.4887853
1.7322776317596436,0.19143483,-1.3069557,0.2821327,6.4494486,-5.568269,-5.7055006
1.7523515224456787,-0.45655918,-1.5994145,0.28308505,6.2818627,-5.622256,-6.0338993
1.7724597454071045,-0.9165946,-2.1096053,0.30555046,5.8376184,-5.743733,-6.149285
1.7925398349761963,-0.9650475,-1.7476631,0.32365704,6.2601585,-6.1916895,-6.224502
1.812586784362793,-0.5073845,-1.6241769,0.33825547,6.731218,-6.479508,-6.0556364
1.8327391147613525,-0.5073845,-1.6241769,0.33825547,6.731218,-6.479508,-6.0556364
1.8528084754943848,-0.34566033,-1.7739757,0.3433239,6.7607093,-6.507975,-6.0358152
1.8728785514831543,-0.31054857,-1.7787403,0.34820563,6.741093,-6.5053186,-5.992666
1.8931057453155518,-0.21396361,-1.730822,0.3543334,6.807273,-6.529632,-5.937112
1.913078784942627,-0.6362418,-1.7191678,0.34924597,6.9033947,-6.584562,-6.2118397
1.933164119720459,-0.5320857,-1.8631703,0.36314854,6.749618,-6.617146,-6.21957
1.9534125328063965,-0.5320857,-1.8631703,0.36314854,6.749618,-6.617146,-6.21957
1.973571538925171,-0.46990275,-1.8493396,0.3691857,6.760567,-6.6260457,-6.1503434
1.9936168193817139,-0.34221566,-1.7853642,0.3748432,6.8629413,-6.654981,-6.0900903
2.0137133598327637,-0.24384353,-1.7573514,0.37898272,6.96377,-6.6870255,-6.0620747
2.03381609916687,-0.57308596,-1.6849997,0.37738496,7.1376996,-6.8225627,-6.2774353
2.054036855697632,-0.57308596,-1.6849997,0.37738496,7.1376996,-6.8225627,-6.2774353
2.074154853820801,-0.09167841,-1.6069455,0.39669475,7.292127,-6.962216,-6.0485816
2.0943546295166016,-0.3707513,-1.6367534,0.38974237,7.4224925,-7.0398793,-6.21418
2.115105152130127,0.28445828,-1.4077468,0.41471577,7.729461,-7.2145085,-5.808656
2.1352076530456543,0.5188866,-1.2038696,0.41144675,8.163905,-7.247103,-5.642781
2.1553573608398438,0.89971536,-0.9973174,0.40375683,8.481425,-7.165158,-5.354868
2.1759190559387207,0.89971536,-0.9973174,0.40375683,8.481425,-7.165158,-5.354868
2.1960365772247314,1.032118,-1.0058281,0.42432088,8.554602,-7.2854,-5.20197
2.2161054611206055,1.0113724,-1.0114534,0.43399537,8.605123,-7.3749447,-5.1499586
2.237396240234375,1.1404239,-0.8317759,0.366838,8.721446,-6.993998,-5.060496
2.258307695388794,1.1404239,-0.8317759,0.366838,8.721446,-6.993998,-5.060496
2.2789294719696045,1.2658575,-0.7776374,0.3445698,8.732071,-6.8511004,-4.946562
2.2990314960479736,1.3289914,-0.82035065,0.3432855,8.632841,-6.695526,-4.825269
2.319114923477173,1.3263973,-0.80541635,0.34647995,8.6034155,-6.6693873,-4.754059
2.339179515838623,1.3263973,-0.80541635,0.34647995,8.6034155,-6.6693873,-4.754059
2.359262228012085,1.3379507,-0.78526413,0.3523066,8.622638,-6.70054,-4.7128825
2.3793447017669678,1.3577302,-0.7647642,0.36093897,8.661723,-6.762092,-4.684916
2.3995187282562256,1.3799667,-0.7453127,0.37170988,8.707292,-6.8386474,-4.6615734
2.41951584815979,1.4030222,-0.7275355,0.38362586,8.751932,-6.918272,-4.639732
2.4396324157714844,1.4241871,-0.7131495,0.39630795,8.7919855,-6.995647,-4.618541
2.4601807594299316,1.1815223,-1.0602705,0.45571023,8.569636,-6.9717298,-4.6993876
2.4803056716918945,1.1815223,-1.0602705,0.45571023,8.569636,-6.9717298,-4.6993876
2.5003631114959717,0.8786191,-1.1623487,0.4863686,8.419567,-7.0225,-4.761741
2.520598888397217,0.5845234,-1.2175763,0.50866026,8.3613825,-7.1310554,-4.871176
2.5407156944274902,0.64550304,-1.0989621,0.517657,8.487076,-7.3501062,-5.0602427
2.5607316493988037,0.75743175,-0.95338464,0.5298378,8.766076,-7.6213336,-5.1243844
2.5808193683624268,0.75743175,-0.95338464,0.5298378,8.766076,-7.6213336,-5.1243844
2.600904703140259,0.66386724,-0.94031614,0.54628646,9.008863,-7.8831444,-5.1447277
2.621349573135376,0.65058476,-0.92986095,0.55712396,9.165855,-8.038409,-5.158915
2.6411406993865967,0.6348865,-0.9213104,0.56427366,9.269069,-8.133851,-5.166865
2.6612374782562256,0.5993961,-0.91616625,0.56979513,9.339915,-8.203749,-5.177841
2.681321859359741,0.43449518,-0.99464965,0.58998424,9.378675,-8.331093,-5.2580705
2.702601194381714,0.43449518,-0.99464965,0.58998424,9.378675,-8.331093,-5.2580705
2.7227134704589844,0.26126978,-1.0143616,0.5996353,9.430427,-8.4455,-5.3401804
2.7428081035614014,0.16448453,-0.93961996,0.5879816,9.5557995,-8.547865,-5.3589544
2.76314115524292,0.21150306,-0.93885994,0.6055811,9.671035,-8.746566,-5.47209
2.7832345962524414,0.06869474,-1.0059108,0.62157774,9.785628,-8.907369,-5.575582
2.8033487796783447,-0.143697,-1.0800686,0.63762563,9.85534,-9.080035,-5.682161
2.8233869075775146,-0.36474922,-1.13926,0.65047354,9.89705,-9.240649,-5.7981224
2.8434624671936035,-0.36474922,-1.13926,0.65047354,9.89705,-9.240649,-5.7981224
2.863560199737549,-0.0017327954,-1.0763838,0.6742566,10.031352,-9.512573,-5.577208
2.8836357593536377,-0.38275996,-1.2107587,0.6709904,9.9649,-9.393757,-5.742697
2.9037585258483887,-0.14351448,-1.1311336,0.69213194,10.090012,-9.653719,-5.6035357
2.9238240718841553,-0.5847843,-1.2680954,0.6874419,10.023819,-9.553771,-5.8166075
2.9439191818237305,-0.356074,-1.1900064,0.7099857,10.14935,-9.828468,-5.7056
2.9646806716918945,-0.20742252,-1.1960921,0.7179558,10.197562,-9.854546,-5.603172
2.9848015308380127,-0.20742252,-1.1960921,0.7179558,10.197562,-9.854546,-5.603172
3.004892587661743,-0.7758541,-1.3297836,0.71107227,10.093758,-9.740198,-5.8643026
3.024984359741211,-0.59878826,-1.2523862,0.73442733,10.230908,-10.048176,-5.8098874
3.0450565814971924,-0.47714826,-1.2606066,0.74162203,10.294414,-10.098855,-5.738908
3.0651423931121826,-0.44300833,-1.2573196,0.7475495,10.337494,-10.12023,-5.697476
3.085261821746826,-0.509677,-1.2471455,0.7444747,10.479501,-10.19643,-5.72052
3.105740547180176,-0.49551865,-1.220737,0.7491042,10.702033,-10.377949,-5.7707505
3.1257851123809814,-0.49551865,-1.220737,0.7491042,10.702033,-10.377949,-5.7707505
3.1458780765533447,-0.19164893,-1.129952,0.74871665,10.830935,-10.390936,-5.7313743
3.166759967803955,-0.25491264,-1.1867772,0.73265857,10.607371,-10.015353,-5.8460073
3.1867775917053223,-0.42747167,-1.3423302,0.7587074,10.156919,-9.778023,-5.803335
3.2068657875061035,-0.42062393,-1.2128332,0.7659364,10.524518,-10.14286,-5.782398
3.227468967437744,-0.54363394,-1.2844921,0.77302104,10.71538,-10.376756,-5.832006
3.247570514678955,-0.54363394,-1.2844921,0.77302104,10.71538,-10.376756,-5.832006
3.2676591873168945,-0.48658565,-1.2815112,0.7760735,10.804047,-10.468487,-5.8089046
3.28804087638855,-0.4030532,-1.2478799,0.78157634,10.879539,-10.549183,-5.747447
3.308138608932495,-0.43034765,-1.2138804,0.78869027,11.035157,-10.695944,-5.7359076
3.3283333778381348,-0.4060879,-1.1865212,0.79615134,11.167638,-10.801043,-5.6920137
3.3485898971557617,-0.22520733,-1.0503588,0.80065477,11.261666,-10.835706,-5.474095
3.368617057800293,-0.22520733,-1.0503588,0.80065477,11.261666,-10.835706,-5.474095
3.3887062072753906,-0.5749306,-1.1145809,0.7817486,11.2726145,-10.788377,-5.701191
3.4093971252441406,-0.17993978,-1.0062475,0.80399173,11.356699,-10.888174,-5.4431577
3.4294774532318115,-0.45802215,-1.0587121,0.7782465,11.298486,-10.8025,-5.6815925
3.449890375137329,-0.09675869,-0.96754014,0.7991094,11.340437,-10.862057,-5.404228
3.4702506065368652,-0.3737432,-1.0245643,0.78144103,11.355892,-10.805351,-5.6344714
3.4903252124786377,-0.3737432,-1.0245643,0.78144103,11.355892,-10.805351,-5.6344714
3.510425329208374,-0.38318357,-0.9888528,0.7903719,11.409036,-10.89398,-5.6326017
3.5305371284484863,-0.28606656,-0.966439,0.7941012,11.448626,-10.920633,-5.5881042
3.5506086349487305,-0.4605042,-0.9956323,0.792114,11.464494,-10.941649,-5.7105427
3.570681095123291,-0.18280086,-0.9781525,0.8292269,11.490477,-11.063955,-5.444529
3.590782642364502,-0.43856218,-1.01871,0.8065228,11.465561,-10.95198,-5.6596274
3.6114118099212646,-0.43856218,-1.01871,0.8065228,11.465561,-10.95198,-5.6596274
3.63151478767395,-0.1721386,-0.9657435,0.833487,11.50944,-11.082798,-5.4208403
3.6516306400299072,-0.49196473,-1.0559455,0.8296979,11.483628,-11.01479,-5.650819
3.6716952323913574,-0.19820365,-0.97083306,0.8471096,11.543795,-11.164562,-5.444862
3.692103147506714,-0.5150772,-1.0646288,0.841724,11.536637,-11.083938,-5.67255
3.712000846862793,-0.27712837,-1.0212457,0.86672276,11.60782,-11.233688,-5.496273
3.73201847076416,-0.5746485,-1.0788932,0.8583414,11.608424,-11.199633,-5.725665
3.752103328704834,-0.5746485,-1.0788932,0.8583414,11.608424,-11.199633,-5.725665
3.7722201347351074,-0.1935347,-0.9582063,0.862361,11.610493,-11.241898,-5.408285
3.792320728302002,-0.37273887,-1.0059967,0.8453077,11.555679,-11.120888,-5.5836396
3.8123974800109863,-0.48080376,-0.9886212,0.83702046,11.54493,-11.122002,-5.611459
3.8324697017669678,-0.22260138,-1.0166291,0.8822816,11.659976,-11.279062,-5.4693213
3.852573871612549,-0.62455195,-1.1417823,0.89294165,11.6894865,-11.329617,-5.7871237
3.8737030029296875,-0.62455195,-1.1417823,0.89294165,11.6894865,-11.329617,-5.7871237
3.8939805030822754,-0.38865426,-1.0583099,0.9094173,11.762747,-11.478592,-5.5995817
3.9139652252197266,-0.74358404,-1.1659975,0.9093903,11.773358,-11.479,-5.8659835
3.93402361869812,-0.47170535,-1.0782756,0.9260196,11.839791,-11.601454,-5.656659
3.9541146755218506,-0.37267753,-1.1041054,0.93394405,11.856719,-11.578148,-5.6143937
3.974252462387085,-0.7682486,-1.1931317,0.9293633,11.8623705,-11.579493,-5.853328
3.995103359222412,-0.50330794,-1.104897,0.948397,11.931915,-11.704841,-5.64843
4.015294551849365,-0.50330794,-1.104897,0.948397,11.931915,-11.704841,-5.64843
4.0353169441223145,-0.30011824,-1.1180937,0.95897186,11.95089,-11.686302,-5.52519
4.055396318435669,-0.7296711,-1.229189,0.94921,11.949632,-11.663845,-5.7921276
4.075479745864868,-0.41495457,-1.0826683,0.96377987,12.022977,-11.786623,-5.575769
4.095568895339966,-0.7734777,-1.2447177,0.9606481,12.020428,-11.752689,-5.826041
4.1156861782073975,-0.38807562,-1.0701764,0.97231424,12.0967455,-11.859778,-5.557458
4.13628888130188,-0.7609829,-1.2651615,0.9714506,12.070556,-11.801399,-5.807258
4.156376361846924,-0.7609829,-1.2651615,0.9714506,12.070556,-11.801399,-5.807258
4.1764960289001465,-0.36710748,-1.0753447,0.9832647,12.152383,-11.911402,-5.524718
4.196563720703125,-0.74506086,-1.2773268,0.98107857,12.113974,-11.850815,-5.7809105
4.216655731201172,-0.36351362,-1.0911676,0.99525785,12.199426,-11.957176,-5.4978404
4.236758232116699,-0.7623381,-1.3006878,0.9923002,12.146948,-11.894098,-5.762673
4.25683856010437,-0.38810083,-1.1106062,1.0078644,12.24026,-12.009647,-5.484083
4.276907682418823,-0.38810083,-1.1106062,1.0078644,12.24026,-12.009647,-5.484083
4.297003984451294,-0.80064666,-1.3278865,1.0041175,12.176526,-11.944872,-5.75516
4.317090749740601,-0.42961708,-1.13303,1.0208508,12.277914,-12.06757,-5.4791484
4.337180852890015,-0.8140963,-1.3315452,1.0124612,12.20678,-12.001226,-5.7454987
4.357396841049194,-0.43418226,-1.1445544,1.030486,12.309325,-12.108118,-5.4535513
4.377532958984375,-0.77944475,-1.3170352,1.0170782,12.22607,-12.036264,-5.7251244
4.397725343704224,-0.4053305,-1.1522229,1.037592,12.329637,-12.122057,-5.409676
4.418023347854614,-0.4053305,-1.1522229,1.037592,12.329637,-12.122057,-5.409676
4.438076734542847,-0.77501696,-1.3284763,1.023817,12.222955,-12.05312,-5.7036543
4.4581053256988525,-0.40697977,-1.1622149,1.0447245,12.336148,-12.135679,-5.3737707
4.478169679641724,-0.7506004,-1.3290197,1.0303745,12.227717,-12.067848,-5.6668096
4.498257398605347,-0.37898436,-1.1646504,1.0484558,12.334814,-12.132055,-5.31875
4.518415212631226,-0.7323354,-1.344047,1.0376309,12.225222,-12.063484,-5.6206446
4.538750410079956,-0.7323354,-1.344047,1.0376309,12.225222,-12.063484,-5.6206446
4.559123516082764,-0.36309972,-1.1734343,1.053358,12.328802,-12.125059,-5.262435
4.5790510177612305,-0.7080756,-1.3554407,1.0446613,12.22109,-12.056255,-5.5683007
4.599082708358765,-0.33906093,-1.1814923,1.0572413,12.315063,-12.108868,-5.1975513
4.619275331497192,-0.6831601,-1.3703592,1.0515832,12.206185,-12.037922,-5.509175
4.639307498931885,-0.28124776,-1.1581625,1.0445728,12.230386,-12.016681,-5.0724983
4.6594016551971436,-0.5955454,-1.3443745,1.0365971,12.056174,-11.870176,-5.381137
4.679535388946533,-0.5955454,-1.3443745,1.0365971,12.056174,-11.870176,-5.381137
4.699617147445679,-0.19757846,-1.157079,1.0370666,12.129422,-11.879785,-4.9305797
4.719732999801636,-0.4871513,-1.3406358,1.0325768,11.976097,-11.749331,-5.242718
4.739825248718262,-0.6746537,-1.2905174,1.0157483,11.912639,-11.775106,-5.2880764
4.759906768798828,-0.15284601,-1.1521151,1.0257131,12.003732,-11.759052,-4.8243847
4.780016660690308,-0.39273152,-1.3375118,1.0295268,11.891341,-11.666649,-5.1170006
4.8001086711883545,-0.5661331,-1.2938741,1.0144243,11.79745,-11.679338,-5.1343803
4.820282697677612,-0.5661331,-1.2938741,1.0144243,11.79745,-11.679338,-5.1343803
4.840306043624878,-0.35700145,-1.2550398,1.0343181,11.834731,-11.695323,-4.896001
4.860384225845337,-0.5663814,-1.3637089,1.0257096,11.680879,-11.578178,-5.0693216
4.880934476852417,-0.38937917,-1.2735707,1.0334243,11.714944,-11.606863,-4.817495
4.920875787734985,-0.38937917,-1.2735707,1.0334243,11.714944,-11.606863,-4.817495
4.940906047821045,-0.56642616,-1.3811795,1.0234143,11.548109,-11.475336,-4.9720745
4.961023807525635,-0.45227912,-1.3302224,1.036907,11.56119,-11.490283,-4.7480326
4.981174945831299,-0.60400724,-1.4085206,1.0236651,11.402468,-11.369993,-4.878788
5.001263856887817,-0.30028614,-1.3259048,1.0492543,11.478578,-11.403555,-4.4888988
5.02163028717041,-0.43709412,-1.4294486,1.0257653,11.294482,-11.212201,-4.6681924
5.04182767868042,-0.43709412,-1.4294486,1.0257653,11.294482,-11.212201,-4.6681924
5.063324213027954,-0.693446,-1.4627758,1.0276676,11.214984,-11.248951,-4.7889977
5.083674430847168,-0.32696995,-1.3560567,1.0549818,11.318978,-11.300798,-4.370966
5.103866338729858,-0.32696995,-1.3560567,1.0549818,11.318978,-11.300798,-4.370966
5.123998641967773,-0.4320446,-1.471615,1.0363692,11.170997,-11.137026,-4.5690284
5.143967151641846,-0.6115508,-1.4840342,1.023493,11.015706,-11.057371,-4.573599
5.164060115814209,-0.20632258,-1.3770069,1.0550891,11.121888,-11.073448,-4.1080365
5.184139013290405,-0.26226476,-1.4971784,1.0294045,10.904842,-10.833721,-4.237765
5.204296827316284,-0.41601232,-1.5187225,1.0169836,10.727974,-10.715841,-4.215249
5.224522829055786,-0.48752895,-1.540751,1.0142182,10.589145,-10.628082,-4.18174
5.244600772857666,-0.48752895,-1.540751,1.0142182,10.589145,-10.628082,-4.18174
5.264787435531616,-0.48229346,-1.548777,1.010767,10.506062,-10.539549,-4.1189327
5.2849180698394775,-0.4477528,-1.5579926,1.0093509,10.4131155,-10.4461,-4.0350394
5.3052077293396,-0.4415614,-1.5852782,1.0127301,10.269534,-10.340086,-3.9392846
5.32533597946167,-0.4406508,-1.6135958,1.0167319,10.137712,-10.228884,-3.8345644
5.345380783081055,-0.43483296,-1.6415839,1.0222186,10.022909,-10.130459,-3.7314758
5.365472316741943,-0.40105334,-1.6604384,1.025355,9.950166,-10.035935,-3.6250648
5.38557767868042,-0.40105334,-1.6604384,1.025355,9.950166,-10.035935,-3.6250648
5.40568733215332,0.005262465,2.1051655,1.2700564,4.2334476,-6.4756866,0.033715803
5.425915241241455,2.4447062,7.5286303,0.71867114,-0.450304,0.06837866,5.0410023
5.446882247924805,2.438677,8.605934,-1.4885076,-2.3750439,2.4225295,6.24348
5.467003345489502,2.5037243,6.6997075,-1.9261291,-2.5906224,2.795206,5.146859
5.487065076828003,2.3250916,2.2989707,-2.992086,-1.6827524,2.2175362,2.7493267
5.507143974304199,1.5878268,0.33203107,-2.2612348,-0.11662048,1.5742953,1.4440613
5.527541160583496,1.5878268,0.33203107,-2.2612348,-0.11662048,1.5742953,1.4440613
5.547559022903442,0.7096857,0.30844665,-2.1875706,0.48356336,0.6495958,1.1047602
5.567664861679077,0.42264488,1.3730742,-2.10475,1.3777105,-0.83554465,1.1254467
5.587786436080933,0.70562416,1.0426564,-1.86818,3.1054223,-1.9749123,0.077969626
5.607915878295898,0.6283432,0.8046361,-1.2321355,4.62152,-3.854302,-0.39920357
5.627966642379761,0.22480717,-0.3926733,-0.19826084,6.686957,-6.182244,-1.2524648
5.648306369781494,-0.047924012,-0.92279536,0.87851447,7.7531133,-8.264611,-1.4867876
5.668212413787842,-0.047924012,-0.92279536,0.87851447,7.7531133,-8.264611,-1.4867876
5.688649892807007,0.18175942,-1.0403335,1.2464912,8.317875,-8.717926,-1.3755825
5.708527326583862,0.13214692,-1.9520774,1.1324016,8.760053,-8.671251,-2.0546553
5.728602886199951,-0.22486573,-1.9427271,1.0604398,8.943692,-8.97377,-2.5011744
5.748709678649902,0.13372192,1.9689542,1.260712,3.7429867,-5.6777587,0.34177908
5.768778324127197,2.348088,7.194985,0.6884831,-0.7299464,0.66221696,4.848719
5.788855314254761,2.5668962,8.099064,-1.4076784,-2.3955903,2.4647028,6.124482
5.809305906295776,2.5668962,8.099064,-1.4076784,-2.3955903,2.4647028,6.124482
5.829132795333862,2.5682418,6.175091,-1.8090314,-2.432628,2.6434884,4.961666
5.849228382110596,2.2383308,2.0198393,-2.8695698,-1.6518497,2.1387658,2.725222
5.869503736495972,1.4686952,0.16922432,-2.1746294,-0.32729596,1.5806485,1.4505663
5.889423608779907,0.56599873,0.25703102,-2.1441798,-0.013301525,0.7801506,1.166465
5.909508943557739,0.42482188,1.0847312,-2.1983664,0.60186124,-0.09440389,1.0425215
5.929570436477661,0.42482188,1.0847312,-2.1983664,0.60186124,-0.09440389,1.0425215
5.949692010879517,0.18185908,0.017122626,-1.9651737,2.0063567,-1.1095343,-0.2820627
5.969854831695557,0.17072496,0.6218842,-1.4330206,4.3155017,-3.9241471,-0.5468304
5.989902973175049,0.15534493,-0.90729916,-0.044903792,6.7267847,-6.2267222,-1.7202919
6.010020971298218,0.14826688,-2.0509572,0.9281224,7.6764765,-7.5113473,-1.3406067
6.030091285705566,-0.4865068,-2.277021,1.077071,8.366528,-8.477295,-2.25096
6.050161600112915,-0.14297274,-1.8168372,1.0728742,9.463021,-9.250289,-2.3670108
6.070242881774902,-0.14297274,-1.8168372,1.0728742,9.463021,-9.250289,-2.3670108
6.090407371520996,-0.3983142,-1.8870703,1.0066795,9.27897,-9.288227,-3.1444855
6.110469818115234,-0.7570306,-2.0551434,0.85350484,8.623954,-8.823669,-2.5177426
6.130530834197998,-0.8823436,-1.241883,0.81715024,7.4739385,-8.662846,-1.4334425
6.150631666183472,-0.56756365,-1.8450226,0.75735384,7.690936,-8.307985,-1.5044006
6.170710563659668,-0.13133907,-2.0797505,1.0781075,7.788032,-8.164309,-1.1880004
6.19079852104187,-0.53726643,-2.1055365,0.76545876,7.3200946,-7.767837,-1.4191717
6.211056232452393,-0.53726643,-2.1055365,0.76545876,7.3200946,-7.767837,-1.4191717
6.231217622756958,-0.1143731,-2.0137196,0.95883745,7.4785523,-7.873737,-0.90085053
6.251269340515137,-0.45150167,-2.007864,0.7419276,7.196029,-7.619148,-1.3957262
6.271371126174927,0.087340176,-2.0626998,1.0821794,7.449885,-7.7415504,-0.75388503
6.291449069976807,-0.5079709,-2.0926733,1.1277448,7.8529,-8.2201805,-1.6698527
6.311524868011475,-0.08419207,-1.9213544,1.1713353,8.765162,-8.924299,-1.6933854
6.331578016281128,-0.1748684,-2.0756743,1.098569,8.654276,-8.920387,-2.2790778
6.351660966873169,-0.1748684,-2.0756743,1.098569,8.654276,-8.920387,-2.2790778
6.37176775932312,-0.41826627,-2.0579107,1.0707668,8.554391,-8.911341,-2.485375
6.391852378845215,-0.4506577,-2.00981,1.1110429,8.723507,-9.170085,-2.3670418
6.412652254104614,-0.2752067,-1.9294744,1.1854514,8.92356,-9.393147,-2.085827
6.432784795761108,-0.48265103,-2.1824064,1.1326792,8.587891,-9.091089,-2.3687124
6.4528210163116455,-0.4005377,-1.9701688,1.2077712,8.72206,-9.320984,-1.9108734
6.472925186157227,0.26190665,2.1211343,1.3195192,3.6721795,-5.2598968,0.7587212
6.493013620376587,0.26190665,2.1211343,1.3195192,3.6721795,-5.2598968,0.7587212
6.513107061386108,2.388849,7.1101723,0.6831895,-0.6464844,1.0195819,4.7145367
6.533213138580322,2.6966345,8.180823,-1.4498678,-2.298034,2.6504247,6.1570444
6.553761005401611,2.6402948,6.466365,-1.8442808,-2.3123975,2.8086317,5.2638006
6.573864221572876,2.5950916,5.921751,-1.6909448,-2.6685667,2.6836798,5.2013245
6.5939459800720215,2.5871909,6.0368576,-1.6860375,-2.7930946,2.559869,5.237038
6.614042043685913,2.2159238,7.6487155,-1.8142403,-4.857348,3.1658697,6.114939
6.635234117507935,2.2159238,7.6487155,-1.8142403,-4.857348,3.1658697,6.114939
6.6552863121032715,2.5177233,7.0323386,-2.264218,-4.6707687,2.9262154,5.579161
6.67539644241333,2.4094565,6.835579,-2.2159617,-4.7896695,2.7025712,5.3484135
6.695461988449097,2.4193656,6.851191,-2.2784305,-4.7882075,2.5957406,5.373246
6.71555233001709,2.4202268,6.802189,-2.3040404,-4.790229,2.5572836,5.360444
6.735643148422241,2.4186456,6.741056,-2.3107038,-4.796374,2.5244453,5.3461123
6.755744695663452,2.4094663,6.6854315,-2.3122115,-4.7986307,2.4920623,5.322647
6.776097297668457,2.4094663,6.6854315,-2.3122115,-4.7986307,2.4920623,5.322647
6.796489238739014,2.3983626,6.6337976,-2.3099957,-4.7995095,2.464014,5.298562
6.816485166549683,2.386852,6.58388,-2.305622,-4.799729,2.4391418,5.275568
6.836504220962524,2.3747916,6.5350065,-2.299714,-4.7995396,2.4160984,5.252713
6.856877088546753,2.3622944,6.4869967,-2.2927208,-4.7989807,2.3941698,5.2299557
6.876742839813232,2.3494608,6.439679,-2.284951,-4.798092,2.373062,5.2073555
6.896868705749512,2.3363662,6.3928633,-2.2765815,-4.796914,2.3525932,5.184906
6.916975021362305,2.3230495,6.346404,-2.2677264,-4.7954793,2.3326175,5.162571
6.937034845352173,2.3095376,6.3002024,-2.2584643,-4.793806,2.3130288,5.140314
6.957127332687378,2.3095376,6.3002024,-2.2584643,-4.793806,2.3130288,5.140314
6.977216005325317,2.507367,4.426484,-1.9811093,-2.9531226,1.5714072,4.2261505
6.997369766235352,2.2807271,4.9312015,-1.4438454,-3.1533432,1.9738408,4.6815157
7.017409324645996,2.3564513,5.0684414,-1.4266192,-2.8676202,2.1560159,4.8190145
7.037538290023804,2.2872574,4.990076,-1.3131965,-2.831631,2.3034155,4.6497765
7.057842969894409,2.2642972,4.9052315,-1.2487451,-2.8036,2.326965,4.5945024
7.077723741531372,2.22343,4.858989,-1.2050151,-2.792139,2.3346217,4.5420103
7.097881555557251,2.1969912,4.8182993,-1.1697667,-2.7872913,2.3429549,4.507164
7.117911338806152,2.1969912,4.8182993,-1.1697667,-2.7872913,2.3429549,4.507164
7.138047695159912,2.1737878,4.7716594,-1.1389557,-2.785667,2.3475568,4.473444
7.158126592636108,2.1486633,4.7236986,-1.1097785,-2.7876143,2.3495717,4.438345
7.178253889083862,2.1227834,4.6773148,-1.0814091,-2.79125,2.350811,4.40382
7.198312997817993,2.0964983,4.632391,-1.0536166,-2.795483,2.3519695,4.3697634
7.218493938446045,2.0696838,4.5884466,-1.0263613,-2.8000638,2.3531928,4.3358126
7.2387261390686035,2.042248,4.545368,-0.99945134,-2.8050203,2.3545482,4.301944
7.258766412734985,2.0142672,4.5031786,-0.97282356,-2.810313,2.3560786,4.2682085
7.27883768081665,1.9859316,4.461799,-0.9463385,-2.8161323,2.3579237,4.234714
7.299184560775757,1.9859316,4.461799,-0.9463385,-2.8161323,2.3579237,4.234714
7.319267749786377,1.9574492,4.421106,-0.91989046,-2.8226447,2.360143,4.2015324
7.339386701583862,1.9288545,4.3810043,-0.8934211,-2.8297803,2.3626652,4.168537
7.359531879425049,1.9001412,4.3414493,-0.8668321,-2.8374662,2.3654904,4.1356235
7.379570960998535,1.871326,4.3024273,-0.8400199,-2.8456514,2.3686647,4.102724
7.399658441543579,1.8430818,4.2640185,-0.81297714,-2.8542924,2.3725302,4.0701485
7.419731140136719,1.815761,4.226113,-0.78574383,-2.86336,2.3770947,4.038085
7.439815998077393,1.7892799,4.1885314,-0.75825614,-2.8728008,2.382199,4.006399
7.459974050521851,1.7892799,4.1885314,-0.75825614,-2.8728008,2.382199,4.006399
7.480089426040649,1.7635411,4.1511855,-0.730306,-2.8825078,2.3878207,3.9749389
7.500158786773682,1.7389914,4.1205244,-0.6988742,-2.871894,2.3824522,3.9343922
7.52025032043457,1.7227727,4.1133385,-0.6597171,-2.7946103,2.3457258,3.8772454
7.540393114089966,1.709577,4.0794034,-0.64882296,-2.8458288,2.3783295,3.9157028
7.560463190078735,1.7024186,4.0852036,-0.58976394,-2.6355107,2.2901917,3.763837
7.580547094345093,1.6858189,4.020234,-0.6125181,-2.8373084,2.3847046,3.9331686
7.600643157958984,1.6668291,3.992435,-0.5517034,-2.6315246,2.3015635,3.7067814
7.6207146644592285,1.6487386,3.9487476,-0.5497845,-2.7501214,2.3334634,3.835429
7.641091346740723,1.6487386,3.9487476,-0.5497845,-2.7501214,2.3334634,3.835429
7.661178112030029,1.6423702,3.9311566,-0.50421685,-2.5959313,2.282895,3.6880817
7.681323051452637,1.6303089,3.8968225,-0.48838133,-2.6142554,2.2780116,3.7407844
7.701355695724487,1.6226099,3.8658652,-0.4604623,-2.5360463,2.2555983,3.67458
7.721653461456299,1.6120993,3.8268423,-0.4353652,-2.5000699,2.2360747,3.665728
7.741777658462524,1.599283,3.781674,-0.4149751,-2.4732327,2.227631,3.6443467
7.761813402175903,1.5842371,3.7288823,-0.3904004,-2.4481242,2.2182307,3.6166763
7.781893253326416,1.5694467,3.6756325,-0.36249864,-2.4206378,2.2079422,3.5880413
7.802178859710693,1.5694467,3.6756325,-0.36249864,-2.4206378,2.2079422,3.5880413
7.822290420532227,1.5552332,3.6227908,-0.3322949,-2.389594,2.198081,3.5588942
7.842352390289307,1.5413222,3.569049,-0.30009875,-2.3548136,2.1886885,3.529196
7.862731456756592,1.5275695,3.5134068,-0.26572317,-2.316043,2.1794002,3.498846
7.882725954055786,1.5139413,3.4551568,-0.22899944,-2.2731094,2.1698942,3.4677966
7.902817726135254,1.5004331,3.3944092,-0.19024146,-2.2262516,2.1599865,3.4365041
7.92297887802124,1.4863466,3.3337326,-0.15093932,-2.1777208,2.150384,3.4059854
7.943052530288696,1.4718931,3.2737746,-0.112553425,-2.129271,2.141249,3.376729
7.963089942932129,1.4570909,3.2135391,-0.07522506,-2.0814033,2.1319654,3.3482893
7.983196496963501,1.4570909,3.2135391,-0.07522506,-2.0814033,2.1319654,3.3482893
8.003283023834229,1.4244107,3.1236434,-0.09385321,-2.0381215,1.9394839,3.3685389
8.023369550704956,1.4246141,3.0441804,-0.081752725,-2.225001,2.140213,3.418344
8.043418169021606,1.3553895,2.9388638,-0.12799671,-2.0915475,1.741494,3.368284
8.063570022583008,1.3777449,2.8316312,-0.09902752,-2.362742,2.05451,3.4614224
8.08361530303955,1.3335265,2.818421,0.05485528,-2.11902,2.067187,3.1202145
8.103724002838135,1.3393618,2.7614937,0.041887753,-1.9443378,1.6461,3.3044047
8.123781681060791,1.3776672,2.5816565,-0.041405626,-2.2736442,2.0086715,3.3213089
8.143914937973022,1.3776672,2.5816565,-0.041405626,-2.2736442,2.0086715,3.3213089
8.164005041122437,1.2441087,2.5271811,0.07788166,-2.0283117,1.6083627,3.1746104
8.185583353042603,1.3759987,2.542863,0.05635392,-1.9934399,1.8325444,3.1749668
8.205662965774536,1.3759987,2.542863,0.05635392,-1.9934399,1.8325444,3.1749668
8.225805759429932,1.2531035,2.5594487,0.22596991,-1.8571373,1.8365316,3.056653
8.24587106704712,1.284719,2.5535674,0.18566138,-1.7682225,1.5682478,3.26326
8.266059875488281,1.3473709,2.4387345,0.08512553,-1.8496866,1.814871,3.1220627
8.286043643951416,1.2210087,2.297832,0.21624482,-1.7622004,1.4623227,3.1385827
8.306135416030884,1.2210087,2.297832,0.21624482,-1.7622004,1.4623227,3.1385827
8.326246738433838,1.3006775,2.2381964,0.15630049,-1.8578179,1.7368587,3.090366
8.346321821212769,1.1947837,2.1552396,0.30557987,-1.7030602,1.4166008,3.0791216
8.366411209106445,1.2500398,2.5155983,0.05718424,-1.7276096,1.9237323,3.1010134
8.386733055114746,1.1395447,2.219046,0.26527065,-1.7629361,1.7390507,2.9633026
8.406678438186646,1.1735965,2.1170483,0.37698373,-1.6229007,1.6085742,2.9495807
8.426735162734985,1.0778149,2.5194812,-0.10672367,-1.4442457,1.9193338,2.9671514
8.446829795837402,1.068206,2.1189795,0.18966606,-1.8169632,1.7649142,3.0502548
8.466906309127808,1.068206,2.1189795,0.18966606,-1.8169632,1.7649142,3.0502548
8.486991167068481,1.0928745,1.940174,0.38074642,-1.6533694,1.6702411,2.8203254
8.507088661193848,1.0017091,2.2886858,-0.1123142,-1.4895076,1.7761351,2.8881922
8.527441263198853,1.0318999,1.9255193,0.21382552,-1.8088425,1.6565366,2.9975045
8.54744267463684,1.063588,1.5906962,0.34993583,-1.6399533,1.5487483,2.6497364
8.567447662353516,0.8615365,2.068787,-0.049849965,-1.4980457,1.6911749,2.7429001
8.587594270706177,1.0075421,1.6646212,0.2123484,-1.8058372,1.5828246,2.8657446
8.607816219329834,0.9788269,1.3288532,0.44866145,-1.5561231,1.4406145,2.5191123
8.627910137176514,0.9788269,1.3288532,0.44866145,-1.5561231,1.4406145,2.5191123
8.647993326187134,0.79404724,1.8884376,0.044990353,-1.4063194,1.6411632,2.6352282
8.66811466217041,0.9650148,1.4660906,0.25661647,-1.7197486,1.5296063,2.7528834
8.688210010528564,0.97103477,1.2177086,0.2782517,-1.5660725,1.228433,2.6317353
8.70830774307251,0.8235494,1.5908839,0.21285152,-1.7366035,1.7474332,2.6562445
8.728394508361816,0.9665399,1.1444839,0.5071815,-1.4815743,1.2295628,2.7241356
8.748564958572388,0.7973782,1.8366035,0.04347699,-1.2978433,1.8218634,2.5732265
8.76867151260376,0.7973782,1.8366035,0.04347699,-1.2978433,1.8218634,2.5732265
8.788755416870117,0.7924512,1.3187608,0.43694252,-1.5027258,1.5797025,2.593369
8.808839559555054,0.6964451,1.5964075,-0.12112523,-1.4892958,1.6063312,2.558783
8.829118728637695,0.7705828,1.0166415,0.28843194,-1.7440243,1.3117225,2.4892209
8.849236011505127,0.6624236,1.502041,0.18489107,-1.4629071,1.7134906,2.352346
8.869377613067627,0.89414895,0.8440443,0.4703011,-1.3718306,1.1267008,2.6693177
8.889391660690308,0.6290728,1.6006972,-0.01715613,-1.473216,1.7638211,2.535516
8.909602880477905,0.6290728,1.6006972,-0.01715613,-1.473216,1.7638211,2.535516
8.92979621887207,0.6621437,0.9563365,0.45435113,-1.5312579,1.4962388,2.3982604
8.949822425842285,0.5135993,1.3215917,-0.07842312,-1.5304717,1.4842595,2.3573031
8.969887971878052,-2.1152499,1.1408762,-1.3483027,-2.5430543,0.48846254,0.2045315
8.989964723587036,-3.2325847,1.2407564,-1.9526697,-2.6299276,-0.71037704,-0.47606373
9.010129690170288,-4.4362397,0.5623139,-1.9433655,-1.6793991,-1.9944702,-1.9459345
9.030287981033325,-6.8866153,-1.8307213,-0.5540366,1.7297306,-5.228969,-4.1046615
9.050265789031982,-8.110396,-3.7470045,0.5645104,6.026299,-7.2553954,-4.728672
9.070338487625122,-6.9863358,-4.3567095,0.5175004,4.4948153,-6.8279033,-5.4320793
9.090709686279297,-6.9863358,-4.3567095,0.5175004,4.4948153,-6.8279033,-5.4320793
9.110847473144531,-6.304753,-4.0254927,0.6047607,4.4304233,-6.700659,-4.9443874
9.130911350250244,-5.230731,-3.7147412,0.57362175,4.2268577,-6.067411,-4.001273
9.151000499725342,-4.0306244,-3.4502516,0.5651873,4.041622,-5.4012656,-2.7951617
9.171131610870361,-2.6909325,-3.1009264,0.57202065,3.8806875,-4.6769633,-1.5767828
9.191207885742188,-1.5570881,-2.7029362,0.65163314,3.7164683,-4.085814,-0.5748747
9.211268424987793,-0.32334486,-1.8209683,0.8649788,3.2850335,-3.2811656,0.60111517
9.23197340965271,-0.32334486,-1.8209683,0.8649788,3.2850335,-3.2811656,0.60111517
9.252072811126709,0.77853423,-0.24516931,1.107427,2.3905497,-2.3201864,1.8056757
9.272161722183228,1.011838,1.4125328,1.0162388,0.2575244,-0.20409915,2.7616444
9.292237281799316,1.0301238,1.8076969,-0.24744546,-1.0241851,1.4393253,2.950674
9.312330484390259,0.748525,0.9951191,-0.09158809,-1.9423311,1.4089164,2.3434734
9.332402229309082,0.63721335,0.55322653,0.3124604,-2.018743,1.0538843,2.1555433
9.35250210762024,0.56570524,1.2660288,-0.0038885232,-2.1382523,1.7225503,2.22465
9.372556924819946,0.71692276,0.5624613,0.2073652,-1.9562898,0.9599746,2.3443594
9.392628192901611,0.6465214,0.34724236,0.4351678,-2.0577817,1.0601078,2.204703
9.414056301116943,0.6465214,0.34724236,0.4351678,-2.0577817,1.0601078,2.204703
9.434167385101318,-3.1578915,1.8810643,-2.8354228,-2.9523687,0.34557983,-1.2292749
9.454246997833252,-3.162017,1.223381,-2.229493,-2.3951473,-0.604687,-1.572617
9.474332094192505,-5.752013,-0.9677259,-1.5278833,1.3564165,-3.3886855,-3.475953
9.494454145431519,-3.7988567,-3.6749916,0.5078552,2.2713678,-2.976537,-2.5625143
9.514568567276001,-4.270337,-3.7242885,0.49283275,2.5335622,-3.2348773,-1.5214337
9.534597396850586,-3.0276654,-3.3331985,0.5501056,2.7247655,-3.423351,-0.48805967
9.554729700088501,-1.724216,-2.772797,0.65737003,2.6726005,-3.0919802,0.42009786
9.575014352798462,-0.6199345,-1.872232,0.847609,2.1549072,-2.5439527,1.3243074
9.595103979110718,-0.6199345,-1.872232,0.847609,2.1549072,-2.5439527,1.3243074
9.634739398956299,0.5112974,-0.25929785,1.0655586,1.276339,-1.5775598,2.504521
9.671955108642578,0.5112974,-0.25929785,1.0655586,1.276339,-1.5775598,2.504521
9.69219160079956,0.6171366,0.65875435,0.5932949,-0.7471899,0.8000794,2.8619175
9.71220850944519,0.625519,1.6238775,-0.6200919,-1.9884174,1.8077146,2.6178231
9.732263326644897,0.5045662,0.97871614,-0.18542984,-2.4721558,1.33818,2.3218296
9.752359867095947,0.5045662,0.97871614,-0.18542984,-2.4721558,1.33818,2.3218296
9.772471904754639,-1.9405216,0.61524516,-1.6022583,-2.8612442,0.33059034,-0.11960314
9.792585849761963,-3.0927439,1.4211024,-1.9868017,-2.8404453,-0.8996193,-0.7031227
9.812725305557251,-4.160405,0.08954215,-1.9509004,-0.71874386,-2.1288764,-2.7431464
9.83279800415039,-7.6242895,-2.73282,-0.12847802,4.331152,-6.641645,-4.814009
9.85287094116211,-7.983576,-3.372459,0.7540579,7.318084,-8.206682,-5.9080687
9.872929334640503,-8.403675,-2.9959083,0.7337069,8.992862,-10.181955,-7.564036
9.89303731918335,-8.403675,-2.9959083,0.7337069,8.992862,-10.181955,-7.564036
9.913119077682495,-7.8066673,-2.6531672,0.8406786,10.1876745,-11.5222225,-8.652723
9.933282136917114,-6.7854457,-2.279389,0.8739565,10.920805,-12.107844,-8.93173
9.95365047454834,-5.7710795,-1.9789253,0.8689381,11.329745,-12.220548,-8.777615
9.973787069320679,-4.953004,-1.7676045,0.8500942,11.521609,-12.107945,-8.497033
9.993940591812134,-4.3728,-1.6324508,0.83244693,11.593357,-11.929316,-8.208848
10.013975381851196,-4.3728,-1.6324508,0.83244693,11.593357,-11.929316,-8.208848
10.034064054489136,-3.9768867,-1.543443,0.8183379,11.616569,-11.756164,-7.95793
10.054203271865845,-3.6886556,-1.476914,0.8063605,11.62748,-11.6073265,-7.750866
10.074254274368286,-3.4594376,-1.4212943,0.79516715,11.633914,-11.478811,-7.5774035
10.094295024871826,-3.262993,-1.3710247,0.78429323,11.637177,-11.364774,-7.42662
10.114452838897705,-3.0852022,-1.3238125,0.77361923,11.637496,-11.261579,-7.290792
10.134486198425293,-2.9174805,-1.278399,0.76248556,11.634418,-11.164476,-7.1634245
10.154619932174683,-2.754594,-1.2340981,0.75022095,11.627084,-11.06885,-7.0392146
10.174779891967773,-2.5940893,-1.1908407,0.7360714,11.61567,-10.9705925,-6.9123335
10.194862842559814,-2.5940893,-1.1908407,0.7360714,11.61567,-10.9705925,-6.9123335
10.215282440185547,-2.4345622,-1.1484339,0.71985555,11.60064,-10.867162,-6.7798076
10.235123872756958,-2.273876,-1.1066658,0.70304304,11.583963,-10.759151,-6.6455097
10.255228996276855,-2.111396,-1.0653381,0.6857241,11.566012,-10.646546,-6.5110765
10.275296926498413,-1.9472339,-1.0241231,0.66780406,11.546299,-10.529406,-6.3771496
10.29540228843689,-1.7820003,-0.9832829,0.64922696,11.523993,-10.4070835,-6.2443914
10.315527200698853,-1.860215,-1.0745842,0.6451596,11.232069,-10.176146,-6.23635
10.335561275482178,-1.7446179,-0.9734148,0.622865,11.33842,-10.138765,-6.11309
10.356148719787598,-1.7446179,-0.9734148,0.622865,11.33842,-10.138765,-6.11309
10.37647008895874,-1.8763864,-1.0846888,0.6156449,10.889441,-9.912756,-6.176922
10.396631717681885,-1.7579956,-0.9883336,0.6028344,11.141181,-9.909596,-6.0375032
10.416587591171265,-1.7030468,-1.0035832,0.5868328,10.948382,-9.786392,-6.010143
10.436732530593872,-1.7990875,-1.0501568,0.5780239,10.643655,-9.6290865,-6.031449
10.45687198638916,-1.7264378,-0.9930554,0.56464463,10.746145,-9.587154,-5.9457445
10.476983547210693,-1.686846,-1.0061047,0.55288965,10.591495,-9.483015,-5.9087377
10.497027397155762,-1.6995177,-1.0212121,0.5447337,10.437031,-9.373505,-5.875925
10.517183065414429,-1.6995177,-1.0212121,0.5447337,10.437031,-9.373505,-5.875925
10.537334203720093,-1.5948073,-0.9750316,0.5316493,10.502379,-9.320093,-5.780524
10.557378053665161,-1.5615946,-0.9968063,0.52269167,10.339357,-9.209259,-5.7293806
10.577479362487793,-1.5427742,-0.99846995,0.5142087,10.245898,-9.111655,-5.668619
10.597545385360718,-1.414232,-0.977242,0.5054503,10.233771,-9.018703,-5.5746307
10.617624521255493,-1.1611347,-0.99736834,0.5037384,10.095287,-8.819534,-5.4542756
10.637847661972046,-0.9504217,-1.0040514,0.49219722,9.990846,-8.619812,-5.2971506
10.658475875854492,-0.6487335,-1.0304232,0.4882627,9.8570385,-8.363862,-5.098548
10.67856764793396,-0.6487335,-1.0304232,0.4882627,9.8570385,-8.363862,-5.098548
10.698663711547852,-0.41538087,-1.044816,0.4757287,9.742214,-8.127936,-4.893742
10.718737840652466,-0.13456866,-1.0843148,0.4766004,9.603877,-7.8660336,-4.6715555
10.738936185836792,0.00024291978,-1.0932878,0.46029973,9.500264,-7.671223,-4.485177
10.75902771949768,-0.35455632,-1.3369676,0.5155446,9.240549,-7.4477143,-4.71967
10.779106378555298,-0.44681755,-0.96885204,0.42261523,9.811867,-7.876615,-4.480538
10.7997567653656,0.17201188,-1.1922154,0.504373,9.328979,-7.4878597,-4.2900963
10.819854021072388,0.17201188,-1.1922154,0.504373,9.328979,-7.4878597,-4.2900963
10.839935779571533,-0.80555916,-1.2788657,0.43514007,9.085116,-7.436959,-4.677207
10.860061407089233,0.071719736,-1.2004482,0.5306253,9.498225,-7.5210276,-4.308308
10.880110263824463,-0.95427465,-1.2809881,0.42515588,9.039154,-7.483686,-4.700384
10.900244951248169,0.0688121,-1.1774313,0.5361822,9.506838,-7.5983205,-4.3139553
10.92035174369812,-0.92282915,-1.2980713,0.42763615,8.976308,-7.4668775,-4.6758676
10.940373420715332,0.06832728,-1.2228914,0.5441391,9.3953085,-7.5339756,-4.266217
10.96049451828003,0.06832728,-1.2228914,0.5441391,9.3953085,-7.5339756,-4.266217
10.980677604675293,-0.91760576,-1.3303653,0.42787823,8.8490715,-7.3805246,-4.6110845
11.000713586807251,0.04586038,-1.281929,0.55244434,9.243109,-7.436315,-4.2000856
11.020808458328247,-0.92475,-1.3698027,0.4276308,8.70184,-7.2757487,-4.534077
11.040884256362915,0.019461485,-1.3423904,0.5612089,9.085112,-7.3385167,-4.1273956
11.060971021652222,-0.9334452,-1.4131198,0.42764235,8.550329,-7.1680064,-4.4507327
11.081055402755737,-0.0021043709,-1.4006914,0.57055783,8.932963,-7.248544,-4.050134
11.101134300231934,-0.93851495,-1.4590014,0.4280424,8.399398,-7.060844,-4.3612533
11.121234655380249,-0.93851495,-1.4590014,0.4280424,8.399398,-7.060844,-4.3612533
11.141366481781006,-0.019727258,-1.458705,0.58066726,8.784254,-7.163919,-3.9679484
11.161418914794922,-0.8793222,-1.4878676,0.4278829,8.278008,-6.9704285,-4.232089
11.18153190612793,-0.011828213,-1.527631,0.5902968,8.621038,-7.0547414,-3.8523915
11.20159649848938,-0.932901,-1.5626748,0.42892647,8.085435,-6.8270726,-4.1395936
11.22174334526062,-0.036652416,-1.5754666,0.6024052,8.484603,-6.9908385,-3.773429
11.241913080215454,-0.74954,-1.5545471,0.42902237,8.031834,-6.7835174,-3.9376683
11.261918306350708,0.069369644,-1.6406676,0.6098214,8.351485,-6.8627305,-3.595507
11.28393816947937,-0.860276,-1.6712879,0.42639667,7.7816076,-6.573755,-3.849106
11.304028034210205,-0.860276,-1.6712879,0.42639667,7.7816076,-6.573755,-3.849106
11.324087142944336,-0.026047258,-1.7054845,0.62531936,8.152505,-6.77996,-3.5187194
11.344197511672974,-0.83508134,-1.7176635,0.4293366,7.6453958,-6.495355,-3.7089288
11.364313840866089,-0.068296164,-1.7986273,0.6416005,7.9400587,-6.6681447,-3.3942156
11.384663343429565,-0.5751654,-1.7031733,0.44373938,7.5644336,-6.4972568,-3.3518634
11.405251026153564,-0.5751654,-1.7031733,0.44373938,7.5644336,-6.4972568,-3.3518634
11.425415992736816,0.16678944,-1.8683246,0.67237884,7.7918925,-6.563996,-3.0586112
11.445501565933228,-0.7202791,-1.8883957,0.4033195,7.275397,-6.154507,-3.257543
11.46558403968811,-0.03030738,-1.9653296,0.6935701,7.3960648,-6.39181,-2.9033513
11.485703945159912,-0.795142,-1.9819838,0.3804543,7.0112915,-6.0062833,-3.0552979
11.505845546722412,-0.104169935,-2.082663,0.74786353,6.9212,-6.2370114,-2.5612767
11.52588415145874,-0.36767063,-1.956556,0.42100394,7.049479,-6.107557,-2.407411
11.54604458808899,0.35434166,-2.1041002,0.76617885,6.9644303,-6.0639567,-2.1233304
11.566587924957275,0.35434166,-2.1041002,0.76617885,6.9644303,-6.0639567,-2.1233304
11.586709022521973,-0.50410116,-2.1758552,0.3005982,6.549894,-5.564114,-2.267364
11.606783151626587,0.14543769,-2.0927227,0.85362786,6.07462,-5.675442,-1.5874763
11.62688946723938,-0.5295419,-2.438704,0.2576981,5.9880114,-5.2503223,-1.7227525
11.646945238113403,0.021216007,-2.45922,0.8268692,6.0892844,-5.499406,-1.4746921
11.667032480239868,-0.40862384,-2.3478408,0.3116231,6.188173,-5.2845025,-1.7494559
11.687121152877808,0.16888121,-2.4234014,0.7740819,6.295962,-5.4725165,-1.595244
11.707188844680786,-0.36911336,-2.3159685,0.28392756,6.0740743,-5.193217,-1.6831098
11.727518796920776,-0.36911336,-2.3159685,0.28392756,6.0740743,-5.193217,-1.6831098
11.74765419960022,0.16495529,-2.4650998,0.7824201,6.1209555,-5.385342,-1.4647169
11.767714977264404,-0.3781489,-2.5218887,0.51539594,6.1959505,-5.6789265,-1.947876
11.787798404693604,-0.45178375,-2.3369117,0.590653,6.5595355,-6.288509,-1.7911252
11.808017253875732,-0.35375068,-2.3590865,0.61701137,6.695381,-6.3778043,-1.7649083
11.827988147735596,-0.28848818,-2.0167348,0.6433142,6.196293,-6.535194,-1.2157019
11.848082542419434,-0.062628806,-2.264295,0.65175825,5.8460546,-6.24823,-0.6772179
11.868823528289795,-0.062628806,-2.264295,0.65175825,5.8460546,-6.24823,-0.6772179
11.888960123062134,0.09895596,-2.2284284,0.7016373,5.4189095,-5.6802096,-0.6636956
11.909079313278198,-0.124751404,-2.3757596,0.67819756,5.312664,-5.492864,-0.6159984
11.929101943969727,-0.1224933,-2.1137943,0.6803104,5.2556143,-5.837172,0.02532174
11.94919490814209,0.24885434,-2.2325063,0.70824105,5.398095,-5.808372,0.12648205
11.969289064407349,0.5628434,-2.108005,0.7696231,5.1153064,-5.333981,0.0786923
