liuyurong129/humanoid-gym/humanoid/data/target_q_20250522-031701.csv
timestamp,joint_1,joint_2,joint_3,joint_4,joint_5,joint_6
5.4836273193359375e-05,0.0,0.0,0.0,0.0,0.0,0.0
0.02013540267944336,0.0,0.0,0.0,0.0,0.0,0.0
0.040215492248535156,0.0,0.0,0.0,0.0,0.0,0.0
0.06029820442199707,0.0,0.0,0.0,0.0,0.0,0.0
0.08037805557250977,0.0,0.0,0.0,0.0,0.0,0.0
0.10045957565307617,0.7960823774337769,-0.45317211747169495,0.9094080924987793,-0.20356424152851105,0.05090542510151863,0.11739280074834824
0.12051510810852051,0.8064010739326477,-0.5259203910827637,0.8013138175010681,-0.2907065749168396,0.15214240550994873,0.0739048421382904
0.1406691074371338,0.7964839935302734,-0.5265192985534668,0.7900028228759766,-0.2848585844039917,0.15409602224826813,0.07136893272399902
0.16083550453186035,0.7774772644042969,-0.5201560258865356,0.776968240737915,-0.2752833068370819,0.15237215161323547,0.07046106457710266
0.18094992637634277,0.7682894468307495,-0.5167073011398315,0.773342490196228,-0.26913949847221375,0.15091989934444427,0.06988666951656342
0.20108985900878906,0.7651159763336182,-0.5160439014434814,0.7735676765441895,-0.26795536279678345,0.15058809518814087,0.06958790868520737
0.2212531566619873,0.7528912425041199,-0.5152368545532227,0.7689980268478394,-0.26428231596946716,0.148682102560997,0.06946136802434921
0.2413628101348877,0.749325156211853,-0.5153554677963257,0.7672340273857117,-0.26249098777770996,0.14841338992118835,0.06949685513973236
0.2614767551422119,0.7379723787307739,-0.5156040191650391,0.7610996961593628,-0.25852158665657043,0.14638186991214752,0.06959886103868484
0.2815220355987549,0.732508659362793,-0.5159764289855957,0.7594912052154541,-0.25658556818962097,0.14495016634464264,0.07003898173570633
0.301586389541626,0.7296355962753296,-0.5165650844573975,0.7591807246208191,-0.2562195956707001,0.14435376226902008,0.07013179361820221
0.3217322826385498,0.7263445258140564,-0.5173940658569336,0.7606407999992371,-0.2562650740146637,0.14311744272708893,0.07030214369297028
0.341871976852417,0.7222892642021179,-0.5182249546051025,0.758647620677948,-0.25537991523742676,0.14175890386104584,0.07062895596027374
0.36199378967285156,0.7203432321548462,-0.5182170867919922,0.7587891817092896,-0.2550581693649292,0.14095593988895416,0.07096743583679199
0.3820974826812744,0.7174510955810547,-0.5192789435386658,0.7569997310638428,-0.25395455956459045,0.14008331298828125,0.07141976803541183
0.4022190570831299,0.7155444622039795,-0.5191328525543213,0.7572433948516846,-0.25411397218704224,0.13884632289409637,0.07163184136152267
0.42238855361938477,0.7150206565856934,-0.5200352668762207,0.7566413283348083,-0.2530610263347626,0.13816484808921814,0.07220786064863205
0.4424631595611572,0.7139782905578613,-0.5210446715354919,0.7580146789550781,-0.25366243720054626,0.13760246336460114,0.07239705324172974
0.46262097358703613,0.7117431163787842,-0.5215972661972046,0.7569129467010498,-0.25352752208709717,0.1368657797574997,0.07258709520101547
0.482651948928833,0.7102057933807373,-0.5219069719314575,0.7572980523109436,-0.2536996304988861,0.13556772470474243,0.07313612848520279
0.502769947052002,0.7077764272689819,-0.5221482515335083,0.7573623657226562,-0.25343185663223267,0.13368742167949677,0.07361074537038803
0.5228598117828369,0.7062958478927612,-0.522666335105896,0.7561476826667786,-0.25370827317237854,0.13317397236824036,0.07386396825313568
0.5429656505584717,0.7056805491447449,-0.5233049392700195,0.7563587427139282,-0.25344687700271606,0.13181518018245697,0.074334055185318
0.5630583763122559,0.706346869468689,-0.5231692790985107,0.7574707865715027,-0.2537795603275299,0.13105082511901855,0.07456331700086594
0.5832455158233643,0.7023739814758301,-0.5235440135002136,0.7552591562271118,-0.25301283597946167,0.12894587218761444,0.07515916228294373
0.6034398078918457,0.7015893459320068,-0.5240675210952759,0.7553222179412842,-0.2540702521800995,0.12791858613491058,0.07579342275857925
0.6235358715057373,0.7009577751159668,-0.5238837003707886,0.7563015222549438,-0.2550382614135742,0.1269158124923706,0.07611890137195587
0.6436431407928467,0.6976199150085449,-0.5242185592651367,0.7560152411460876,-0.2561664283275604,0.12498597800731659,0.07677654176950455
0.6637873649597168,0.6957224011421204,-0.5245950222015381,0.755474328994751,-0.25622570514678955,0.12410491704940796,0.07711328566074371
0.6837997436523438,0.6947904825210571,-0.5248880386352539,0.7555752396583557,-0.25672173500061035,0.12254446744918823,0.07784908264875412
0.7039647102355957,0.6953433156013489,-0.5256508588790894,0.7550780773162842,-0.256210058927536,0.1223604828119278,0.07822580635547638
0.724102258682251,0.6928261518478394,-0.5257138013839722,0.755111813545227,-0.257190465927124,0.1196601539850235,0.07875756174325943
0.7441327571868896,0.6908267736434937,-0.5261155366897583,0.7544654011726379,-0.2565845251083374,0.11734676361083984,0.07966898381710052
0.7642838954925537,0.6899352669715881,-0.5265767574310303,0.7549313306808472,-0.2563815116882324,0.11630566418170929,0.07988376915454865
0.7847130298614502,0.6884678602218628,-0.5280721783638,0.7551776170730591,-0.2561078667640686,0.11489823460578918,0.08032447099685669
0.8048970699310303,0.687391996383667,-0.5281587839126587,0.7569096684455872,-0.2569630742073059,0.11338533461093903,0.08056384325027466
0.8249311447143555,0.6865338683128357,-0.5291650891304016,0.7576000690460205,-0.2588208019733429,0.11188556253910065,0.08127772063016891
0.8450384140014648,0.6851158142089844,-0.5292631387710571,0.7587751150131226,-0.25970569252967834,0.11055879294872284,0.08160827308893204
0.8651242256164551,0.6831483244895935,-0.5300887227058411,0.7585303783416748,-0.26025083661079407,0.10909518599510193,0.0824994221329689
0.8851592540740967,0.6829303503036499,-0.5315811634063721,0.7587113976478577,-0.26079416275024414,0.10837443172931671,0.08305694907903671
0.9052586555480957,0.681757926940918,-0.5322496891021729,0.7585117816925049,-0.2609085738658905,0.10778695344924927,0.08337992429733276
0.9253249168395996,0.6815800666809082,-0.5336970090866089,0.7587454915046692,-0.26122891902923584,0.10708290338516235,0.08392570912837982
0.9454286098480225,0.6773597598075867,-0.5337632894515991,0.7572908997535706,-0.26143714785575867,0.10479547083377838,0.0846792683005333
0.9655289649963379,0.6772885918617249,-0.533683180809021,0.7578415870666504,-0.26162204146385193,0.10413838922977448,0.08525161445140839
0.9856095314025879,0.678226113319397,-0.5349143743515015,0.7584792971611023,-0.26074257493019104,0.10328461229801178,0.08591984212398529
1.0057668685913086,0.6775217056274414,-0.5359792709350586,0.7595016360282898,-0.2609959542751312,0.10211056470870972,0.08641919493675232
1.025951623916626,0.6768766641616821,-0.536420464515686,0.7605313062667847,-0.2620691955089569,0.10111714899539948,0.08648103475570679
1.0459833145141602,0.6757089495658875,-0.5376864671707153,0.7610708475112915,-0.26284241676330566,0.10034237802028656,0.0870918482542038
1.0660748481750488,0.6741902828216553,-0.5378434062004089,0.761648416519165,-0.26402246952056885,0.09962491691112518,0.08749433606863022
1.0861890316009521,0.672073483467102,-0.537873387336731,0.7620867490768433,-0.26505792140960693,0.09740865230560303,0.08823186904191971
1.106217622756958,0.6707041263580322,-0.5391906499862671,0.7606368064880371,-0.2644175887107849,0.09604047238826752,0.08878529816865921
1.1263108253479004,0.6696056723594666,-0.5393253564834595,0.7617893815040588,-0.2654890716075897,0.09496280550956726,0.08902859687805176
1.1464698314666748,0.6674842238426208,-0.540678858757019,0.760017991065979,-0.2646097242832184,0.09396235644817352,0.08978208899497986
1.166515827178955,0.6641296148300171,-0.5408729314804077,0.7595683336257935,-0.2635386288166046,0.09147951006889343,0.09040874242782593
1.1866135597229004,0.6635737419128418,-0.5407357215881348,0.7606511116027832,-0.2638078033924103,0.09056563675403595,0.09092290699481964
1.2066819667816162,0.6644183397293091,-0.5413100719451904,0.7611681222915649,-0.2643625736236572,0.08906817436218262,0.09142450243234634
1.2275009155273438,0.662982702255249,-0.5420373678207397,0.7623293399810791,-0.26615920662879944,0.08793468773365021,0.09218788892030716
1.2475953102111816,0.6639422178268433,-0.5428512692451477,0.7617912292480469,-0.26654165983200073,0.08774684369564056,0.09247195720672607
1.2676825523376465,0.6625301837921143,-0.5441232919692993,0.7641034126281738,-0.26737165451049805,0.0862940102815628,0.09281571954488754
1.2877614498138428,0.6607075929641724,-0.5444270372390747,0.764337420463562,-0.26764771342277527,0.08521363139152527,0.09300952404737473
1.307835340499878,0.6570565700531006,-0.5449647903442383,0.7642258405685425,-0.26776769757270813,0.0832042247056961,0.09370946884155273
1.327890396118164,0.6553512811660767,-0.5458047986030579,0.7656018733978271,-0.26828011870384216,0.08142757415771484,0.09413222968578339
1.3480329513549805,0.6533002257347107,-0.5459362268447876,0.7632764577865601,-0.2671130895614624,0.0802706927061081,0.09460709989070892
1.3680691719055176,0.6507570147514343,-0.5461374521255493,0.7626698017120361,-0.26794272661209106,0.07838194072246552,0.09551167488098145
1.3882238864898682,0.6484649181365967,-0.5459743142127991,0.7628639936447144,-0.26872360706329346,0.07700712978839874,0.09599772840738297
1.4083812236785889,0.6478344202041626,-0.5468859076499939,0.763465166091919,-0.27014559507369995,0.07566182315349579,0.09679649770259857
1.428431510925293,0.646734356880188,-0.5482449531555176,0.7626748085021973,-0.2704686224460602,0.0745147317647934,0.09752573817968369
1.4487583637237549,0.647221565246582,-0.5483796000480652,0.7634968757629395,-0.27100124955177307,0.0737558901309967,0.09792327880859375
1.468836784362793,0.6453117728233337,-0.5492103099822998,0.764786958694458,-0.27150240540504456,0.07155071198940277,0.09828855842351913
1.4888932704925537,0.6420406699180603,-0.5494853258132935,0.7662258148193359,-0.2721993029117584,0.06885063648223877,0.0988200306892395
1.5089833736419678,0.6401702165603638,-0.5504038333892822,0.7653862237930298,-0.27238568663597107,0.06839518249034882,0.09915627539157867
1.5291433334350586,0.6389461159706116,-0.5510959625244141,0.7672106027603149,-0.2732571065425873,0.06647306680679321,0.09969447553157806
1.549398422241211,0.6356917023658752,-0.5514732599258423,0.764458417892456,-0.272566556930542,0.06416481733322144,0.10048246383666992
1.5694942474365234,0.6355099678039551,-0.5516331195831299,0.7656900882720947,-0.272194504737854,0.0633503794670105,0.10101263970136642
1.5895459651947021,0.6288792490959167,-0.5514134168624878,0.762969434261322,-0.2713907063007355,0.05943350866436958,0.10204873234033585
1.6096129417419434,0.6282026767730713,-0.5513936281204224,0.7631171941757202,-0.27163001894950867,0.05800556018948555,0.102626271545887
1.6297056674957275,0.6262999176979065,-0.5523775815963745,0.764382541179657,-0.273139625787735,0.05573742464184761,0.10332056879997253
1.6498148441314697,0.6248009204864502,-0.5529079437255859,0.7668249607086182,-0.27474573254585266,0.053465861827135086,0.10435524582862854
1.669870138168335,0.6220157146453857,-0.5533863306045532,0.7662206888198853,-0.2752531170845032,0.05164771154522896,0.10466448217630386
1.690063238143921,0.6169955134391785,-0.5534676313400269,0.765371561050415,-0.2764398753643036,0.04800211265683174,0.10585076361894608
1.7103252410888672,0.6143922805786133,-0.5544054508209229,0.7656831741333008,-0.27584123611450195,0.045208875089883804,0.10718429088592529
1.730510950088501,0.6148174405097961,-0.5550341010093689,0.7671372890472412,-0.27606201171875,0.04408228024840355,0.10781136900186539
1.7505643367767334,0.6110914945602417,-0.5563784241676331,0.7679964900016785,-0.27697136998176575,0.04076865687966347,0.1086786538362503
1.770672082901001,0.6097896695137024,-0.5568360090255737,0.7680504322052002,-0.2774685323238373,0.03909807279706001,0.10919062793254852
1.7907593250274658,0.608465313911438,-0.5579994916915894,0.7701941728591919,-0.27902764081954956,0.03674149140715599,0.11043702811002731
1.8108282089233398,0.6064592003822327,-0.5595333576202393,0.7713800668716431,-0.27962931990623474,0.03447260335087776,0.11147920042276382
1.8309807777404785,0.6000356078147888,-0.5599610805511475,0.769751787185669,-0.2793695628643036,0.03141123428940773,0.11159447580575943
1.8510246276855469,0.5988587737083435,-0.5609508752822876,0.7712320685386658,-0.27971962094306946,0.029383007436990738,0.1129697635769844
1.8713977336883545,0.5949700474739075,-0.5622096061706543,0.7707754373550415,-0.2783212661743164,0.026357877999544144,0.11406503617763519
1.8914730548858643,0.5924856066703796,-0.5626240968704224,0.7707500457763672,-0.27874475717544556,0.024566922336816788,0.11463701725006104
1.9115583896636963,0.5880348086357117,-0.5633251070976257,0.7697262763977051,-0.2801573574542999,0.02120796963572502,0.11599607020616531
1.931642770767212,0.5880409479141235,-0.5637245178222656,0.769714891910553,-0.28050562739372253,0.02009342983365059,0.11677373945713043
1.951716661453247,0.5844632387161255,-0.5650672316551208,0.7722298502922058,-0.28174540400505066,0.016974490135908127,0.11774275451898575
1.9718198776245117,0.5799670815467834,-0.5656136870384216,0.7724186182022095,-0.28178679943084717,0.012964699417352676,0.11915343999862671
1.991894245147705,0.577136754989624,-0.5664576292037964,0.7730056047439575,-0.28142663836479187,0.011222507804632187,0.11963780969381332
2.011998176574707,0.5743485689163208,-0.5678822994232178,0.7740388512611389,-0.2813663184642792,0.008279744535684586,0.12094429135322571
2.0320377349853516,0.5697566270828247,-0.5686537027359009,0.7767131328582764,-0.2835061848163605,0.0034917928278446198,0.12216971069574356
2.0521955490112305,0.5703825950622559,-0.5698565244674683,0.7755405902862549,-0.28371238708496094,0.002930615097284317,0.12306501716375351
2.0722496509552,0.5661961436271667,-0.5713444948196411,0.7781403064727783,-0.28489869832992554,-0.0011612437665462494,0.12412577867507935
2.092381000518799,0.5647993683815002,-0.5722794532775879,0.778123140335083,-0.2850955128669739,-0.002387184649705887,0.12483838200569153
2.1124773025512695,0.5587383508682251,-0.5738488435745239,0.7781277894973755,-0.283886194229126,-0.006602797657251358,0.12592683732509613
2.132664442062378,0.5586666464805603,-0.5760148763656616,0.7758769392967224,-0.28471750020980835,-0.007644426077604294,0.12787839770317078
2.1526989936828613,0.5561397671699524,-0.5762782096862793,0.7792617082595825,-0.2862381935119629,-0.00983065739274025,0.12852144241333008
2.172811508178711,0.5496466159820557,-0.5780124664306641,0.779129147529602,-0.28691810369491577,-0.013817142695188522,0.12971587479114532
2.1930460929870605,0.5443724393844604,-0.5798709392547607,0.7772932052612305,-0.28636041283607483,-0.01662250980734825,0.1313551515340805
2.213146686553955,0.5440994501113892,-0.5801544785499573,0.7771008610725403,-0.2857375144958496,-0.0188407264649868,0.13262775540351868
2.2332537174224854,0.5419936180114746,-0.5816678404808044,0.777788519859314,-0.286110520362854,-0.022064808756113052,0.13492625951766968
2.2532687187194824,0.5290399789810181,-0.5831389427185059,0.7700467705726624,-0.2852180600166321,-0.02592432126402855,0.1355035901069641
2.273365020751953,0.5254770517349243,-0.5851221084594727,0.7671375274658203,-0.28551173210144043,-0.029160302132368088,0.13842564821243286
2.29343318939209,0.5177118182182312,-0.5873011350631714,0.7637885808944702,-0.28677839040756226,-0.03363221511244774,0.1408972293138504
2.313593626022339,0.5260815620422363,-0.5875017642974854,0.7761924266815186,-0.2902315855026245,-0.036046843975782394,0.14296075701713562
2.333643674850464,0.5167800188064575,-0.5898313522338867,0.7750301361083984,-0.2922379672527313,-0.042755741626024246,0.14627020061016083
2.353827476501465,0.5104170441627502,-0.5932854413986206,0.781079888343811,-0.29407453536987305,-0.05044643208384514,0.14908921718597412
2.37402606010437,0.49583566188812256,-0.5956146717071533,0.7652609944343567,-0.29206982254981995,-0.05120090767741203,0.15063777565956116
2.394075870513916,0.48086655139923096,-0.599292516708374,0.7630360126495361,-0.292938768863678,-0.05869060382246971,0.1557529717683792
2.414233684539795,0.4862968623638153,-0.6003820896148682,0.7840147614479065,-0.2948734760284424,-0.06458704173564911,0.15960147976875305
2.4342479705810547,0.46685656905174255,-0.6023435592651367,0.7859127521514893,-0.2974209487438202,-0.07608987390995026,0.16602981090545654
2.454376220703125,0.43546655774116516,-0.6050903797149658,0.7563550472259521,-0.295771062374115,-0.08109496533870697,0.16846339404582977
2.4744434356689453,0.41993793845176697,-0.6059051752090454,0.7625189423561096,-0.2983771562576294,-0.09324224293231964,0.1761695295572281
2.4944944381713867,0.3867650628089905,-0.6107509136199951,0.7426348328590393,-0.2987813651561737,-0.10428869724273682,0.18546174466609955
2.514612913131714,0.3939181864261627,-0.6121418476104736,0.7615261673927307,-0.3013276159763336,-0.10816231369972229,0.19310705363750458
2.534701108932495,0.3682112991809845,-0.6256790161132812,0.7400546669960022,-0.3016428053379059,-0.11417253315448761,0.20571893453598022
2.5547921657562256,0.3414290249347687,-0.6378754377365112,0.7089280486106873,-0.2971564531326294,-0.11610685288906097,0.21202246844768524
2.574960231781006,0.3146756589412689,-0.6721365451812744,0.6799825429916382,-0.2901851534843445,-0.1131790280342102,0.22930100560188293
2.5950310230255127,0.3061617314815521,-0.7153141498565674,0.6701313853263855,-0.28390175104141235,-0.1032266765832901,0.24708755314350128
2.615349292755127,0.3187125027179718,-0.7352404594421387,0.6839388012886047,-0.2848781943321228,-0.09742402285337448,0.2552449107170105
2.6354453563690186,0.3351059556007385,-0.7695553302764893,0.6980973482131958,-0.2842118740081787,-0.08890599757432938,0.2671782076358795
2.655517578125,0.35613319277763367,-0.7926158905029297,0.7190532088279724,-0.2907986640930176,-0.08686548471450806,0.2754908502101898
2.675625801086426,0.36736002564430237,-0.8004405498504639,0.7268925905227661,-0.29644373059272766,-0.08701234310865402,0.2785983085632324
2.6957216262817383,0.398779958486557,-0.7989768981933594,0.7665021419525146,-0.31107449531555176,-0.09540506452322006,0.28275272250175476
2.715790271759033,0.41979876160621643,-0.7836918830871582,0.8043555021286011,-0.3195509612560272,-0.11274071037769318,0.28341245651245117
2.7358787059783936,0.41478753089904785,-0.7602682113647461,0.8192394375801086,-0.3172084093093872,-0.12997178733348846,0.2818538248538971
2.7559545040130615,0.37924399971961975,-0.7080599069595337,0.8271283507347107,-0.29611629247665405,-0.17525528371334076,0.2720932960510254
2.7760913372039795,0.3459652364253998,-0.6898936033248901,0.8449339866638184,-0.28760796785354614,-0.20150621235370636,0.2679709196090698
2.7961819171905518,0.2615642249584198,-0.6730045080184937,0.8848354816436768,-0.27103811502456665,-0.24663227796554565,0.26405414938926697
2.81624698638916,0.17334532737731934,-0.6698780059814453,0.9103353023529053,-0.2604406177997589,-0.27342259883880615,0.2679772973060608
2.83636474609375,0.14456649124622345,-0.6689517498016357,0.9155972003936768,-0.26433858275413513,-0.27674612402915955,0.271414190530777
2.8564534187316895,0.11197224259376526,-0.6661303043365479,0.9136511087417603,-0.2808161675930023,-0.2748703956604004,0.2778143882751465
2.8764944076538086,0.11938925087451935,-0.6639891862869263,0.9129894375801086,-0.3039504289627075,-0.2650587856769562,0.2823425829410553
2.8966634273529053,0.12778712809085846,-0.6657383441925049,0.9171087741851807,-0.3147900402545929,-0.2600242793560028,0.28387650847435
2.9168241024017334,0.14979025721549988,-0.6722581386566162,0.9332247972488403,-0.3305822014808655,-0.2525861859321594,0.28548604249954224
2.9367780685424805,0.17817842960357666,-0.6791325807571411,0.9484105110168457,-0.34154921770095825,-0.24362999200820923,0.2865399420261383
2.9568727016448975,0.17962904274463654,-0.6825392246246338,0.9565924406051636,-0.3439953327178955,-0.2437426894903183,0.2864690124988556
2.97694993019104,0.17502465844154358,-0.6868778467178345,0.9677934050559998,-0.3446617126464844,-0.24453751742839813,0.2860450744628906
2.997011661529541,0.1726876050233841,-0.689937949180603,0.9673152565956116,-0.3449156582355499,-0.24064387381076813,0.2869085967540741
3.0171074867248535,0.17420625686645508,-0.6909819841384888,0.9647601842880249,-0.34466972947120667,-0.23683077096939087,0.2875402271747589
3.037184715270996,0.16523893177509308,-0.6913957595825195,0.9657764434814453,-0.34072500467300415,-0.23772306740283966,0.28825077414512634
3.057255506515503,0.16244658827781677,-0.6905549764633179,0.9668668508529663,-0.34105339646339417,-0.2388741821050644,0.2884179949760437
3.0773446559906006,0.17336931824684143,-0.6914041042327881,0.9687904119491577,-0.34404879808425903,-0.23470759391784668,0.28876206278800964
3.097409963607788,0.18674319982528687,-0.6960184574127197,0.9721551537513733,-0.34582945704460144,-0.2296241670846939,0.28861483931541443
3.117490530014038,0.1938277781009674,-0.6983165740966797,0.9733504056930542,-0.3469819724559784,-0.2265022248029709,0.2886783182621002
3.1375670433044434,0.20131325721740723,-0.7028681039810181,0.9735094308853149,-0.34736526012420654,-0.22164620459079742,0.2891053557395935
3.1576220989227295,0.20187287032604218,-0.7031304836273193,0.9717441201210022,-0.3448829650878906,-0.21884796023368835,0.28964877128601074
3.1777853965759277,0.20661874115467072,-0.7033497095108032,0.9706768989562988,-0.3447169065475464,-0.21569998562335968,0.28984764218330383
3.1978707313537598,0.2129085510969162,-0.7048691511154175,0.9711544513702393,-0.3454427719116211,-0.2123032659292221,0.28980156779289246
3.2181124687194824,0.2242024838924408,-0.7084970474243164,0.9703425168991089,-0.3462332487106323,-0.20648141205310822,0.28971782326698303
3.238351345062256,0.22530905902385712,-0.7099970579147339,0.9719623327255249,-0.34671396017074585,-0.20661605894565582,0.2895415425300598
3.2583718299865723,0.23883292078971863,-0.7135860919952393,0.9712531566619873,-0.34676018357276917,-0.1998731642961502,0.28914156556129456
3.278568744659424,0.24351055920124054,-0.716513991355896,0.970777690410614,-0.34645524621009827,-0.19604408740997314,0.2891924977302551
3.2986550331115723,0.255693256855011,-0.7206350564956665,0.9689120054244995,-0.34491777420043945,-0.1873721480369568,0.2893296182155609
3.318715810775757,0.2694396674633026,-0.7277624607086182,0.9637181758880615,-0.34523844718933105,-0.1770622879266739,0.2893446683883667
3.3388054370880127,0.272340327501297,-0.728061318397522,0.9639967679977417,-0.3431166708469391,-0.17524774372577667,0.28917166590690613
3.3589694499969482,0.2829076945781708,-0.7319760322570801,0.960580050945282,-0.34125763177871704,-0.1680639535188675,0.28891751170158386
3.3792784214019775,0.2963588833808899,-0.735416054725647,0.9569127559661865,-0.34078967571258545,-0.16015957295894623,0.28875696659088135
3.3993749618530273,0.3048032224178314,-0.7377735376358032,0.9544781446456909,-0.3409060835838318,-0.15559999644756317,0.28867822885513306
3.419548511505127,0.3131493031978607,-0.7424274682998657,0.9489936828613281,-0.3381950259208679,-0.14876587688922882,0.28905636072158813
3.439786434173584,0.32167091965675354,-0.7443821430206299,0.9437572956085205,-0.33618661761283875,-0.14252643287181854,0.28943055868148804
3.45990252494812,0.32320210337638855,-0.749228835105896,0.9274464845657349,-0.33305004239082336,-0.13368433713912964,0.2910197079181671
3.480026960372925,0.3157182037830353,-0.748558521270752,0.9086569547653198,-0.32852524518966675,-0.1285512000322342,0.29372748732566833
3.5001027584075928,0.3104819655418396,-0.7496275901794434,0.8977720141410828,-0.3263307809829712,-0.1254757046699524,0.29545316100120544
3.520190715789795,0.2986600697040558,-0.7486945390701294,0.8932012915611267,-0.31948941946029663,-0.12504684925079346,0.2991175651550293
3.5402512550354004,0.2854965627193451,-0.7503724098205566,0.8949497938156128,-0.31050124764442444,-0.12743663787841797,0.30343547463417053
3.5604088306427,0.285009503364563,-0.7484099864959717,0.898231029510498,-0.3076706826686859,-0.12977157533168793,0.30591851472854614
3.580425977706909,0.29977086186408997,-0.7490036487579346,0.9035576581954956,-0.30752405524253845,-0.12799072265625,0.31133338809013367
3.6005337238311768,0.30840450525283813,-0.7488373517990112,0.9078100919723511,-0.3112686276435852,-0.12838022410869598,0.314176082611084
3.6207051277160645,0.32787299156188965,-0.7479649782180786,0.9128473401069641,-0.3224361836910248,-0.12557898461818695,0.3202933073043823
3.6407551765441895,0.33111831545829773,-0.7508242130279541,0.9084264039993286,-0.3322169780731201,-0.12039385735988617,0.3272108733654022
3.6608500480651855,0.324240505695343,-0.7493913173675537,0.9054059386253357,-0.33325329422950745,-0.12110534310340881,0.3311728537082672
3.6809873580932617,0.3101585805416107,-0.7435636520385742,0.8940466642379761,-0.3351755440235138,-0.12243570387363434,0.33973681926727295
3.701101541519165,0.29676148295402527,-0.7400412559509277,0.8866815567016602,-0.3331746459007263,-0.12459509074687958,0.3480389416217804
3.721179246902466,0.29296818375587463,-0.7379326820373535,0.8864352107048035,-0.33336496353149414,-0.1271258443593979,0.3518030643463135
3.741252899169922,0.29214102029800415,-0.7353798151016235,0.8901214599609375,-0.33692145347595215,-0.1309920996427536,0.35891294479370117
3.7614219188690186,0.2975250780582428,-0.7338721752166748,0.896275520324707,-0.34103333950042725,-0.13282157480716705,0.36196914315223694
3.7814810276031494,0.3170790672302246,-0.737533688545227,0.9064106941223145,-0.34620535373687744,-0.12897364795207977,0.36831367015838623
3.8018798828125,0.3278110921382904,-0.7425934076309204,0.9057797193527222,-0.35449349880218506,-0.12249670922756195,0.3750060200691223
3.821960687637329,0.3330337703227997,-0.7432041168212891,0.9003016948699951,-0.35671019554138184,-0.11649404466152191,0.37912604212760925
3.842031240463257,0.3277478516101837,-0.7419213056564331,0.8901044130325317,-0.36192378401756287,-0.11304424703121185,0.38713520765304565
3.8621487617492676,0.311237096786499,-0.737126350402832,0.8857710361480713,-0.3613077402114868,-0.11878661811351776,0.39104288816452026
3.8822031021118164,0.30130735039711,-0.7287157773971558,0.8826159834861755,-0.3614555299282074,-0.1233157366514206,0.3987939655780792
3.9022836685180664,0.2863340973854065,-0.7225464582443237,0.8884626626968384,-0.3577570617198944,-0.1376240998506546,0.40447673201560974
3.9223742485046387,0.28801289200782776,-0.7219115495681763,0.891424298286438,-0.35879653692245483,-0.1399448812007904,0.40726909041404724
3.9424753189086914,0.30302920937538147,-0.726738452911377,0.9018462896347046,-0.3617655634880066,-0.1391097754240036,0.41234639286994934
3.963128089904785,0.31605908274650574,-0.7347294092178345,0.9018663167953491,-0.36978939175605774,-0.1316576451063156,0.4178540110588074
3.983274221420288,0.3228146731853485,-0.7375636100769043,0.8983333110809326,-0.3734215795993805,-0.12625813484191895,0.42116549611091614
4.003316402435303,0.34125903248786926,-0.7434267997741699,0.8888602256774902,-0.38056766986846924,-0.11000984907150269,0.428540974855423
4.023394584655762,0.3407999575138092,-0.7445343732833862,0.8838015794754028,-0.3831384778022766,-0.10509449243545532,0.4322252571582794
4.04345965385437,0.31681326031684875,-0.7326875925064087,0.88001549243927,-0.3868354558944702,-0.11511380970478058,0.43845102190971375
4.063515901565552,0.3076595067977905,-0.7262221574783325,0.8837491869926453,-0.3841211199760437,-0.12478476762771606,0.4437814950942993
4.083605527877808,0.30083170533180237,-0.7226113080978394,0.8872536420822144,-0.3811243772506714,-0.13193760812282562,0.445896178483963
4.103719472885132,0.28732290863990784,-0.7171412706375122,0.8926939964294434,-0.379618376493454,-0.14605988562107086,0.4495093524456024
4.123908758163452,0.29068055748939514,-0.716668963432312,0.8943204879760742,-0.38067057728767395,-0.14750631153583527,0.45161452889442444
4.1440019607543945,0.3080900013446808,-0.7260262966156006,0.8937151432037354,-0.38545769453048706,-0.13842926919460297,0.45678412914276123
4.16433572769165,0.33074530959129333,-0.7392327785491943,0.8871648907661438,-0.3964846730232239,-0.11867725849151611,0.46309056878089905
4.18451189994812,0.3423241674900055,-0.7433086633682251,0.884364128112793,-0.40140700340270996,-0.10853418707847595,0.4665451943874359
4.204538345336914,0.35048896074295044,-0.747312068939209,0.8807650804519653,-0.40583956241607666,-0.09926559031009674,0.4697701632976532
4.22463583946228,0.33963170647621155,-0.7417192459106445,0.8820453882217407,-0.41112053394317627,-0.1030442863702774,0.4749176800251007
4.244723081588745,0.3266739249229431,-0.7301558256149292,0.8833293914794922,-0.41168463230133057,-0.11449339985847473,0.47946611046791077
4.2648327350616455,0.3146649897098541,-0.7249884605407715,0.8879124522209167,-0.41040942072868347,-0.12524588406085968,0.48085859417915344
4.284900188446045,0.29459184408187866,-0.7162262201309204,0.8912274837493896,-0.40202784538269043,-0.1432126760482788,0.48387011885643005
4.304978609085083,0.28089994192123413,-0.7124226093292236,0.8918853998184204,-0.39731109142303467,-0.15438808500766754,0.4871104955673218
4.325155019760132,0.286045640707016,-0.7152538299560547,0.8903650045394897,-0.3969157338142395,-0.15207967162132263,0.48920324444770813
4.34518575668335,0.31207433342933655,-0.7314141988754272,0.8848331570625305,-0.40171968936920166,-0.13330480456352234,0.4945433437824249
4.3654351234436035,0.3351210653781891,-0.7454698085784912,0.8839735984802246,-0.4137805700302124,-0.11472420394420624,0.4996131360530853
4.3855273723602295,0.3482428193092346,-0.7505128383636475,0.8850306272506714,-0.4202497899532318,-0.10513578355312347,0.5021942853927612
4.405593156814575,0.35859858989715576,-0.755103588104248,0.8896862864494324,-0.4285235106945038,-0.09586554765701294,0.5068401098251343
4.42568302154541,0.3490839898586273,-0.749435544013977,0.8925718069076538,-0.431488573551178,-0.10151331126689911,0.5084590911865234
4.445748567581177,0.32875856757164,-0.7349928617477417,0.8934555649757385,-0.43311768770217896,-0.11640593409538269,0.511343777179718
4.465803384780884,0.30665352940559387,-0.7239290475845337,0.8911413550376892,-0.42591750621795654,-0.13218563795089722,0.5142932534217834
4.485904693603516,0.2879052460193634,-0.7185441255569458,0.8899171352386475,-0.420676052570343,-0.14427399635314941,0.5149238109588623
4.506113052368164,0.28140494227409363,-0.716228723526001,0.8814914226531982,-0.4145604074001312,-0.14821912348270416,0.5183801651000977
4.526708126068115,0.3046896159648895,-0.7317266464233398,0.8771909475326538,-0.41558921337127686,-0.13181836903095245,0.5227879285812378
4.5468549728393555,0.3163752257823944,-0.739916205406189,0.8751187324523926,-0.41732457280158997,-0.12239101529121399,0.5249244570732117
4.56687593460083,0.35053351521492004,-0.756682276725769,0.8796626329421997,-0.42978447675704956,-0.09935258328914642,0.5289765000343323
4.586961030960083,0.3601168692111969,-0.7612730264663696,0.884994626045227,-0.435234934091568,-0.09251786768436432,0.5307232737541199
4.607027292251587,0.3584252893924713,-0.7564220428466797,0.8943079710006714,-0.44375699758529663,-0.09588126838207245,0.5332661271095276
4.627099275588989,0.3439960181713104,-0.7451728582382202,0.8994655609130859,-0.44826799631118774,-0.10734324157238007,0.5355616211891174
4.647200107574463,0.3340294063091278,-0.7391954660415649,0.8999553918838501,-0.44682151079177856,-0.11526061594486237,0.5365208387374878
4.667277097702026,0.3006206154823303,-0.7264806032180786,0.8980660438537598,-0.43617719411849976,-0.1374633014202118,0.537550151348114
4.68736720085144,0.27108949422836304,-0.7159786224365234,0.8867501616477966,-0.4264654219150543,-0.15351863205432892,0.5391915440559387
4.707542896270752,0.28300654888153076,-0.7193576097488403,0.8791631460189819,-0.4250496029853821,-0.14541038870811462,0.5415363907814026
4.727537631988525,0.30905237793922424,-0.7403271198272705,0.8716155290603638,-0.42497920989990234,-0.12330396473407745,0.545853316783905
4.747828960418701,0.3311510384082794,-0.7535573244094849,0.8758677244186401,-0.43249577283859253,-0.1076374351978302,0.5493923425674438
4.767924070358276,0.3424610197544098,-0.7592216730117798,0.8812762498855591,-0.43750274181365967,-0.10122327506542206,0.5506282448768616
4.7879884243011475,0.3614417612552643,-0.7655729055404663,0.8950660228729248,-0.44653791189193726,-0.09288528561592102,0.5528730154037476
4.808704853057861,0.360670268535614,-0.7644188404083252,0.899380624294281,-0.4521512985229492,-0.0940307006239891,0.5537505745887756
4.828789949417114,0.34660395979881287,-0.7504802942276001,0.9084621667861938,-0.45647692680358887,-0.10942743718624115,0.5550703406333923
4.848851442337036,0.3098461329936981,-0.7353770732879639,0.9037010073661804,-0.4525674879550934,-0.13207370042800903,0.5553204417228699
4.86899209022522,0.28577491641044617,-0.7258785963058472,0.9015353322029114,-0.446688711643219,-0.14866265654563904,0.5545419454574585
4.8890769481658936,0.2752862274646759,-0.7217966318130493,0.8861663937568665,-0.4357348084449768,-0.15275739133358002,0.5570250153541565
4.909332036972046,0.2929474413394928,-0.7364779710769653,0.8704836368560791,-0.43053561449050903,-0.13394063711166382,0.5619120001792908
4.929427146911621,0.30212900042533875,-0.7430531978607178,0.8675327301025391,-0.4318605065345764,-0.12612542510032654,0.5636994242668152
4.949529409408569,0.32958367466926575,-0.7571089267730713,0.8753985166549683,-0.44097214937210083,-0.10980705916881561,0.5664247274398804
4.969594717025757,0.34173962473869324,-0.76373291015625,0.8820745944976807,-0.44525861740112305,-0.10284291207790375,0.5673372149467468
4.989732503890991,0.36481377482414246,-0.7727934122085571,0.8959707021713257,-0.45467787981033325,-0.09191171824932098,0.5685712099075317
5.00976037979126,0.3522585928440094,-0.7620772123336792,0.9087914228439331,-0.4610807001590729,-0.10519607365131378,0.5690749287605286
5.02994704246521,0.34242236614227295,-0.7541283369064331,0.9112344980239868,-0.46230363845825195,-0.11510278284549713,0.569148600101471
5.049958229064941,0.31847450137138367,-0.7402671575546265,0.9119393825531006,-0.45659875869750977,-0.1365303248167038,0.5684673190116882
5.07016134262085,0.28640058636665344,-0.7313011884689331,0.9030959606170654,-0.44583141803741455,-0.15431331098079681,0.5681810975074768
5.090246915817261,0.2800867557525635,-0.7308393716812134,0.8940805792808533,-0.44366317987442017,-0.15353059768676758,0.5696894526481628
5.110302209854126,0.28552278876304626,-0.737737774848938,0.8798055648803711,-0.44029515981674194,-0.1417306512594223,0.5740026235580444
5.130402326583862,0.2961491644382477,-0.7453998327255249,0.8741369843482971,-0.43976032733917236,-0.13204394280910492,0.5758496522903442
5.150498390197754,0.3350594639778137,-0.7654433250427246,0.8779555559158325,-0.44713082909584045,-0.1057574450969696,0.579093873500824
5.170890808105469,0.35273274779319763,-0.7764248847961426,0.8939224481582642,-0.45409631729125977,-0.09650561213493347,0.5800422430038452
5.190980672836304,0.3603869676589966,-0.7779724597930908,0.9019300937652588,-0.4581416845321655,-0.09453795850276947,0.5803309082984924
5.211217880249023,0.35866349935531616,-0.7742704153060913,0.9131569862365723,-0.4647713899612427,-0.09889885783195496,0.5811617374420166
5.231388092041016,0.33730995655059814,-0.7564353942871094,0.9140403270721436,-0.4657633900642395,-0.11829495429992676,0.5813429951667786
5.251510381698608,0.32354456186294556,-0.7489774227142334,0.9139692783355713,-0.4633541405200958,-0.12922199070453644,0.581084668636322
5.271603345870972,0.28448545932769775,-0.7342615127563477,0.9079990386962891,-0.4537014663219452,-0.15391120314598083,0.5797624588012695
5.291661739349365,0.2732947766780853,-0.7316656112670898,0.9008826017379761,-0.4508350193500519,-0.15777194499969482,0.5804142355918884
5.311735153198242,0.28952959179878235,-0.7416456937789917,0.8867835998535156,-0.44665199518203735,-0.14209246635437012,0.5844044089317322
5.331831216812134,0.29972583055496216,-0.7521507740020752,0.8822752833366394,-0.44591695070266724,-0.13155978918075562,0.5860894322395325
5.3519744873046875,0.32400867342948914,-0.7686145305633545,0.881914496421814,-0.44839516282081604,-0.11222849786281586,0.5890700817108154
5.372043132781982,0.3497862219810486,-0.7821595668792725,0.8920680284500122,-0.4565873146057129,-0.0957702249288559,0.5909593105316162
5.392124891281128,0.35892900824546814,-0.7845003604888916,0.8989764451980591,-0.4598965644836426,-0.09182660281658173,0.5912765264511108
5.41223406791687,0.3616281747817993,-0.7843102216720581,0.9137007594108582,-0.46814605593681335,-0.09382010996341705,0.5910473465919495
5.43229341506958,0.3355195224285126,-0.7642993927001953,0.918858528137207,-0.4685390293598175,-0.11688558757305145,0.5899798274040222
5.452407598495483,0.3261784613132477,-0.7566109895706177,0.9184314012527466,-0.4671207070350647,-0.1263192892074585,0.5894221067428589
5.47255277633667,0.2924441993236542,-0.7425063848495483,0.9167410135269165,-0.4571734368801117,-0.15033003687858582,0.5872334837913513
5.4927990436553955,0.27121490240097046,-0.7368330955505371,0.9025051593780518,-0.44995102286338806,-0.15842141211032867,0.5879074931144714
5.512906312942505,0.27604636549949646,-0.7409011125564575,0.8946007490158081,-0.44792303442955017,-0.15191200375556946,0.5897892117500305
5.532978296279907,0.3015504479408264,-0.758184552192688,0.8839371204376221,-0.4475242495536804,-0.12996944785118103,0.5931149125099182
5.553124904632568,0.31881383061408997,-0.7690654993057251,0.8824865221977234,-0.4487614035606384,-0.11661645770072937,0.5946152806282043
5.573164939880371,0.34484758973121643,-0.7843222618103027,0.8949788808822632,-0.4572545289993286,-0.09869024157524109,0.5969526171684265
5.593291997909546,0.36761918663978577,-0.7909399271011353,0.9079235792160034,-0.46627455949783325,-0.0879688560962677,0.5975967049598694
5.61343789100647,0.3723366856575012,-0.7914682626724243,0.9152786731719971,-0.4704288840293884,-0.08740610629320145,0.5976215600967407
5.63347864151001,0.3481272757053375,-0.7737188339233398,0.9244626760482788,-0.47366130352020264,-0.10760779678821564,0.5969576835632324
5.653558254241943,0.3301418721675873,-0.7608726024627686,0.9221481084823608,-0.469573974609375,-0.12388777732849121,0.5958850979804993
5.673685073852539,0.30794528126716614,-0.7537671327590942,0.9191296100616455,-0.46409791707992554,-0.13726656138896942,0.5945261120796204
5.693766355514526,0.2798173129558563,-0.7437518835067749,0.9046210050582886,-0.4555603265762329,-0.15050345659255981,0.5943133234977722
5.713839054107666,0.28528666496276855,-0.7470275163650513,0.8955782651901245,-0.4530250132083893,-0.14353318512439728,0.5961009860038757
5.734065532684326,0.3044566214084625,-0.7639249563217163,0.8810230493545532,-0.4501444697380066,-0.12193329632282257,0.5995604395866394
5.754164934158325,0.3292471468448639,-0.7793693542480469,0.8849058151245117,-0.45674338936805725,-0.10192325711250305,0.6023903489112854
5.774292707443237,0.3424527943134308,-0.7848950624465942,0.8918090462684631,-0.46007487177848816,-0.09442389011383057,0.6032476425170898
5.7943408489227295,0.3627414405345917,-0.7921563386917114,0.9063411951065063,-0.4679783284664154,-0.08601367473602295,0.6030158400535583
5.814453601837158,0.3550223112106323,-0.7872376441955566,0.9202200174331665,-0.4743446707725525,-0.09511031955480576,0.6023183465003967
5.834545612335205,0.34409648180007935,-0.7757030725479126,0.9245412349700928,-0.47421592473983765,-0.10677966475486755,0.6018354892730713
5.854642152786255,0.32481613755226135,-0.7608773708343506,0.9251677989959717,-0.47162944078445435,-0.12556420266628265,0.600320041179657
5.874852418899536,0.30317768454551697,-0.7538540363311768,0.9211521744728088,-0.46606165170669556,-0.13834233582019806,0.5989513993263245
5.894883871078491,0.26852500438690186,-0.7407567501068115,0.9071301221847534,-0.4568774402141571,-0.15558688342571259,0.5976914763450623
5.91574239730835,0.276964008808136,-0.7443925142288208,0.8965952396392822,-0.45474401116371155,-0.14802657067775726,0.5989284515380859
5.935825824737549,0.30401483178138733,-0.7647148370742798,0.882763147354126,-0.45289140939712524,-0.122560054063797,0.6023619174957275
5.956316709518433,0.3315911591053009,-0.7799569368362427,0.8876795768737793,-0.4578709900379181,-0.10308244824409485,0.6047764420509338
5.976445913314819,0.3392985761165619,-0.7872579097747803,0.8924406170845032,-0.46051281690597534,-0.09618041664361954,0.6053851842880249
5.996493339538574,0.36413535475730896,-0.7922314405441284,0.9078116416931152,-0.46948596835136414,-0.08588799834251404,0.6057202816009521
6.016584396362305,0.3730134665966034,-0.7939194440841675,0.9174963235855103,-0.4720601439476013,-0.08443042635917664,0.6056910157203674
6.036659479141235,0.348768025636673,-0.7787432670593262,0.9299510717391968,-0.4724050462245941,-0.1063997745513916,0.603743851184845
6.056714057922363,0.31881818175315857,-0.7586612701416016,0.9287090301513672,-0.47187626361846924,-0.13109703361988068,0.6015340089797974
6.07680606842041,0.3014298975467682,-0.7498883008956909,0.9262152910232544,-0.46704861521720886,-0.14450930058956146,0.6000402569770813
6.096880197525024,0.2684870958328247,-0.7423408031463623,0.9021959900856018,-0.4585649371147156,-0.1541568487882614,0.5997766256332397
6.116945266723633,0.2761152684688568,-0.7496707439422607,0.883678674697876,-0.4535992443561554,-0.1413874626159668,0.6030142903327942
6.137042284011841,0.2885819971561432,-0.7599697113037109,0.8753290772438049,-0.4528566598892212,-0.12873873114585876,0.6044963598251343
6.157116889953613,0.3214908540248871,-0.7786329984664917,0.8824937343597412,-0.45427578687667847,-0.1073232889175415,0.6068565249443054
6.17803955078125,0.33318963646888733,-0.7868627309799194,0.8888957500457764,-0.4552649259567261,-0.09890808165073395,0.607865571975708
6.198133230209351,0.3616825342178345,-0.7975670099258423,0.9049146175384521,-0.4631665349006653,-0.08308012783527374,0.6088637709617615
6.218195199966431,0.3742424547672272,-0.7978990077972412,0.9283798933029175,-0.4699522852897644,-0.08466140925884247,0.6080544590950012
6.238282203674316,0.3629482388496399,-0.7871804237365723,0.9368610382080078,-0.4708879590034485,-0.0985790491104126,0.6066520810127258
6.258413553237915,0.33696696162223816,-0.7651362419128418,0.9417654275894165,-0.47100555896759033,-0.12642040848731995,0.6038592457771301
6.278460741043091,0.3130330741405487,-0.7581448554992676,0.9332635402679443,-0.4659131169319153,-0.13943903148174286,0.6021398305892944
6.298638820648193,0.2673032581806183,-0.7443238496780396,0.9092929363250732,-0.45457056164741516,-0.15705761313438416,0.6009094715118408
6.3186633586883545,0.27005860209465027,-0.7502529621124268,0.8829512596130371,-0.45128196477890015,-0.14301760494709015,0.6042349934577942
6.338752031326294,0.2816599905490875,-0.7600438594818115,0.8715429306030273,-0.45242905616760254,-0.12862657010555267,0.6064473986625671
6.35882568359375,0.3146906793117523,-0.7784136533737183,0.8754005432128906,-0.4501110911369324,-0.10553981363773346,0.6093587875366211
6.379327058792114,0.3461691439151764,-0.7984042167663574,0.901540219783783,-0.45341116189956665,-0.08864200115203857,0.6106412410736084
6.399445295333862,0.3603585660457611,-0.802971363067627,0.9094465970993042,-0.45729219913482666,-0.08208189904689789,0.6107282638549805
6.4195237159729,0.37507691979408264,-0.7974938154220581,0.9339845776557922,-0.4691094756126404,-0.08796246349811554,0.6091825366020203
6.439948797225952,0.3681991398334503,-0.7895255088806152,0.9425001740455627,-0.47152531147003174,-0.09876856207847595,0.6074553728103638
6.460050344467163,0.330337792634964,-0.7657506465911865,0.9390952587127686,-0.47354722023010254,-0.12809303402900696,0.60405433177948
6.480131387710571,0.30154046416282654,-0.7544296979904175,0.9254286289215088,-0.4665403366088867,-0.1441931575536728,0.6017117500305176
6.500396966934204,0.2777111530303955,-0.7487430572509766,0.9127886891365051,-0.4587337374687195,-0.1522214412689209,0.601050853729248
6.520543336868286,0.2604368329048157,-0.7473888397216797,0.879126787185669,-0.45232826471328735,-0.14586633443832397,0.6038153767585754
6.54060173034668,0.28013020753860474,-0.7651489973068237,0.8534639477729797,-0.4498952329158783,-0.11859875917434692,0.6084656119346619
6.560831308364868,0.3027125298976898,-0.7735463380813599,0.8586435317993164,-0.44668567180633545,-0.10537859797477722,0.6102700233459473
6.580862998962402,0.33605876564979553,-0.7947274446487427,0.8845055103302002,-0.4464934170246124,-0.08819639682769775,0.611565887928009
6.601068496704102,0.3722935616970062,-0.8023844957351685,0.9190057516098022,-0.45559513568878174,-0.07958613336086273,0.6117036938667297
6.621156692504883,0.38980400562286377,-0.8054049015045166,0.9304517507553101,-0.46189287304878235,-0.07497873902320862,0.6114692091941833
6.641302108764648,0.3766750693321228,-0.7883150577545166,0.9604275226593018,-0.47545498609542847,-0.10134999454021454,0.6067066788673401
6.661350965499878,0.3595047891139984,-0.7751295566558838,0.9649713039398193,-0.4798600673675537,-0.11916795372962952,0.6040681004524231
6.6814868450164795,0.317823201417923,-0.750456690788269,0.9525058269500732,-0.4806267321109772,-0.14804843068122864,0.600553035736084
6.701542854309082,0.2663399279117584,-0.7363059520721436,0.9246300458908081,-0.4684996008872986,-0.1672958880662918,0.5995439887046814
6.721634864807129,0.2514495551586151,-0.7324925661087036,0.905882716178894,-0.4631161093711853,-0.16750584542751312,0.6008629202842712
6.741852521896362,0.23126240074634552,-0.7345212697982788,0.8661158084869385,-0.4567650258541107,-0.15754476189613342,0.6055192947387695
6.761873960494995,0.23035630583763123,-0.7445638179779053,0.8396546244621277,-0.45255565643310547,-0.1405252069234848,0.6101722121238708
6.781931161880493,0.2440042644739151,-0.7564705610275269,0.8289130926132202,-0.4513477087020874,-0.12500551342964172,0.6124703884124756
6.802011728286743,0.30369940400123596,-0.7910438776016235,0.8387351036071777,-0.45060524344444275,-0.08642460405826569,0.6154388189315796
6.822232961654663,0.3734962046146393,-0.8270939588546753,0.8825041651725769,-0.4507756233215332,-0.051361896097660065,0.6156903505325317
6.842341423034668,0.3986414968967438,-0.8382034301757812,0.9073883295059204,-0.4513673484325409,-0.04202967509627342,0.6144590973854065
6.862444639205933,0.4422443211078644,-0.850957989692688,0.9499018788337708,-0.4582006335258484,-0.026527531445026398,0.6117044687271118
6.882551908493042,0.4502931237220764,-0.835930585861206,0.9713425040245056,-0.46404021978378296,-0.03945868834853172,0.6064959764480591
6.90265417098999,0.4508119523525238,-0.8256131410598755,0.9729277491569519,-0.465768039226532,-0.04733584448695183,0.6042026281356812
6.9227283000946045,0.43114832043647766,-0.7940113544464111,0.9798537492752075,-0.4678103029727936,-0.08007965981960297,0.5996125936508179
6.942879676818848,0.4105057418346405,-0.7788050174713135,0.977683961391449,-0.46649014949798584,-0.09748850762844086,0.5977388620376587
6.963018894195557,0.3265962302684784,-0.7424306869506836,0.9638622403144836,-0.46112850308418274,-0.1451520472764969,0.5952094197273254
6.9830546379089355,0.2349167913198471,-0.7106863260269165,0.9358972311019897,-0.45599108934402466,-0.18476852774620056,0.595317542552948
7.003162622451782,0.2068420797586441,-0.701815128326416,0.923401415348053,-0.4533444046974182,-0.19514738023281097,0.5959736108779907
7.023271799087524,0.18508605659008026,-0.7002015113830566,0.9047747254371643,-0.452836275100708,-0.1984293907880783,0.5990342497825623
7.043334484100342,0.203764408826828,-0.7142590284347534,0.8911741971969604,-0.4550827741622925,-0.18138763308525085,0.6039356589317322
7.063495635986328,0.22146441042423248,-0.7259217500686646,0.884588360786438,-0.4560696482658386,-0.16752959787845612,0.6066602468490601
7.083556652069092,0.2805321216583252,-0.7561966180801392,0.8829500675201416,-0.4612908363342285,-0.13107328116893768,0.6109833121299744
7.10434889793396,0.34148940443992615,-0.792377233505249,0.898471474647522,-0.46313053369522095,-0.09394775331020355,0.6126669049263
7.124439716339111,0.3522118628025055,-0.8027018308639526,0.9067273139953613,-0.46346527338027954,-0.08546322584152222,0.6127973198890686
7.144584894180298,0.3617944121360779,-0.8026093244552612,0.9180178642272949,-0.46943023800849915,-0.08191525936126709,0.6126353144645691
7.164644956588745,0.3567965626716614,-0.7968754768371582,0.9228338599205017,-0.47155630588531494,-0.08765490353107452,0.6121758222579956
7.184814214706421,0.32491084933280945,-0.7758557796478271,0.9189938306808472,-0.46978992223739624,-0.11124110221862793,0.6099663972854614
7.2047693729400635,0.29522958397865295,-0.7578670978546143,0.9142864942550659,-0.46229803562164307,-0.1349492222070694,0.6068742275238037
7.224855899810791,0.27507099509239197,-0.7495837211608887,0.910978376865387,-0.4567013382911682,-0.14881420135498047,0.6050575971603394
7.245115280151367,0.2760145664215088,-0.7492375373840332,0.900433361530304,-0.45071929693222046,-0.14843077957630157,0.605110228061676
7.265145540237427,0.28804972767829895,-0.7566444873809814,0.8967227935791016,-0.4496016502380371,-0.14016318321228027,0.6060448288917542
7.285310506820679,0.32199597358703613,-0.779082179069519,0.893000602722168,-0.45139753818511963,-0.11551134288311005,0.6082311868667603
7.305724859237671,0.35121336579322815,-0.7963180541992188,0.900782585144043,-0.45899271965026855,-0.09420406818389893,0.61039137840271
7.325892925262451,0.3652876913547516,-0.8026390075683594,0.9068438410758972,-0.4627907872200012,-0.08479903638362885,0.6111848950386047
7.345911979675293,0.35842564702033997,-0.7966409921646118,0.9216464757919312,-0.4737984836101532,-0.09160813689231873,0.6103794574737549
7.366100788116455,0.35186222195625305,-0.7881461381912231,0.9258540868759155,-0.4768051505088806,-0.09956429153680801,0.6096670031547546
7.386117696762085,0.3310869038105011,-0.7710890769958496,0.9233754277229309,-0.4749425947666168,-0.1165219098329544,0.6085644960403442
7.406213760375977,0.30163607001304626,-0.756102442741394,0.9220148324966431,-0.4676980674266815,-0.13905642926692963,0.6062930822372437
7.426385879516602,0.2801816165447235,-0.7497080564498901,0.9151157140731812,-0.4617953896522522,-0.1501762866973877,0.6049801111221313
7.446430444717407,0.2714272439479828,-0.7480161190032959,0.9003877639770508,-0.456068754196167,-0.15038812160491943,0.6053966283798218
7.466597080230713,0.2847045958042145,-0.7546548843383789,0.8935931921005249,-0.45391881465911865,-0.14026658236980438,0.6067888140678406
7.486701011657715,0.3131929337978363,-0.7752331495285034,0.8894374370574951,-0.45406410098075867,-0.11818775534629822,0.6086828112602234
7.506778001785278,0.3448764383792877,-0.7923235893249512,0.8990801572799683,-0.4600379467010498,-0.0975029468536377,0.6108737587928772
7.526858806610107,0.3553062379360199,-0.797888994216919,0.9040312767028809,-0.4633346199989319,-0.09006573259830475,0.611513078212738
7.546931266784668,0.36566177010536194,-0.7980443239212036,0.9185940027236938,-0.4704322814941406,-0.08790308237075806,0.6114278435707092
7.567045211791992,0.339527428150177,-0.7787617444992065,0.9250794649124146,-0.47122880816459656,-0.10954111814498901,0.609824001789093
7.587147951126099,0.32739701867103577,-0.7680515050888062,0.9247066974639893,-0.4707264304161072,-0.12167097628116608,0.6087567806243896
7.607266426086426,0.3009500801563263,-0.7539315223693848,0.9235819578170776,-0.46488434076309204,-0.14307059347629547,0.6061392426490784
7.627319097518921,0.2777082026004791,-0.7485224008560181,0.9170262813568115,-0.45894214510917664,-0.15381836891174316,0.6046128869056702
7.647407054901123,0.26617902517318726,-0.7450345754623413,0.901060163974762,-0.452332079410553,-0.1561497151851654,0.6047782301902771
7.6674721240997314,0.2789175808429718,-0.7581967115402222,0.8853160738945007,-0.4511077105998993,-0.1404999941587448,0.6071726679801941
7.6875669956207275,0.3004457652568817,-0.7694519758224487,0.8774142265319824,-0.4520304799079895,-0.1237122118473053,0.6089035868644714
7.707645893096924,0.34197768568992615,-0.789405345916748,0.8897097706794739,-0.4568626880645752,-0.10038742423057556,0.610848069190979
7.727752685546875,0.3603752851486206,-0.803963303565979,0.9099760055541992,-0.46116572618484497,-0.08828822523355484,0.6114171743392944
7.747870683670044,0.3649210035800934,-0.8023138046264648,0.9179770350456238,-0.46653687953948975,-0.08689841628074646,0.6115067005157471
7.767914056777954,0.357636421918869,-0.7890470027923584,0.9292773008346558,-0.471579372882843,-0.09975883364677429,0.6104605793952942
7.788184404373169,0.3467441499233246,-0.7786393165588379,0.9294614791870117,-0.4717559814453125,-0.1104680597782135,0.6096740961074829
7.808277130126953,0.3246496021747589,-0.7625960111618042,0.9283286929130554,-0.46780264377593994,-0.13100038468837738,0.6073614358901978
7.8283562660217285,0.27206656336784363,-0.7477841377258301,0.9176951050758362,-0.45485976338386536,-0.15920232236385345,0.6038101315498352
7.848446846008301,0.25803184509277344,-0.7431479692459106,0.9081904292106628,-0.45138639211654663,-0.16397446393966675,0.6040158867835999
7.868616819381714,0.25544455647468567,-0.7479386329650879,0.8858575224876404,-0.44965866208076477,-0.15565836429595947,0.6066692471504211
7.888619899749756,0.28908422589302063,-0.7676870822906494,0.8690942525863647,-0.45008817315101624,-0.1271936297416687,0.6102285385131836
7.908828973770142,0.30696699023246765,-0.7805178165435791,0.8674450516700745,-0.4498925507068634,-0.11283741891384125,0.6115468740463257
7.928869724273682,0.3501686751842499,-0.799875020980835,0.8998748064041138,-0.4522445499897003,-0.0948023647069931,0.6125891208648682
7.94888710975647,0.36700955033302307,-0.8070034980773926,0.919611930847168,-0.4616204798221588,-0.08813145011663437,0.6124471426010132
7.968994379043579,0.3761989176273346,-0.8029083013534546,0.9282260537147522,-0.4710938334465027,-0.08860515058040619,0.6121901869773865
7.989056348800659,0.35133668780326843,-0.7821080684661865,0.9354122877120972,-0.4738631844520569,-0.11190624535083771,0.6103761196136475
8.00942349433899,0.3375017046928406,-0.7710394859313965,0.9346411824226379,-0.4737471044063568,-0.12408216297626495,0.6091570258140564
8.029596328735352,0.294046550989151,-0.7533032894134521,0.9311838150024414,-0.46528053283691406,-0.15225160121917725,0.6058282852172852
8.049654245376587,0.26014161109924316,-0.7434687614440918,0.9128264784812927,-0.4553739130496979,-0.1656995564699173,0.6050993204116821
8.069716215133667,0.2610587775707245,-0.7456703186035156,0.900763988494873,-0.4546665847301483,-0.16005679965019226,0.6064883470535278
8.089800119400024,0.2745470702648163,-0.7594265937805176,0.8785816431045532,-0.45191824436187744,-0.13958285748958588,0.6099536418914795
8.109926462173462,0.31070205569267273,-0.7811503410339355,0.8715230822563171,-0.45065394043922424,-0.11084389686584473,0.6128950715065002
