liuyurong129/humanoid-gym/humanoid/data/target_q_20250521-001205.csv
timestamp,joint_1,joint_2,joint_3,joint_4,joint_5,joint_6
5.030632019042969e-05,0.0,0.0,0.0,0.0,0.0,0.0
0.02019047737121582,0.0,0.0,0.0,0.0,0.0,0.0
0.040235280990600586,0.0,0.0,0.0,0.0,0.0,0.0
0.060298919677734375,0.9702751636505127,-1.680619239807129,1.759148359298706,2.4341630935668945,-0.01786169782280922,0.7971026301383972
0.08034253120422363,0.547478973865509,-1.9778895378112793,2.8103675842285156,2.0709762573242188,0.5764101147651672,0.9702313542366028
0.10055923461914062,0.5725131034851074,-1.9512252807617188,2.8745474815368652,2.0263757705688477,0.6000701189041138,0.971875011920929
0.12072300910949707,0.5755496025085449,-1.9499385356903076,2.871901512145996,2.024871587753296,0.5979486107826233,0.971381664276123
0.14077162742614746,0.576124370098114,-1.9517802000045776,2.8687868118286133,2.0249104499816895,0.5951520204544067,0.9708386063575745
0.16092896461486816,0.577473521232605,-1.9531848430633545,2.868565559387207,2.0251383781433105,0.5951780080795288,0.9699093103408813
0.1810147762298584,0.5781835317611694,-1.9526971578598022,2.869023323059082,2.025289297103882,0.5958865284919739,0.9697343111038208
0.20116496086120605,0.5790268778800964,-1.9508754014968872,2.8698527812957764,2.025840997695923,0.5963746905326843,0.9692966938018799
0.22118186950683594,0.5805897116661072,-1.9490586519241333,2.869269371032715,2.0261571407318115,0.5965641736984253,0.9687424898147583
0.2413935661315918,0.5812951922416687,-1.9486223459243774,2.8664469718933105,2.025005340576172,0.5961422324180603,0.9683545827865601
0.26145315170288086,0.5819482803344727,-1.9506865739822388,2.8620588779449463,2.0239109992980957,0.5929632782936096,0.9680816531181335
0.281512975692749,0.5822827816009521,-1.9516198635101318,2.8610410690307617,2.023986339569092,0.592039167881012,0.9671135544776917
0.30164170265197754,0.5832394361495972,-1.9522016048431396,2.8604471683502197,2.023244619369507,0.591444730758667,0.9665756225585938
0.32169437408447266,0.5821071863174438,-1.9525446891784668,2.857677459716797,2.023009777069092,0.5907919406890869,0.9656366109848022
0.3417656421661377,0.5844078660011292,-1.9522866010665894,2.857560157775879,2.0228915214538574,0.5904399752616882,0.9643744826316833
0.36182546615600586,0.5852453112602234,-1.9520584344863892,2.858358860015869,2.0237810611724854,0.5906634330749512,0.9637464880943298
0.3819112777709961,0.5850592851638794,-1.953262209892273,2.854905128479004,2.022972583770752,0.588546633720398,0.9634515047073364
0.4019958972930908,0.5860543251037598,-1.9539695978164673,2.852365016937256,2.021484851837158,0.5872033834457397,0.9628459811210632
0.4221067428588867,0.5860990285873413,-1.9535139799118042,2.8509011268615723,2.0219407081604004,0.586763858795166,0.962135910987854
0.4421236515045166,0.5868785381317139,-1.9534742832183838,2.851412534713745,2.022637367248535,0.5869311094284058,0.9617868661880493
0.4621927738189697,0.5888403654098511,-1.9537274837493896,2.850245237350464,2.0218567848205566,0.5866204500198364,0.9605344533920288
0.4822509288787842,0.5905388593673706,-1.954293966293335,2.8481898307800293,2.0205087661743164,0.5856362581253052,0.959522008895874
0.5024182796478271,0.5918229222297668,-1.954983115196228,2.846820831298828,2.0198397636413574,0.5850056409835815,0.958489179611206
0.5224828720092773,0.5932220816612244,-1.9553207159042358,2.846783399581909,2.0203843116760254,0.585145115852356,0.9576396942138672
0.54256272315979,0.5944705605506897,-1.9556300640106201,2.84456729888916,2.0191922187805176,0.5835234522819519,0.9571670293807983
0.5626106262207031,0.594315767288208,-1.956274151802063,2.843930959701538,2.0193421840667725,0.5826854705810547,0.9565731883049011
0.5827453136444092,0.5952475070953369,-1.95638108253479,2.8424456119537354,2.0193538665771484,0.5825086832046509,0.9560961723327637
0.6028318405151367,0.596675455570221,-1.9564590454101562,2.842116594314575,2.018850326538086,0.5821150541305542,0.9552438259124756
0.6228542327880859,0.5983144044876099,-1.9561761617660522,2.8420984745025635,2.0186867713928223,0.5822077989578247,0.954295814037323
0.6429405212402344,0.5988826751708984,-1.955722689628601,2.840949296951294,2.018198251724243,0.581922173500061,0.9540419578552246
0.6630227565765381,0.5996662378311157,-1.956770896911621,2.8380892276763916,2.0166432857513428,0.5801388025283813,0.9530355334281921
0.6831352710723877,0.5992826819419861,-1.9581365585327148,2.835848808288574,2.016085147857666,0.5780235528945923,0.9520760178565979
0.703233003616333,0.5993860363960266,-1.9590175151824951,2.8332226276397705,2.0149383544921875,0.5766286849975586,0.951468825340271
0.723318338394165,0.5992978811264038,-1.9597445726394653,2.831294536590576,2.015798807144165,0.5761487483978271,0.9507681727409363
0.7433879375457764,0.5994138717651367,-1.9612011909484863,2.8281188011169434,2.0147407054901123,0.5729772448539734,0.9502848386764526
0.763542890548706,0.6008480191230774,-1.960446834564209,2.828340530395508,2.015568256378174,0.5742079019546509,0.9494449496269226
0.783663272857666,0.6009960770606995,-1.9609498977661133,2.8273181915283203,2.015305995941162,0.5731405019760132,0.9493592977523804
0.803727388381958,0.601886510848999,-1.9601244926452637,2.8287737369537354,2.0162291526794434,0.5741342306137085,0.9488149881362915
0.8237645626068115,0.6036726236343384,-1.959817886352539,2.8275814056396484,2.01564884185791,0.5736430883407593,0.9479702711105347
0.8438575267791748,0.6037039756774902,-1.9602423906326294,2.8253583908081055,2.014787197113037,0.5726521611213684,0.9480493068695068
0.863919734954834,0.605768084526062,-1.9605603218078613,2.8246543407440186,2.01400089263916,0.5722931623458862,0.9466953277587891
0.8840024471282959,0.6082054376602173,-1.9606958627700806,2.8240177631378174,2.0135931968688965,0.5723041892051697,0.945332407951355
0.904233455657959,0.6098055839538574,-1.961382508277893,2.822394609451294,2.0124411582946777,0.5718440413475037,0.9440812468528748
0.9242100715637207,0.6112335324287415,-1.9619457721710205,2.821943759918213,2.012505292892456,0.5709072351455688,0.9430135488510132
0.9442555904388428,0.6127984523773193,-1.9613940715789795,2.822873115539551,2.0131640434265137,0.5711368918418884,0.9422780871391296
0.9643077850341797,0.6116764545440674,-1.9616825580596924,2.8187596797943115,2.0116734504699707,0.5688103437423706,0.94246906042099
0.9843995571136475,0.6122733354568481,-1.962165117263794,2.818115711212158,2.011679172515869,0.5681444406509399,0.9418256878852844
1.0044777393341064,0.6118138432502747,-1.9626492261886597,2.8158984184265137,2.0109434127807617,0.5668706893920898,0.9413242936134338
1.0245587825775146,0.6116678714752197,-1.963175654411316,2.8148560523986816,2.010904312133789,0.5669595003128052,0.9406347870826721
1.0446455478668213,0.6106817126274109,-1.965184211730957,2.809891700744629,2.010258674621582,0.5633674263954163,0.9390910863876343
1.0647413730621338,0.6142980456352234,-1.9661905765533447,2.8086485862731934,2.008727788925171,0.5615030527114868,0.9377179741859436
1.0847909450531006,0.6146483421325684,-1.9664616584777832,2.8074419498443604,2.0086021423339844,0.5608876943588257,0.9367879629135132
1.1048939228057861,0.6157206296920776,-1.9659487009048462,2.8080549240112305,2.0090112686157227,0.5610270500183105,0.9362174272537231
1.1249639987945557,0.6175009608268738,-1.9659836292266846,2.806345224380493,2.0077452659606934,0.5603909492492676,0.9354686737060547
1.1450488567352295,0.6180941462516785,-1.9661039113998413,2.805219888687134,2.007730484008789,0.559762716293335,0.935154139995575
1.165079116821289,0.6195755004882812,-1.966073751449585,2.8053138256073,2.007422924041748,0.559796154499054,0.934319257736206
1.185157299041748,0.6199489831924438,-1.9663177728652954,2.8040242195129395,2.007378578186035,0.5596352219581604,0.9342018365859985
1.2052266597747803,0.6212907433509827,-1.9673526287078857,2.802682876586914,2.0067923069000244,0.559432864189148,0.9330330491065979
1.22530198097229,0.6237242817878723,-1.96871817111969,2.8032491207122803,2.006080389022827,0.5591140985488892,0.9314142465591431
1.2453672885894775,0.6244659423828125,-1.9686652421951294,2.8023808002471924,2.005244731903076,0.5579928159713745,0.9309240579605103
1.2654709815979004,0.6238200068473816,-1.968022108078003,2.8001973628997803,2.0055532455444336,0.5566064119338989,0.930902361869812
1.2855474948883057,0.6232465505599976,-1.9674714803695679,2.7982497215270996,2.0059165954589844,0.5568729043006897,0.9302093982696533
1.3055858612060547,0.6244562864303589,-1.9679014682769775,2.7969350814819336,2.0056188106536865,0.5551856160163879,0.929841935634613
1.3256750106811523,0.625321090221405,-1.96793532371521,2.796037435531616,2.00484561920166,0.5544113516807556,0.9292343258857727
1.3461472988128662,0.6266210675239563,-1.9682976007461548,2.7935893535614014,2.0043091773986816,0.553312361240387,0.9287812113761902
1.366182804107666,0.6275066137313843,-1.969480276107788,2.7928528785705566,2.003845453262329,0.5526003241539001,0.9276207685470581
1.3862557411193848,0.6276832222938538,-1.9698741436004639,2.7917580604553223,2.0037155151367188,0.5522502660751343,0.9274243116378784
1.4063732624053955,0.62901371717453,-1.9709835052490234,2.788756847381592,2.0018296241760254,0.5501853227615356,0.9266360998153687
1.4264390468597412,0.6279251575469971,-1.9711098670959473,2.788588523864746,2.0029520988464355,0.550127387046814,0.9255831241607666
1.446537971496582,0.6308421492576599,-1.9718338251113892,2.787076234817505,2.001204490661621,0.5490016937255859,0.9240269064903259
1.4666409492492676,0.6313167810440063,-1.9723503589630127,2.785799980163574,2.0008814334869385,0.5477261543273926,0.923701822757721
1.486738920211792,0.6322604417800903,-1.972472906112671,2.7850112915039062,2.0007436275482178,0.5473448038101196,0.9232522249221802
1.5069289207458496,0.6334792375564575,-1.9720852375030518,2.7846767902374268,2.000523090362549,0.5474223494529724,0.922544538974762
1.5269176959991455,0.6341423988342285,-1.9714174270629883,2.7858400344848633,2.001415252685547,0.5481736660003662,0.9222174882888794
1.5470714569091797,0.6350334882736206,-1.9718577861785889,2.783144950866699,2.000648021697998,0.5469961166381836,0.9216263294219971
1.5670909881591797,0.6357948184013367,-1.9713413715362549,2.7822506427764893,2.000399351119995,0.5469143390655518,0.921363115310669
1.5872046947479248,0.6349597573280334,-1.971687912940979,2.7807929515838623,2.000317096710205,0.5454984903335571,0.9213275909423828
1.6072771549224854,0.6343991756439209,-1.9712598323822021,2.7795250415802,2.0003538131713867,0.5451311469078064,0.9207020401954651
1.6273541450500488,0.6350175142288208,-1.9722486734390259,2.7767558097839355,1.999936580657959,0.5431264638900757,0.9202101230621338
1.6476433277130127,0.6353564262390137,-1.9726991653442383,2.776064395904541,1.9993503093719482,0.5425717830657959,0.9197473526000977
1.6677491664886475,0.6371081471443176,-1.9729547500610352,2.775228977203369,1.998672366142273,0.542198657989502,0.9186363816261292
1.687882423400879,0.6392461061477661,-1.972310185432434,2.774685859680176,1.9985790252685547,0.5432133078575134,0.9171991348266602
1.70798659324646,0.6406518220901489,-1.97233247756958,2.773820400238037,1.9985017776489258,0.5429943799972534,0.9163089394569397
1.7280666828155518,0.6414774060249329,-1.972414255142212,2.774108409881592,1.998572826385498,0.541854739189148,0.9157726764678955
1.7481505870819092,0.642647922039032,-1.9709783792495728,2.7741684913635254,1.999202013015747,0.5425902605056763,0.9153144359588623
1.7681879997253418,0.6420104503631592,-1.9712872505187988,2.7702951431274414,1.9984803199768066,0.5407751798629761,0.9148784875869751
1.7882716655731201,0.6412168145179749,-1.9712977409362793,2.7700090408325195,1.9991838932037354,0.5405824780464172,0.9148045778274536
1.8083581924438477,0.6425254940986633,-1.9725229740142822,2.7673237323760986,1.9976987838745117,0.539029598236084,0.9138579368591309
1.8284409046173096,0.64393550157547,-1.9726521968841553,2.7666800022125244,1.9976924657821655,0.5391075611114502,0.9130645394325256
1.8485596179962158,0.6450536251068115,-1.9746127128601074,2.7652535438537598,1.9966745376586914,0.5377322435379028,0.9115704298019409
1.868649959564209,0.6456451416015625,-1.9745639562606812,2.76542329788208,1.9968616962432861,0.5381308794021606,0.9110273122787476
1.8887503147125244,0.6467152237892151,-1.9738969802856445,2.7631194591522217,1.9960849285125732,0.5370833873748779,0.9103065133094788
1.9087846279144287,0.6446179747581482,-1.9735801219940186,2.7616190910339355,1.9968116283416748,0.5366404056549072,0.9102421402931213
1.9288625717163086,0.6452768445014954,-1.9737879037857056,2.7604496479034424,1.9963338375091553,0.53514164686203,0.9098659157752991
1.9489243030548096,0.646187424659729,-1.9745612144470215,2.7608323097229004,1.9969353675842285,0.5357219576835632,0.9093663692474365
1.9689841270446777,0.6470186114311218,-1.973418116569519,2.7594454288482666,1.9960083961486816,0.5340210199356079,0.9090348482131958
1.9892661571502686,0.6479053497314453,-1.9731454849243164,2.7586119174957275,1.9963949918746948,0.5342747569084167,0.9086316823959351
2.0093822479248047,0.6481974720954895,-1.9733573198318481,2.757500171661377,1.9954614639282227,0.5325352549552917,0.9085843563079834
2.0294854640960693,0.6496971845626831,-1.973659873008728,2.757841110229492,1.995125412940979,0.5331375002861023,0.9075933694839478
2.0495412349700928,0.6498288512229919,-1.97410249710083,2.7560226917266846,1.994828224182129,0.5318815112113953,0.9071761965751648
2.0696988105773926,0.6506156921386719,-1.9742918014526367,2.7543203830718994,1.9941799640655518,0.531629741191864,0.9063102006912231
2.089773178100586,0.6510753035545349,-1.9746623039245605,2.7536282539367676,1.9941458702087402,0.5311973690986633,0.9061934351921082
2.10986065864563,0.6514854431152344,-1.975813865661621,2.7530617713928223,1.9932324886322021,0.5300600528717041,0.9051311016082764
2.1299197673797607,0.6516904830932617,-1.9754555225372314,2.751391887664795,1.993514060974121,0.5298755764961243,0.9040902256965637
2.1501376628875732,0.6526809930801392,-1.9761757850646973,2.749474048614502,1.9930018186569214,0.5282942056655884,0.9034976363182068
2.1702215671539307,0.6532721519470215,-1.976743459701538,2.749129295349121,1.992295503616333,0.5272032618522644,0.9029918909072876
2.190295696258545,0.6547727584838867,-1.975548505783081,2.7502474784851074,1.9930682182312012,0.5282601118087769,0.9023648500442505
2.2104060649871826,0.6521050333976746,-1.9753482341766357,2.7463958263397217,1.992634892463684,0.5263135433197021,0.9022268056869507
2.2308366298675537,0.6521844863891602,-1.976089596748352,2.7435102462768555,1.9923877716064453,0.5242071151733398,0.9018527269363403
2.250962495803833,0.6532038450241089,-1.9768821001052856,2.7428698539733887,1.9918631315231323,0.5237404108047485,0.9011465907096863
2.2710506916046143,0.6542119979858398,-1.9773770570755005,2.7424216270446777,1.991678237915039,0.523023247718811,0.9006489515304565
2.2912135124206543,0.6561041474342346,-1.9772361516952515,2.7411293983459473,1.9904834032058716,0.5223219394683838,0.8993825912475586
2.311659812927246,0.656732439994812,-1.9784460067749023,2.739201307296753,1.9897027015686035,0.5201130509376526,0.8990162014961243
2.331743001937866,0.6581289768218994,-1.978503704071045,2.74031662940979,1.9902005195617676,0.5205858945846558,0.8980211019515991
2.351794958114624,0.6594036221504211,-1.9786816835403442,2.739248275756836,1.989426612854004,0.5197547674179077,0.8973162174224854
2.371866464614868,0.6598517894744873,-1.9782510995864868,2.738172769546509,1.9897863864898682,0.5202139616012573,0.8971155881881714
2.391930103302002,0.660955548286438,-1.9781348705291748,2.7372803688049316,1.989440679550171,0.5199296474456787,0.8963364958763123
2.4120073318481445,0.6607831716537476,-1.9791744947433472,2.7347474098205566,1.9886523485183716,0.517920196056366,0.8960745334625244
2.4320857524871826,0.6615748405456543,-1.979008674621582,2.7344679832458496,1.9887546300888062,0.5182087421417236,0.8954354524612427
2.452169179916382,0.661562979221344,-1.9782596826553345,2.7347898483276367,1.9890693426132202,0.5181870460510254,0.8948180079460144
2.472315549850464,0.6631907224655151,-1.9796422719955444,2.730884075164795,1.987268328666687,0.5152460932731628,0.8938204050064087
2.4923593997955322,0.6657036542892456,-1.9804569482803345,2.7305169105529785,1.986521601676941,0.5154339075088501,0.8920853137969971
2.512498140335083,0.666319727897644,-1.9801658391952515,2.7311551570892334,1.9865831136703491,0.5151330232620239,0.891680896282196
2.532503128051758,0.6672837734222412,-1.981297492980957,2.7282590866088867,1.9853861331939697,0.5136072635650635,0.8910720348358154
2.552570343017578,0.6683647632598877,-1.981217861175537,2.7287991046905518,1.985420823097229,0.5140978693962097,0.8902783393859863
2.5726230144500732,0.6682713031768799,-1.981398582458496,2.727267265319824,1.985088586807251,0.5127620697021484,0.8900552988052368
2.5927093029022217,0.668785810470581,-1.9809730052947998,2.7269365787506104,1.9852335453033447,0.5130130052566528,0.8894683122634888
2.6127769947052,0.6696346402168274,-1.9807981252670288,2.7256689071655273,1.9848432540893555,0.5128053426742554,0.8889516592025757
2.6329643726348877,0.6679860949516296,-1.981841802597046,2.7222156524658203,1.9848743677139282,0.5108575820922852,0.8885183930397034
2.653001546859741,0.6698315739631653,-1.9819124937057495,2.72324538230896,1.9851808547973633,0.510930061340332,0.8874675035476685
2.673166513442993,0.6702311635017395,-1.9820013046264648,2.7222254276275635,1.984303593635559,0.5105233192443848,0.8870199918746948
2.693173885345459,0.6718360781669617,-1.9830081462860107,2.7211172580718994,1.983483910560608,0.5092771053314209,0.8858538866043091
2.7132208347320557,0.6724477410316467,-1.9825339317321777,2.7202887535095215,1.9837732315063477,0.508506178855896,0.8856793642044067
2.733271598815918,0.6722940802574158,-1.9826393127441406,2.7177157402038574,1.9833509922027588,0.5080298781394958,0.8850374221801758
2.7533605098724365,0.6725019216537476,-1.9826998710632324,2.7173540592193604,1.9834809303283691,0.5076934099197388,0.8848691582679749
2.773423910140991,0.6717654466629028,-1.9831277132034302,2.7155818939208984,1.9833186864852905,0.5068294405937195,0.884514570236206
2.7934982776641846,0.6728844046592712,-1.9836827516555786,2.7151787281036377,1.9827837944030762,0.5059910416603088,0.8839582800865173
2.813586711883545,0.6735401749610901,-1.9838300943374634,2.71563720703125,1.9833452701568604,0.5058848261833191,0.8835687637329102
2.8336851596832275,0.6745994091033936,-1.9831600189208984,2.7150626182556152,1.982682466506958,0.5060101747512817,0.8830021619796753
2.853776216506958,0.6745588779449463,-1.9834954738616943,2.7120633125305176,1.9823083877563477,0.5047084093093872,0.8825006484985352
2.8739330768585205,0.6760777235031128,-1.9845160245895386,2.7110772132873535,1.9816664457321167,0.5046641826629639,0.8813340067863464
2.893967866897583,0.6769737005233765,-1.9850342273712158,2.7117581367492676,1.9815412759780884,0.5045115947723389,0.8806084394454956
2.9140052795410156,0.6782138347625732,-1.9844746589660645,2.711569309234619,1.9814622402191162,0.5037571787834167,0.8799131512641907
2.934075355529785,0.6790457367897034,-1.9845869541168213,2.709160566329956,1.9809510707855225,0.5030632019042969,0.8793544769287109
2.954144239425659,0.6793936491012573,-1.9846783876419067,2.709277629852295,1.9813638925552368,0.5030734539031982,0.8791643381118774
2.974296808242798,0.6783103942871094,-1.9840342998504639,2.7072842121124268,1.9810922145843506,0.5023438930511475,0.8788529634475708
2.9943859577178955,0.675865650177002,-1.984671950340271,2.705493688583374,1.9813671112060547,0.5009660720825195,0.8791059255599976
3.0144553184509277,0.6735337972640991,-1.9850646257400513,2.702455759048462,1.9809038639068604,0.49967747926712036,0.879031240940094
3.0345308780670166,0.6750594973564148,-1.9851267337799072,2.7025976181030273,1.9814703464508057,0.4989349842071533,0.8785123229026794
3.054610013961792,0.6755412817001343,-1.9860481023788452,2.700369358062744,1.9807276725769043,0.49663183093070984,0.8784347176551819
3.0746893882751465,0.6761579513549805,-1.9859051704406738,2.7005109786987305,1.9805305004119873,0.4967266023159027,0.8778485059738159
3.0947554111480713,0.6774534583091736,-1.9860330820083618,2.6995491981506348,1.9802716970443726,0.4964416027069092,0.8771139979362488
3.1148321628570557,0.6788160800933838,-1.9861310720443726,2.698740005493164,1.9801565408706665,0.4973066747188568,0.8762063384056091
3.1348791122436523,0.680449903011322,-1.9864250421524048,2.6987013816833496,1.9795914888381958,0.4971800744533539,0.8751776218414307
3.1549644470214844,0.681090235710144,-1.987163782119751,2.6978392601013184,1.9787253141403198,0.4961920976638794,0.8747397065162659
3.175048351287842,0.6825911998748779,-1.9875550270080566,2.696885585784912,1.978187084197998,0.4956014156341553,0.8734872937202454
3.1952333450317383,0.6833863258361816,-1.9870415925979614,2.696366310119629,1.9784607887268066,0.4953005611896515,0.8733172416687012
3.215191602706909,0.6840170621871948,-1.9873591661453247,2.6948137283325195,1.977927803993225,0.49438709020614624,0.8730069994926453
3.235262870788574,0.6847246289253235,-1.9876132011413574,2.695143222808838,1.9777296781539917,0.49437642097473145,0.8724877238273621
3.25539231300354,0.6855560541152954,-1.987817645072937,2.6944375038146973,1.977504014968872,0.494596004486084,0.8719911575317383
3.2754268646240234,0.6869956851005554,-1.9866547584533691,2.6941332817077637,1.9772193431854248,0.49491119384765625,0.8712238669395447
3.2954893112182617,0.6860928535461426,-1.986867070198059,2.692770004272461,1.977813720703125,0.4936302900314331,0.8712124228477478
3.315538167953491,0.6864792704582214,-1.9867238998413086,2.691929340362549,1.9770129919052124,0.49320995807647705,0.8707911968231201
3.3356261253356934,0.6853073835372925,-1.9871917963027954,2.689903497695923,1.9767504930496216,0.4915933907032013,0.8707977533340454
3.3557040691375732,0.6831337213516235,-1.9878125190734863,2.688033103942871,1.977232575416565,0.4903978407382965,0.870532214641571
3.3757574558258057,0.6837933659553528,-1.9889748096466064,2.685896635055542,1.9761900901794434,0.48883339762687683,0.8694373369216919
3.395841598510742,0.6856100559234619,-1.9899892807006836,2.684934616088867,1.9758002758026123,0.48852092027664185,0.8683074116706848
3.415924549102783,0.686151385307312,-1.9900785684585571,2.6851823329925537,1.9761697053909302,0.48880165815353394,0.8680699467658997
3.435979127883911,0.6868258714675903,-1.9903326034545898,2.6854238510131836,1.9758217334747314,0.48869767785072327,0.8674464225769043
3.4560656547546387,0.6877942681312561,-1.9894123077392578,2.6845359802246094,1.9759714603424072,0.48845601081848145,0.866996169090271
3.476104259490967,0.6889204978942871,-1.989581823348999,2.682093620300293,1.975386142730713,0.4876370429992676,0.8664071559906006
3.4961905479431152,0.6891862154006958,-1.9900978803634644,2.681209087371826,1.974902868270874,0.4865458309650421,0.8662663698196411
3.51625657081604,0.6896060109138489,-1.9904272556304932,2.681668758392334,1.9755488634109497,0.4868845045566559,0.8660153150558472
3.536320924758911,0.6910285353660583,-1.9898139238357544,2.681647777557373,1.9749984741210938,0.48608216643333435,0.8652874231338501
3.5563721656799316,0.6919508576393127,-1.989661455154419,2.6802444458007812,1.9747381210327148,0.48596593737602234,0.864658534526825
3.5765585899353027,0.6917292475700378,-1.989384651184082,2.67851185798645,1.9744877815246582,0.485948771238327,0.864433228969574
3.5965917110443115,0.6927147507667542,-1.9892611503601074,2.677412986755371,1.974597454071045,0.4852293133735657,0.8644169569015503
3.6166622638702393,0.6928824186325073,-1.9895915985107422,2.6780905723571777,1.9743257761001587,0.4855532646179199,0.8636138439178467
3.636702060699463,0.69403475522995,-1.989401936531067,2.677374839782715,1.974320650100708,0.4846639037132263,0.8629927039146423
3.6568403244018555,0.6946977972984314,-1.9890592098236084,2.676421642303467,1.9737950563430786,0.4847903251647949,0.8625481724739075
3.6768569946289062,0.6966148018836975,-1.990222692489624,2.6748013496398926,1.9725866317749023,0.4837152063846588,0.8611387610435486
3.6969237327575684,0.6978118419647217,-1.989733099937439,2.675175428390503,1.9726452827453613,0.48420068621635437,0.8603135347366333
3.717115640640259,0.6975630521774292,-1.989405870437622,2.6723694801330566,1.972449779510498,0.48257607221603394,0.8600122332572937
3.73720383644104,0.6978214979171753,-1.989835262298584,2.672084331512451,1.972404956817627,0.48267805576324463,0.8595288991928101
3.757289409637451,0.6964738965034485,-1.9911837577819824,2.669262409210205,1.9715521335601807,0.4803087115287781,0.8595669269561768
3.7773597240448,0.6979884505271912,-1.9917881488800049,2.671548366546631,1.971919059753418,0.48104482889175415,0.858623206615448
3.7974538803100586,0.6985526084899902,-1.9918076992034912,2.669546604156494,1.9703824520111084,0.4798807203769684,0.858339250087738
3.8175048828125,0.6988207101821899,-1.9912512302398682,2.668717622756958,1.9704151153564453,0.4794497489929199,0.8577158451080322
3.837584972381592,0.6997948884963989,-1.9908215999603271,2.668093204498291,1.9703432321548462,0.4791716933250427,0.8573929667472839
3.857637882232666,0.7007117867469788,-1.9911856651306152,2.667239189147949,1.9700292348861694,0.4790257215499878,0.8567047119140625
3.8777403831481934,0.6996074914932251,-1.9916598796844482,2.665728807449341,1.9695360660552979,0.47737598419189453,0.8567278385162354
3.8978450298309326,0.6999754309654236,-1.991668939590454,2.6652166843414307,1.9697048664093018,0.47749000787734985,0.855774998664856
3.917919874191284,0.7019450664520264,-1.9920728206634521,2.6644582748413086,1.9687871932983398,0.47672367095947266,0.8542041778564453
3.937981367111206,0.7022506594657898,-1.9930140972137451,2.662548065185547,1.9684553146362305,0.4758073389530182,0.8541582226753235
3.958075523376465,0.7030859589576721,-1.9923217296600342,2.661921977996826,1.9685194492340088,0.474803626537323,0.853720486164093
3.978137731552124,0.7040324211120605,-1.9928090572357178,2.6611697673797607,1.9685313701629639,0.4751196503639221,0.8528733253479004
3.9981894493103027,0.7049821019172668,-1.9922003746032715,2.6609585285186768,1.9682221412658691,0.47513777017593384,0.8525569438934326
4.018937110900879,0.7044522166252136,-1.9933018684387207,2.658050537109375,1.9672470092773438,0.47266557812690735,0.8521537184715271
4.039024829864502,0.7049475312232971,-1.9928884506225586,2.6591641902923584,1.9682883024215698,0.47388702630996704,0.8518447279930115
4.059071063995361,0.702461838722229,-1.9928276538848877,2.6566760540008545,1.9682846069335938,0.4715595245361328,0.851772129535675
4.079133033752441,0.7043365240097046,-1.994194507598877,2.6535286903381348,1.9666223526000977,0.4697515368461609,0.8506819009780884
4.099186420440674,0.705134391784668,-1.9933136701583862,2.6559295654296875,1.9682174921035767,0.4716779887676239,0.8502680063247681
4.119263410568237,0.7055517435073853,-1.993770718574524,2.653244733810425,1.9664576053619385,0.46947652101516724,0.8501383066177368
4.13938045501709,0.706943690776825,-1.995427131652832,2.652153491973877,1.9659465551376343,0.4689118266105652,0.8488125801086426
4.159466981887817,0.7082921266555786,-1.9959285259246826,2.6524481773376465,1.9652676582336426,0.46891701221466064,0.8478221297264099
4.179540157318115,0.7090447545051575,-1.9952541589736938,2.653033494949341,1.9660148620605469,0.4696977138519287,0.8474476337432861
4.199632406234741,0.7100341320037842,-1.9943737983703613,2.6516897678375244,1.965667724609375,0.4690186381340027,0.8469985127449036
4.219689846038818,0.7088353037834167,-1.9951481819152832,2.649535655975342,1.9655238389968872,0.46758824586868286,0.8469856977462769
4.239758491516113,0.7077618837356567,-1.9948923587799072,2.64984130859375,1.9659157991409302,0.4678034484386444,0.846686840057373
4.2598066329956055,0.7096015810966492,-1.9944000244140625,2.649965763092041,1.9656527042388916,0.46730902791023254,0.8458337187767029
4.279893398284912,0.7099178433418274,-1.9943010807037354,2.647925853729248,1.9649739265441895,0.4668962359428406,0.8458606004714966
4.299973726272583,0.709778368473053,-1.9951488971710205,2.645838975906372,1.9642908573150635,0.464801162481308,0.8454356789588928
4.320089340209961,0.7102830410003662,-1.9962871074676514,2.6455211639404297,1.9642921686172485,0.46489039063453674,0.8447239398956299
4.340162038803101,0.711643636226654,-1.995558738708496,2.6454596519470215,1.9637621641159058,0.4653846323490143,0.8440727591514587
4.3603551387786865,0.7134113311767578,-1.9953880310058594,2.6455914974212646,1.9636094570159912,0.46549156308174133,0.8427924513816833
4.380431890487671,0.7138035297393799,-1.9953782558441162,2.6451025009155273,1.963325023651123,0.46540412306785583,0.8423979878425598
4.40054178237915,0.7120346426963806,-1.995671272277832,2.642432689666748,1.9628844261169434,0.4634285867214203,0.8416486978530884
4.420562982559204,0.7125998735427856,-1.9963799715042114,2.6407101154327393,1.9630014896392822,0.46176010370254517,0.8416260480880737
4.440703392028809,0.7136395573616028,-1.9967663288116455,2.6415650844573975,1.9633290767669678,0.46329304575920105,0.8408800363540649
4.460791349411011,0.7137033343315125,-1.9966068267822266,2.6385772228240967,1.962000846862793,0.4600078761577606,0.8410272598266602
4.480856657028198,0.7148640751838684,-1.9964121580123901,2.639252185821533,1.9628827571868896,0.4615110754966736,0.84013831615448
4.500971555709839,0.7161405682563782,-1.9961316585540771,2.6388213634490967,1.9623842239379883,0.46163833141326904,0.8397839069366455
4.520988702774048,0.7170199751853943,-1.9955406188964844,2.638850450515747,1.9625648260116577,0.46189945936203003,0.8391070365905762
4.541152477264404,0.7163036465644836,-1.9963527917861938,2.6362862586975098,1.9614418745040894,0.4598398804664612,0.8388752937316895
4.561182737350464,0.7172905206680298,-1.9960176944732666,2.6373915672302246,1.9625465869903564,0.46094995737075806,0.8380240201950073
4.581240177154541,0.7181236147880554,-1.996718168258667,2.6345975399017334,1.9613324403762817,0.4594700336456299,0.8376057744026184
4.6012890338897705,0.7178971171379089,-1.9974381923675537,2.633523941040039,1.9610803127288818,0.4584827423095703,0.8366773724555969
4.6213860511779785,0.7183895707130432,-1.998192548751831,2.6323771476745605,1.9600481986999512,0.4576694369316101,0.8362139463424683
4.641445159912109,0.7176619172096252,-1.99838125705719,2.631906509399414,1.9612507820129395,0.45748990774154663,0.836087703704834
4.661603212356567,0.7192127704620361,-1.998666524887085,2.6305313110351562,1.960315227508545,0.45662379264831543,0.8352580070495605
4.681773662567139,0.7197681665420532,-1.997565746307373,2.6300175189971924,1.960686206817627,0.456344872713089,0.8351374268531799
4.701754808425903,0.7200526595115662,-1.9979467391967773,2.629356861114502,1.960686206817627,0.4566974937915802,0.8349329233169556
4.721871614456177,0.7196228504180908,-1.997941255569458,2.6297502517700195,1.9610109329223633,0.4559963643550873,0.8345456123352051
4.74194598197937,0.720218300819397,-1.9973042011260986,2.627741575241089,1.9598647356033325,0.4550457000732422,0.8339575529098511
4.761993885040283,0.7178500294685364,-1.9975415468215942,2.6249520778656006,1.9604434967041016,0.4542081356048584,0.8339627981185913
4.782162666320801,0.7184891700744629,-1.997789740562439,2.6244781017303467,1.960723876953125,0.45369288325309753,0.8338936567306519
4.80225944519043,0.7184308171272278,-1.9978591203689575,2.625349760055542,1.9611132144927979,0.4538423717021942,0.8338404893875122
4.822346210479736,0.7195026278495789,-1.9971917867660522,2.6245222091674805,1.9605406522750854,0.4539340138435364,0.8332561254501343
4.842425346374512,0.7206808924674988,-1.9974076747894287,2.6239967346191406,1.960042119026184,0.45343858003616333,0.8324666619300842
4.862483978271484,0.7221299409866333,-1.996870994567871,2.6238105297088623,1.96009361743927,0.45386749505996704,0.8317000865936279
4.882603883743286,0.7227622866630554,-1.9972093105316162,2.6232125759124756,1.9596915245056152,0.4534640908241272,0.8312762975692749
4.902731657028198,0.7242016792297363,-1.997359275817871,2.6230008602142334,1.9588804244995117,0.4533569812774658,0.830191969871521
4.92280387878418,0.7251937389373779,-1.9979581832885742,2.621680974960327,1.958844780921936,0.45234203338623047,0.8294080495834351
4.942833423614502,0.7260677814483643,-1.9981820583343506,2.620134115219116,1.9577586650848389,0.45086798071861267,0.8290652632713318
4.962921142578125,0.7255781888961792,-1.9981924295425415,2.620515823364258,1.958484172821045,0.45094454288482666,0.8287161588668823
4.9829936027526855,0.7262253165245056,-1.9977103471755981,2.618959426879883,1.9577933549880981,0.45139163732528687,0.8280737400054932
5.00309944152832,0.725677490234375,-1.9989219903945923,2.6173532009124756,1.9575598239898682,0.4497532546520233,0.827802300453186
5.0231828689575195,0.7272454500198364,-1.9987330436706543,2.618128776550293,1.9568266868591309,0.4502527713775635,0.8269379138946533
5.0432963371276855,0.7272629737854004,-1.998876929283142,2.6174464225769043,1.9570391178131104,0.4497990310192108,0.8268634080886841
5.063381671905518,0.7287421226501465,-1.9981380701065063,2.616323232650757,1.9564828872680664,0.4496832489967346,0.8260915875434875
5.083454608917236,0.7297831773757935,-1.9976881742477417,2.616027355194092,1.9566490650177002,0.4492916464805603,0.8255476355552673
5.103489875793457,0.7309129238128662,-1.9980021715164185,2.615356922149658,1.9556679725646973,0.4487960636615753,0.8245670199394226
5.123587369918823,0.7318952083587646,-1.998936653137207,2.6148219108581543,1.9556751251220703,0.4481971263885498,0.8233777284622192
5.1436448097229,0.7321102619171143,-1.9994323253631592,2.6131515502929688,1.955157995223999,0.4469943344593048,0.8229131698608398
5.163710594177246,0.7327872514724731,-1.9991123676300049,2.6124470233917236,1.9551279544830322,0.44793546199798584,0.8224992156028748
5.183754205703735,0.731511116027832,-1.9989749193191528,2.6112852096557617,1.9555134773254395,0.44664466381073,0.8226724863052368
5.203843832015991,0.7298017740249634,-1.9989173412322998,2.609530448913574,1.954514980316162,0.4448103904724121,0.8224822282791138
5.223999738693237,0.7294929623603821,-2.0002894401550293,2.606130838394165,1.9544308185577393,0.4427105188369751,0.8223252296447754
5.244022846221924,0.7307485938072205,-1.9995486736297607,2.606900215148926,1.9548051357269287,0.4433289170265198,0.8217822313308716
5.264264106750488,0.7312001585960388,-2.000880002975464,2.605323076248169,1.9548979997634888,0.44296401739120483,0.8214490413665771
5.284348487854004,0.7313242554664612,-2.000807762145996,2.6056058406829834,1.9548275470733643,0.4428577423095703,0.8213599920272827
5.304471015930176,0.7313946485519409,-1.9994134902954102,2.6066226959228516,1.955093264579773,0.4437486529350281,0.8206377625465393
5.324498414993286,0.7319405674934387,-1.9986510276794434,2.6046876907348633,1.9550905227661133,0.44346320629119873,0.8205020427703857
5.344811201095581,0.733258068561554,-1.9986941814422607,2.6043643951416016,1.9546691179275513,0.4430314600467682,0.8197692632675171
5.364892244338989,0.7338114976882935,-1.9984428882598877,2.6038002967834473,1.9546626806259155,0.4431062936782837,0.8192542791366577
5.384958744049072,0.7338295578956604,-1.9979898929595947,2.6035444736480713,1.95488440990448,0.44230225682258606,0.8187525272369385
5.405031204223633,0.7350950241088867,-1.998474359512329,2.602465867996216,1.9542803764343262,0.4418514370918274,0.8176778554916382
5.425093650817871,0.7363269329071045,-1.9997309446334839,2.600972890853882,1.9529149532318115,0.44102346897125244,0.8169034123420715
5.4452064037323,0.7370238900184631,-2.0000219345092773,2.6008124351501465,1.952802300453186,0.44118237495422363,0.8162407279014587
5.465289831161499,0.7380801439285278,-1.999501347541809,2.6013875007629395,1.952993631362915,0.4407363831996918,0.8157947659492493
5.485339164733887,0.7394684553146362,-1.999758005142212,2.5989675521850586,1.9515434503555298,0.4395349621772766,0.8150235414505005
5.505398511886597,0.7405413389205933,-2.000514507293701,2.599315881729126,1.951760172843933,0.439500629901886,0.8143411874771118
5.525479078292847,0.7407986521720886,-2.000478744506836,2.5986146926879883,1.951103925704956,0.440131276845932,0.8141421675682068
5.54554557800293,0.7399983406066895,-2.001497268676758,2.5964763164520264,1.9509377479553223,0.4385688304901123,0.8137215971946716
5.565619945526123,0.7381983399391174,-2.0017025470733643,2.5942881107330322,1.9504005908966064,0.43716663122177124,0.8131164908409119
5.585686445236206,0.7400281429290771,-2.001889705657959,2.594731330871582,1.950365424156189,0.4365506172180176,0.8119797706604004
5.605822563171387,0.7410515546798706,-2.002225875854492,2.5932750701904297,1.9498481750488281,0.4369174838066101,0.811383068561554
5.625878095626831,0.7402784824371338,-2.002495288848877,2.591801166534424,1.9498347043991089,0.435141921043396,0.811032235622406
5.6459434032440186,0.7395534515380859,-2.0025811195373535,2.589649200439453,1.9498679637908936,0.43346455693244934,0.8107368350028992
5.666050910949707,0.7405073642730713,-2.00177001953125,2.5896377563476562,1.9502429962158203,0.434653639793396,0.810274600982666
5.686131954193115,0.7407412528991699,-2.0016684532165527,2.5898935794830322,1.9507137537002563,0.4347408413887024,0.8101728558540344
5.7061827182769775,0.7421057820320129,-2.0016727447509766,2.589282512664795,1.949684500694275,0.43419376015663147,0.8093996644020081
5.726290225982666,0.7425413727760315,-2.0021443367004395,2.587916135787964,1.9497694969177246,0.433648020029068,0.8091869354248047
5.746304512023926,0.7437333464622498,-2.001447916030884,2.5874767303466797,1.9495607614517212,0.4338512420654297,0.8085222244262695
5.766386985778809,0.743877112865448,-2.001434803009033,2.5865840911865234,1.9492403268814087,0.432382732629776,0.8085574507713318
5.786529064178467,0.7449979186058044,-2.002392292022705,2.584806442260742,1.9486985206604004,0.4319673776626587,0.8077917695045471
5.80665397644043,0.7444627285003662,-2.003190040588379,2.5835907459259033,1.9489355087280273,0.43134936690330505,0.807320237159729
5.826770067214966,0.746342658996582,-2.0030689239501953,2.5847177505493164,1.9482271671295166,0.4321165084838867,0.8059301376342773
5.847196340560913,0.7476118803024292,-2.0035994052886963,2.582663059234619,1.9463070631027222,0.4306943714618683,0.8049616813659668
5.867311716079712,0.7487732172012329,-2.0038139820098877,2.5825576782226562,1.947038173675537,0.43071210384368896,0.8040894269943237
5.887366056442261,0.7454606890678406,-2.0026166439056396,2.580345392227173,1.9479451179504395,0.42998015880584717,0.8038986325263977
5.907413482666016,0.7431128621101379,-2.002781867980957,2.578831434249878,1.9487698078155518,0.4290284514427185,0.8036613464355469
5.927538633346558,0.7444072961807251,-2.00270676612854,2.5778470039367676,1.9486849308013916,0.4286041259765625,0.8032597303390503
5.947667121887207,0.7446233034133911,-2.0027525424957275,2.5771732330322266,1.9482431411743164,0.42699766159057617,0.8032807111740112
5.967700719833374,0.7460237741470337,-2.0028562545776367,2.575496196746826,1.94777512550354,0.42626094818115234,0.802381157875061
5.98796272277832,0.747846245765686,-2.003450393676758,2.5738282203674316,1.9464495182037354,0.42622044682502747,0.8011778593063354
6.00898814201355,0.749273955821991,-2.00516414642334,2.5737357139587402,1.946103811264038,0.4263300895690918,0.7999906539916992
6.029044151306152,0.7499840259552002,-2.004912853240967,2.574695110321045,1.9462039470672607,0.4259166121482849,0.7994413375854492
6.049129009246826,0.7505131959915161,-2.00555157661438,2.571737289428711,1.945521354675293,0.4241955578327179,0.7989213466644287
6.069214820861816,0.7516263127326965,-2.0040135383605957,2.573105812072754,1.9459437131881714,0.42494505643844604,0.7985744476318359
6.089255332946777,0.7519984245300293,-2.0037693977355957,2.572023630142212,1.9458693265914917,0.4243127703666687,0.7984085083007812
6.109381437301636,0.7523186206817627,-2.0033929347991943,2.570998430252075,1.9456415176391602,0.4242534935474396,0.7983108758926392
6.129408121109009,0.7532967925071716,-2.003854751586914,2.569589853286743,1.9451465606689453,0.4240241050720215,0.7976014614105225
6.149535417556763,0.754452109336853,-2.0041933059692383,2.5705783367156982,1.9452333450317383,0.42415446043014526,0.7967196106910706
6.169577121734619,0.7538625597953796,-2.004382610321045,2.5679759979248047,1.9444024562835693,0.4221588373184204,0.796434223651886
6.189720153808594,0.7540832757949829,-2.0040669441223145,2.567873477935791,1.9443622827529907,0.4219800531864166,0.7962108850479126
6.209799528121948,0.7537946701049805,-2.005119800567627,2.564821720123291,1.943239688873291,0.4200373888015747,0.7956541776657104
6.229873180389404,0.753595769405365,-2.0058767795562744,2.563655376434326,1.94340181350708,0.41897982358932495,0.7952844500541687
6.249937057495117,0.7558073401451111,-2.005951404571533,2.563216209411621,1.9420382976531982,0.41864365339279175,0.7936314940452576
6.270003795623779,0.756892204284668,-2.0066490173339844,2.5624873638153076,1.9422988891601562,0.4188432991504669,0.7930102944374084
6.290098428726196,0.7577989101409912,-2.0060524940490723,2.5634634494781494,1.94248366355896,0.41962677240371704,0.7923726439476013
6.310149669647217,0.7567550539970398,-2.006394386291504,2.560652017593384,1.942069172859192,0.4180046617984772,0.7924855947494507
6.330212831497192,0.7555596828460693,-2.007328510284424,2.55936336517334,1.9422831535339355,0.41683703660964966,0.7921344041824341
6.350261688232422,0.7560687065124512,-2.0072765350341797,2.558908224105835,1.942211389541626,0.4161001443862915,0.7920312881469727
6.370410680770874,0.7563239336013794,-2.006878614425659,2.558558940887451,1.942244529724121,0.4159402549266815,0.7919150590896606
6.390455961227417,0.7568880319595337,-2.006237030029297,2.5572872161865234,1.9419209957122803,0.4146404564380646,0.7916180491447449
6.410524845123291,0.7575300335884094,-2.006669282913208,2.555729389190674,1.941333293914795,0.4142772853374481,0.7913120985031128
6.430588245391846,0.7586312294006348,-2.006317138671875,2.5562100410461426,1.9412609338760376,0.4146309792995453,0.7906497716903687
6.450740098953247,0.7580929398536682,-2.0066335201263428,2.554752826690674,1.941243052482605,0.4136945307254791,0.7902104258537292
6.470777750015259,0.7593782544136047,-2.0065174102783203,2.5535287857055664,1.9407298564910889,0.41334646940231323,0.7895359396934509
6.490830659866333,0.7605208158493042,-2.0075652599334717,2.5533690452575684,1.9405579566955566,0.41302844882011414,0.788530707359314
6.510886192321777,0.7598419189453125,-2.0069756507873535,2.5514910221099854,1.9399244785308838,0.4121154248714447,0.7881308794021606
6.530971527099609,0.7603516578674316,-2.0061678886413574,2.5535778999328613,1.9410488605499268,0.4133784770965576,0.7874541878700256
6.5510382652282715,0.7607946395874023,-2.0061564445495605,2.5517830848693848,1.940508484840393,0.4123876690864563,0.786788821220398
6.571111679077148,0.7617090940475464,-2.0055689811706543,2.550595760345459,1.940757393836975,0.41217121481895447,0.786430835723877
6.5912158489227295,0.7622416019439697,-2.005626678466797,2.5488147735595703,1.9402315616607666,0.4109901487827301,0.7861193418502808
6.611323833465576,0.7626932859420776,-2.005734920501709,2.547880172729492,1.9399945735931396,0.4104921519756317,0.7859535217285156
6.631381273269653,0.7626049518585205,-2.006267786026001,2.548691749572754,1.9405485391616821,0.41089752316474915,0.7850545048713684
6.651468515396118,0.7628172636032104,-2.005157947540283,2.54774808883667,1.9403947591781616,0.410081148147583,0.7849406003952026
6.671565055847168,0.7613813281059265,-2.00475811958313,2.545144557952881,1.9404956102371216,0.40942633152008057,0.7844683527946472
6.691765546798706,0.7615458369255066,-2.0051140785217285,2.543116569519043,1.940086841583252,0.4086214005947113,0.7844820022583008
6.711759090423584,0.7634842395782471,-2.0055651664733887,2.5424699783325195,1.939467191696167,0.40765446424484253,0.7832534909248352
6.731826305389404,0.7640541791915894,-2.007211208343506,2.5387136936187744,1.9379525184631348,0.4040573537349701,0.7827844619750977
6.751878023147583,0.7659764289855957,-2.0082786083221436,2.5401549339294434,1.9374346733093262,0.40438583493232727,0.7813126444816589
6.77198052406311,0.765445351600647,-2.008535861968994,2.5385913848876953,1.9366328716278076,0.403373122215271,0.7809065580368042
6.7920637130737305,0.7639487385749817,-2.0073819160461426,2.5382330417633057,1.9373027086257935,0.40250009298324585,0.7807971239089966
6.812209844589233,0.7638276815414429,-2.008755683898926,2.534681558609009,1.9364440441131592,0.40042975544929504,0.7804164290428162
6.83221173286438,0.7648333311080933,-2.0081472396850586,2.535266876220703,1.9368435144424438,0.4017621874809265,0.7798338532447815
6.8522889614105225,0.7651981115341187,-2.007774829864502,2.535031318664551,1.936932921409607,0.40090280771255493,0.779805064201355
6.872353792190552,0.7659069299697876,-2.007997751235962,2.532444953918457,1.9362119436264038,0.3994036316871643,0.7794803380966187
6.8924174308776855,0.7659752368927002,-2.0088484287261963,2.53192138671875,1.936384677886963,0.39902231097221375,0.7794052362442017
6.912473917007446,0.7680928707122803,-2.0083885192871094,2.5337283611297607,1.9361937046051025,0.40062662959098816,0.7780006527900696
6.93270468711853,0.7670901417732239,-2.00809645652771,2.5314462184906006,1.9357874393463135,0.39885789155960083,0.7777266502380371
6.952807903289795,0.7659555673599243,-2.0084431171417236,2.5305981636047363,1.9363203048706055,0.3989214599132538,0.7777708768844604
6.9729204177856445,0.7658960223197937,-2.0088276863098145,2.5280401706695557,1.935258388519287,0.3973765969276428,0.7768687605857849
6.993018388748169,0.7668807506561279,-2.008755922317505,2.5287041664123535,1.935643196105957,0.39699214696884155,0.7761939764022827
7.01303505897522,0.7675278782844543,-2.0086307525634766,2.5273852348327637,1.9352662563323975,0.39567428827285767,0.7757157683372498
7.033120632171631,0.7678042650222778,-2.0085997581481934,2.5258100032806396,1.9350453615188599,0.39588090777397156,0.7755553722381592
7.053185939788818,0.7661985158920288,-2.008016586303711,2.5240697860717773,1.9354498386383057,0.39581313729286194,0.7750017642974854
7.073251962661743,0.7671456336975098,-2.009063959121704,2.523010730743408,1.9353135824203491,0.3944992125034332,0.7746151685714722
7.093306303024292,0.7672986388206482,-2.008711814880371,2.5225796699523926,1.9352703094482422,0.3934177756309509,0.7745566964149475
7.113394498825073,0.7677424550056458,-2.0085103511810303,2.5218238830566406,1.9351575374603271,0.39333677291870117,0.7744086384773254
7.133466958999634,0.7685933113098145,-2.007929801940918,2.5218148231506348,1.9351894855499268,0.3927859961986542,0.7738826274871826
7.153543710708618,0.7694357633590698,-2.0081467628479004,2.5200955867767334,1.9348814487457275,0.392982542514801,0.7734480500221252
7.173617839813232,0.7703769207000732,-2.0082643032073975,2.520443916320801,1.9345910549163818,0.39287686347961426,0.7728758454322815
7.19367790222168,0.7707021236419678,-2.008108377456665,2.520317554473877,1.9344574213027954,0.3926602005958557,0.7727272510528564
7.213773250579834,0.7709859609603882,-2.0070226192474365,2.5208425521850586,1.9350886344909668,0.3922676146030426,0.7720271348953247
7.2338244915008545,0.7717230319976807,-2.0075175762176514,2.5176045894622803,1.9340593814849854,0.391117662191391,0.7713266015052795
7.253893136978149,0.7735708951950073,-2.0088210105895996,2.5171661376953125,1.933201551437378,0.39126235246658325,0.7697607278823853
7.273941278457642,0.7736168503761292,-2.0080409049987793,2.517172336578369,1.9338719844818115,0.3912481963634491,0.7689405083656311
7.294063329696655,0.7737042903900146,-2.0085244178771973,2.513937473297119,1.9325237274169922,0.3888859748840332,0.7690801620483398
7.314128637313843,0.774278461933136,-2.008552074432373,2.51435923576355,1.9331878423690796,0.3893923759460449,0.7684121131896973
7.334193468093872,0.773978054523468,-2.0094826221466064,2.5111896991729736,1.9326910972595215,0.3874152898788452,0.7683827877044678
7.35437536239624,0.7742294669151306,-2.0102524757385254,2.511563539505005,1.9327850341796875,0.38736599683761597,0.7678712010383606
7.374481201171875,0.7749583125114441,-2.0090599060058594,2.5131876468658447,1.9329979419708252,0.38888680934906006,0.7672959566116333
7.394571304321289,0.7763537764549255,-2.0092086791992188,2.511569023132324,1.9322469234466553,0.38768434524536133,0.7665691375732422
7.414599418640137,0.7765005826950073,-2.0086071491241455,2.5105767250061035,1.9324125051498413,0.38747215270996094,0.7658814191818237
7.434781074523926,0.7755716443061829,-2.0085554122924805,2.507077693939209,1.931540608406067,0.38598641753196716,0.7651964426040649
7.454870700836182,0.7754285931587219,-2.009450912475586,2.506226062774658,1.9314227104187012,0.38544756174087524,0.7645660042762756
7.474931955337524,0.7763453722000122,-2.0098698139190674,2.5052220821380615,1.9316250085830688,0.38448983430862427,0.7640721797943115
7.49500036239624,0.7766393423080444,-2.0107455253601074,2.5039963722229004,1.9309945106506348,0.3829365670681,0.76375812292099
7.515075206756592,0.7759169340133667,-2.0103673934936523,2.5030534267425537,1.9311457872390747,0.3825077712535858,0.763633131980896
7.53517484664917,0.7764787673950195,-2.010951042175293,2.5022149085998535,1.9305371046066284,0.3820107579231262,0.7631576657295227
7.555213212966919,0.7769348621368408,-2.0099849700927734,2.5020880699157715,1.9309072494506836,0.3822311460971832,0.7627789974212646
7.5752668380737305,0.7772539258003235,-2.009995222091675,2.5008130073547363,1.9307441711425781,0.3814057409763336,0.762175977230072
7.595325469970703,0.778003454208374,-2.010643482208252,2.4989993572235107,1.930102825164795,0.38057175278663635,0.7615739107131958
7.615411758422852,0.7777535915374756,-2.0111515522003174,2.4978837966918945,1.929927110671997,0.37870752811431885,0.7616667747497559
7.635476350784302,0.7787700891494751,-2.0106863975524902,2.498328924179077,1.929520606994629,0.37946122884750366,0.7609871625900269
7.6555681228637695,0.7801914811134338,-2.0101819038391113,2.4989099502563477,1.9293547868728638,0.3782755136489868,0.7603037357330322
7.67562198638916,0.7825700640678406,-2.010742425918579,2.4975032806396484,1.928283929824829,0.3783898651599884,0.7585026025772095
7.695690870285034,0.7823871374130249,-2.0115466117858887,2.4960031509399414,1.9275226593017578,0.37740224599838257,0.7580595016479492
7.715838193893433,0.782485842704773,-2.0112032890319824,2.495485305786133,1.9281975030899048,0.37735167145729065,0.7578021287918091
7.7358481884002686,0.7815556526184082,-2.011225700378418,2.4926862716674805,1.9270659685134888,0.37561270594596863,0.7575754523277283
7.755927324295044,0.7788596153259277,-2.011481761932373,2.490628242492676,1.9281134605407715,0.37398645281791687,0.757543683052063
7.775994777679443,0.7791371941566467,-2.0117294788360596,2.48972225189209,1.927819848060608,0.37331241369247437,0.757372260093689
7.79606032371521,0.7766295075416565,-2.0121121406555176,2.4881680011749268,1.9280608892440796,0.3709060251712799,0.7574796080589294
7.816135406494141,0.7783804535865784,-2.012516498565674,2.486769437789917,1.9275712966918945,0.36965805292129517,0.7567716836929321
7.836181402206421,0.7791488170623779,-2.0126824378967285,2.4851481914520264,1.9271152019500732,0.36930036544799805,0.7562706470489502
7.85626745223999,0.779718279838562,-2.0133657455444336,2.4839067459106445,1.9264850616455078,0.36866021156311035,0.7558627724647522
7.876340389251709,0.7815483212471008,-2.01377534866333,2.484287977218628,1.926153302192688,0.36949196457862854,0.7545500993728638
7.896461486816406,0.7834065556526184,-2.0127902030944824,2.4836227893829346,1.9259487390518188,0.3696853220462799,0.7533236145973206
7.916503667831421,0.7841920852661133,-2.013004779815674,2.4831430912017822,1.9258840084075928,0.36836597323417664,0.7527608871459961
7.9367077350616455,0.7841249704360962,-2.0132527351379395,2.480997085571289,1.9254852533340454,0.36735546588897705,0.7527832388877869
7.95677638053894,0.7849622368812561,-2.012601852416992,2.482318878173828,1.9259880781173706,0.36826539039611816,0.7523587346076965
7.97684383392334,0.7848646640777588,-2.011767864227295,2.4809672832489014,1.9258925914764404,0.3677511215209961,0.7517496943473816
7.9968883991241455,0.781867265701294,-2.0116724967956543,2.4773964881896973,1.9259430170059204,0.365813672542572,0.7520543932914734
8.017051935195923,0.780104398727417,-2.0119080543518066,2.475515127182007,1.9267194271087646,0.3655151128768921,0.7514864206314087
8.037170171737671,0.7802194356918335,-2.0119776725769043,2.4747416973114014,1.9267444610595703,0.3644494116306305,0.7516229152679443
8.057360172271729,0.7809107303619385,-2.0134427547454834,2.4727225303649902,1.925627589225769,0.3626226484775543,0.7513219714164734
8.077484369277954,0.7813512682914734,-2.013291835784912,2.4724724292755127,1.9256322383880615,0.3623611330986023,0.7509961724281311
8.097500085830688,0.782826840877533,-2.012822151184082,2.472738265991211,1.9254409074783325,0.36249619722366333,0.7501577138900757
8.117618322372437,0.7833874225616455,-2.0131824016571045,2.4720752239227295,1.9251024723052979,0.36207565665245056,0.7497282028198242
8.13776159286499,0.7856168746948242,-2.0125269889831543,2.471442222595215,1.9245631694793701,0.3627933859825134,0.7483293414115906
8.157762050628662,0.7874225378036499,-2.012968063354492,2.4717674255371094,1.9243687391281128,0.3629450500011444,0.7470388412475586
8.17782974243164,0.7882739305496216,-2.0128836631774902,2.4708921909332275,1.9241836071014404,0.3624695837497711,0.7464346885681152
8.197911739349365,0.7877683639526367,-2.0123507976531982,2.470877170562744,1.9245740175247192,0.36257943511009216,0.746274471282959
8.217991352081299,0.7885622978210449,-2.0124573707580566,2.46905517578125,1.924201488494873,0.3608139455318451,0.7457785606384277
8.238187551498413,0.7893929481506348,-2.0114657878875732,2.4682116508483887,1.9238423109054565,0.36094966530799866,0.7450339794158936
8.25821304321289,0.7904003858566284,-2.0118491649627686,2.4662797451019287,1.923197865486145,0.3609457314014435,0.7444472908973694
8.278287410736084,0.7888072729110718,-2.011967897415161,2.4635491371154785,1.9229762554168701,0.3591117262840271,0.743865966796875
8.29832911491394,0.7904647588729858,-2.013772964477539,2.4628350734710693,1.9221370220184326,0.35829272866249084,0.7426945567131042
8.31845211982727,0.7928152084350586,-2.0136032104492188,2.4631333351135254,1.920851469039917,0.3586515188217163,0.7412545680999756
8.33853268623352,0.7933210730552673,-2.013692855834961,2.4627180099487305,1.9207754135131836,0.35701772570610046,0.7410554885864258
8.358591794967651,0.7924259901046753,-2.0145387649536133,2.460226058959961,1.9205496311187744,0.3555213212966919,0.740610659122467
8.378689527511597,0.7932727932929993,-2.0136828422546387,2.461930751800537,1.921199083328247,0.35767531394958496,0.7397026419639587
8.398731231689453,0.7927960753440857,-2.013646364212036,2.459277391433716,1.9209027290344238,0.35619881749153137,0.7396982908248901
8.418838024139404,0.793030321598053,-2.012899398803711,2.459643840789795,1.9213860034942627,0.35676586627960205,0.7395381331443787
8.438903331756592,0.793871283531189,-2.013131856918335,2.4582624435424805,1.920861005783081,0.35543352365493774,0.7391802072525024
8.458989381790161,0.7931399345397949,-2.0129008293151855,2.4559316635131836,1.9206948280334473,0.3541406989097595,0.7390850782394409
8.479023694992065,0.7936031818389893,-2.0119051933288574,2.4560039043426514,1.921359658241272,0.3550190329551697,0.7388586401939392
8.499245643615723,0.7947000861167908,-2.0122909545898438,2.4547181129455566,1.9209072589874268,0.3540789783000946,0.7382297515869141
8.519409418106079,0.7953042984008789,-2.0119123458862305,2.4561076164245605,1.9210126399993896,0.3546202778816223,0.7378462553024292
8.53942084312439,0.7960724830627441,-2.0120418071746826,2.4542973041534424,1.9206833839416504,0.35480156540870667,0.7372940182685852
8.559473991394043,0.7951124906539917,-2.011932373046875,2.4529848098754883,1.920343279838562,0.35381826758384705,0.7368984818458557
8.57954454421997,0.7945001125335693,-2.012180805206299,2.450982093811035,1.9204977750778198,0.3523995578289032,0.7366620898246765
8.599624156951904,0.795039176940918,-2.011599063873291,2.4528656005859375,1.9210517406463623,0.3531920611858368,0.7363253831863403
8.619702100753784,0.7954666614532471,-2.013110399246216,2.4486165046691895,1.9196655750274658,0.35055601596832275,0.7354820966720581
8.639772415161133,0.7966350317001343,-2.013031482696533,2.4487199783325195,1.919533610343933,0.3510962128639221,0.7344918251037598
8.659983396530151,0.7978172302246094,-2.012747287750244,2.4494094848632812,1.9193732738494873,0.3511408269405365,0.733639121055603
8.680037021636963,0.7987972497940063,-2.0125820636749268,2.448239326477051,1.918778657913208,0.35166671872138977,0.7329925298690796
8.700207948684692,0.7981369495391846,-2.0128064155578613,2.446275472640991,1.9190878868103027,0.3502289652824402,0.7327780723571777
8.72023344039917,0.7980099320411682,-2.012911796569824,2.444749116897583,1.9190542697906494,0.34912586212158203,0.7325152158737183
8.74026608467102,0.7971859574317932,-2.0123796463012695,2.442965030670166,1.9185311794281006,0.34809595346450806,0.7317413091659546
8.760347843170166,0.7995624542236328,-2.0122268199920654,2.4444527626037598,1.9185515642166138,0.3488434851169586,0.7307411432266235
8.780415773391724,0.7998332977294922,-2.013279438018799,2.4421772956848145,1.917921543121338,0.34737151861190796,0.7298508882522583
8.800485372543335,0.8014857172966003,-2.013444423675537,2.4407925605773926,1.91689932346344,0.346910685300827,0.7284374237060547
8.820560216903687,0.7989526987075806,-2.014310359954834,2.437440872192383,1.9170315265655518,0.34493350982666016,0.7283735275268555
8.840630531311035,0.799601674079895,-2.014191150665283,2.4380850791931152,1.917736530303955,0.34550780057907104,0.728103518486023
8.8607017993927,0.8011459708213806,-2.0132665634155273,2.4393301010131836,1.9177511930465698,0.34548699855804443,0.7272011041641235
8.880749225616455,0.8004226684570312,-2.0132088661193848,2.434828281402588,1.9172542095184326,0.34303104877471924,0.7274057865142822
8.900834560394287,0.8007186651229858,-2.0135436058044434,2.435302495956421,1.91750168800354,0.34410297870635986,0.726870059967041
8.920894384384155,0.8016799688339233,-2.0140748023986816,2.432842969894409,1.9161289930343628,0.3426555395126343,0.7262002229690552
8.940960168838501,0.8015834093093872,-2.0144124031066895,2.4324958324432373,1.9155008792877197,0.3416343927383423,0.7250949740409851
8.961023807525635,0.8028275370597839,-2.015754461288452,2.4310762882232666,1.9147660732269287,0.3408147394657135,0.7234910726547241
8.981097221374512,0.803326427936554,-2.0161919593811035,2.4304990768432617,1.9146891832351685,0.3406844735145569,0.7230497002601624
9.0011887550354,0.8017890453338623,-2.0165674686431885,2.428104877471924,1.9142417907714844,0.33858922123908997,0.7230491638183594
9.021267890930176,0.8008745908737183,-2.01531982421875,2.4279394149780273,1.9149882793426514,0.3383188545703888,0.7225815057754517
9.041414976119995,0.8016618490219116,-2.0153956413269043,2.426034688949585,1.914568305015564,0.33763745427131653,0.7223399877548218
9.06152081489563,0.8023554682731628,-2.015331268310547,2.425457715988159,1.9145965576171875,0.3371829390525818,0.7216789126396179
9.081568479537964,0.803879976272583,-2.0148816108703613,2.42564058303833,1.9145375490188599,0.3383936882019043,0.7208040952682495
9.101766109466553,0.8047583699226379,-2.0148558616638184,2.4231438636779785,1.9138195514678955,0.33653658628463745,0.7203542590141296
9.121850490570068,0.805722713470459,-2.015206813812256,2.423527479171753,1.9140998125076294,0.3373515009880066,0.7195309996604919
9.14192819595337,0.8063609004020691,-2.0149776935577393,2.422121047973633,1.9138065576553345,0.33639663457870483,0.7190988063812256
9.161985397338867,0.808031439781189,-2.0148167610168457,2.4234492778778076,1.913747787475586,0.33692437410354614,0.7179259657859802
9.182057857513428,0.8073863983154297,-2.015443801879883,2.420133590698242,1.9124940633773804,0.3349055051803589,0.7177346348762512
9.202131032943726,0.8082553148269653,-2.0150110721588135,2.420764923095703,1.9134560823440552,0.33532625436782837,0.7168676853179932
9.222220182418823,0.8081973791122437,-2.015146493911743,2.419219970703125,1.9130749702453613,0.33454805612564087,0.7162444591522217
9.242594957351685,0.8087021112442017,-2.014322280883789,2.4182605743408203,1.9130709171295166,0.3346138894557953,0.7161626815795898
9.262723445892334,0.8089413642883301,-2.014514923095703,2.4177346229553223,1.912955403327942,0.3338819742202759,0.7159897685050964
9.28279185295105,0.8090710043907166,-2.0141940116882324,2.416660785675049,1.913225769996643,0.3332662880420685,0.7151615619659424
9.302833557128906,0.8094465136528015,-2.013761281967163,2.4143521785736084,1.9125761985778809,0.3322204351425171,0.7150563597679138
9.32299518585205,0.8099518418312073,-2.013237714767456,2.4137485027313232,1.9131191968917847,0.332886666059494,0.7148802280426025
9.343080520629883,0.8077068328857422,-2.0146384239196777,2.4104442596435547,1.9128618240356445,0.3313331604003906,0.7143051624298096
9.363194942474365,0.8095976114273071,-2.014652967453003,2.410531759262085,1.9120720624923706,0.3311741054058075,0.7133890986442566
9.383243083953857,0.8110486268997192,-2.0148653984069824,2.4112627506256104,1.9121171236038208,0.3296695351600647,0.7123245000839233
9.403331995010376,0.8097783327102661,-2.0152852535247803,2.408109188079834,1.9113729000091553,0.3283289074897766,0.712345540523529
9.423554182052612,0.8106617331504822,-2.014791250228882,2.406463623046875,1.9110937118530273,0.32830309867858887,0.7115047574043274
9.443512201309204,0.8107484579086304,-2.0139808654785156,2.4059982299804688,1.9116299152374268,0.3283967971801758,0.7108334898948669
9.463604211807251,0.8110843896865845,-2.012932300567627,2.4082751274108887,1.912790060043335,0.32870760560035706,0.710027813911438
9.483662128448486,0.8115873336791992,-2.012317180633545,2.403513193130493,1.9120012521743774,0.3274514973163605,0.709890604019165
9.503722429275513,0.8126254677772522,-2.0125629901885986,2.403397560119629,1.91203773021698,0.3279832601547241,0.7092093229293823
9.523802995681763,0.8133116960525513,-2.012317419052124,2.4052133560180664,1.9123181104660034,0.32834649085998535,0.7088271379470825
9.543869972229004,0.8141974210739136,-2.0118348598480225,2.4031012058258057,1.9117445945739746,0.3272392749786377,0.7084127068519592
9.563995361328125,0.8129538297653198,-2.011873483657837,2.4000253677368164,1.9116876125335693,0.326297402381897,0.7083422541618347
9.584097623825073,0.8109537363052368,-2.0115606784820557,2.3982903957366943,1.9119007587432861,0.32607129216194153,0.7077323198318481
9.60419774055481,0.8105809092521667,-2.011674404144287,2.3981006145477295,1.9120750427246094,0.3248218894004822,0.7074052691459656
9.624268054962158,0.8097883462905884,-2.0118701457977295,2.3961708545684814,1.9118943214416504,0.32381534576416016,0.7070673108100891
9.644352436065674,0.81183260679245,-2.0119199752807617,2.3973464965820312,1.9120087623596191,0.32475748658180237,0.7056695222854614
9.664437770843506,0.8119145035743713,-2.0121467113494873,2.3950846195220947,1.910904049873352,0.3224289119243622,0.7058779001235962
9.68450403213501,0.813145637512207,-2.01133131980896,2.3948943614959717,1.9113082885742188,0.32301977276802063,0.7050721049308777
9.704577445983887,0.8138515949249268,-2.0120582580566406,2.3936071395874023,1.9106884002685547,0.32291820645332336,0.7044112682342529
9.724653959274292,0.8151611089706421,-2.012140989303589,2.394468069076538,1.9103096723556519,0.32302430272102356,0.7037581205368042
9.744779109954834,0.8154641389846802,-2.011904001235962,2.3931045532226562,1.9097058773040771,0.322396457195282,0.7035791873931885
9.764864921569824,0.817109227180481,-2.0109498500823975,2.393244743347168,1.9094982147216797,0.32288658618927,0.7027244567871094
9.784948348999023,0.8164623975753784,-2.0100951194763184,2.391406536102295,1.9095089435577393,0.32244008779525757,0.7022696733474731
9.80508804321289,0.8157235383987427,-2.0101394653320312,2.39058780670166,1.910024642944336,0.32086244225502014,0.7021790742874146
9.825376987457275,0.8132772445678711,-2.010955572128296,2.386695146560669,1.9092445373535156,0.3183550238609314,0.7020387053489685
9.845450401306152,0.811450719833374,-2.0116991996765137,2.384770393371582,1.9091076850891113,0.31790077686309814,0.7017951607704163
9.865548372268677,0.8145986795425415,-2.0128390789031982,2.3839008808135986,1.907994270324707,0.31693825125694275,0.700046718120575
9.885577201843262,0.8146111965179443,-2.0133566856384277,2.3836326599121094,1.9082844257354736,0.31537577509880066,0.699295163154602
9.905664920806885,0.8146966695785522,-2.0132713317871094,2.38277530670166,1.9080331325531006,0.31409358978271484,0.6992709636688232
9.925732135772705,0.8155395984649658,-2.012861967086792,2.382260799407959,1.9084142446517944,0.31455448269844055,0.6987141370773315
9.94581127166748,0.8170389533042908,-2.0112452507019043,2.3818907737731934,1.9082061052322388,0.31638967990875244,0.6979277729988098
9.965914726257324,0.8181188106536865,-2.0094728469848633,2.385180950164795,1.9095606803894043,0.31800878047943115,0.6972342729568481
9.985996723175049,0.8193832039833069,-2.008434534072876,2.3832106590270996,1.9090116024017334,0.3173043429851532,0.696609377861023
10.006134748458862,0.8203276991844177,-2.0076959133148193,2.382809638977051,1.9093306064605713,0.31667226552963257,0.6958656311035156
10.026521444320679,0.8195112347602844,-2.0072126388549805,2.377453327178955,1.908194661140442,0.3137878179550171,0.6958866119384766
10.046592950820923,0.8187273144721985,-2.0080227851867676,2.375875473022461,1.9082404375076294,0.314406156539917,0.695554256439209
10.066662073135376,0.8178234100341797,-2.0105371475219727,2.37337064743042,1.9074701070785522,0.3114714026451111,0.6951050758361816
10.086721658706665,0.8196146488189697,-2.008639335632324,2.375486373901367,1.907808542251587,0.3132220506668091,0.6941096782684326
10.106829643249512,0.8198556303977966,-2.009256601333618,2.3725972175598145,1.9066343307495117,0.3112669587135315,0.6931942105293274
10.126922369003296,0.8197966814041138,-2.0093064308166504,2.3726532459259033,1.9070909023284912,0.31203997135162354,0.6925708651542664
10.146987676620483,0.8195157051086426,-2.009178638458252,2.3739590644836426,1.9077601432800293,0.31170499324798584,0.6922665238380432
10.167083263397217,0.8210277557373047,-2.008096694946289,2.3712806701660156,1.9062824249267578,0.31077998876571655,0.6914718747138977
10.187522888183594,0.822064995765686,-2.0091090202331543,2.3696675300598145,1.9059505462646484,0.3098685145378113,0.6909999847412109
10.207616806030273,0.8229871988296509,-2.0086631774902344,2.371669292449951,1.906219720840454,0.3098885416984558,0.6903140544891357
10.227689027786255,0.8227245807647705,-2.0079152584075928,2.368272304534912,1.9058215618133545,0.30914419889450073,0.6900926828384399
10.247729778289795,0.8210901021957397,-2.0082075595855713,2.368256092071533,1.9067648649215698,0.31044483184814453,0.6892270445823669
10.267808198928833,0.8211316466331482,-2.008399724960327,2.3653502464294434,1.9052810668945312,0.3074764907360077,0.6893708109855652
10.287891626358032,0.8229547739028931,-2.0086562633514404,2.3650102615356445,1.9048738479614258,0.3068527281284332,0.688079833984375
10.30799126625061,0.8250459432601929,-2.008456230163574,2.364980697631836,1.9045590162277222,0.3064386546611786,0.6864974498748779
10.32809853553772,0.825671374797821,-2.009244203567505,2.3621535301208496,1.903895616531372,0.3056533634662628,0.6862239837646484
10.348175764083862,0.8256129026412964,-2.0092086791992188,2.3602213859558105,1.903390645980835,0.30481019616127014,0.6854639053344727
10.3682701587677,0.8262120485305786,-2.008155345916748,2.3605546951293945,1.9041435718536377,0.30619028210639954,0.6849966645240784
10.38837194442749,0.8259508609771729,-2.007289409637451,2.361748695373535,1.9050993919372559,0.3067995309829712,0.6842849254608154
10.408466339111328,0.8247549533843994,-2.008707046508789,2.3560566902160645,1.9040966033935547,0.302634596824646,0.6846615672111511
10.42852258682251,0.826004683971405,-2.0067567825317383,2.35941481590271,1.9052002429962158,0.3050420582294464,0.6836299896240234
10.448599815368652,0.8266287446022034,-2.0067992210388184,2.3552334308624268,1.9042935371398926,0.3028523921966553,0.683467447757721
10.468745470046997,0.8264541625976562,-2.008089542388916,2.3535149097442627,1.9032998085021973,0.30141982436180115,0.682349681854248
10.488833904266357,0.8261881470680237,-2.008995532989502,2.3534092903137207,1.9033615589141846,0.30217674374580383,0.6815527677536011
10.508910894393921,0.828228235244751,-2.0078725814819336,2.3537750244140625,1.903398871421814,0.30229175090789795,0.6802575588226318
10.528965950012207,0.826938271522522,-2.0096192359924316,2.348904848098755,1.9026893377304077,0.2983415722846985,0.6805538535118103
10.54918098449707,0.8273507356643677,-2.008511781692505,2.3521974086761475,1.9041075706481934,0.3002796769142151,0.6800674200057983
10.569204330444336,0.828981876373291,-2.0074102878570557,2.3510236740112305,1.903471827507019,0.3009474575519562,0.6792830228805542
10.589232683181763,0.8277924060821533,-2.0067362785339355,2.3497257232666016,1.9035053253173828,0.2999449670314789,0.6787747144699097
10.609341859817505,0.8272277116775513,-2.0068626403808594,2.3463830947875977,1.9029760360717773,0.29865562915802,0.6789841651916504
10.629396915435791,0.8268325924873352,-2.0066792964935303,2.344367504119873,1.9034004211425781,0.2984333038330078,0.6782439351081848
10.649480819702148,0.8250542879104614,-2.0072274208068848,2.3433361053466797,1.9038195610046387,0.29706722497940063,0.6777296662330627
10.669553518295288,0.8257657289505005,-2.0088047981262207,2.340437412261963,1.902981162071228,0.2942582964897156,0.6772749423980713
10.689712285995483,0.8262591361999512,-2.009648323059082,2.3401458263397217,1.9023969173431396,0.29373905062675476,0.676866352558136
10.70979356765747,0.8273426294326782,-2.0094873905181885,2.3396615982055664,1.9019436836242676,0.29270139336586,0.675859808921814
10.729877233505249,0.8291448354721069,-2.00931715965271,2.3409054279327393,1.9020092487335205,0.2945931553840637,0.6746065020561218
10.749936819076538,0.8301125764846802,-2.0100040435791016,2.3381123542785645,1.9012742042541504,0.2934599816799164,0.6740809679031372
10.770014524459839,0.8303187489509583,-2.009554624557495,2.3368282318115234,1.9009541273117065,0.2927781939506531,0.6740107536315918
10.790125846862793,0.8301327228546143,-2.01020884513855,2.3358213901519775,1.9008708000183105,0.29259830713272095,0.6733925342559814
10.810185194015503,0.8301084637641907,-2.0084645748138428,2.3365559577941895,1.9014805555343628,0.29282277822494507,0.6732670068740845
10.830245971679688,0.8292447924613953,-2.008256435394287,2.3314523696899414,1.9004673957824707,0.2887442409992218,0.6732807755470276
10.850391864776611,0.8318264484405518,-2.00601863861084,2.3344779014587402,1.901604413986206,0.2923368513584137,0.6719444990158081
10.870474100112915,0.8326256275177002,-2.0065653324127197,2.333014726638794,1.9010599851608276,0.2912924289703369,0.6713528037071228
10.890557765960693,0.8330597877502441,-2.007748603820801,2.3312551975250244,1.9003372192382812,0.29057207703590393,0.6702935099601746
10.910622119903564,0.8339405059814453,-2.0082714557647705,2.332386016845703,1.9004241228103638,0.2914523482322693,0.6690623760223389
10.930908679962158,0.8335340023040771,-2.0069198608398438,2.328855514526367,1.8993875980377197,0.2890337109565735,0.668976366519928
10.95105242729187,0.8320314288139343,-2.0075650215148926,2.327749013900757,1.900163173675537,0.2894597053527832,0.6686151623725891
10.971117973327637,0.8307441473007202,-2.0085391998291016,2.3249974250793457,1.9003567695617676,0.2863369584083557,0.6688816547393799
10.991142749786377,0.8307661414146423,-2.0073602199554443,2.3244261741638184,1.9005484580993652,0.2871691584587097,0.66815185546875
11.011213541030884,0.8309969902038574,-2.007537603378296,2.3241653442382812,1.9007567167282104,0.28600990772247314,0.6680958867073059
11.031312227249146,0.831337571144104,-2.0072274208068848,2.323807954788208,1.900336742401123,0.28556206822395325,0.6673291325569153
11.051387310028076,0.8336434364318848,-2.0064313411712646,2.3226547241210938,1.900212049484253,0.2866680920124054,0.6664443612098694
11.071496486663818,0.8334183096885681,-2.007216453552246,2.3212673664093018,1.8994522094726562,0.28534215688705444,0.6657705903053284
11.091749429702759,0.8341308832168579,-2.0066771507263184,2.3229660987854004,1.899653673171997,0.2858389914035797,0.6652652621269226
11.111862659454346,0.8364133834838867,-2.007657051086426,2.320784568786621,1.8977633714675903,0.2849304676055908,0.6638714075088501
11.131954431533813,0.8369715213775635,-2.008554458618164,2.3183484077453613,1.8968706130981445,0.28239303827285767,0.6631104946136475
11.152034759521484,0.8371208906173706,-2.0085878372192383,2.3191213607788086,1.8972580432891846,0.28228655457496643,0.6621048450469971
11.172181606292725,0.8351116180419922,-2.0085678100585938,2.3161463737487793,1.8970489501953125,0.28222179412841797,0.6624348163604736
11.192182779312134,0.834518551826477,-2.0087430477142334,2.314631462097168,1.8972290754318237,0.2811089754104614,0.6619855165481567
11.2122483253479,0.8335186243057251,-2.0085816383361816,2.3140063285827637,1.8976426124572754,0.2805221378803253,0.6618694067001343
11.232300281524658,0.833047091960907,-2.008450508117676,2.311382293701172,1.8972229957580566,0.27931153774261475,0.6615137457847595
11.252370357513428,0.8344119787216187,-2.0081796646118164,2.313689947128296,1.8980498313903809,0.28047460317611694,0.660611629486084
11.272461175918579,0.8358203172683716,-2.008166551589966,2.3118646144866943,1.8970131874084473,0.27896881103515625,0.6597723960876465
11.292789697647095,0.8386437892913818,-2.0086965560913086,2.311061382293701,1.8958929777145386,0.27919065952301025,0.6577761769294739
11.312837362289429,0.8396925926208496,-2.0083885192871094,2.310412883758545,1.8959734439849854,0.27902188897132874,0.6570740938186646
11.332926034927368,0.8404233455657959,-2.0077290534973145,2.310558795928955,1.8963106870651245,0.28034138679504395,0.6567263603210449
11.352998495101929,0.8397658467292786,-2.0071942806243896,2.309391498565674,1.8964873552322388,0.278816282749176,0.6566217541694641
11.373078107833862,0.8383101224899292,-2.00698184967041,2.306330442428589,1.8961061239242554,0.27706313133239746,0.6563687324523926
11.393123149871826,0.8329893350601196,-2.006545066833496,2.3017139434814453,1.8966755867004395,0.27342337369918823,0.6569847464561462
11.413209199905396,0.8333843350410461,-2.0072271823883057,2.3010928630828857,1.896863579750061,0.27437201142311096,0.6563314199447632
11.433279275894165,0.8338428139686584,-2.008826732635498,2.2989089488983154,1.8966025114059448,0.27269741892814636,0.6561307907104492
11.453375339508057,0.8346553444862366,-2.008103609085083,2.299254894256592,1.8961124420166016,0.2717764973640442,0.655842661857605
11.4734365940094,0.8364077210426331,-2.007364273071289,2.2998852729797363,1.8962504863739014,0.272896945476532,0.654761552810669
11.49350643157959,0.8369888663291931,-2.0075550079345703,2.297675609588623,1.8953864574432373,0.2724840044975281,0.6543055772781372
11.513614654541016,0.8393912315368652,-2.008166551589966,2.297712564468384,1.8945597410202026,0.2726763188838959,0.6526345014572144
11.533670663833618,0.8406473994255066,-2.008317708969116,2.2969727516174316,1.8942978382110596,0.27152836322784424,0.6516845226287842
11.55370283126831,0.8400607109069824,-2.0070009231567383,2.294651508331299,1.8944649696350098,0.27044975757598877,0.6514191627502441
11.574204683303833,0.8390861749649048,-2.0071001052856445,2.2927956581115723,1.8942523002624512,0.2698102295398712,0.650780439376831
11.594300031661987,0.8383612632751465,-2.0069613456726074,2.2928004264831543,1.8949296474456787,0.2697082459926605,0.6505717039108276
11.614364385604858,0.35151004791259766,-2.2821688652038574,1.4363038539886475,1.153898000717163,-0.023122768849134445,0.6183276772499084
11.634494543075562,0.24484539031982422,-2.5499048233032227,1.1633284091949463,1.1236164569854736,-0.278730183839798,0.5730324983596802
11.654582023620605,0.20033130049705505,-2.591296672821045,1.1669704914093018,1.1178677082061768,-0.29185751080513,0.5748022198677063
11.6746666431427,0.19722199440002441,-2.5942718982696533,1.1728909015655518,1.116398811340332,-0.2880427837371826,0.5745790600776672
11.69475531578064,0.20070955157279968,-2.59324312210083,1.1825242042541504,1.1161057949066162,-0.282109797000885,0.5734416246414185
11.714805126190186,0.2016538679599762,-2.5916049480438232,1.1807467937469482,1.1150596141815186,-0.2824321985244751,0.5729186534881592
11.735032320022583,0.20410659909248352,-2.5883593559265137,1.1821441650390625,1.1168006658554077,-0.28009796142578125,0.5725060701370239
11.755115747451782,0.20742052793502808,-2.5857417583465576,1.1869502067565918,1.1186938285827637,-0.2768096327781677,0.5716108083724976
11.775201320648193,0.2090436816215515,-2.5809593200683594,1.183569073677063,1.1185368299484253,-0.2758841812610626,0.5716654062271118
11.79527235031128,0.21044403314590454,-2.579585552215576,1.1819241046905518,1.1194372177124023,-0.27529287338256836,0.571474552154541
11.815329790115356,0.21268871426582336,-2.5778207778930664,1.1844831705093384,1.119858741760254,-0.27321645617485046,0.5706719756126404
11.835408687591553,0.21325722336769104,-2.5764501094818115,1.183197259902954,1.1195359230041504,-0.2730153799057007,0.5707263350486755
11.855498552322388,0.21475878357887268,-2.5749683380126953,1.1840468645095825,1.1206696033477783,-0.2724735736846924,0.5703086256980896
11.875572204589844,0.21672487258911133,-2.571937322616577,1.1848125457763672,1.1218276023864746,-0.27042707800865173,0.5700854659080505
11.895589351654053,0.21776098012924194,-2.5698862075805664,1.1819887161254883,1.1212294101715088,-0.27040770649909973,0.5699067115783691
11.915703058242798,0.2198115885257721,-2.5685253143310547,1.1856156587600708,1.1226422786712646,-0.26845118403434753,0.5694335103034973
11.93574333190918,0.22023209929466248,-2.566030502319336,1.1810436248779297,1.1219449043273926,-0.26931339502334595,0.5695129036903381
11.95582389831543,0.22329801321029663,-2.5627689361572266,1.1846052408218384,1.124444603919983,-0.2655814588069916,0.568716287612915
11.975864171981812,0.22444257140159607,-2.561023235321045,1.181868314743042,1.123806118965149,-0.26561886072158813,0.5684856176376343
11.996055126190186,0.22488191723823547,-2.5605974197387695,1.1817659139633179,1.1241430044174194,-0.265697181224823,0.5683345794677734
12.0161452293396,0.2271592915058136,-2.5582807064056396,1.1833384037017822,1.1248000860214233,-0.2637600600719452,0.56769859790802
12.036208152770996,0.23022960126399994,-2.5545506477355957,1.1859023571014404,1.1259112358093262,-0.2608044445514679,0.567227840423584
12.056273937225342,0.23207056522369385,-2.5523452758789062,1.1848459243774414,1.1260926723480225,-0.26030290126800537,0.5667507648468018
12.07645034790039,0.2352311909198761,-2.549514055252075,1.1872241497039795,1.1270723342895508,-0.25715962052345276,0.5658268332481384
12.096548795700073,0.2372678965330124,-2.546840190887451,1.1883809566497803,1.1273350715637207,-0.2549665570259094,0.5653225779533386
12.116651773452759,0.23978480696678162,-2.5437121391296387,1.1864155530929565,1.1271681785583496,-0.2545451819896698,0.5642736554145813
12.136710166931152,0.24146044254302979,-2.5411744117736816,1.1842434406280518,1.127589225769043,-0.25438156723976135,0.5637644529342651
12.156768798828125,0.24312153458595276,-2.5385661125183105,1.183753490447998,1.1284228563308716,-0.25266700983047485,0.5633137822151184
12.176953792572021,0.24338898062705994,-2.5381758213043213,1.1815757751464844,1.128103494644165,-0.25404930114746094,0.5635433793067932
12.196948289871216,0.24361848831176758,-2.537853717803955,1.180910348892212,1.128494381904602,-0.254240483045578,0.563123345375061
12.217062950134277,0.2474462389945984,-2.5350122451782227,1.1880817413330078,1.1308108568191528,-0.2491600215435028,0.5622723698616028
12.237144231796265,0.2469155490398407,-2.5335869789123535,1.1839828491210938,1.1296201944351196,-0.24982735514640808,0.5626436471939087
12.257255792617798,0.24938683211803436,-2.5293073654174805,1.1849381923675537,1.130746841430664,-0.24819648265838623,0.5625348687171936
12.277330875396729,0.25384199619293213,-2.5245838165283203,1.1874033212661743,1.1323132514953613,-0.24410384893417358,0.5611886978149414
12.297375679016113,0.2561379373073578,-2.5214295387268066,1.1860004663467407,1.1332590579986572,-0.24350175261497498,0.5609509944915771
12.31745433807373,0.25899171829223633,-2.5175223350524902,1.18594491481781,1.1335662603378296,-0.24044254422187805,0.5603501200675964
12.337538957595825,0.2605971395969391,-2.5155515670776367,1.1873234510421753,1.1349271535873413,-0.23919114470481873,0.5599830150604248
12.357605934143066,0.26271945238113403,-2.512795925140381,1.184715986251831,1.134302020072937,-0.2381574809551239,0.5594557523727417
12.3776695728302,0.263798326253891,-2.5117874145507812,1.1830933094024658,1.1341476440429688,-0.23841819167137146,0.5589802265167236
12.397721767425537,0.26658228039741516,-2.509671688079834,1.1871697902679443,1.1357877254486084,-0.23557159304618835,0.5576993823051453
12.417807817459106,0.26693493127822876,-2.5087790489196777,1.1860023736953735,1.1349362134933472,-0.23658496141433716,0.557846188545227
12.437909841537476,0.26904892921447754,-2.5072758197784424,1.1869713068008423,1.135683536529541,-0.2347051203250885,0.5569291114807129
12.457992553710938,0.2703525722026825,-2.5044188499450684,1.1860074996948242,1.135634422302246,-0.23348623514175415,0.5565903782844543
12.478036403656006,0.27411213517189026,-2.5013699531555176,1.1884807348251343,1.1369526386260986,-0.2290191650390625,0.5557383298873901
12.498128414154053,0.27470922470092773,-2.4998936653137207,1.1868535280227661,1.1368507146835327,-0.22948139905929565,0.5557125806808472
12.518208503723145,0.27859029173851013,-2.49657940864563,1.190044641494751,1.1377472877502441,-0.2253783941268921,0.554638147354126
12.538277387619019,0.2789999544620514,-2.4937267303466797,1.1871428489685059,1.1379812955856323,-0.22500383853912354,0.5543577671051025
12.558341264724731,0.28096601366996765,-2.489417552947998,1.1883385181427002,1.139208197593689,-0.2218967080116272,0.5537928342819214
12.578490972518921,0.28215277194976807,-2.48815655708313,1.1877238750457764,1.1393815279006958,-0.22161322832107544,0.5533106327056885
12.598532438278198,0.28627705574035645,-2.485275983810425,1.190624713897705,1.1400959491729736,-0.2176920622587204,0.5521992444992065
12.618600368499756,0.2894466817378998,-2.480217456817627,1.1921344995498657,1.1412967443466187,-0.2154119610786438,0.5514172315597534
12.638610363006592,0.29000985622406006,-2.477724313735962,1.1905226707458496,1.142247200012207,-0.21524444222450256,0.5512235164642334
12.658703088760376,0.2908785343170166,-2.4754748344421387,1.1886441707611084,1.141566276550293,-0.2136985957622528,0.5511780381202698
12.67876672744751,0.2927281856536865,-2.4739699363708496,1.188056468963623,1.1417598724365234,-0.2129347324371338,0.5504245162010193
12.69887638092041,0.29526662826538086,-2.4706926345825195,1.1884738206863403,1.1421566009521484,-0.21103456616401672,0.549736738204956
12.71890115737915,0.29732397198677063,-2.468329668045044,1.1889622211456299,1.1428632736206055,-0.20983149111270905,0.5491073131561279
12.73899221420288,0.2992549538612366,-2.4671390056610107,1.1917493343353271,1.1442128419876099,-0.2083469033241272,0.5485782623291016
12.759075164794922,0.3017923831939697,-2.464834690093994,1.189453363418579,1.1428316831588745,-0.20730042457580566,0.5472666025161743
12.77913784980774,0.30538010597229004,-2.461442708969116,1.192399501800537,1.144048810005188,-0.20445194840431213,0.546137809753418
12.799212217330933,0.30836617946624756,-2.457747459411621,1.193068265914917,1.1450632810592651,-0.20213694870471954,0.5454074144363403
12.819337606430054,0.3098933696746826,-2.4547879695892334,1.1904417276382446,1.1453032493591309,-0.2000921666622162,0.545141339302063
12.8394296169281,0.31247013807296753,-2.4528627395629883,1.1941543817520142,1.1465890407562256,-0.19685348868370056,0.5445734262466431
12.859488248825073,0.3143838047981262,-2.4504220485687256,1.1926212310791016,1.1462233066558838,-0.19524496793746948,0.543764054775238
12.879548072814941,0.31702643632888794,-2.4466967582702637,1.1945929527282715,1.147688865661621,-0.1925572156906128,0.5432720184326172
12.899601697921753,0.31994956731796265,-2.4441657066345215,1.1952677965164185,1.1484544277191162,-0.19053155183792114,0.5424811840057373
12.919689655303955,0.3198617696762085,-2.4427857398986816,1.1926462650299072,1.1482338905334473,-0.19072958827018738,0.5427448749542236
12.939749717712402,0.322815865278244,-2.438775062561035,1.1942622661590576,1.1493204832077026,-0.18783444166183472,0.5419846773147583
12.959872007369995,0.32494857907295227,-2.4359445571899414,1.1947121620178223,1.1506692171096802,-0.18649516999721527,0.5416620969772339
12.979916095733643,0.3270060122013092,-2.4340739250183105,1.1953020095825195,1.1509743928909302,-0.18563216924667358,0.5409713387489319
13.000008821487427,0.32824528217315674,-2.43223237991333,1.196470856666565,1.1515625715255737,-0.18333673477172852,0.540685772895813
13.020160675048828,0.3304675221443176,-2.4296536445617676,1.197118878364563,1.152442216873169,-0.1828504502773285,0.5399410128593445
13.040228605270386,0.3312862813472748,-2.4271302223205566,1.191697597503662,1.1504961252212524,-0.18303273618221283,0.5391063690185547
13.060268878936768,0.3339803218841553,-2.423614025115967,1.1944069862365723,1.1518932580947876,-0.18037378787994385,0.5378650426864624
13.080385684967041,0.3335857689380646,-2.42189884185791,1.1945710182189941,1.1519724130630493,-0.18015116453170776,0.5372897386550903
13.100445747375488,0.3342646062374115,-2.4181582927703857,1.1928150653839111,1.1523836851119995,-0.17848730087280273,0.5369219183921814
13.120521545410156,0.33663997054100037,-2.4156994819641113,1.1924220323562622,1.1526899337768555,-0.17727914452552795,0.5361629724502563
13.14061713218689,0.3403197228908539,-2.411064386367798,1.1964772939682007,1.1543428897857666,-0.1741471290588379,0.535607099533081
13.160670518875122,0.3411293625831604,-2.4100067615509033,1.194866418838501,1.1536216735839844,-0.1747022569179535,0.5350647568702698
13.180756568908691,0.3420535922050476,-2.408703565597534,1.1917823553085327,1.1534658670425415,-0.17480531334877014,0.5346499085426331
13.200887203216553,0.3456498682498932,-2.4061126708984375,1.1959607601165771,1.154282569885254,-0.1709321141242981,0.5333309769630432
13.220911741256714,0.3477380871772766,-2.402343273162842,1.196927785873413,1.155733346939087,-0.16958090662956238,0.5331811308860779
13.241084575653076,0.35000094771385193,-2.3987910747528076,1.1949901580810547,1.1555002927780151,-0.16860224306583405,0.532569169998169
13.261167764663696,0.3521105945110321,-2.3964169025421143,1.1971040964126587,1.1566896438598633,-0.1668764352798462,0.5321044921875
13.281259536743164,0.3544308841228485,-2.3929572105407715,1.1975581645965576,1.1576874256134033,-0.16481608152389526,0.531482458114624
13.301311016082764,0.3572058379650116,-2.390125036239624,1.196202039718628,1.1567089557647705,-0.1631661355495453,0.5305725932121277
13.321393966674805,0.35951557755470276,-2.387143135070801,1.1949729919433594,1.1564745903015137,-0.16232523322105408,0.529426097869873
13.341483354568481,0.36122554540634155,-2.3860435485839844,1.1971676349639893,1.1583850383758545,-0.1611679196357727,0.5288584232330322
13.361634969711304,0.36069270968437195,-2.383748769760132,1.193206787109375,1.1575665473937988,-0.1612558662891388,0.528308629989624
13.38164210319519,0.36198195815086365,-2.380852699279785,1.1938250064849854,1.1583073139190674,-0.16041262447834015,0.5278878808021545
13.401739835739136,0.3609628677368164,-2.3800737857818604,1.1921310424804688,1.1585719585418701,-0.16104398667812347,0.5279088020324707
13.421798944473267,0.3633008897304535,-2.377357006072998,1.1932544708251953,1.1595650911331177,-0.15797129273414612,0.5275864601135254
13.44187593460083,0.3659122884273529,-2.3740973472595215,1.1956393718719482,1.160499095916748,-0.15557365119457245,0.5266537070274353
13.46192193031311,0.3696753978729248,-2.3694686889648438,1.19851553440094,1.1626678705215454,-0.15219980478286743,0.5258890390396118
13.48205280303955,0.3713987171649933,-2.365878105163574,1.1958448886871338,1.1631436347961426,-0.15255841612815857,0.5257948637008667
13.502164602279663,0.3736135959625244,-2.363443613052368,1.197181224822998,1.1634069681167603,-0.14861273765563965,0.5249707698822021
13.522238731384277,0.37638139724731445,-2.359914779663086,1.1966216564178467,1.1641590595245361,-0.14687076210975647,0.5243436098098755
13.542290449142456,0.37657302618026733,-2.3572003841400146,1.1954938173294067,1.1647435426712036,-0.1462734192609787,0.5238096714019775
13.562429428100586,0.3782733678817749,-2.35507869720459,1.1964352130889893,1.1653337478637695,-0.1441882699728012,0.5233668088912964
13.582517147064209,0.38088786602020264,-2.352595329284668,1.1979894638061523,1.1661046743392944,-0.1436181515455246,0.5225048661231995
13.602572441101074,0.38188183307647705,-2.350738525390625,1.1942192316055298,1.16481351852417,-0.14420384168624878,0.5218312740325928
13.622635126113892,0.38019657135009766,-2.3483121395111084,1.1920442581176758,1.1653687953948975,-0.14264412224292755,0.5211172103881836
13.64268708229065,0.38396942615509033,-2.3455231189727783,1.1959691047668457,1.1662709712982178,-0.13941705226898193,0.5197800397872925
13.662764310836792,0.3844967186450958,-2.3438942432403564,1.1947829723358154,1.166257619857788,-0.1393509805202484,0.5197468996047974
13.682828426361084,0.38736897706985474,-2.340463161468506,1.1953184604644775,1.166536569595337,-0.13643160462379456,0.519111692905426
13.702969074249268,0.3908997178077698,-2.33638858795166,1.199023723602295,1.168247938156128,-0.13337242603302002,0.5178337097167969
13.723057746887207,0.3929811120033264,-2.33260440826416,1.1982494592666626,1.1685140132904053,-0.13288681209087372,0.5176296830177307
13.743230104446411,0.39434635639190674,-2.331512451171875,1.1965901851654053,1.1680986881256104,-0.13116604089736938,0.5169423222541809
13.763297319412231,0.3972170054912567,-2.3275747299194336,1.1979713439941406,1.1690964698791504,-0.12902119755744934,0.5163271427154541
13.783294439315796,0.39879822731018066,-2.32316255569458,1.1981178522109985,1.1699298620224,-0.1273534595966339,0.5155282020568848
13.80335783958435,0.4007921814918518,-2.3212132453918457,1.1996859312057495,1.1707110404968262,-0.1255495548248291,0.5147644281387329
13.823440313339233,0.4025551378726959,-2.3185195922851562,1.1989266872406006,1.1716018915176392,-0.12572135031223297,0.5141754150390625
13.843512296676636,0.4020081162452698,-2.3165652751922607,1.194202184677124,1.1697134971618652,-0.12645944952964783,0.5133835077285767
13.863603115081787,0.4035135507583618,-2.3139145374298096,1.1950974464416504,1.1701931953430176,-0.12297160923480988,0.5120130777359009
13.883693218231201,0.40637725591659546,-2.310922384262085,1.1973472833633423,1.1718666553497314,-0.12152031809091568,0.5110366344451904
13.903746128082275,0.40705606341362,-2.309074878692627,1.1969106197357178,1.172337532043457,-0.12116966396570206,0.5108757019042969
13.923827171325684,0.40890660881996155,-2.303860664367676,1.1970933675765991,1.1732984781265259,-0.11845391988754272,0.5102747082710266
13.943904399871826,0.4104832410812378,-2.2999227046966553,1.195576548576355,1.1739604473114014,-0.11629147827625275,0.5094594955444336
13.963962078094482,0.41063520312309265,-2.2968873977661133,1.1968772411346436,1.1758508682250977,-0.11444021761417389,0.5087425708770752
13.984079837799072,0.41095203161239624,-2.295393705368042,1.1946063041687012,1.1751329898834229,-0.11433102190494537,0.5086023807525635
14.004131317138672,0.41332441568374634,-2.2924602031707764,1.196581482887268,1.1764874458312988,-0.11346498131752014,0.5080599784851074
14.024237394332886,0.41473934054374695,-2.290599822998047,1.1930323839187622,1.1762579679489136,-0.11295360326766968,0.5073844194412231
14.044268608093262,0.4171334505081177,-2.2873830795288086,1.1932493448257446,1.1759233474731445,-0.11186253279447556,0.5065937042236328
14.064352035522461,0.4195767641067505,-2.2860755920410156,1.1955857276916504,1.1770161390304565,-0.10965591669082642,0.5055035352706909
14.08446455001831,0.4230059087276459,-2.2811331748962402,1.1984941959381104,1.1778736114501953,-0.10625769197940826,0.5042632818222046
14.104611873626709,0.42668938636779785,-2.2762553691864014,1.1995248794555664,1.1789512634277344,-0.1033395454287529,0.5032391548156738
14.124616861343384,0.42806702852249146,-2.2714993953704834,1.1994086503982544,1.1801178455352783,-0.10080274939537048,0.5025843381881714
14.144725799560547,0.4303061366081238,-2.2685277462005615,1.2016539573669434,1.1810821294784546,-0.09821754693984985,0.5018622279167175
14.164783716201782,0.43075430393218994,-2.264240264892578,1.2000205516815186,1.18241286277771,-0.09748844057321548,0.5014219284057617
14.184844732284546,0.43256762623786926,-2.2611870765686035,1.1980245113372803,1.182737112045288,-0.09729223698377609,0.5011727809906006
14.20490574836731,0.43395763635635376,-2.2583327293395996,1.1955747604370117,1.1827545166015625,-0.09620441496372223,0.5008718967437744
14.225132465362549,0.4347076416015625,-2.258453845977783,1.1945934295654297,1.1821600198745728,-0.09687390178442001,0.5002192258834839
14.245107173919678,0.4376518726348877,-2.2550411224365234,1.195850133895874,1.1827043294906616,-0.0938442200422287,0.4992588758468628
14.265239953994751,0.44116997718811035,-2.251462936401367,1.197914719581604,1.1835618019104004,-0.0903853327035904,0.49808987975120544
14.285300731658936,0.44560176134109497,-2.247081756591797,1.2011570930480957,1.1839251518249512,-0.08778923749923706,0.4963192641735077
14.305399417877197,0.4454222321510315,-2.245095729827881,1.1996158361434937,1.1836693286895752,-0.08730331063270569,0.4956299364566803
14.325492858886719,0.44728511571884155,-2.239199638366699,1.2030010223388672,1.1856478452682495,-0.08345283567905426,0.4943784177303314
14.345523357391357,0.4490838646888733,-2.233457565307617,1.2037826776504517,1.1868915557861328,-0.08020545542240143,0.4933001697063446
14.365729331970215,0.45032864809036255,-2.2320353984832764,1.1997942924499512,1.1857599020004272,-0.07988916337490082,0.49307459592819214
14.385813236236572,0.45196500420570374,-2.229431390762329,1.2004472017288208,1.1858205795288086,-0.0791560560464859,0.4919638931751251
14.405887842178345,0.45328211784362793,-2.227634906768799,1.1987203359603882,1.1863744258880615,-0.07913301140069962,0.49116674065589905
14.425968885421753,0.45279794931411743,-2.225388526916504,1.1968050003051758,1.186096429824829,-0.08016253262758255,0.49081188440322876
14.44611120223999,0.4556398093700409,-2.22294282913208,1.2012721300125122,1.1872600317001343,-0.07612437009811401,0.48971834778785706
14.466164350509644,0.45991116762161255,-2.218442916870117,1.20328688621521,1.187787652015686,-0.07328588515520096,0.48830705881118774
14.486207008361816,0.4652264714241028,-2.21051025390625,1.2066162824630737,1.1889485120773315,-0.0670945942401886,0.48648154735565186
14.506273984909058,0.467980295419693,-2.206644296646118,1.2096863985061646,1.1903985738754272,-0.06485162675380707,0.48572319746017456
14.526371479034424,0.46955883502960205,-2.2009401321411133,1.2055282592773438,1.1906875371932983,-0.06222120299935341,0.4851885437965393
14.546425342559814,0.47249284386634827,-2.196729898452759,1.2060167789459229,1.1914136409759521,-0.059731945395469666,0.48402518033981323
14.566668033599854,0.47185271978378296,-2.1944379806518555,1.2033309936523438,1.1920958757400513,-0.06033748760819435,0.4837542772293091
14.586753368377686,0.4719541072845459,-2.192418098449707,1.2029427289962769,1.1926500797271729,-0.05926860496401787,0.4837455153465271
14.60682725906372,0.46949565410614014,-2.1888508796691895,1.2029380798339844,1.192946195602417,-0.058969806879758835,0.4824434816837311
14.6268892288208,0.4738048315048218,-2.1817049980163574,1.2064318656921387,1.1950020790100098,-0.05579717829823494,0.4808818995952606
14.647011041641235,0.47657498717308044,-2.177441120147705,1.2073705196380615,1.1949610710144043,-0.053315699100494385,0.4799095094203949
14.667076587677002,0.48223674297332764,-2.171637773513794,1.2075177431106567,1.1950228214263916,-0.05049137771129608,0.47775426506996155
14.687183380126953,0.48651009798049927,-2.1661782264709473,1.208327054977417,1.1957066059112549,-0.04620056599378586,0.4758882522583008
14.70721435546875,0.48734134435653687,-2.165020704269409,1.203881859779358,1.1947585344314575,-0.04620090126991272,0.47591739892959595
14.72726821899414,0.48843199014663696,-2.1603033542633057,1.2034564018249512,1.1951696872711182,-0.044842541217803955,0.4746195673942566
14.747345685958862,0.4863286018371582,-2.1565465927124023,1.200799822807312,1.1962943077087402,-0.04529167711734772,0.47388795018196106
14.767396688461304,0.48630547523498535,-2.153365135192871,1.1992067098617554,1.1964894533157349,-0.044497452676296234,0.47229838371276855
14.787461519241333,0.48950129747390747,-2.150853157043457,1.2041282653808594,1.198028564453125,-0.042485013604164124,0.4711574614048004
14.807555913925171,0.49015599489212036,-2.145228385925293,1.2034459114074707,1.1990876197814941,-0.041100334376096725,0.4709024727344513
14.827661275863647,0.4924333095550537,-2.141063928604126,1.2018756866455078,1.1999740600585938,-0.038605015724897385,0.4699803292751312
14.847745418548584,0.4965919256210327,-2.1371757984161377,1.2020807266235352,1.2011573314666748,-0.03550460934638977,0.4692623019218445
14.867785453796387,0.49761849641799927,-2.134687900543213,1.199048638343811,1.200533151626587,-0.033983904868364334,0.4684167802333832
14.887922525405884,0.49944251775741577,-2.132385730743408,1.2017157077789307,1.202113389968872,-0.03308635950088501,0.46795472502708435
14.907957077026367,0.5013230443000793,-2.1280388832092285,1.2023537158966064,1.2024390697479248,-0.030917037278413773,0.467044472694397
14.928016662597656,0.5001722574234009,-2.122183322906494,1.2045748233795166,1.2046540975570679,-0.02848782390356064,0.4665418267250061
14.948109149932861,0.5023864507675171,-2.1173348426818848,1.2041873931884766,1.2049024105072021,-0.027506474405527115,0.46526795625686646
14.968189239501953,0.5031930804252625,-2.11452317237854,1.2030408382415771,1.205397367477417,-0.025645602494478226,0.4649503827095032
14.988253116607666,0.5051416754722595,-2.109438419342041,1.2034358978271484,1.20613694190979,-0.02408570796251297,0.46388867497444153
15.008363246917725,0.5083615183830261,-2.10729718208313,1.2013311386108398,1.2059680223464966,-0.02205575630068779,0.4621522128582001
15.028420448303223,0.5084124803543091,-2.1044921875,1.2003123760223389,1.2057470083236694,-0.022070810198783875,0.4613121449947357
