liuyurong129/humanoid-gym/humanoid/data/target_q_20250522-035909.csv
timestamp,joint_1,joint_2,joint_3,joint_4,joint_5,joint_6
0.000141143798828125,0.0,0.0,0.0,0.0,0.0,0.0
0.020201444625854492,0.0,0.0,0.0,0.0,0.0,0.0
0.04026508331298828,0.0,0.0,0.0,0.0,0.0,0.0
0.06034517288208008,0.0,0.0,0.0,0.0,0.0,0.0
0.08040452003479004,0.0,0.0,0.0,0.0,0.0,0.0
0.10046052932739258,-0.11205589026212692,-0.4858831763267517,0.6652201414108276,-0.531450629234314,0.0026085413992404938,-0.038152433931827545
0.1205742359161377,-0.13994883000850677,-0.4806596636772156,0.6405861377716064,-0.5261741876602173,0.00817040167748928,-0.042335815727710724
0.14075326919555664,-0.1552501767873764,-0.47706419229507446,0.6214473247528076,-0.5256525874137878,0.010720783844590187,-0.04454275593161583
0.16086888313293457,-0.17942014336585999,-0.4691212475299835,0.6010693311691284,-0.5229874849319458,0.013383995741605759,-0.048636529594659805
0.18144726753234863,-0.19588464498519897,-0.4618018567562103,0.5979733467102051,-0.5198307037353516,0.011816645041108131,-0.052564457058906555
0.20154404640197754,-0.20061558485031128,-0.4590047001838684,0.5997970104217529,-0.5185567140579224,0.01126102451235056,-0.05397958308458328
0.22162485122680664,-0.21246901154518127,-0.45480239391326904,0.5933297872543335,-0.5151735544204712,0.011874957010149956,-0.056333575397729874
0.24170231819152832,-0.2229546159505844,-0.4525211751461029,0.577747106552124,-0.5141422748565674,0.014101587235927582,-0.05758516490459442
0.26177287101745605,-0.23390957713127136,-0.4478939473628998,0.5729067325592041,-0.5119438171386719,0.01361340656876564,-0.060152579098939896
0.2818276882171631,-0.23077388107776642,-0.4484023153781891,0.5668230056762695,-0.5083197355270386,0.018136320635676384,-0.061102405190467834
0.30192041397094727,-0.2237640768289566,-0.4498573839664459,0.5721147060394287,-0.505628228187561,0.019665315747261047,-0.06138969212770462
0.3220181465148926,-0.22077861428260803,-0.44872498512268066,0.5763969421386719,-0.5045517683029175,0.020756494253873825,-0.06330981105566025
0.3430638313293457,-0.21060368418693542,-0.45111238956451416,0.5791348218917847,-0.5017960071563721,0.025268834084272385,-0.0640217736363411
0.3631744384765625,-0.21906964480876923,-0.449544757604599,0.5714403390884399,-0.502787172794342,0.025787819176912308,-0.06520960479974747
0.38324713706970215,-0.21459010243415833,-0.4530736207962036,0.5719375610351562,-0.4989054501056671,0.028939779847860336,-0.06555420905351639
0.40341925621032715,-0.19786657392978668,-0.4576241374015808,0.5856326818466187,-0.49624112248420715,0.03162303566932678,-0.06481016427278519
0.42345762252807617,-0.19126029312610626,-0.46105557680130005,0.5888238549232483,-0.4938317537307739,0.03472650796175003,-0.06566327810287476
0.4442172050476074,-0.1814119517803192,-0.46559688448905945,0.5945362448692322,-0.49271637201309204,0.03833436593413353,-0.06562557816505432
0.4643871784210205,-0.18877194821834564,-0.465626060962677,0.5836387872695923,-0.4931402802467346,0.040360525250434875,-0.06632634252309799
0.4845283031463623,-0.18097451329231262,-0.46889838576316833,0.5891885757446289,-0.4918515682220459,0.04347929358482361,-0.06679469347000122
0.5059139728546143,-0.1712435930967331,-0.47290706634521484,0.5971559882164001,-0.4899863600730896,0.04679306223988533,-0.06708632409572601
0.5259923934936523,-0.15620839595794678,-0.47561272978782654,0.615772008895874,-0.4887743592262268,0.04735518991947174,-0.06661068648099899
0.54608154296875,-0.1472487598657608,-0.47894835472106934,0.6244421005249023,-0.48888009786605835,0.05094148963689804,-0.06643693894147873
0.5662431716918945,-0.15330064296722412,-0.47998952865600586,0.6119937300682068,-0.4892798066139221,0.05440199002623558,-0.06705792248249054
0.586313009262085,-0.14623543620109558,-0.4860929250717163,0.6143434047698975,-0.48706045746803284,0.05852387845516205,-0.06677597016096115
0.6063711643218994,-0.13957145810127258,-0.49000123143196106,0.6256445050239563,-0.48473677039146423,0.05984406918287277,-0.06694040447473526
0.6264543533325195,-0.12555739283561707,-0.49311158061027527,0.6459804773330688,-0.4825172424316406,0.059308625757694244,-0.06653069704771042
0.6465697288513184,-0.12041573226451874,-0.49750837683677673,0.6532704830169678,-0.48044833540916443,0.061938267201185226,-0.0667186751961708
0.6666669845581055,-0.12465420365333557,-0.4996563196182251,0.6411222219467163,-0.47993040084838867,0.06624915450811386,-0.06718400865793228
0.6867449283599854,-0.12091565132141113,-0.5053570866584778,0.6434347033500671,-0.47951674461364746,0.07003172487020493,-0.06717903167009354
0.7067949771881104,-0.12307813763618469,-0.510377824306488,0.6454064846038818,-0.4782294034957886,0.07166406512260437,-0.0678572878241539
0.7269048690795898,-0.11188780516386032,-0.5097649693489075,0.6676028370857239,-0.4784948229789734,0.06909101456403732,-0.0680357962846756
0.746957540512085,-0.11831163614988327,-0.5107351541519165,0.6738049983978271,-0.4782243072986603,0.06697738915681839,-0.06975634396076202
0.7673172950744629,-0.11767745763063431,-0.5146295428276062,0.6742402911186218,-0.47937968373298645,0.0695355162024498,-0.07003508508205414
0.7874431610107422,-0.12973076105117798,-0.518852949142456,0.6532403230667114,-0.4795771539211273,0.07406451553106308,-0.07060995697975159
0.8075401782989502,-0.1230408325791359,-0.5219018459320068,0.6631950736045837,-0.4769865572452545,0.0761871486902237,-0.07073541730642319
0.8278162479400635,-0.11615392565727234,-0.5248988270759583,0.672080397605896,-0.47490134835243225,0.07819123566150665,-0.0712038204073906
0.8479466438293457,-0.10374637693166733,-0.5239936113357544,0.6935566663742065,-0.4750116169452667,0.07521332055330276,-0.07155538350343704
0.8680281639099121,-0.09603706002235413,-0.5274369120597839,0.7009335160255432,-0.47430282831192017,0.07784660160541534,-0.07217473536729813
0.8884363174438477,-0.1077280044555664,-0.5294870734214783,0.6908171772956848,-0.47572749853134155,0.08108748495578766,-0.07321306318044662
0.9086050987243652,-0.10798558592796326,-0.535369336605072,0.6884827613830566,-0.473326712846756,0.08394058048725128,-0.07409859448671341
0.9286293983459473,-0.1048012375831604,-0.5398331880569458,0.6914241909980774,-0.47226905822753906,0.08637560904026031,-0.07513028383255005
0.9487557411193848,-0.08967573940753937,-0.5408012866973877,0.7077272534370422,-0.46912336349487305,0.08569325506687164,-0.0749545767903328
0.9688544273376465,-0.0861479789018631,-0.5432408452033997,0.7143644094467163,-0.4673682451248169,0.08648467063903809,-0.07637093216180801
0.9890625476837158,-0.08572237938642502,-0.5459737181663513,0.7167996168136597,-0.46516406536102295,0.08832035958766937,-0.07725513726472855
1.009181261062622,-0.09269702434539795,-0.5470595359802246,0.7130991816520691,-0.46563199162483215,0.09085378795862198,-0.07809624075889587
1.029289722442627,-0.09465547651052475,-0.54967200756073,0.7135522365570068,-0.4635498523712158,0.09266750514507294,-0.07876472175121307
1.0493652820587158,-0.09971592575311661,-0.5524011850357056,0.7121526002883911,-0.4623109996318817,0.09434852004051208,-0.0794542133808136
1.0695042610168457,-0.09353209286928177,-0.5525293350219727,0.7202619910240173,-0.46070951223373413,0.09341026842594147,-0.07944051176309586
1.0895874500274658,-0.09759305417537689,-0.55394446849823,0.7247171401977539,-0.4586114287376404,0.09230934828519821,-0.08036625385284424
1.1100611686706543,-0.09955918788909912,-0.5556238889694214,0.7272902727127075,-0.4583203196525574,0.09321369975805283,-0.0810595452785492
1.1301891803741455,-0.10745416581630707,-0.5580593347549438,0.7206874489784241,-0.458214670419693,0.09519616514444351,-0.08160766959190369
1.1503121852874756,-0.10806407779455185,-0.5593067407608032,0.7231841683387756,-0.4598208963871002,0.09671627730131149,-0.0825086236000061
1.1704216003417969,-0.10242466628551483,-0.559465229511261,0.7283331155776978,-0.459327757358551,0.09657597541809082,-0.08275536447763443
1.1905817985534668,-0.10224433988332748,-0.5611748099327087,0.7311110496520996,-0.4583519995212555,0.09819341450929642,-0.08398851752281189
1.210576057434082,-0.10474617779254913,-0.5675756335258484,0.7215253114700317,-0.454860657453537,0.10160228610038757,-0.0844731554389
1.2306618690490723,-0.11097952723503113,-0.5704283118247986,0.7152053117752075,-0.4541754126548767,0.1027790755033493,-0.08491527289152145
1.2507350444793701,-0.11223126202821732,-0.5732803344726562,0.7125468254089355,-0.45368731021881104,0.10534206032752991,-0.08579666912555695
1.2708711624145508,-0.10850149393081665,-0.5739898681640625,0.7144606709480286,-0.45240071415901184,0.10669418424367905,-0.08611123263835907
1.2909660339355469,-0.11244313418865204,-0.5770747661590576,0.7091357707977295,-0.45121699571609497,0.10869240760803223,-0.0865604430437088
1.3110296726226807,-0.11647272109985352,-0.5805445313453674,0.7038103342056274,-0.4492953419685364,0.10992807149887085,-0.08733047544956207
1.3311164379119873,-0.11859086900949478,-0.5832414627075195,0.6992502808570862,-0.44745421409606934,0.11019326746463776,-0.08766520768404007
1.3511884212493896,-0.12089967727661133,-0.5885950326919556,0.6912224888801575,-0.4436229169368744,0.11097799986600876,-0.0879189670085907
1.3713054656982422,-0.12032777070999146,-0.5960501432418823,0.6803073287010193,-0.4399856925010681,0.11341335624456406,-0.08784700185060501
1.391345739364624,-0.11656425893306732,-0.6020519137382507,0.6726271510124207,-0.4381224513053894,0.11588023602962494,-0.08754929900169373
1.4114468097686768,-0.11233171075582504,-0.6112300157546997,0.662385106086731,-0.4332505762577057,0.11920946836471558,-0.08756010979413986
1.4315237998962402,-0.09858189523220062,-0.628180742263794,0.6476811170578003,-0.4230369031429291,0.12453731149435043,-0.08690604567527771
1.4516804218292236,-0.10109353065490723,-0.638684093952179,0.631549060344696,-0.4185672402381897,0.1268194615840912,-0.08703885972499847
1.4717278480529785,-0.0841074138879776,-0.6610369086265564,0.6147897243499756,-0.41096580028533936,0.13443247973918915,-0.08613088726997375
1.4920523166656494,-0.06948311626911163,-0.6773315668106079,0.6098875403404236,-0.40657880902290344,0.13888920843601227,-0.08562511950731277
1.5121619701385498,-0.05173312872648239,-0.6818320751190186,0.6265998482704163,-0.404398649930954,0.14064863324165344,-0.08403340727090836
1.532193660736084,-0.03661583364009857,-0.7014883756637573,0.623659610748291,-0.399123877286911,0.1463543325662613,-0.08388764411211014
1.5523595809936523,-0.04357108101248741,-0.714109480381012,0.603671669960022,-0.39621925354003906,0.14919935166835785,-0.08502084761857986
1.572448492050171,-0.03509592264890671,-0.718643069267273,0.6194225549697876,-0.39229273796081543,0.14930769801139832,-0.08597966283559799
1.5925276279449463,-0.02638167515397072,-0.7287923097610474,0.6275309920310974,-0.3880252540111542,0.15147274732589722,-0.08738130331039429
1.613220453262329,-0.013038420118391514,-0.7263386845588684,0.648428738117218,-0.3896665573120117,0.15023952722549438,-0.08729420602321625
1.633324384689331,-0.004290750250220299,-0.7244956493377686,0.6702545285224915,-0.38880783319473267,0.1478504240512848,-0.089248426258564
1.653364896774292,0.00018887408077716827,-0.7217840552330017,0.6890383362770081,-0.3898409307003021,0.145393967628479,-0.09198843687772751
1.673454999923706,-0.006541618146002293,-0.7244172692298889,0.6866908669471741,-0.38819795846939087,0.1461370885372162,-0.09411187469959259
1.6935303211212158,-0.0011218157596886158,-0.719953715801239,0.7106935381889343,-0.38977932929992676,0.14334484934806824,-0.09668576717376709
1.7135813236236572,0.012132059782743454,-0.7121574878692627,0.7442387342453003,-0.3915920853614807,0.1395094394683838,-0.09917616844177246
1.7336664199829102,0.019807986915111542,-0.7054176330566406,0.7660738825798035,-0.39572980999946594,0.13455761969089508,-0.10067227482795715
1.753774881362915,0.011271961033344269,-0.6978917121887207,0.7970989346504211,-0.3980177938938141,0.1260802149772644,-0.10594330728054047
1.7740912437438965,-0.00333479605615139,-0.6968777775764465,0.8067247867584229,-0.39632779359817505,0.12269967049360275,-0.10860348492860794
1.7942631244659424,-0.020655516535043716,-0.6933231353759766,0.8312646746635437,-0.39664775133132935,0.11465935409069061,-0.11277038604021072
1.814298391342163,-0.047430314123630524,-0.7005912661552429,0.8333843946456909,-0.39577943086624146,0.11304424703121185,-0.11509093642234802
1.8343560695648193,-0.06067120283842087,-0.7052550315856934,0.8319960236549377,-0.3970477879047394,0.11506159603595734,-0.1158173680305481
1.8544368743896484,-0.0958937332034111,-0.7171520590782166,0.822371244430542,-0.3953724503517151,0.11627612262964249,-0.11711115390062332
1.8745653629302979,-0.1081402599811554,-0.7206659317016602,0.8207767605781555,-0.39400142431259155,0.11646823585033417,-0.1177525594830513
1.8945999145507812,-0.12183158844709396,-0.7265663146972656,0.8147710561752319,-0.39635080099105835,0.12277092784643173,-0.11825825273990631
1.9146757125854492,-0.12035155296325684,-0.7317054271697998,0.8119615912437439,-0.39521583914756775,0.12894786894321442,-0.11898063123226166
1.9348664283752441,-0.11635670810937881,-0.7367547154426575,0.8085256814956665,-0.3916589319705963,0.13244132697582245,-0.11931831389665604
1.9549202919006348,-0.10460388660430908,-0.7425780296325684,0.8089302182197571,-0.3844597339630127,0.1368665099143982,-0.12059272825717926
1.9751639366149902,-0.08459895849227905,-0.7550135254859924,0.8020145893096924,-0.3740069568157196,0.14595229923725128,-0.12131887674331665
1.9952855110168457,-0.0710396021604538,-0.7617045044898987,0.7989526391029358,-0.369858980178833,0.15158462524414062,-0.12189511209726334
2.0153696537017822,-0.05733191967010498,-0.7675493955612183,0.7981992959976196,-0.3580436706542969,0.15509963035583496,-0.12371619045734406
2.035426616668701,-0.04964248836040497,-0.7710123658180237,0.7957439422607422,-0.3534824550151825,0.15859127044677734,-0.12445244193077087
2.0555825233459473,-0.04072372615337372,-0.7721286416053772,0.7957423329353333,-0.34620213508605957,0.1629326045513153,-0.12602083384990692
2.075683832168579,-0.04071773216128349,-0.7684517502784729,0.7971445918083191,-0.3451046049594879,0.1651400923728943,-0.12768611311912537
2.095834255218506,-0.04334308207035065,-0.7657651901245117,0.8006781339645386,-0.3448290526866913,0.16429424285888672,-0.12876522541046143
2.1158435344696045,-0.0531131774187088,-0.7600770592689514,0.8090222477912903,-0.34552201628685,0.16063518822193146,-0.13073669373989105
2.135899305343628,-0.07485473155975342,-0.7542799115180969,0.8185887336730957,-0.3453308939933777,0.15003427863121033,-0.13281194865703583
2.1559836864471436,-0.09295029193162918,-0.7536135315895081,0.8195987939834595,-0.34162816405296326,0.14160147309303284,-0.13365882635116577
2.176182746887207,-0.10518597066402435,-0.7546862363815308,0.8207137584686279,-0.33525341749191284,0.13298611342906952,-0.134071946144104
2.196838617324829,-0.11409158259630203,-0.7600339651107788,0.8149936199188232,-0.32791343331336975,0.12661466002464294,-0.13413137197494507
2.216970920562744,-0.10317745059728622,-0.7634128332138062,0.8141342401504517,-0.3268545866012573,0.12902213633060455,-0.13400132954120636
2.2370691299438477,-0.07564006745815277,-0.7697499990463257,0.8108292818069458,-0.33135801553726196,0.13902625441551208,-0.13409708440303802
2.2571892738342285,-0.06639474630355835,-0.7702969312667847,0.8102504014968872,-0.3358137011528015,0.14320488274097443,-0.13446904718875885
2.277273416519165,-0.05809533968567848,-0.7674560546875,0.8128690719604492,-0.34729304909706116,0.14876578748226166,-0.13570618629455566
2.2974958419799805,-0.06220525503158569,-0.7610642910003662,0.8201308250427246,-0.3544467091560364,0.1482255458831787,-0.13693217933177948
2.3175153732299805,-0.06502895057201385,-0.7594156861305237,0.8210985660552979,-0.35627296566963196,0.14732852578163147,-0.13728319108486176
2.3376317024230957,-0.07619328796863556,-0.759945809841156,0.8188916444778442,-0.3552563190460205,0.1422107219696045,-0.13794486224651337
2.35793137550354,-0.09348689019680023,-0.7617774605751038,0.8178974390029907,-0.35515427589416504,0.13243229687213898,-0.1394759863615036
2.3781473636627197,-0.10052536427974701,-0.7634690999984741,0.8164849877357483,-0.35695090889930725,0.12951508164405823,-0.14011923968791962
2.3982131481170654,-0.09657895565032959,-0.7673694491386414,0.8129978179931641,-0.36351630091667175,0.13073699176311493,-0.14086952805519104
2.4183390140533447,-0.08810386806726456,-0.7696621417999268,0.8111159801483154,-0.3637683093547821,0.13329806923866272,-0.14094674587249756
2.438377618789673,-0.07257895171642303,-0.7714986801147461,0.8121921420097351,-0.36566099524497986,0.13763396441936493,-0.14096936583518982
2.4584765434265137,-0.05294940248131752,-0.7704820036888123,0.8166190385818481,-0.37043502926826477,0.14364726841449738,-0.14064247906208038
2.4785470962524414,-0.04660341888666153,-0.7700024843215942,0.8190921545028687,-0.37116730213165283,0.14460450410842896,-0.14056932926177979
2.498824119567871,-0.05971813574433327,-0.7655535936355591,0.8233004808425903,-0.3785676658153534,0.14139039814472198,-0.1409030258655548
2.5187926292419434,-0.0680295079946518,-0.7656909227371216,0.8225631713867188,-0.3839903473854065,0.138807475566864,-0.14096635580062866
2.5389392375946045,-0.07428982853889465,-0.7664111852645874,0.8215487003326416,-0.38383418321609497,0.13556405901908875,-0.14104071259498596
2.5590226650238037,-0.08831383287906647,-0.7690395712852478,0.8165454268455505,-0.38318654894828796,0.12930089235305786,-0.1409945785999298
2.579232931137085,-0.09500046074390411,-0.7694294452667236,0.8147785067558289,-0.383461594581604,0.1272067427635193,-0.14071014523506165
2.5993266105651855,-0.08519110083580017,-0.7700117826461792,0.8165596127510071,-0.3864486813545227,0.12878389656543732,-0.14008091390132904
2.619377613067627,-0.06802985072135925,-0.7714697122573853,0.8195942640304565,-0.38779279589653015,0.13240347802639008,-0.1395438313484192
2.639497995376587,-0.06140243634581566,-0.7715229392051697,0.8208138942718506,-0.3892740309238434,0.13437405228614807,-0.1393105685710907
2.659552812576294,-0.04654781520366669,-0.7715297341346741,0.8231426477432251,-0.39547276496887207,0.1398179829120636,-0.13862037658691406
2.6797266006469727,-0.054131388664245605,-0.7699998617172241,0.8226996660232544,-0.40093427896499634,0.13920730352401733,-0.13813500106334686
2.699817657470703,-0.06262758374214172,-0.7693123817443848,0.8229395151138306,-0.4037800133228302,0.13673554360866547,-0.1380108743906021
2.7198851108551025,-0.07370021194219589,-0.7698727250099182,0.8214482069015503,-0.4054628312587738,0.13251051306724548,-0.13744592666625977
2.73996639251709,-0.08141713589429855,-0.7703909277915955,0.8209646344184875,-0.40198707580566406,0.12795767188072205,-0.13711443543434143
2.760077476501465,-0.09235358983278275,-0.7707301378250122,0.8217353224754333,-0.4009552001953125,0.12173984944820404,-0.13599297404289246
2.7801525592803955,-0.07151169329881668,-0.775109589099884,0.8234140872955322,-0.4025752544403076,0.12674134969711304,-0.13432684540748596
2.8002026081085205,-0.06558743119239807,-0.7757430672645569,0.8238131403923035,-0.40578120946884155,0.12893058359622955,-0.1337100863456726
2.820272207260132,-0.05014917626976967,-0.7754802107810974,0.8249304294586182,-0.41068950295448303,0.1350204348564148,-0.13206425309181213
2.840420961380005,-0.03827327862381935,-0.7766836285591125,0.8210926055908203,-0.4154970645904541,0.14221802353858948,-0.13051658868789673
2.8605127334594727,-0.040858905762434006,-0.775262176990509,0.8215823173522949,-0.4167226552963257,0.1418023407459259,-0.1300031840801239
2.8805949687957764,-0.0672350525856018,-0.7722918391227722,0.8244450092315674,-0.4226503372192383,0.13317546248435974,-0.1298956423997879
2.9006693363189697,-0.06756407022476196,-0.7727780342102051,0.8227275609970093,-0.4238215684890747,0.13356833159923553,-0.12910127639770508
2.9207558631896973,-0.07979416102170944,-0.7731589078903198,0.8236454725265503,-0.4162786900997162,0.12448598444461823,-0.12819740176200867
2.940864086151123,-0.08099339157342911,-0.7738982439041138,0.8251332640647888,-0.4171639680862427,0.12196692079305649,-0.12685099244117737
2.9609792232513428,-0.07601244002580643,-0.7752746343612671,0.8248550295829773,-0.41613057255744934,0.12305706739425659,-0.12591314315795898
2.9810357093811035,-0.06537844985723495,-0.7768231630325317,0.8252495527267456,-0.4179490804672241,0.12617795169353485,-0.12425287812948227
3.0011093616485596,-0.061542361974716187,-0.7779905200004578,0.8233953714370728,-0.4200761020183563,0.12855187058448792,-0.12337511777877808
3.0212013721466064,-0.048851899802684784,-0.7788423299789429,0.8221606016159058,-0.42697232961654663,0.13609649240970612,-0.12165335565805435
3.0412700176239014,-0.04525420814752579,-0.7785071730613708,0.8234958648681641,-0.43156173825263977,0.13838383555412292,-0.1205047145485878
3.0613956451416016,-0.04721708223223686,-0.778089702129364,0.8236806988716125,-0.4317170977592468,0.13787634670734406,-0.11977401375770569
3.081462860107422,-0.05962710082530975,-0.775196373462677,0.8276392221450806,-0.4329458773136139,0.13127845525741577,-0.11871691048145294
3.1015074253082275,-0.07578937709331512,-0.7757916450500488,0.8277801871299744,-0.42939433455467224,0.12232013046741486,-0.11747460067272186
3.1216013431549072,-0.08066639304161072,-0.7758414149284363,0.8273813724517822,-0.42731329798698425,0.11955562978982925,-0.11645065993070602
3.141704559326172,-0.0837421715259552,-0.7769080996513367,0.825824499130249,-0.4285881519317627,0.11811777204275131,-0.11433281004428864
3.1622636318206787,-0.07345707714557648,-0.7801116108894348,0.8233956098556519,-0.430226594209671,0.12226305902004242,-0.11316867172718048
3.1824207305908203,-0.054877907037734985,-0.7830328345298767,0.821956992149353,-0.4355744421482086,0.1314793974161148,-0.1113070547580719
3.2024354934692383,-0.04100530967116356,-0.7826196551322937,0.8249097466468811,-0.4394363760948181,0.13731256127357483,-0.10956453531980515
3.2225282192230225,-0.03486614301800728,-0.7817178964614868,0.8266542553901672,-0.4407777786254883,0.13965389132499695,-0.10855329036712646
3.242933750152588,-0.046185530722141266,-0.7769523859024048,0.8317645788192749,-0.44304782152175903,0.13448812067508698,-0.10741696506738663
3.26302433013916,-0.07219070941209793,-0.7735841274261475,0.8336094617843628,-0.43829968571662903,0.12265507131814957,-0.10622313618659973
3.283114194869995,-0.08057639747858047,-0.7743216753005981,0.8323704600334167,-0.4339551627635956,0.11796610057353973,-0.10536786168813705
3.3032007217407227,-0.09015011787414551,-0.7771891951560974,0.8286805152893066,-0.434543639421463,0.11386628448963165,-0.10368527472019196
3.323770523071289,-0.06855559349060059,-0.7848239541053772,0.822105348110199,-0.4385472238063812,0.12444616854190826,-0.1014738455414772
3.343939781188965,-0.06038970127701759,-0.786453366279602,0.821530282497406,-0.44083234667778015,0.12797164916992188,-0.10074169933795929
3.3639416694641113,-0.047976765781641006,-0.7855147123336792,0.8239488005638123,-0.44580531120300293,0.13374146819114685,-0.09939971566200256
3.384244441986084,-0.04197113960981369,-0.7849849462509155,0.8245672583580017,-0.44761526584625244,0.1369916796684265,-0.09859135001897812
3.404337167739868,-0.03527052327990532,-0.7814140915870667,0.8314244151115417,-0.4463040232658386,0.1368379443883896,-0.0973091721534729
3.4244282245635986,-0.05431106686592102,-0.7760450839996338,0.83641117811203,-0.4433622360229492,0.12760956585407257,-0.09619839489459991
3.444554328918457,-0.06273730099201202,-0.7753363847732544,0.8364697694778442,-0.4444056749343872,0.12444907426834106,-0.09546057879924774
3.4647367000579834,-0.07764622569084167,-0.7767038941383362,0.8316240310668945,-0.44526392221450806,0.12000637501478195,-0.09370024502277374
3.4847493171691895,-0.08867742121219635,-0.7803828716278076,0.8240839242935181,-0.4460293650627136,0.11700348556041718,-0.09204383194446564
3.504912853240967,-0.08223496377468109,-0.7836101055145264,0.8217030763626099,-0.44713860750198364,0.119804248213768,-0.09115631133317947
3.5249905586242676,-0.05820760503411293,-0.7884901165962219,0.8223997950553894,-0.44841697812080383,0.12805518507957458,-0.08942977339029312
3.5453343391418457,-0.045258887112140656,-0.7866843938827515,0.8287978172302246,-0.44950997829437256,0.1307041198015213,-0.08815836906433105
3.5656652450561523,-0.0368986576795578,-0.7849404215812683,0.8325374126434326,-0.44961798191070557,0.1323816329240799,-0.08717947453260422
3.5859768390655518,-0.030896944925189018,-0.7803753018379211,0.8406012058258057,-0.4503570795059204,0.1324509084224701,-0.08563387393951416
3.6060993671417236,-0.04476115107536316,-0.7778490781784058,0.8425588011741638,-0.4515550136566162,0.12772460281848907,-0.08526822179555893
3.6261961460113525,-0.0638529434800148,-0.778599202632904,0.836894690990448,-0.45397496223449707,0.12282834947109222,-0.08371788263320923
3.6467995643615723,-0.07244767248630524,-0.7824050188064575,0.8274396657943726,-0.4548606276512146,0.1225333958864212,-0.08192937076091766
3.666900634765625,-0.0790320560336113,-0.7842377424240112,0.8235839009284973,-0.4551529884338379,0.12126301229000092,-0.08133384585380554
3.6870758533477783,-0.08283695578575134,-0.7862840890884399,0.8198899626731873,-0.45683982968330383,0.12197478115558624,-0.07999048382043839
3.707214593887329,-0.07329850643873215,-0.7866001129150391,0.8236945867538452,-0.45664799213409424,0.1232665628194809,-0.07937980443239212
3.7272822856903076,-0.052470359951257706,-0.7846413254737854,0.8343920707702637,-0.4547123312950134,0.12484245002269745,-0.07796478271484375
3.747378349304199,-0.04672497883439064,-0.7836742401123047,0.8366143107414246,-0.45350003242492676,0.12604361772537231,-0.07690885663032532
3.7674400806427,-0.02723356895148754,-0.7845550179481506,0.8409931063652039,-0.4516369700431824,0.13058815896511078,-0.07488516718149185
3.787503719329834,-0.027233069762587547,-0.7842613458633423,0.8392739295959473,-0.4527762532234192,0.13268856704235077,-0.07385910302400589
3.8075950145721436,-0.060590505599975586,-0.7816984057426453,0.8344296813011169,-0.4588254690170288,0.12629902362823486,-0.07286782562732697
3.8277063369750977,-0.07338114827871323,-0.7822747826576233,0.8279767036437988,-0.4612431228160858,0.12406399846076965,-0.07107803970575333
3.8478195667266846,-0.07716594636440277,-0.7822763323783875,0.8278391361236572,-0.4615485668182373,0.12187136709690094,-0.07045747339725494
3.8679656982421875,-0.07907421886920929,-0.7823850512504578,0.8310256004333496,-0.46008461713790894,0.11690358817577362,-0.06942949444055557
3.8880043029785156,-0.05960489809513092,-0.7843360304832458,0.8365164995193481,-0.45791637897491455,0.12013960629701614,-0.06790962815284729
3.908099889755249,-0.05409613624215126,-0.78472900390625,0.8368434309959412,-0.45570114254951477,0.12141105532646179,-0.06698963791131973
3.928237199783325,-0.044535402208566666,-0.7864606380462646,0.8345033526420593,-0.45832574367523193,0.12772735953330994,-0.06519030779600143
3.948265314102173,-0.03378218412399292,-0.7892347574234009,0.8301264643669128,-0.46215978264808655,0.13613690435886383,-0.06350786983966827
3.9683520793914795,-0.04505853354930878,-0.7876285910606384,0.8282110691070557,-0.46417051553726196,0.1344379484653473,-0.06315891444683075
3.9884605407714844,-0.05822952836751938,-0.784507155418396,0.8290426731109619,-0.46759527921676636,0.13051210343837738,-0.06233086436986923
4.00866436958313,-0.06691236793994904,-0.7819561958312988,0.8319486975669861,-0.4663097858428955,0.12396879494190216,-0.06148751080036163
4.028786659240723,-0.07197314500808716,-0.7810761332511902,0.8344206809997559,-0.4645368754863739,0.11889192461967468,-0.061297327280044556
4.04888391494751,-0.07647506892681122,-0.7803518772125244,0.837483286857605,-0.45805683732032776,0.11307653039693832,-0.060027316212654114
4.06898307800293,-0.07451172173023224,-0.7808729410171509,0.837847113609314,-0.4580739140510559,0.11326999962329865,-0.05915629863739014
4.089079856872559,-0.06287874281406403,-0.7846254110336304,0.835066020488739,-0.46053725481033325,0.11898903548717499,-0.05738363042473793
4.109127759933472,-0.04831268638372421,-0.7885712385177612,0.8295239806175232,-0.4644468128681183,0.12890787422657013,-0.05556337907910347
4.129218816757202,-0.04200262203812599,-0.789486289024353,0.8288722634315491,-0.4661751985549927,0.13241106271743774,-0.05487299710512161
4.1493330001831055,-0.03090767376124859,-0.7895886898040771,0.8289914131164551,-0.46840745210647583,0.13867038488388062,-0.05364207178354263
4.169535398483276,-0.05183597654104233,-0.7837287187576294,0.8332215547561646,-0.4702455997467041,0.1308974325656891,-0.053482867777347565
4.189633131027222,-0.06197419762611389,-0.780669629573822,0.8374870419502258,-0.4699823260307312,0.12448780238628387,-0.053499042987823486
4.209726095199585,-0.08222322165966034,-0.7772024273872375,0.8401411771774292,-0.4671041965484619,0.11343883723020554,-0.05267007648944855
4.229775667190552,-0.09172791987657547,-0.7765954732894897,0.8410555124282837,-0.4633777439594269,0.10703612118959427,-0.05218440294265747
4.249874114990234,-0.07656222581863403,-0.7823871374130249,0.842054009437561,-0.4598549008369446,0.10893679410219193,-0.05054411292076111
4.269991397857666,-0.054631009697914124,-0.7901062369346619,0.8360304236412048,-0.4599596858024597,0.1191367357969284,-0.04873093590140343
4.290076017379761,-0.0469316691160202,-0.7919480204582214,0.8333637118339539,-0.462724894285202,0.12441690266132355,-0.04807394742965698
4.310143709182739,-0.03048565238714218,-0.7942594289779663,0.8277492523193359,-0.4677916169166565,0.1366095095872879,-0.046601053327322006
4.330250978469849,-0.03411177918314934,-0.791243314743042,0.8286703824996948,-0.4715026319026947,0.13870194554328918,-0.04611031711101532
4.350357294082642,-0.04826454073190689,-0.787070095539093,0.830701470375061,-0.4742102324962616,0.13547851145267487,-0.04603062942624092
4.370456695556641,-0.05727439373731613,-0.7826056480407715,0.8354070782661438,-0.4753166735172272,0.12991279363632202,-0.04516792669892311
4.390572547912598,-0.07200226932764053,-0.7808684706687927,0.8383861780166626,-0.4692927598953247,0.11840113997459412,-0.04459429904818535
4.410658121109009,-0.07862474769353867,-0.7808608412742615,0.8383032083511353,-0.4662061035633087,0.11385421454906464,-0.044069014489650726
4.4307427406311035,-0.08596831560134888,-0.782311737537384,0.8365013003349304,-0.4652369022369385,0.10964471101760864,-0.04286935180425644
4.450815200805664,-0.078336201608181,-0.7848052978515625,0.8356994986534119,-0.4653995931148529,0.11206385493278503,-0.04211665317416191
4.470951080322266,-0.059405140578746796,-0.7893427014350891,0.8344306349754333,-0.465704083442688,0.11932424455881119,-0.04076935350894928
4.491022825241089,-0.04420445114374161,-0.7907980680465698,0.8334780335426331,-0.46884384751319885,0.12730735540390015,-0.039662547409534454
4.511525392532349,-0.03672567382454872,-0.7914978265762329,0.8337717652320862,-0.4701499938964844,0.1308348923921585,-0.03924087435007095
4.531612396240234,-0.029472069814801216,-0.7899639010429382,0.8348461389541626,-0.47288405895233154,0.1353442668914795,-0.03836436569690704
4.5516815185546875,-0.04900061711668968,-0.7854896783828735,0.8366702198982239,-0.47458964586257935,0.12842264771461487,-0.03828585520386696
4.571761608123779,-0.06107942759990692,-0.7838550209999084,0.8370095491409302,-0.47536149621009827,0.12394183874130249,-0.03827933967113495
4.5918967723846436,-0.07539185136556625,-0.7818050384521484,0.8355540633201599,-0.4755029082298279,0.11926388740539551,-0.03720707446336746
4.611945629119873,-0.08584415167570114,-0.7810372114181519,0.8371252417564392,-0.47345349192619324,0.11154721677303314,-0.0365104004740715
4.632058620452881,-0.08329598605632782,-0.7821788787841797,0.837788462638855,-0.47158676385879517,0.1103203073143959,-0.0359952338039875
4.652818918228149,-0.06568241864442825,-0.7873308658599854,0.8354071378707886,-0.4666338264942169,0.11602197587490082,-0.034419186413288116
4.6729042530059814,-0.0573737770318985,-0.7887566685676575,0.834369421005249,-0.46706438064575195,0.1199297159910202,-0.033748481422662735
4.693068504333496,-0.03819979354739189,-0.7925111651420593,0.831183910369873,-0.47040170431137085,0.13084827363491058,-0.03244688734412193
4.7131195068359375,-0.03175899013876915,-0.7926591038703918,0.8304045796394348,-0.47217845916748047,0.13523976504802704,-0.031923044472932816
4.733255386352539,-0.037070050835609436,-0.7886520624160767,0.8325414657592773,-0.47517281770706177,0.13473810255527496,-0.03158308193087578
4.753338098526001,-0.05906742811203003,-0.7839463949203491,0.8343609571456909,-0.4775159955024719,0.12706613540649414,-0.03162304684519768
4.773473262786865,-0.06049685925245285,-0.7832331657409668,0.8354573845863342,-0.4774380922317505,0.12549780309200287,-0.031202957034111023
4.793571472167969,-0.07188926637172699,-0.7813918590545654,0.8387935757637024,-0.47323036193847656,0.11629360169172287,-0.030928373336791992
4.813634634017944,-0.08041831851005554,-0.7813355922698975,0.8388382792472839,-0.4710133969783783,0.11055898666381836,-0.030239438638091087
4.833701848983765,-0.07630650699138641,-0.7836877703666687,0.8366053104400635,-0.4702480435371399,0.11229004710912704,-0.029617514461278915
4.853785514831543,-0.06006615236401558,-0.787792444229126,0.8333923816680908,-0.4710248112678528,0.11997875571250916,-0.028369568288326263
4.873844146728516,-0.04432843625545502,-0.7902055978775024,0.8318500518798828,-0.4734116196632385,0.1283338963985443,-0.02749635837972164
4.894021987915039,-0.03732923045754433,-0.7906050682067871,0.8311119675636292,-0.47522100806236267,0.13297410309314728,-0.02706662192940712
4.914129972457886,-0.03682124987244606,-0.7893072962760925,0.8317381739616394,-0.478160560131073,0.13525886833667755,-0.02676435559988022
4.934221506118774,-0.05360632762312889,-0.7843601107597351,0.8358564376831055,-0.4786570072174072,0.12793640792369843,-0.026822051033377647
4.9543373584747314,-0.05854343995451927,-0.7827761173248291,0.8381672501564026,-0.47810399532318115,0.1246420294046402,-0.02671569399535656
4.974390268325806,-0.06946151703596115,-0.7808008193969727,0.8388177156448364,-0.4762265682220459,0.1183629110455513,-0.026123421266674995
4.994454383850098,-0.07856690138578415,-0.7808682918548584,0.8388367295265198,-0.47339728474617004,0.11162443459033966,-0.025672974064946175
5.014578580856323,-0.08059568703174591,-0.7810878753662109,0.8388104438781738,-0.47255486249923706,0.10970083624124527,-0.025311939418315887
5.034794092178345,-0.06762956082820892,-0.7848722338676453,0.8366823196411133,-0.4706859588623047,0.1141941025853157,-0.024101464077830315
5.054784297943115,-0.058818843215703964,-0.7870309352874756,0.834520161151886,-0.470817506313324,0.11895256489515305,-0.02344166301190853
5.074936151504517,-0.04572802782058716,-0.7892078757286072,0.8330073952674866,-0.4732397794723511,0.1263415813446045,-0.02264488860964775
5.095499038696289,-0.033891577273607254,-0.7889216542243958,0.83316969871521,-0.47719550132751465,0.13366256654262543,-0.02185441181063652
5.115585803985596,-0.03484097123146057,-0.7876209616661072,0.8342180252075195,-0.4787338972091675,0.13362959027290344,-0.02169755846261978
5.1356353759765625,-0.05759274214506149,-0.7840833067893982,0.8353580236434937,-0.47911012172698975,0.1245657354593277,-0.02185859903693199
5.155765533447266,-0.06488832831382751,-0.7829994559288025,0.8362164497375488,-0.47914919257164,0.12070206552743912,-0.021805530413985252
5.175837278366089,-0.07841191440820694,-0.7815694808959961,0.8369590044021606,-0.47780513763427734,0.11336725205183029,-0.021187830716371536
5.196323871612549,-0.08187486231327057,-0.7817582488059998,0.8381655812263489,-0.4760293662548065,0.10939593613147736,-0.020988715812563896
5.216410398483276,-0.0678805559873581,-0.7863420844078064,0.8366471529006958,-0.4746813178062439,0.11344824731349945,-0.019737999886274338
5.2365193367004395,-0.052659738808870316,-0.7899978160858154,0.8338037133216858,-0.4747677445411682,0.12062281370162964,-0.018537240102887154
5.25667405128479,-0.04493704438209534,-0.7915366888046265,0.8337469100952148,-0.4753960072994232,0.12419936805963516,-0.018202224746346474
5.27672815322876,-0.02761523798108101,-0.7923809289932251,0.8320795297622681,-0.478225976228714,0.13516536355018616,-0.01723027601838112
5.296783685684204,-0.04088417813181877,-0.7884609699249268,0.83279949426651,-0.4810534715652466,0.13244862854480743,-0.017379356548190117
5.316866397857666,-0.05394905060529709,-0.7856959104537964,0.8346320390701294,-0.48148542642593384,0.12701435387134552,-0.017634432762861252
5.3369691371917725,-0.0687355250120163,-0.7821415662765503,0.8366861343383789,-0.48211750388145447,0.1204407662153244,-0.017284920439124107
5.357273101806641,-0.08849465101957321,-0.7793742418289185,0.8388581871986389,-0.4803811013698578,0.10963033884763718,-0.017117436975240707
5.377368927001953,-0.09252455830574036,-0.7793115377426147,0.8393362164497375,-0.4786091148853302,0.10602171719074249,-0.016798699274659157
5.397559642791748,-0.0685308650135994,-0.7879661321640015,0.8372616767883301,-0.47280973196029663,0.11282434314489365,-0.015636786818504333
5.41759991645813,-0.05732220783829689,-0.7907571792602539,0.8358727693557739,-0.47193002700805664,0.11768274009227753,-0.015002772212028503
5.437722206115723,-0.04025522619485855,-0.7932926416397095,0.8354101777076721,-0.4736107885837555,0.12557630240917206,-0.014232124201953411
5.457821607589722,-0.030838679522275925,-0.7937391400337219,0.8341451287269592,-0.47606360912323,0.13192380964756012,-0.013798252679407597
5.4779417514801025,-0.021344473585486412,-0.7908205986022949,0.8365746736526489,-0.4805632531642914,0.13772600889205933,-0.013363447040319443
5.498088598251343,-0.03496703505516052,-0.7881354093551636,0.8380686640739441,-0.481974720954895,0.13277113437652588,-0.013718634843826294
5.518185615539551,-0.054904691874980927,-0.784333348274231,0.8392901420593262,-0.4833095967769623,0.12524712085723877,-0.01334060076624155
5.538398027420044,-0.06573377549648285,-0.7831366062164307,0.839470386505127,-0.48249495029449463,0.11946273595094681,-0.012685049325227737
5.558446645736694,-0.07444306463003159,-0.7825233936309814,0.8402677178382874,-0.48061394691467285,0.11362220346927643,-0.012678060680627823
5.578556060791016,-0.09041862934827805,-0.7827564477920532,0.8371214270591736,-0.4796845316886902,0.10695549845695496,-0.012006410397589207
5.598640441894531,-0.0770067572593689,-0.7871633768081665,0.8355830907821655,-0.4781408905982971,0.11150606721639633,-0.011442453600466251
5.618748903274536,-0.0529380738735199,-0.7934885621070862,0.8351421356201172,-0.4769587218761444,0.12003079801797867,-0.010811765678226948
5.638818979263306,-0.0361381471157074,-0.794593095779419,0.8356448411941528,-0.4775548279285431,0.12733733654022217,-0.010413791984319687
5.659025192260742,-0.03200727701187134,-0.7939737439155579,0.8359842300415039,-0.47907721996307373,0.13008973002433777,-0.010335225611925125
5.679105043411255,-0.030979875475168228,-0.790327250957489,0.8375104665756226,-0.4827303886413574,0.13293273746967316,-0.009952819906175137
5.699234247207642,-0.04452921077609062,-0.7869765758514404,0.8390040993690491,-0.4841795563697815,0.12779995799064636,-0.009936532005667686
5.719350814819336,-0.052573248744010925,-0.7860003709793091,0.8386014103889465,-0.484308660030365,0.12490996718406677,-0.009824530221521854
5.739414215087891,-0.06982345134019852,-0.7840191125869751,0.8392298221588135,-0.48258623480796814,0.11606784909963608,-0.009723315015435219
5.759917736053467,-0.09013278782367706,-0.782986044883728,0.8367142081260681,-0.48116886615753174,0.10714181512594223,-0.009251399897038937
5.7800281047821045,-0.08482395857572556,-0.7856978178024292,0.8360470533370972,-0.47894853353500366,0.10720892250537872,-0.008918240666389465
5.800195693969727,-0.06151474639773369,-0.7920822501182556,0.8363790512084961,-0.4754696190357208,0.11418242752552032,-0.008191505447030067
5.820201635360718,-0.056973300874233246,-0.7922304272651672,0.8363404273986816,-0.47563546895980835,0.11631013453006744,-0.007873943075537682
5.840272903442383,-0.046137697994709015,-0.7928480505943298,0.8354554176330566,-0.47832515835762024,0.12297594547271729,-0.007280285004526377
5.860323905944824,-0.034037988632917404,-0.7930100560188293,0.8357442617416382,-0.4806574881076813,0.1297071874141693,-0.006880225148051977
5.88041615486145,-0.032343193888664246,-0.7925171852111816,0.8365713953971863,-0.4818587601184845,0.13077029585838318,-0.0069187660701572895
5.900489807128906,-0.04675405099987984,-0.7895011305809021,0.8370054960250854,-0.48369574546813965,0.12673842906951904,-0.0070886872708797455
5.920647859573364,-0.06300858408212662,-0.7863685488700867,0.8386268615722656,-0.4835704267024994,0.11920159310102463,-0.007182307541370392
5.9407429695129395,-0.07049914449453354,-0.7852059006690979,0.8391579985618591,-0.48313626646995544,0.11544287204742432,-0.007123694755136967
5.960822105407715,-0.08379240334033966,-0.7839972972869873,0.8407682180404663,-0.47938287258148193,0.10618719458580017,-0.007101654540747404
5.980894565582275,-0.08451700210571289,-0.7843630313873291,0.8412299156188965,-0.47860854864120483,0.1045435443520546,-0.006870664656162262
6.000988006591797,-0.05956491455435753,-0.790558397769928,0.8409100770950317,-0.4760306477546692,0.11286074668169022,-0.005911866202950478
6.021038770675659,-0.04717541113495827,-0.7930284142494202,0.8388200402259827,-0.4769457280635834,0.11989004909992218,-0.0052670021541416645
6.0411365032196045,-0.040593963116407394,-0.7936102151870728,0.8368092775344849,-0.4784918427467346,0.1252453774213791,-0.004807907622307539
6.0612452030181885,-0.02973349206149578,-0.794023871421814,0.8352462649345398,-0.4819110631942749,0.13343966007232666,-0.004286345560103655
6.081414222717285,-0.04729194566607475,-0.7907259464263916,0.8350980281829834,-0.4844394624233246,0.12892819941043854,-0.004604182206094265
6.101510763168335,-0.05733540281653404,-0.7884871959686279,0.8361426591873169,-0.48469364643096924,0.12450288981199265,-0.004694061353802681
6.121591806411743,-0.07499456405639648,-0.7842098474502563,0.8388819694519043,-0.48395657539367676,0.11544917523860931,-0.004500087816268206
6.1418492794036865,-0.09005860239267349,-0.7818435430526733,0.8421742916107178,-0.4809000492095947,0.10444797575473785,-0.004412781912833452
6.161942481994629,-0.08858443796634674,-0.7827126383781433,0.8427391648292542,-0.4790050983428955,0.1028432697057724,-0.0040503330528736115
6.182013273239136,-0.06593827903270721,-0.7898943424224854,0.8409562110900879,-0.47705042362213135,0.1104285717010498,-0.003144618356600404
6.202094554901123,-0.056040916591882706,-0.791852593421936,0.839423418045044,-0.4778738021850586,0.1156143993139267,-0.0026881881058216095
6.222180604934692,-0.04161917418241501,-0.7943639755249023,0.8365705013275146,-0.48059219121932983,0.12452742457389832,-0.002087531378492713
6.242367744445801,-0.030566131696105003,-0.7942724227905273,0.8336538076400757,-0.48380762338638306,0.13388650119304657,-0.0016192939365282655
6.262457609176636,-0.03279566764831543,-0.7927318811416626,0.8347853422164917,-0.48467785120010376,0.13322597742080688,-0.0017573023214936256
6.282530069351196,-0.054110027849674225,-0.7877622246742249,0.8369603157043457,-0.4866354465484619,0.1258428990840912,-0.002288148272782564
6.30261754989624,-0.058005936443805695,-0.7865772843360901,0.838089108467102,-0.48647865653038025,0.1235637366771698,-0.002256502863019705
6.322736501693726,-0.07132512331008911,-0.784736692905426,0.8399701714515686,-0.48318910598754883,0.1146068274974823,-0.0024397477973252535
6.342776536941528,-0.0798543319106102,-0.7842649221420288,0.8405263423919678,-0.4809280335903168,0.10860087722539902,-0.002298202132806182
6.3629150390625,-0.07503589242696762,-0.7861074805259705,0.8395644426345825,-0.4804046154022217,0.11014308780431747,-0.001984856789931655
6.383082389831543,-0.05990180745720863,-0.7897927761077881,0.8383463025093079,-0.4795190095901489,0.11587639153003693,-0.0013929387787356973
6.403065919876099,-0.04931244999170303,-0.7913868427276611,0.8355823755264282,-0.4811626076698303,0.12279307097196579,-0.0008585108444094658
6.423154830932617,-0.042996060103178024,-0.7916446924209595,0.8345339894294739,-0.48259198665618896,0.1273183524608612,-0.0005431114695966244
6.44330096244812,-0.03708696737885475,-0.7913205623626709,0.8346157670021057,-0.48460689187049866,0.13169853389263153,-0.0003686326672323048
6.463281869888306,-0.04476725310087204,-0.7891570329666138,0.8360023498535156,-0.48514890670776367,0.1287936568260193,-0.0005813633324578404
6.483410596847534,-0.0503716804087162,-0.7880102396011353,0.8360844254493713,-0.4852633476257324,0.12669172883033752,-0.0005533577059395611
6.503471612930298,-0.06091564893722534,-0.7861312031745911,0.8371520042419434,-0.4842180609703064,0.12087690830230713,-0.0004982853424735367
6.523786783218384,-0.07536166906356812,-0.7844325304031372,0.8392258882522583,-0.48180827498435974,0.11159215122461319,-0.0007529473514296114
6.543896675109863,-0.08026240766048431,-0.7840490341186523,0.8403003215789795,-0.4804072380065918,0.10781078040599823,-0.0007527634152211249
6.563978910446167,-0.06718127429485321,-0.7877089381217957,0.8403288722038269,-0.479428231716156,0.11126323789358139,-0.00014414603356271982
6.584200143814087,-0.05253734439611435,-0.7913031578063965,0.8386387228965759,-0.4792079031467438,0.11801812052726746,0.0003868654603138566
6.604294776916504,-0.04841465875506401,-0.7917062044143677,0.8370422124862671,-0.480805903673172,0.12184608727693558,0.0006574400467798114
6.624423503875732,-0.03475167974829674,-0.7925337553024292,0.8335485458374023,-0.4848010540008545,0.13285185396671295,0.001331293722614646
6.6444995403289795,-0.03318767994642258,-0.79210364818573,0.8338521718978882,-0.485596626996994,0.13409529626369476,0.0012953449040651321
6.664585590362549,-0.049255236983299255,-0.7882593274116516,0.8357118964195251,-0.4862484931945801,0.12763191759586334,0.0007060800562612712
6.684691905975342,-0.06594496965408325,-0.7849892973899841,0.8373706936836243,-0.48592525720596313,0.11961282044649124,0.0005126027390360832
6.70477557182312,-0.0716782957315445,-0.783922016620636,0.8389941453933716,-0.48511236906051636,0.11537574976682663,0.00040302262641489506
6.724910736083984,-0.08241447806358337,-0.7834186553955078,0.8404962420463562,-0.48137786984443665,0.10699480772018433,0.00040197884663939476
6.744924783706665,-0.06425872445106506,-0.7894132137298584,0.8385547399520874,-0.47981515526771545,0.11345680058002472,0.0011571499053388834
6.765014171600342,-0.05490923672914505,-0.7916233539581299,0.8374828100204468,-0.48005589842796326,0.11790716648101807,0.0015392678324133158
6.785096883773804,-0.041279058903455734,-0.7939373254776001,0.8364966511726379,-0.4815317392349243,0.12502345442771912,0.001908872276544571
6.805194616317749,-0.025919808074831963,-0.7947266101837158,0.834124743938446,-0.4848133325576782,0.1359696239233017,0.002444821409881115
6.825350999832153,-0.031937211751937866,-0.7928807139396667,0.8343285918235779,-0.48607516288757324,0.1347905993461609,0.0022055928129702806
6.845458745956421,-0.05398370698094368,-0.7875481247901917,0.8366571664810181,-0.48738086223602295,0.12625864148139954,0.00164423743262887
6.865478515625,-0.06739500910043716,-0.7841004133224487,0.8368825912475586,-0.4875223636627197,0.12112393975257874,0.001991759054362774
6.885586738586426,-0.0783003717660904,-0.7824671268463135,0.8378400206565857,-0.48693859577178955,0.11549659073352814,0.0019291125936433673
6.905657768249512,-0.08572203665971756,-0.7817049622535706,0.8395428657531738,-0.48499321937561035,0.10876571387052536,0.0022229733876883984
6.925705909729004,-0.06708332896232605,-0.7880393862724304,0.8385528326034546,-0.4816684424877167,0.1135425716638565,0.0028616120107471943
6.945820093154907,-0.05792083963751793,-0.7907242774963379,0.8376567363739014,-0.48019397258758545,0.11687806248664856,0.0031867465004324913
6.965914011001587,-0.0475267693400383,-0.7925369143486023,0.836990475654602,-0.481211394071579,0.12189382314682007,0.0034771438222378492
6.9860053062438965,-0.039938703179359436,-0.7926536202430725,0.8349490165710449,-0.48285380005836487,0.12783724069595337,0.003954173997044563
7.0062196254730225,-0.031241433694958687,-0.7921081185340881,0.8346936702728271,-0.48569560050964355,0.1339634507894516,0.004214896820485592
7.0262861251831055,-0.04672755300998688,-0.7879915237426758,0.8368110656738281,-0.48668229579925537,0.12792456150054932,0.003657235996797681
7.0463361740112305,-0.055829208344221115,-0.7864217758178711,0.8370910286903381,-0.4866601228713989,0.12415087223052979,0.0034968890249729156
7.066443681716919,-0.06874329596757889,-0.7839826345443726,0.8385756611824036,-0.4857447147369385,0.11715125292539597,0.0034140071365982294
7.086946249008179,-0.08559729158878326,-0.781978964805603,0.8391086459159851,-0.4844529628753662,0.10880161076784134,0.0035092667676508427
7.107048749923706,-0.08559507876634598,-0.7826714515686035,0.8397822976112366,-0.4825500249862671,0.10649029910564423,0.00364443426951766
7.127200365066528,-0.06371893733739853,-0.7895990610122681,0.8378638029098511,-0.47994762659072876,0.11397483199834824,0.0043971361592411995
7.147287607192993,-0.05783168599009514,-0.7908881306648254,0.837573230266571,-0.4802560806274414,0.11642280966043472,0.004564953502267599
7.167339086532593,-0.044422827661037445,-0.7922440767288208,0.8368954062461853,-0.4826585650444031,0.12368593364953995,0.004989720415323973
7.187406063079834,-0.03168085217475891,-0.7926774024963379,0.8355633616447449,-0.4853821098804474,0.13217931985855103,0.005441751331090927
7.2075536251068115,-0.029584834352135658,-0.7927071452140808,0.8356779217720032,-0.4857233464717865,0.13354189693927765,0.005448678974062204
7.2275917530059814,-0.049862705171108246,-0.7881306409835815,0.8378888964653015,-0.48784568905830383,0.12612447142601013,0.004755105823278427
7.247684001922607,-0.06014388054609299,-0.7862695455551147,0.8385732769966125,-0.4874146282672882,0.1209857165813446,0.004901377949863672
7.267792463302612,-0.06756137311458588,-0.7852044105529785,0.8396069407463074,-0.48592090606689453,0.11620863527059555,0.0047995466738939285
7.287872076034546,-0.08122687041759491,-0.7839508056640625,0.8411942720413208,-0.4833693206310272,0.10727183520793915,0.004672391340136528
7.308054208755493,-0.07561197876930237,-0.785844624042511,0.8408214449882507,-0.4821227788925171,0.10824963450431824,0.004986275918781757
7.328099727630615,-0.059183232486248016,-0.7902007102966309,0.8386769890785217,-0.4820799231529236,0.11539208889007568,0.005708062555640936
7.3482513427734375,-0.055934250354766846,-0.7908756732940674,0.8384198546409607,-0.48256808519363403,0.11698174476623535,0.005804301705211401
7.368382692337036,-0.03860586881637573,-0.7931482791900635,0.8363550901412964,-0.4851618707180023,0.12718045711517334,0.0063967593014240265
7.3883957862854,-0.028775297105312347,-0.7929988503456116,0.8357663154602051,-0.4874734878540039,0.13400442898273468,0.006517513655126095
7.408485412597656,-0.03632708266377449,-0.7908906936645508,0.8360284566879272,-0.4882766604423523,0.13191495835781097,0.00624809879809618
7.428593158721924,-0.05440150573849678,-0.7865806221961975,0.8376498818397522,-0.48953065276145935,0.12506558001041412,0.005816259421408176
7.448669672012329,-0.06173459440469742,-0.7852272987365723,0.8380488157272339,-0.48868876695632935,0.12136479467153549,0.005782173480838537
7.468753099441528,-0.07765738666057587,-0.7829639911651611,0.8398529887199402,-0.4863063097000122,0.11177770048379898,0.005493775010108948
7.488823652267456,-0.08225224167108536,-0.7831693887710571,0.8401522636413574,-0.48460131883621216,0.10766790807247162,0.005780527368187904
7.508934736251831,-0.07531034201383591,-0.7855613231658936,0.839450478553772,-0.4838661253452301,0.10969788581132889,0.006049121730029583
7.529016494750977,-0.0560232549905777,-0.7908506393432617,0.8383381366729736,-0.48279571533203125,0.11685319244861603,0.006501146126538515
7.5490782260894775,-0.036000460386276245,-0.7944056987762451,0.8372355103492737,-0.4835643470287323,0.1266269087791443,0.006803963333368301
7.569215536117554,-0.02924659289419651,-0.7948832511901855,0.8365755677223206,-0.484591007232666,0.1310168355703354,0.0068905348889529705
7.589319467544556,-0.03479127585887909,-0.7923987507820129,0.8358849883079529,-0.48723170161247253,0.1324560046195984,0.006459426134824753
7.609335899353027,-0.05512576922774315,-0.7867955565452576,0.8385348916053772,-0.487722247838974,0.1240706741809845,0.0058313095942139626
7.629424571990967,-0.05748133733868599,-0.785854160785675,0.8382325768470764,-0.48782557249069214,0.123405322432518,0.006040248088538647
7.649527072906494,-0.07648931443691254,-0.783093273639679,0.8397083878517151,-0.4861573576927185,0.11331254988908768,0.00569163728505373
7.669731378555298,-0.08235517144203186,-0.782753050327301,0.8407142162322998,-0.48479461669921875,0.10866319388151169,0.00555652379989624
7.689843654632568,-0.07570724189281464,-0.7859981060028076,0.8394671678543091,-0.48381608724594116,0.10994292795658112,0.006084604188799858
7.709886789321899,-0.05313677340745926,-0.792151689529419,0.8384304046630859,-0.48149585723876953,0.11798105388879776,0.006584304850548506
7.729973316192627,-0.04357410967350006,-0.794524610042572,0.8390544056892395,-0.48046883940696716,0.1207403764128685,0.006510494742542505
7.750042676925659,-0.026775183156132698,-0.7970011830329895,0.835919201374054,-0.4821655750274658,0.1311582773923874,0.006807120516896248
7.770092725753784,-0.032476894557476044,-0.7932277917861938,0.8354626893997192,-0.48628437519073486,0.13319145143032074,0.006539250258356333
7.790201187133789,-0.04276362061500549,-0.7906058430671692,0.8363228440284729,-0.48803386092185974,0.13010405004024506,0.006181950680911541
7.810347557067871,-0.054385773837566376,-0.7878105640411377,0.8374113440513611,-0.48835548758506775,0.1250976026058197,0.006067827809602022
7.830524682998657,-0.06019481271505356,-0.7867807149887085,0.8393704295158386,-0.4865528345108032,0.12005913257598877,0.005723945330828428
7.8506317138671875,-0.07131092995405197,-0.7854739427566528,0.8414371013641357,-0.4834572374820709,0.11162920296192169,0.005363005679100752
7.870683193206787,-0.07503220438957214,-0.7862287163734436,0.8410592079162598,-0.4815881550312042,0.10847948491573334,0.005633179564028978
7.890763998031616,-0.07461413741111755,-0.7865508794784546,0.8410878777503967,-0.48149311542510986,0.10817815363407135,0.005844570230692625
7.910878896713257,-0.0599079430103302,-0.7899919748306274,0.8403875827789307,-0.48139500617980957,0.11385111510753632,0.006453613750636578
7.930934429168701,-0.04745955392718315,-0.792524516582489,0.8380800485610962,-0.48271167278289795,0.1209210753440857,0.006967964582145214
7.951016426086426,-0.04129302501678467,-0.7932281494140625,0.8363341689109802,-0.48457765579223633,0.12575817108154297,0.0072356294840574265
7.971104621887207,-0.029364168643951416,-0.7940782308578491,0.8343690633773804,-0.487260103225708,0.13432860374450684,0.0075769927352666855
7.9912333488464355,-0.04228249564766884,-0.7908989191055298,0.8348646759986877,-0.4881129264831543,0.13040751218795776,0.007044223137199879
8.011320114135742,-0.054352618753910065,-0.7883068919181824,0.8363209366798401,-0.48850831389427185,0.12538696825504303,0.006614002399146557
8.031402826309204,-0.0638325959444046,-0.7863745093345642,0.8381749391555786,-0.48686376214027405,0.11882169544696808,0.006387576460838318
8.051506519317627,-0.07780715823173523,-0.7845616340637207,0.8407163023948669,-0.48381927609443665,0.10929480195045471,0.005910302512347698
8.071594953536987,-0.07843811810016632,-0.7848265171051025,0.8416244983673096,-0.4828725755214691,0.1073019951581955,0.005928067956119776
8.091677188873291,-0.05862221494317055,-0.7894165515899658,0.8408244848251343,-0.482693076133728,0.11477845907211304,0.006558791734278202
8.11233115196228,-0.044994235038757324,-0.792209804058075,0.8396608829498291,-0.4834526777267456,0.1213964968919754,0.006915590725839138
8.132424116134644,-0.037303052842617035,-0.7928602695465088,0.8373962640762329,-0.48526865243911743,0.12742896378040314,0.007274837698787451
8.152500629425049,-0.029758526012301445,-0.7925169467926025,0.836020290851593,-0.4871116578578949,0.1336827129125595,0.007475967984646559
8.172585725784302,-0.03529512882232666,-0.7909196615219116,0.8355025053024292,-0.4878982901573181,0.13292351365089417,0.007312809582799673
8.192758560180664,-0.0585508719086647,-0.7866417765617371,0.8364383578300476,-0.48788896203041077,0.12368776649236679,0.006629124283790588
8.212759017944336,-0.07257957756519318,-0.7839492559432983,0.8379159569740295,-0.4870671033859253,0.11606134474277496,0.006397994235157967
8.23288893699646,-0.08499695360660553,-0.7823139429092407,0.839073896408081,-0.4858276844024658,0.10936342179775238,0.006085552740842104
8.253070831298828,-0.0811430960893631,-0.7842004895210266,0.8409495949745178,-0.48335161805152893,0.10707472264766693,0.006306471768766642
8.27311110496521,-0.05729161947965622,-0.7914626598358154,0.8390682339668274,-0.4815768897533417,0.11590994894504547,0.006884582340717316
8.293210744857788,-0.050566915422677994,-0.793129026889801,0.8387744426727295,-0.4818231463432312,0.1186370700597763,0.006960039958357811
8.313267946243286,-0.03594366833567619,-0.7945691347122192,0.8362039923667908,-0.4842970371246338,0.12803655862808228,0.007275102194398642
8.3333740234375,-0.02931799180805683,-0.794802188873291,0.8350847959518433,-0.48589837551116943,0.13304457068443298,0.007430925965309143
8.353440046310425,-0.03448506072163582,-0.7915631532669067,0.8364656567573547,-0.48811793327331543,0.13265444338321686,0.0070318803191185
8.373506784439087,-0.06289581954479218,-0.7861842513084412,0.8377598524093628,-0.4891895055770874,0.12222564220428467,0.006336181424558163
8.393589973449707,-0.06376167386770248,-0.7856669425964355,0.8380224704742432,-0.4886743128299713,0.12128295749425888,0.006613356992602348
8.413747549057007,-0.07518927752971649,-0.784206748008728,0.8411605358123779,-0.4851657450199127,0.11157633364200592,0.006217590533196926
8.43381667137146,-0.08245538920164108,-0.7844801545143127,0.8424146175384521,-0.48203516006469727,0.10465292632579803,0.006152677815407515
8.453872919082642,-0.0742206871509552,-0.7865450978279114,0.842096745967865,-0.4813273549079895,0.10715179890394211,0.006541949696838856
8.473948955535889,-0.05585227161645889,-0.7913995385169983,0.8402717709541321,-0.48102277517318726,0.11463980376720428,0.007113690488040447
8.494502544403076,-0.041682545095682144,-0.7942790389060974,0.8381574153900146,-0.48159074783325195,0.12222250550985336,0.007474124431610107
8.514593362808228,-0.034531496465206146,-0.7945966720581055,0.8372796773910522,-0.48327165842056274,0.12721186876296997,0.007666669320315123
8.534672737121582,-0.027710584923624992,-0.7942497730255127,0.8359390497207642,-0.48608848452568054,0.13375967741012573,0.007755774538964033
8.554918050765991,-0.05378841608762741,-0.7893690466880798,0.8367362022399902,-0.48807626962661743,0.12520107626914978,0.006907586473971605
8.575052499771118,-0.06375756114721298,-0.7874706387519836,0.8377394676208496,-0.48759371042251587,0.1202334463596344,0.006645924411714077
8.595107555389404,-0.07332056760787964,-0.7853528261184692,0.8384409546852112,-0.4862356185913086,0.11479835212230682,0.006822406314313412
8.61522626876831,-0.07929721474647522,-0.7848012447357178,0.839752197265625,-0.484275221824646,0.10973125696182251,0.006644314620643854
8.635352373123169,-0.07490544021129608,-0.7867394089698792,0.8413185477256775,-0.4821666181087494,0.10818756371736526,0.006840926595032215
8.655424356460571,-0.05498663708567619,-0.7915349006652832,0.8406084179878235,-0.48144352436065674,0.11566528677940369,0.007380656432360411
8.675583600997925,-0.05132202059030533,-0.7924822568893433,0.84085613489151,-0.48152175545692444,0.11677536368370056,0.007313509471714497
8.695730686187744,-0.03520571067929268,-0.7946245670318604,0.8379315733909607,-0.48437660932540894,0.12749691307544708,0.007823419757187366
8.71572208404541,-0.027031728997826576,-0.7946418523788452,0.8361557126045227,-0.48709022998809814,0.1346873790025711,0.007986268028616905
8.735844612121582,-0.03497805446386337,-0.7923948764801025,0.8372559547424316,-0.4883527159690857,0.1319686472415924,0.0075492472387850285
8.755935668945312,-0.05631521716713905,-0.7881074547767639,0.8382701277732849,-0.4896957278251648,0.1242605596780777,0.007015101611614227
8.77599048614502,-0.06854203343391418,-0.7858185768127441,0.8400521874427795,-0.4876595735549927,0.11667206883430481,0.006850354373455048
8.796069622039795,-0.07586590945720673,-0.785008430480957,0.8412904739379883,-0.4855680763721466,0.11117807030677795,0.0066430033184587955
8.816256523132324,-0.0803380012512207,-0.7853199243545532,0.8422108888626099,-0.4832514822483063,0.10616283863782883,0.006759915966540575
8.836318016052246,-0.07240676134824753,-0.7877746820449829,0.8411670327186584,-0.4827270805835724,0.10915523022413254,0.007085910066962242
8.856415033340454,-0.05714970454573631,-0.7914933562278748,0.839372456073761,-0.48203185200691223,0.11572939157485962,0.00762514304369688
8.876478672027588,-0.047565169632434845,-0.7924379110336304,0.8363078236579895,-0.48445677757263184,0.1231485977768898,0.008158450946211815
8.896580457687378,-0.04170209914445877,-0.7928653955459595,0.8350134491920471,-0.48603230714797974,0.12767867743968964,0.00839466042816639
8.916672706604004,-0.03574944660067558,-0.7923053503036499,0.8347501754760742,-0.48756688833236694,0.13214294612407684,0.00851402711123228
8.9367516040802,-0.03830636292695999,-0.7912753820419312,0.8354307413101196,-0.48787721991539,0.13109317421913147,0.008380122482776642
8.956984043121338,-0.05763137713074684,-0.7872197031974792,0.8382847309112549,-0.48859328031539917,0.12232324481010437,0.007671164348721504
8.976985931396484,-0.07506033033132553,-0.7840551733970642,0.8400485515594482,-0.488320529460907,0.1141555979847908,0.007587730884552002
8.997084856033325,-0.0808127298951149,-0.7836205363273621,0.8402386903762817,-0.48754680156707764,0.11076781898736954,0.00774003891274333
9.017173290252686,-0.07599851489067078,-0.7857494354248047,0.8420599102973938,-0.4844590127468109,0.10841607302427292,0.008017579093575478
9.037242889404297,-0.05340943485498428,-0.7925906181335449,0.8397163152694702,-0.4832037091255188,0.11737996339797974,0.008607565425336361
9.057353019714355,-0.04940104857087135,-0.7935330271720886,0.8392126560211182,-0.4837424159049988,0.1194823682308197,0.008636914193630219
9.07742977142334,-0.03602110967040062,-0.7943037152290344,0.8357370495796204,-0.4868256449699402,0.129743292927742,0.0092695914208889
9.097601890563965,-0.030829371884465218,-0.7941393256187439,0.8347347974777222,-0.48789137601852417,0.1338871270418167,0.009477036073803902
9.117687225341797,-0.03934497758746147,-0.7907159328460693,0.8375277519226074,-0.4887617230415344,0.1300816386938095,0.008885475806891918
9.137773513793945,-0.060330167412757874,-0.7865517139434814,0.8390775918960571,-0.4895731806755066,0.12149390578269958,0.00841744989156723
9.157930850982666,-0.06867768615484238,-0.784625768661499,0.8405112028121948,-0.48909300565719604,0.11690610647201538,0.008293816819787025
9.178022623062134,-0.0879475325345993,-0.7818552851676941,0.8431371450424194,-0.48627060651779175,0.10534368455410004,0.007989803329110146
9.198168754577637,-0.0790523886680603,-0.7859636545181274,0.8421413898468018,-0.4833765923976898,0.10629461705684662,0.00857128668576479
9.218303442001343,-0.06752589344978333,-0.7903293967247009,0.8408656120300293,-0.48117607831954956,0.10996891558170319,0.00875774584710598
9.238398313522339,-0.04957539960741997,-0.7952702045440674,0.8394694328308105,-0.48118308186531067,0.11756929755210876,0.009031755849719048
9.258573055267334,-0.03961832821369171,-0.7974780201911926,0.8374462723731995,-0.4816522002220154,0.12288626283407211,0.009247575886547565
9.278720378875732,-0.024610435590147972,-0.7980445623397827,0.8339999318122864,-0.48543837666511536,0.13395781815052032,0.009647317230701447
9.298770427703857,-0.040946297347545624,-0.7921957969665527,0.8358579874038696,-0.48957324028015137,0.13079918920993805,0.008983328938484192
9.318878650665283,-0.051945120096206665,-0.7892305254936218,0.8373652100563049,-0.49042195081710815,0.12667964398860931,0.008724239654839039
9.3389573097229,-0.0682075023651123,-0.7846925258636475,0.842222273349762,-0.48976409435272217,0.11776136606931686,0.008342444896697998
9.359169721603394,-0.08184486627578735,-0.7827143669128418,0.8440262079238892,-0.48750579357147217,0.10917181521654129,0.008287100121378899
9.379265308380127,-0.08440345525741577,-0.783210813999176,0.8440702557563782,-0.48604536056518555,0.10626742243766785,0.008352548815310001
9.399349927902222,-0.07336452603340149,-0.7886947393417358,0.8418608903884888,-0.48227444291114807,0.10805405676364899,0.008687787689268589
9.41944146156311,-0.06229633465409279,-0.7925383448600769,0.839857280254364,-0.4817957282066345,0.11289405822753906,0.008876251056790352
9.439541101455688,-0.05078531429171562,-0.7951978445053101,0.8351315855979919,-0.4831281304359436,0.12040787935256958,0.009312865324318409
9.459625244140625,-0.032483141869306564,-0.7968090176582336,0.83352130651474,-0.4860277771949768,0.13138501346111298,0.009657677263021469
9.479684352874756,-0.026495780795812607,-0.7960079312324524,0.8347325325012207,-0.48694586753845215,0.1343146413564682,0.009593731723725796
9.499751329421997,-0.04730943962931633,-0.789344847202301,0.8395588994026184,-0.489252507686615,0.1261320263147354,0.008374636992812157
9.520110607147217,-0.05519341304898262,-0.7862464785575867,0.8413320779800415,-0.48954588174819946,0.1222267746925354,0.00840617623180151
9.540212631225586,-0.06204249709844589,-0.7846402525901794,0.8429434895515442,-0.4889366030693054,0.11814205348491669,0.008237699046730995
9.56028413772583,-0.07327042520046234,-0.7840562462806702,0.8438049554824829,-0.4860592484474182,0.11058103293180466,0.008038366213440895
9.580451011657715,-0.07880482077598572,-0.7843182682991028,0.8434545993804932,-0.48425501585006714,0.10713128745555878,0.00802520103752613
9.600493431091309,-0.07403564453125,-0.787489116191864,0.8415824174880981,-0.48249584436416626,0.10796264559030533,0.00848295260220766
9.620569705963135,-0.05835127457976341,-0.7923958897590637,0.8378432393074036,-0.48232483863830566,0.11598660051822662,0.009056472219526768
9.640636205673218,-0.054868098348379135,-0.7933690547943115,0.8372153043746948,-0.48268499970436096,0.1178608313202858,0.009030753746628761
9.660735845565796,-0.03688918426632881,-0.7952588796615601,0.8350989818572998,-0.48515650629997253,0.12898069620132446,0.009543322026729584
9.680794477462769,-0.023484468460083008,-0.7949260473251343,0.8360843658447266,-0.48748403787612915,0.1367284059524536,0.009585771709680557
9.700896739959717,-0.03761538863182068,-0.7915828824043274,0.8375374674797058,-0.4882670044898987,0.13168279826641083,0.00895119458436966
9.721002578735352,-0.06338190287351608,-0.7860988974571228,0.8398845791816711,-0.4890042543411255,0.12145323306322098,0.008235246874392033
9.741054058074951,-0.07194598019123077,-0.7841282486915588,0.8405702710151672,-0.48933446407318115,0.11827641725540161,0.008299999870359898
9.761160135269165,-0.08740618824958801,-0.7818901538848877,0.8434662818908691,-0.48629897832870483,0.10763499140739441,0.008007564581930637
9.781196117401123,-0.08045373111963272,-0.7857650518417358,0.8427639603614807,-0.4823300838470459,0.10642918199300766,0.008271904662251472
9.801303148269653,-0.06792476028203964,-0.7899574637413025,0.8409030437469482,-0.48065322637557983,0.1110125482082367,0.008545060642063618
9.821453094482422,-0.052070070058107376,-0.7936732172966003,0.8392625451087952,-0.4804416298866272,0.11760415881872177,0.008795896545052528
9.841498136520386,-0.03768058493733406,-0.7955300807952881,0.8348655700683594,-0.48276346921920776,0.12756992876529694,0.009287637658417225
9.861615180969238,-0.030855976045131683,-0.7955716848373413,0.8341721892356873,-0.4839104115962982,0.13219714164733887,0.009445182979106903
9.88165020942688,-0.036271847784519196,-0.7923412322998047,0.8366047739982605,-0.48565322160720825,0.13038036227226257,0.008845142088830471
9.901722192764282,-0.04640023410320282,-0.7898268103599548,0.83736252784729,-0.4871305227279663,0.12742732465267181,0.008563576266169548
9.92180871963501,-0.05493176355957985,-0.7868126630783081,0.84117591381073,-0.4874258041381836,0.12191514670848846,0.008177442476153374
9.941861629486084,-0.0743662491440773,-0.7843276262283325,0.8431330919265747,-0.486357718706131,0.1117444708943367,0.007647293154150248
9.961955308914185,-0.08106887340545654,-0.7842511534690857,0.8429615497589111,-0.4847690165042877,0.10759603977203369,0.007632813882082701
9.982078313827515,-0.07430916279554367,-0.7875563502311707,0.841219425201416,-0.48353973031044006,0.109214648604393,0.008264395408332348
10.002724885940552,-0.05191105976700783,-0.7936635613441467,0.8381708264350891,-0.4824640452861786,0.11893929541110992,0.008993575349450111
10.02294397354126,-0.046593476086854935,-0.7946507334709167,0.8383685350418091,-0.4828299283981323,0.12100717425346375,0.008929920382797718
10.043026447296143,-0.029961969703435898,-0.7964067459106445,0.835901141166687,-0.4854998290538788,0.131631001830101,0.009295935742557049
10.063057661056519,-0.028838548809289932,-0.7943801879882812,0.8357961177825928,-0.48807135224342346,0.13514189422130585,0.009098272770643234
10.083189725875854,-0.04129013046622276,-0.7913126945495605,0.8373792171478271,-0.48909705877304077,0.13054807484149933,0.00859071221202612
10.103269577026367,-0.05620437487959862,-0.7879261374473572,0.8382863998413086,-0.4889925718307495,0.12407055497169495,0.008422791957855225
10.123469829559326,-0.06070459634065628,-0.7869940996170044,0.8384747505187988,-0.4883495569229126,0.12158827483654022,0.00850586872547865
10.14347243309021,-0.0739663690328598,-0.7852427363395691,0.8410816788673401,-0.48580050468444824,0.11193294078111649,0.008085955865681171
10.163546800613403,-0.08067313581705093,-0.7853348851203918,0.8417114019393921,-0.4841175079345703,0.10658930242061615,0.008135855197906494
10.183631181716919,-0.07688847184181213,-0.786730945110321,0.8410552740097046,-0.48383861780166626,0.10766627639532089,0.008427843451499939
10.203721284866333,-0.05427099019289017,-0.792883574962616,0.8395795822143555,-0.48291951417922974,0.11647553741931915,0.00902856606990099
10.22377610206604,-0.03643841668963432,-0.7970878481864929,0.838923454284668,-0.4827057123184204,0.12425890564918518,0.009164565242826939
10.243941068649292,-0.02502644620835781,-0.798850417137146,0.8382555246353149,-0.4838770031929016,0.13060548901557922,0.009254739619791508
10.263946533203125,-0.02410840429365635,-0.7960772514343262,0.8368992209434509,-0.48768407106399536,0.13623429834842682,0.009047403000295162
10.284865856170654,-0.05402914807200432,-0.7883721590042114,0.8399640321731567,-0.49030542373657227,0.1259668618440628,0.00808341521769762
10.304959774017334,-0.06134996563196182,-0.7867130637168884,0.8400666117668152,-0.490430623292923,0.12293918430805206,0.008123528212308884
10.325042009353638,-0.07201362401247025,-0.7850854396820068,0.8409329652786255,-0.48674046993255615,0.1152074933052063,0.008153633214533329
10.34509801864624,-0.08691483736038208,-0.7845739722251892,0.8416136503219604,-0.48322463035583496,0.1052752286195755,0.007765697780996561
10.365249633789062,-0.07799285650253296,-0.7871851325035095,0.840752124786377,-0.48265770077705383,0.10819744318723679,0.008114676922559738
10.385329008102417,-0.056636400520801544,-0.7933730483055115,0.8376016616821289,-0.4814903140068054,0.11719250679016113,0.00862776581197977
10.4054536819458,-0.05328948423266411,-0.7943065762519836,0.8361753225326538,-0.4821277856826782,0.11907675862312317,0.008658863604068756
10.425616979598999,-0.03962082043290138,-0.7946787476539612,0.8344740271568298,-0.4851398468017578,0.1280197650194168,0.009101079776883125
10.445736169815063,-0.029708905145525932,-0.7936936020851135,0.8362134695053101,-0.4866400957107544,0.1329372376203537,0.00914073921740055
10.4657564163208,-0.03507901728153229,-0.7916893362998962,0.837988018989563,-0.4873403310775757,0.13055288791656494,0.008736555464565754
10.485854148864746,-0.05290492996573448,-0.7860276699066162,0.8438480496406555,-0.48898714780807495,0.12206078320741653,0.007904747501015663
10.505962610244751,-0.07119619846343994,-0.7822867631912231,0.8471363186836243,-0.48870283365249634,0.11345382779836655,0.007640481926500797
10.526079416275024,-0.07920835167169571,-0.7815830707550049,0.8475708961486816,-0.4874941110610962,0.10881757736206055,0.0076241809874773026
10.54619812965393,-0.08243494480848312,-0.7841047048568726,0.8448045253753662,-0.48364129662513733,0.10484320670366287,0.008030848577618599
10.566236734390259,-0.06283853948116302,-0.793342113494873,0.8374183177947998,-0.4815506935119629,0.1139332503080368,0.008539333939552307
10.586329460144043,-0.05757167190313339,-0.7947279810905457,0.8343827128410339,-0.48176223039627075,0.11765603721141815,0.008813990280032158
10.60639476776123,-0.041881319135427475,-0.7966172695159912,0.8308410048484802,-0.48440390825271606,0.12800441682338715,0.009217525832355022
10.626544713973999,-0.025156715884804726,-0.7963093519210815,0.8306746482849121,-0.4877395033836365,0.13880550861358643,0.009355171583592892
10.646657943725586,-0.02894102782011032,-0.7936354279518127,0.8333815336227417,-0.48860830068588257,0.1369493007659912,0.008910044096410275
10.666754245758057,-0.04726454243063927,-0.7868744134902954,0.8405243158340454,-0.4893595278263092,0.12779051065444946,0.007809378206729889
10.687386989593506,-0.0627087727189064,-0.7823574542999268,0.8454407453536987,-0.48857736587524414,0.11910630017518997,0.0073597002774477005
10.707495927810669,-0.07685914635658264,-0.7808287143707275,0.8464775681495667,-0.48771756887435913,0.1118486076593399,0.0070479800924658775
10.727556705474854,-0.0850006490945816,-0.7809839844703674,0.8452502489089966,-0.48551198840141296,0.10729284584522247,0.007223929278552532
10.747761964797974,-0.08092774450778961,-0.7858654856681824,0.8408460021018982,-0.4830665588378906,0.10787059366703033,0.007828562520444393
10.76785945892334,-0.0656822994351387,-0.7909329533576965,0.8387534022331238,-0.4811778962612152,0.11349757015705109,0.008165357634425163
10.788029432296753,-0.04863065853714943,-0.7950685024261475,0.8359352350234985,-0.4816369116306305,0.12156903743743896,0.008421758189797401
10.80807375907898,-0.028157059103250504,-0.7973934412002563,0.8348769545555115,-0.48383572697639465,0.13253632187843323,0.008536414243280888
10.828194618225098,-0.022610213607549667,-0.7968745827674866,0.8342788815498352,-0.48516303300857544,0.13675189018249512,0.008518850430846214
10.848301887512207,-0.04499185457825661,-0.7895627617835999,0.8384371995925903,-0.48652467131614685,0.12816716730594635,0.007329361513257027
10.868406772613525,-0.057945601642131805,-0.7858680486679077,0.8401182293891907,-0.4880291223526001,0.12257181107997894,0.006999355275183916
10.888495683670044,-0.06525871157646179,-0.7841256856918335,0.8396297097206116,-0.48895612359046936,0.12063470482826233,0.007103941403329372
10.908612728118896,-0.08101721107959747,-0.7816966772079468,0.8409815430641174,-0.4879995882511139,0.11194176971912384,0.00694721844047308
10.928692817687988,-0.0848623514175415,-0.7818514108657837,0.8405874967575073,-0.4872303009033203,0.10934136807918549,0.007021828088909388
10.948781251907349,-0.0731879472732544,-0.7865310907363892,0.8397740125656128,-0.4833337068557739,0.11052742600440979,0.007250701077282429
10.968840599060059,-0.05984059348702431,-0.7902271151542664,0.8397802114486694,-0.4820905327796936,0.11414191871881485,0.007334399502724409
10.988948822021484,-0.053826481103897095,-0.7911940217018127,0.8392494916915894,-0.4823724329471588,0.11706481128931046,0.0074899764731526375
11.009012460708618,-0.03446383401751518,-0.7937429547309875,0.8380967378616333,-0.4842993915081024,0.12737739086151123,0.007881422527134418
11.029351711273193,-0.029334954917430878,-0.7926996350288391,0.8372552394866943,-0.48671573400497437,0.13266099989414215,0.007824821397662163
11.049445629119873,-0.038598157465457916,-0.7906043529510498,0.8373732566833496,-0.4877265393733978,0.13002552092075348,0.00745822349563241
11.069570541381836,-0.0553947389125824,-0.7873533964157104,0.8378523588180542,-0.48829174041748047,0.12355382740497589,0.007024523336440325
11.089656352996826,-0.058001212775707245,-0.7866965532302856,0.8378893733024597,-0.487781822681427,0.12210025638341904,0.007096368819475174
11.109751224517822,-0.07078878581523895,-0.7846531867980957,0.8397095203399658,-0.48492181301116943,0.11360465735197067,0.006735063157975674
11.129971742630005,-0.0838775485754013,-0.783706545829773,0.8407013416290283,-0.48237407207489014,0.10549136996269226,0.006586699280887842
11.15011978149414,-0.07469236850738525,-0.7858760356903076,0.8406285643577576,-0.48215511441230774,0.10840000212192535,0.006950081791728735
11.17021369934082,-0.055113207548856735,-0.7907584309577942,0.8389797210693359,-0.4817879796028137,0.11650550365447998,0.007500776089727879
11.190296411514282,-0.0486513189971447,-0.792241632938385,0.8376260995864868,-0.48244425654411316,0.12041489779949188,0.007694645784795284
11.21049952507019,-0.032027311623096466,-0.7946892976760864,0.8342578411102295,-0.4850059747695923,0.1317249983549118,0.008112991228699684
11.23056173324585,-0.033254675567150116,-0.7928426265716553,0.8340680599212646,-0.487141877412796,0.13377737998962402,0.007759470492601395
11.250677347183228,-0.04436849057674408,-0.7897769808769226,0.8356457948684692,-0.48818397521972656,0.12954814732074738,0.007266758941113949
11.270751476287842,-0.052004341036081314,-0.7876362204551697,0.8375192284584045,-0.4872182309627533,0.12449660897254944,0.00709878746420145
11.290842294692993,-0.05531826242804527,-0.7868611812591553,0.8388209342956543,-0.4857228994369507,0.1214350014925003,0.007022189442068338
11.311009168624878,-0.07350030541419983,-0.7843689322471619,0.8420848846435547,-0.482734352350235,0.10993409156799316,0.0063129304908216
11.331388473510742,-0.0808061957359314,-0.7841593027114868,0.8423681259155273,-0.4825690686702728,0.10568509995937347,0.006548968609422445
11.351603031158447,-0.07254531234502792,-0.7863432168960571,0.8409653902053833,-0.48169222474098206,0.10890853404998779,0.007062355522066355
11.371619939804077,-0.05513695627450943,-0.7915174961090088,0.8376366496086121,-0.48217150568962097,0.11746437847614288,0.007648823317140341
11.391840934753418,-0.040822457522153854,-0.7943832278251648,0.8351704478263855,-0.483688622713089,0.12602224946022034,0.008038556203246117
11.412020921707153,-0.0339500829577446,-0.7946122288703918,0.8343912959098816,-0.4851266145706177,0.13065603375434875,0.008179633878171444
11.432025909423828,-0.030299639329314232,-0.7930464744567871,0.8343706727027893,-0.4877132773399353,0.1347649097442627,0.00812628585845232
11.452339887619019,-0.041017159819602966,-0.7901470065116882,0.8357788324356079,-0.4889366626739502,0.13108785450458527,0.007703621871769428
11.472427368164062,-0.06533122807741165,-0.7850942611694336,0.839655876159668,-0.48801499605178833,0.11926697939634323,0.0068942769430577755
11.492491006851196,-0.08510442078113556,-0.7822728157043457,0.8416348695755005,-0.48568978905677795,0.10836078226566315,0.006580171640962362
11.512601613998413,-0.0952577069401741,-0.7811352610588074,0.8425841331481934,-0.4845016598701477,0.10239460319280624,0.006387467496097088
11.532660961151123,-0.06414347887039185,-0.7902069091796875,0.8424973487854004,-0.4809909462928772,0.1111888438463211,0.006929223425686359
11.552716970443726,-0.045879196375608444,-0.7950152158737183,0.8400911092758179,-0.48085421323776245,0.11935319006443024,0.007227793335914612
11.572807312011719,-0.04360437020659447,-0.7946249842643738,0.8380153179168701,-0.4830050468444824,0.12275974452495575,0.007402800023555756
11.592888832092285,-0.030900103971362114,-0.7947449088096619,0.8354865908622742,-0.4868086874485016,0.1322510838508606,0.00787229835987091
11.612968683242798,-0.043772146105766296,-0.7902319431304932,0.8369073867797852,-0.48973795771598816,0.1293899565935135,0.007335103116929531
11.633076429367065,-0.055299095809459686,-0.7878491282463074,0.8380026817321777,-0.49034571647644043,0.12469148635864258,0.0070166559889912605
11.653227090835571,-0.0662895068526268,-0.784456729888916,0.8407438397407532,-0.4902552366256714,0.11872950941324234,0.007062154822051525
11.673280239105225,-0.08059224486351013,-0.7821024060249329,0.8433076739311218,-0.4877867102622986,0.10932736843824387,0.007015882059931755
11.69338607788086,-0.08494890481233597,-0.7819377183914185,0.8437180519104004,-0.4859587550163269,0.10581693053245544,0.007150769233703613
11.713460445404053,-0.07024765014648438,-0.7878319025039673,0.8420767188072205,-0.4826800227165222,0.10944049805402756,0.007729833014309406
11.733667373657227,-0.0575176440179348,-0.7920396327972412,0.8389986753463745,-0.4825895130634308,0.11577437818050385,0.008158592507243156
11.75375771522522,-0.05095471069216728,-0.7929448485374451,0.8376420736312866,-0.48354220390319824,0.11988227069377899,0.008485243655741215
11.773818969726562,-0.03677622973918915,-0.7942914962768555,0.8334510326385498,-0.4865458607673645,0.13045042753219604,0.009132232517004013
11.793907165527344,-0.03365086764097214,-0.7939741015434265,0.8335366249084473,-0.48752591013908386,0.13276779651641846,0.009153596125543118
11.813983917236328,-0.039381153881549835,-0.791217029094696,0.8362914323806763,-0.4883430600166321,0.1299651861190796,0.008686847053468227
11.834038257598877,-0.05523223429918289,-0.7870675325393677,0.8407807350158691,-0.4885523021221161,0.12212702631950378,0.008067522197961807
11.854134321212769,-0.06054022163152695,-0.7861597537994385,0.840969443321228,-0.48805442452430725,0.11957629024982452,0.00815662182867527
11.874217987060547,-0.07304897904396057,-0.7855170369148254,0.8415737152099609,-0.4854818880558014,0.11136963963508606,0.007979024201631546
11.89488697052002,-0.07901526242494583,-0.786025881767273,0.8412971496582031,-0.48355668783187866,0.10695324838161469,0.008202972821891308
11.915091037750244,-0.07058174908161163,-0.7887526154518127,0.8397942781448364,-0.48323556780815125,0.1103571206331253,0.008527323603630066
11.935087442398071,-0.04926636442542076,-0.7937387824058533,0.8378562331199646,-0.4830962121486664,0.11976437270641327,0.009106711484491825
11.955189943313599,-0.04262145236134529,-0.7948811650276184,0.8379644751548767,-0.4830376207828522,0.12255273759365082,0.009137183427810669
11.97531270980835,-0.025388166308403015,-0.7963809967041016,0.8355646729469299,-0.4854108393192291,0.1340111941099167,0.009591746143996716
11.995357751846313,-0.027333244681358337,-0.7940285801887512,0.8368054032325745,-0.4869786202907562,0.13473770022392273,0.00920992810279131
12.015447616577148,-0.05028301477432251,-0.7901406288146973,0.8381014466285706,-0.4880933463573456,0.12664684653282166,0.008399665355682373
12.035528659820557,-0.07505300641059875,-0.7848770618438721,0.8384449481964111,-0.4898260831832886,0.11827479302883148,0.008339397609233856
12.055615663528442,-0.08770990371704102,-0.7819451093673706,0.8411688804626465,-0.4878844618797302,0.1092163622379303,0.008423756808042526
12.075764417648315,-0.08887884020805359,-0.7823797464370728,0.8413769602775574,-0.4865840673446655,0.10681947320699692,0.008542821742594242
12.095800399780273,-0.07413863390684128,-0.7878987789154053,0.8403892517089844,-0.4826240837574005,0.10926151275634766,0.008809139020740986
12.115910768508911,-0.06613277643918991,-0.7899763584136963,0.8398079872131348,-0.48200541734695435,0.11210515350103378,0.008951840922236443
12.13597583770752,-0.048406824469566345,-0.7931783199310303,0.8378376960754395,-0.48354244232177734,0.12103245407342911,0.009307037107646465
12.156053066253662,-0.033131688833236694,-0.7943918704986572,0.8352819085121155,-0.4861760437488556,0.1315639764070511,0.009680312126874924
12.176162481307983,-0.029736308380961418,-0.7940471768379211,0.8351937532424927,-0.48700252175331116,0.13406284153461456,0.009613541886210442
12.196215391159058,-0.04006427526473999,-0.7900913953781128,0.8369626998901367,-0.48849448561668396,0.1308271884918213,0.009088280610740185
12.216268062591553,-0.05739119276404381,-0.7864603400230408,0.8382223844528198,-0.48805445432662964,0.12332525849342346,0.008683433756232262
12.236385583877563,-0.06722493469715118,-0.7848067283630371,0.8386906385421753,-0.48806846141815186,0.11903544515371323,0.008515441790223122
12.256468296051025,-0.08564106374979019,-0.7821844816207886,0.839802622795105,-0.48687565326690674,0.10961373150348663,0.008416344411671162
12.27660083770752,-0.09177657961845398,-0.7817378044128418,0.8405793309211731,-0.4854573607444763,0.10510466992855072,0.00839789118617773
12.29667854309082,-0.07041577249765396,-0.7888010740280151,0.8394834399223328,-0.4816824793815613,0.11078371852636337,0.008990740403532982
12.316744804382324,-0.050024960190057755,-0.7939539551734924,0.8391758799552917,-0.4806115925312042,0.11806955933570862,0.009210610762238503
12.336819887161255,-0.04170776903629303,-0.7950526475906372,0.8394078612327576,-0.4815112352371216,0.12178927659988403,0.009239861741662025
12.356942653656006,-0.028593383729457855,-0.7954665422439575,0.837117075920105,-0.4849872589111328,0.13167326152324677,0.009538457728922367
12.377541303634644,-0.02813638560473919,-0.7930560111999512,0.8366486430168152,-0.4876307547092438,0.13525496423244476,0.009453183971345425
12.397646427154541,-0.04421529546380043,-0.7898338437080383,0.8377137184143066,-0.48895591497421265,0.1297459900379181,0.008856306783854961
12.417758226394653,-0.05834297835826874,-0.78654545545578,0.8381941318511963,-0.4898340702056885,0.12430240958929062,0.008842400275170803
12.437885999679565,-0.06613754481077194,-0.7853548526763916,0.8395511507987976,-0.48826855421066284,0.11881475895643234,0.00854602549225092
12.457948207855225,-0.08502119779586792,-0.7832164764404297,0.8400583863258362,-0.4865470230579376,0.10916808247566223,0.008357387036085129
12.478044748306274,-0.10243091732263565,-0.7836291193962097,0.8518524765968323,-0.5132458209991455,0.10390394181013107,-0.026393480598926544
12.498150825500488,-0.09810641407966614,-0.7872319221496582,0.8559695482254028,-0.5246738195419312,0.10711623728275299,-0.04323998838663101
12.51829719543457,-0.08885058760643005,-0.7943321466445923,0.8607916831970215,-0.5406618118286133,0.11387699842453003,-0.0715288519859314
12.538321256637573,-0.08454913645982742,-0.7970912456512451,0.8603578805923462,-0.5449256896972656,0.11829543113708496,-0.08318072557449341
12.55848741531372,-0.06780489534139633,-0.8042131662368774,0.8576139807701111,-0.5525137186050415,0.1316443532705307,-0.10281237959861755
12.57890272140503,-0.05846726521849632,-0.8050116300582886,0.8565396666526794,-0.5543291568756104,0.14058053493499756,-0.1189209446310997
12.598998069763184,-0.059294890612363815,-0.803748369216919,0.8567904233932495,-0.5526160597801208,0.142207533121109,-0.126133993268013
12.619116306304932,-0.062379829585552216,-0.799129843711853,0.8599973320960999,-0.5540125966072083,0.14438828825950623,-0.1394098848104477
12.639153957366943,-0.07001593708992004,-0.7962568402290344,0.8630468249320984,-0.5540342330932617,0.14198817312717438,-0.14572083950042725
12.65929889678955,-0.08917257189750671,-0.7903222441673279,0.8724111318588257,-0.5466098785400391,0.1318538784980774,-0.1572178602218628
12.679579496383667,-0.11038010567426682,-0.7872717380523682,0.8784081339836121,-0.5357770323753357,0.12135481834411621,-0.16708272695541382
12.699670791625977,-0.11881575733423233,-0.7875897884368896,0.8772498369216919,-0.531917929649353,0.11842940747737885,-0.17143942415714264
12.719727277755737,-0.10815663635730743,-0.7948794364929199,0.8718235492706299,-0.5288645625114441,0.12403297424316406,-0.17934711277484894
12.739827156066895,-0.09540952742099762,-0.7983392477035522,0.8702422380447388,-0.5306496024131775,0.12968330085277557,-0.18356704711914062
12.75994873046875,-0.07858708500862122,-0.8031038641929626,0.864802360534668,-0.5348641872406006,0.13996991515159607,-0.19216997921466827
12.780139684677124,-0.06798285245895386,-0.8027883768081665,0.8616920113563538,-0.5425562262535095,0.1495518535375595,-0.2005627155303955
12.800239086151123,-0.06303481757640839,-0.801177978515625,0.862693190574646,-0.5460222959518433,0.15314577519893646,-0.20465612411499023
12.820306062698364,-0.07307311147451401,-0.7957000732421875,0.8677630424499512,-0.5479177832603455,0.14939337968826294,-0.2133711874485016
12.840378999710083,-0.08089476823806763,-0.7926454544067383,0.8713882565498352,-0.5475406646728516,0.1456177979707718,-0.21761053800582886
12.860486507415771,-0.09014733135700226,-0.7902923822402954,0.8746110796928406,-0.5417467951774597,0.13996055722236633,-0.22496351599693298
12.880549669265747,-0.10927291959524155,-0.7904162406921387,0.8726319074630737,-0.5374264717102051,0.13358169794082642,-0.2321215569972992
12.900630474090576,-0.11669863760471344,-0.7910753488540649,0.8721467852592468,-0.536786675453186,0.13091033697128296,-0.23565848171710968
12.920701265335083,-0.0957399308681488,-0.7980517745018005,0.867530345916748,-0.5380666851997375,0.1409558802843094,-0.24171479046344757
12.940758228302002,-0.0815998986363411,-0.8024849891662598,0.862312912940979,-0.5387752652168274,0.14909686148166656,-0.24819602072238922
12.960857629776001,-0.08145714551210403,-0.8025187849998474,0.8623157739639282,-0.5402973890304565,0.15006645023822784,-0.25175371766090393
12.980952501296997,-0.06843318045139313,-0.8008649349212646,0.8618283271789551,-0.5437453985214233,0.15794698894023895,-0.2577454745769501
13.001013994216919,-0.06927736103534698,-0.7959935665130615,0.8692891001701355,-0.5418894290924072,0.15477362275123596,-0.26436761021614075
13.021085977554321,-0.07638649642467499,-0.7934267520904541,0.8728076219558716,-0.5420954823493958,0.15164481103420258,-0.2676432430744171
13.04117727279663,-0.0823691338300705,-0.7913320660591125,0.8771016001701355,-0.5413748621940613,0.1479489505290985,-0.2734450101852417
13.06147289276123,-0.09517918527126312,-0.7916743159294128,0.8752174973487854,-0.5376882553100586,0.14327871799468994,-0.27894628047943115
13.081562280654907,-0.0997588187456131,-0.7928552627563477,0.8722352385520935,-0.5362935066223145,0.1427082121372223,-0.2815245985984802
13.101633787155151,-0.10373139381408691,-0.7967829704284668,0.8648433685302734,-0.5369419455528259,0.1452319324016571,-0.2865085005760193
13.121734857559204,-0.09107173979282379,-0.799907922744751,0.8627012968063354,-0.5376752018928528,0.1510278582572937,-0.2913537323474884
13.141828060150146,-0.08276747167110443,-0.8005093932151794,0.8629738688468933,-0.5378296971321106,0.154058575630188,-0.29379767179489136
13.161900520324707,-0.06972779333591461,-0.799534797668457,0.8641995191574097,-0.5392773151397705,0.15937939286231995,-0.2985769808292389
13.181976795196533,-0.06488056480884552,-0.7984957695007324,0.8662097454071045,-0.5403977632522583,0.1610790640115738,-0.30096426606178284
13.202077627182007,-0.06616585701704025,-0.7965379953384399,0.8700456619262695,-0.5396890640258789,0.15920390188694,-0.30576422810554504
13.222152948379517,-0.08183460682630539,-0.794938325881958,0.8700453639030457,-0.5391885638237,0.15500707924365997,-0.31021034717559814
13.242232084274292,-0.08623166382312775,-0.7952912449836731,0.8695241808891296,-0.5383524298667908,0.1536782681941986,-0.31231966614723206
13.262309074401855,-0.10466226190328598,-0.7944124937057495,0.869268000125885,-0.5360041260719299,0.14776769280433655,-0.31657224893569946
13.282662630081177,-0.10697807371616364,-0.7972060441970825,0.8670076131820679,-0.5342559218406677,0.14756250381469727,-0.32049277424812317
13.302906036376953,-0.09677410125732422,-0.7994629144668579,0.8668525218963623,-0.5332983136177063,0.15056470036506653,-0.32221519947052
13.322888135910034,-0.08124463260173798,-0.8013970255851746,0.8666058778762817,-0.531601071357727,0.1555522382259369,-0.3259033262729645
13.342995405197144,-0.07149781286716461,-0.8017341494560242,0.8640292882919312,-0.5335038900375366,0.1613059937953949,-0.32751595973968506
13.36317253112793,-0.05987527221441269,-0.800972044467926,0.8631712198257446,-0.5358209013938904,0.16725245118141174,-0.33098575472831726
13.38317584991455,-0.06667301058769226,-0.7982271909713745,0.8649051189422607,-0.5365992784500122,0.16566629707813263,-0.33489990234375
13.403262376785278,-0.0800049677491188,-0.7967028021812439,0.866131067276001,-0.5376229882240295,0.1621156483888626,-0.336871474981308
13.423379182815552,-0.0986352413892746,-0.7954317331314087,0.8687471151351929,-0.5337610840797424,0.1543077528476715,-0.3403396010398865
13.443469285964966,-0.11477736383676529,-0.7954480648040771,0.8719061017036438,-0.5288573503494263,0.1461092084646225,-0.3435770273208618
13.46354055404663,-0.11654187738895416,-0.7961191534996033,0.8735150098800659,-0.527145504951477,0.14383606612682343,-0.34518009424209595
13.483670234680176,-0.08693601191043854,-0.8028122782707214,0.8723162412643433,-0.5248434543609619,0.15305441617965698,-0.3474408686161041
13.503845453262329,-0.07645522058010101,-0.8042622804641724,0.8689038753509521,-0.5248813629150391,0.15819433331489563,-0.34865888953208923
13.523959159851074,-0.06123844534158707,-0.8058615326881409,0.865607500076294,-0.5295854806900024,0.16681282222270966,-0.3518415093421936
13.543964862823486,-0.055620983242988586,-0.8034378290176392,0.863672137260437,-0.5317004919052124,0.17176470160484314,-0.35483062267303467
13.564059972763062,-0.06635011732578278,-0.8012356162071228,0.8627649545669556,-0.5334910750389099,0.17085154354572296,-0.35641607642173767
13.584247827529907,-0.08137596398591995,-0.7987034320831299,0.866226077079773,-0.5334290266036987,0.1653159260749817,-0.35955849289894104
13.604282855987549,-0.09175758063793182,-0.7976782917976379,0.8702222108840942,-0.5276312232017517,0.1587841510772705,-0.3621707558631897
13.6244535446167,-0.09771060943603516,-0.7976251840591431,0.8726824522018433,-0.5239956378936768,0.15453973412513733,-0.3636504113674164
13.644669771194458,-0.10548773407936096,-0.7983952760696411,0.8734750747680664,-0.5204954147338867,0.15062616765499115,-0.3663484752178192
13.665074348449707,-0.0960436463356018,-0.8016951084136963,0.8716913461685181,-0.5207328796386719,0.15417030453681946,-0.36873772740364075
13.68514084815979,-0.08921319246292114,-0.8045593500137329,0.8686942458152771,-0.5227618217468262,0.15802381932735443,-0.3698331415653229
13.705237627029419,-0.07778893411159515,-0.8059598207473755,0.865479052066803,-0.5253472924232483,0.1646622270345688,-0.3718945384025574
13.725329399108887,-0.07045423984527588,-0.8060712218284607,0.8640982508659363,-0.5286802053451538,0.16915105283260345,-0.3729158639907837
13.745481252670288,-0.06280840188264847,-0.8052284717559814,0.8622997999191284,-0.5285720229148865,0.1738385409116745,-0.37492096424102783
13.765532493591309,-0.07067030668258667,-0.8024959564208984,0.8655050992965698,-0.5263165235519409,0.17022551596164703,-0.37735703587532043
13.785660743713379,-0.07832750678062439,-0.8011543154716492,0.8680266737937927,-0.5256866216659546,0.1671704351902008,-0.3785921335220337
13.805759906768799,-0.09158079326152802,-0.7993674278259277,0.8730221390724182,-0.5215703248977661,0.16016454994678497,-0.3806922435760498
13.826012134552002,-0.11154386401176453,-0.7986747026443481,0.874449610710144,-0.5167695879936218,0.15238569676876068,-0.3826678991317749
13.846147298812866,-0.11627848446369171,-0.7993048429489136,0.8755113482475281,-0.5142037868499756,0.1496526598930359,-0.3837735652923584
13.866384029388428,-0.09044969826936722,-0.8065686225891113,0.8710536956787109,-0.5134291052818298,0.15916450321674347,-0.3848959505558014
13.886738538742065,-0.08300146460533142,-0.8081701397895813,0.8688780069351196,-0.5132965445518494,0.16252435743808746,-0.38574790954589844
13.90688180923462,-0.07179377228021622,-0.8078632950782776,0.8664696216583252,-0.520698606967926,0.1698211133480072,-0.38784101605415344
13.926944017410278,-0.060586415231227875,-0.8072370290756226,0.8628281950950623,-0.5228804349899292,0.17717447876930237,-0.3892989754676819
13.947080373764038,-0.06494991481304169,-0.8056285381317139,0.8647765517234802,-0.5225346684455872,0.17521369457244873,-0.3904172480106354
13.967190742492676,-0.08093944936990738,-0.803503155708313,0.8683412075042725,-0.5209681987762451,0.1689167022705078,-0.39231252670288086
13.987364768981934,-0.08729245513677597,-0.8024613261222839,0.8703089952468872,-0.520180344581604,0.16605249047279358,-0.3930791914463043
14.007532835006714,-0.10029440373182297,-0.8012221455574036,0.8750146627426147,-0.5175145864486694,0.15945133566856384,-0.39456868171691895
14.027544498443604,-0.10892356932163239,-0.8025398850440979,0.8763207197189331,-0.5125283002853394,0.15471962094306946,-0.39574432373046875
14.047632455825806,-0.10490910708904266,-0.804024338722229,0.8751752972602844,-0.5107560157775879,0.1559893637895584,-0.3961035907268524
14.06771993637085,-0.08640103787183762,-0.8091335892677307,0.8712800741195679,-0.5114026069641113,0.16350775957107544,-0.39681294560432434
14.08788514137268,-0.07237900793552399,-0.8105264902114868,0.8677747249603271,-0.5134615898132324,0.17090573906898499,-0.3978748619556427
14.107991695404053,-0.06555113941431046,-0.8100991249084473,0.8654375076293945,-0.5150660872459412,0.17541514337062836,-0.398306280374527
14.128090620040894,-0.059834904968738556,-0.8088643550872803,0.8644561767578125,-0.5157462358474731,0.1790297031402588,-0.39952465891838074
14.148236274719238,-0.06413619220256805,-0.8070482015609741,0.8658010363578796,-0.515716016292572,0.17766886949539185,-0.40029412508010864
14.168392896652222,-0.08582374453544617,-0.8038403391838074,0.8698779344558716,-0.513178825378418,0.16944219172000885,-0.4020453989505768
14.188514471054077,-0.10372325032949448,-0.8027274012565613,0.8726164102554321,-0.5112917423248291,0.16272301971912384,-0.4035607576370239
14.20865273475647,-0.11432565748691559,-0.802659809589386,0.8745956420898438,-0.5099200010299683,0.15801039338111877,-0.4044019877910614
14.228663444519043,-0.1125989630818367,-0.8042857646942139,0.8747239112854004,-0.5098893642425537,0.1578160524368286,-0.40533560514450073
14.249175548553467,-0.08143501728773117,-0.8109899759292603,0.8743405342102051,-0.507427990436554,0.16653482615947723,-0.4057628810405731
14.26926851272583,-0.08041546493768692,-0.8111943602561951,0.871928334236145,-0.5066852569580078,0.16801781952381134,-0.40630844235420227
14.289355754852295,-0.06887190788984299,-0.8105345368385315,0.8676964044570923,-0.5092061161994934,0.1751571148633957,-0.40719670057296753
14.309414148330688,-0.05982426926493645,-0.8085389733314514,0.8671063184738159,-0.5117977261543274,0.17966608703136444,-0.4083724021911621
14.329510688781738,-0.06763690710067749,-0.8073475360870361,0.8672996163368225,-0.5126227736473083,0.1780214011669159,-0.40913835167884827
14.349594116210938,-0.08750306069850922,-0.8058143854141235,0.8680712580680847,-0.5119630098342896,0.1723899245262146,-0.4104692041873932
14.369982719421387,-0.09636933356523514,-0.8058305978775024,0.8712202310562134,-0.5084356069564819,0.16705222427845,-0.41158169507980347
