liuyurong129/humanoid-gym/humanoid/data/target_q_20250521-053416.csv
timestamp,joint_1,joint_2,joint_3,joint_4,joint_5,joint_6
4.9591064453125e-05,0.0,0.0,0.0,0.0,0.0,0.0
0.0201261043548584,0.0,0.0,0.0,0.0,0.0,0.0
0.0402071475982666,0.0,0.0,0.0,0.0,0.0,0.0
0.06026148796081543,0.0,0.0,0.0,0.0,0.0,0.0
0.08033156394958496,0.0,0.0,0.0,0.0,0.0,0.0
0.10041570663452148,0.15016019344329834,-0.4888312816619873,0.8518631458282471,0.8687446713447571,-0.4150831997394562,-0.09471894800662994
0.1205146312713623,0.024396423250436783,-0.5278444886207581,0.7478864192962646,0.8766368627548218,-0.48159676790237427,-0.10778845846652985
0.14061355590820312,-0.07510540634393692,-0.5564483404159546,0.6342329978942871,0.8573322296142578,-0.4760006070137024,-0.11639343202114105
0.16069960594177246,-0.08531150966882706,-0.5709897875785828,0.6560453176498413,0.8656007051467896,-0.45693618059158325,-0.11636926233768463
0.18131446838378906,-0.08549032360315323,-0.5713022947311401,0.6445614695549011,0.8548064231872559,-0.4587695598602295,-0.11709310114383698
0.20143818855285645,-0.08715195953845978,-0.5661416053771973,0.6348656415939331,0.8468303680419922,-0.4604890048503876,-0.11952303349971771
0.22151446342468262,-0.08073362708091736,-0.5659536123275757,0.6318565607070923,0.842619001865387,-0.4610331654548645,-0.1196279227733612
0.2424328327178955,-0.07903648167848587,-0.5665234327316284,0.6327253580093384,0.8472540378570557,-0.4582483768463135,-0.1196558028459549
0.2625422477722168,-0.07429464906454086,-0.5665161609649658,0.6559391021728516,0.855365514755249,-0.45415133237838745,-0.11877432465553284
0.2826063632965088,-0.06440286338329315,-0.5625787377357483,0.6710323095321655,0.8551408052444458,-0.4540862441062927,-0.11873602867126465
0.3027489185333252,-0.04918387904763222,-0.5529064536094666,0.6543466448783875,0.8425790071487427,-0.4531291127204895,-0.11978664994239807
0.3227968215942383,-0.04102354124188423,-0.552362859249115,0.6811474561691284,0.8535945415496826,-0.44904419779777527,-0.11810305714607239
0.34287595748901367,-0.055449698120355606,-0.5571819543838501,0.6663230657577515,0.8506162166595459,-0.4626271426677704,-0.12242938578128815
0.3631155490875244,-0.05533507838845253,-0.5572556853294373,0.6739403605461121,0.8524588346481323,-0.4570466876029968,-0.12201255559921265
0.38317203521728516,-0.06068071350455284,-0.5509212017059326,0.648899495601654,0.8506302237510681,-0.4572122097015381,-0.1240992397069931
0.4033186435699463,-0.058309007436037064,-0.5547195672988892,0.6668978929519653,0.8572304248809814,-0.4619262218475342,-0.1267324537038803
0.42348718643188477,-0.049341943114995956,-0.547452449798584,0.6985554099082947,0.8660486936569214,-0.45296505093574524,-0.12505754828453064
0.443572998046875,-0.04105611518025398,-0.5349709391593933,0.6592710018157959,0.8397601842880249,-0.4497876763343811,-0.12735086679458618
0.46364712715148926,-0.05173705890774727,-0.5454988479614258,0.6509391069412231,0.8429668545722961,-0.46898430585861206,-0.12934260070323944
0.48369765281677246,-0.04707318916916847,-0.5358250141143799,0.6266668438911438,0.8281792402267456,-0.4568156599998474,-0.1300894320011139
0.5037751197814941,-0.03498564288020134,-0.5455229878425598,0.7121562957763672,0.8734357357025146,-0.45187604427337646,-0.12767989933490753
0.5238487720489502,-0.035918865352869034,-0.5480554103851318,0.713629961013794,0.8776445984840393,-0.45845502614974976,-0.1296040564775467
0.5439057350158691,-0.03294489160180092,-0.5479767322540283,0.7146141529083252,0.8697024583816528,-0.4608389437198639,-0.12951131165027618
0.5639925003051758,-0.049737390130758286,-0.5404383540153503,0.6271615624427795,0.8305901885032654,-0.46935176849365234,-0.13458602130413055
0.5841050148010254,-0.03793222829699516,-0.528672993183136,0.6344283819198608,0.8285456895828247,-0.4550739526748657,-0.13506294786930084
0.6042056083679199,-0.04926604405045509,-0.5340044498443604,0.6246611475944519,0.8333255052566528,-0.4715299904346466,-0.13891386985778809
0.6242411136627197,-0.03659045323729515,-0.5455423593521118,0.7432453036308289,0.8889201283454895,-0.4601389765739441,-0.1337525099515915
0.644310474395752,-0.023319881409406662,-0.5397809147834778,0.7501449584960938,0.8877437114715576,-0.45699238777160645,-0.13316291570663452
0.6643643379211426,-0.014040966518223286,-0.5337781310081482,0.7422918081283569,0.8796091675758362,-0.45474839210510254,-0.13375185430049896
0.684506893157959,-0.02999146655201912,-0.5207094550132751,0.6299938559532166,0.8338313102722168,-0.46915584802627563,-0.14071278274059296
0.7046017646789551,-0.027503330260515213,-0.5253405570983887,0.6158626079559326,0.8345485329627991,-0.4759920537471771,-0.14286303520202637
0.7246873378753662,-0.029420439153909683,-0.5294886827468872,0.6265822052955627,0.8273770809173584,-0.4748647212982178,-0.14395268261432648
0.7450060844421387,-0.027740884572267532,-0.5262036919593811,0.6404476165771484,0.8268340826034546,-0.4684765934944153,-0.14412546157836914
0.7650976181030273,-0.013074611313641071,-0.5343891978263855,0.7212105393409729,0.8650058507919312,-0.46133193373680115,-0.13948728144168854
0.7851748466491699,-0.013427597470581532,-0.5322558879852295,0.7336345314979553,0.878318190574646,-0.4618435204029083,-0.14074094593524933
0.805595874786377,-0.003016059286892414,-0.525904655456543,0.7405691146850586,0.8748033046722412,-0.45794570446014404,-0.1408206820487976
0.8256773948669434,-0.008175057359039783,-0.5098636746406555,0.6509675979614258,0.825548529624939,-0.4589027762413025,-0.14488692581653595
0.8458142280578613,-0.020872559398412704,-0.5104289054870605,0.6176814436912537,0.8226028680801392,-0.4716675877571106,-0.14908264577388763
0.865994930267334,-0.003943805582821369,-0.5098960995674133,0.6499646902084351,0.8222354054450989,-0.4630109667778015,-0.14903971552848816
0.8861031532287598,0.01651899144053459,-0.5156455039978027,0.7430369853973389,0.8717168569564819,-0.4513178765773773,-0.14343491196632385
0.9061949253082275,0.021350909024477005,-0.5126851201057434,0.7411420345306396,0.8619406819343567,-0.45531320571899414,-0.14739587903022766
0.9264101982116699,0.005108538083732128,-0.5182189345359802,0.738441526889801,0.8731109499931335,-0.4603986442089081,-0.15067452192306519
0.9465069770812988,-0.007657800801098347,-0.5066385269165039,0.644188642501831,0.8254038095474243,-0.46894967555999756,-0.1556585431098938
0.9665889739990234,-0.013483298011124134,-0.5038928985595703,0.6391435861587524,0.832758367061615,-0.47513192892074585,-0.15540555119514465
0.9866940975189209,-0.009164166636765003,-0.5039868354797363,0.6429895162582397,0.8324936628341675,-0.47527265548706055,-0.15711364150047302
1.0068035125732422,0.016638245433568954,-0.5090211629867554,0.7380175590515137,0.8703806400299072,-0.45789021253585815,-0.15103280544281006
1.0268769264221191,0.0187905915081501,-0.5121821761131287,0.7424343824386597,0.86771559715271,-0.46125251054763794,-0.15315601229667664
1.04697585105896,0.015909675508737564,-0.5142756104469299,0.7573919296264648,0.8834671378135681,-0.4626113474369049,-0.15473896265029907
1.0671017169952393,0.009123350493609905,-0.4939849376678467,0.6613153219223022,0.8220030069351196,-0.46331557631492615,-0.16032230854034424
1.0871315002441406,0.022326812148094177,-0.4874878525733948,0.6764829754829407,0.8246394395828247,-0.46243780851364136,-0.1595425009727478
1.1079368591308594,0.016481470316648483,-0.4860215187072754,0.6480818390846252,0.8181171417236328,-0.4679650068283081,-0.16285091638565063
1.1280217170715332,0.04066959023475647,-0.5022006630897522,0.7682578563690186,0.8752886056900024,-0.4607836902141571,-0.15776686370372772
1.1480987071990967,0.0409933477640152,-0.5011171698570251,0.7611826658248901,0.8737999200820923,-0.4622052311897278,-0.15756864845752716
1.1685552597045898,0.027809638530015945,-0.5055953860282898,0.7345569133758545,0.8648310899734497,-0.4679902195930481,-0.16243717074394226
1.1886420249938965,-0.0012625204399228096,-0.49445170164108276,0.6069453358650208,0.8122544884681702,-0.4803015887737274,-0.17083919048309326
1.2087280750274658,0.01613839715719223,-0.48792147636413574,0.644210696220398,0.8176211714744568,-0.4678608775138855,-0.1718471348285675
1.2288124561309814,0.021099191159009933,-0.48013097047805786,0.6550031304359436,0.8287531137466431,-0.4671117067337036,-0.16919425129890442
1.2488982677459717,0.04387218505144119,-0.4939137101173401,0.7831985354423523,0.8871333003044128,-0.4603424668312073,-0.16564255952835083
1.2690038681030273,0.06108641251921654,-0.4836980700492859,0.7831716537475586,0.8820464611053467,-0.4499790668487549,-0.167568176984787
1.289052963256836,0.06435215473175049,-0.48093438148498535,0.7697723507881165,0.8718243837356567,-0.45029276609420776,-0.17057444155216217
1.3091480731964111,0.029165443032979965,-0.47657257318496704,0.6424345970153809,0.8206683993339539,-0.47822239995002747,-0.18022765219211578
1.3292250633239746,0.03030436486005783,-0.477481484413147,0.6334326863288879,0.8114253282546997,-0.4796696901321411,-0.17972522974014282
1.3492827415466309,0.038982655853033066,-0.470464289188385,0.6479607224464417,0.8196715712547302,-0.4700061082839966,-0.17969730496406555
1.3703899383544922,0.0462491549551487,-0.4655836224555969,0.6687111258506775,0.8228313326835632,-0.46509140729904175,-0.17941150069236755
1.3905208110809326,0.07435356825590134,-0.4817677140235901,0.8099872469902039,0.8949958086013794,-0.46026667952537537,-0.17373287677764893
1.4105563163757324,0.06334753334522247,-0.48023420572280884,0.7753239870071411,0.888085126876831,-0.4676714539527893,-0.1772938072681427
1.4306285381317139,0.060484930872917175,-0.47792601585388184,0.7667816281318665,0.8769292831420898,-0.46081072092056274,-0.17976555228233337
1.4507043361663818,0.015915561467409134,-0.47367727756500244,0.609624981880188,0.815768837928772,-0.4904135465621948,-0.1908334493637085
1.4707810878753662,0.009269843809306622,-0.47837018966674805,0.5862740278244019,0.8128921985626221,-0.4942237138748169,-0.196426123380661
1.4908373355865479,0.005915856920182705,-0.47875523567199707,0.594006359577179,0.8211830258369446,-0.48911580443382263,-0.19889536499977112
1.5109679698944092,0.025222253054380417,-0.48723942041397095,0.6903512477874756,0.86945641040802,-0.4740443825721741,-0.1967184841632843
1.5310113430023193,0.035784151405096054,-0.48772382736206055,0.7192275524139404,0.8818548321723938,-0.4712929129600525,-0.19797955453395844
1.5511434078216553,0.07945423573255539,-0.47115474939346313,0.7812396287918091,0.8858750462532043,-0.44798362255096436,-0.19499260187149048
1.5711662769317627,0.05159366875886917,-0.45457643270492554,0.6335800290107727,0.8141250610351562,-0.4643646478652954,-0.2004963755607605
1.5912730693817139,0.042252447456121445,-0.4607531428337097,0.6255704760551453,0.8185499906539917,-0.4842507839202881,-0.2024761289358139
1.6113202571868896,0.05782807990908623,-0.4497835636138916,0.6505826711654663,0.8198974132537842,-0.4665065407752991,-0.202918142080307
1.6314082145690918,0.09607212245464325,-0.4630041718482971,0.7988241314888,0.903832197189331,-0.45629191398620605,-0.19586367905139923
1.6514921188354492,0.0988052487373352,-0.45708906650543213,0.7765991687774658,0.8819071054458618,-0.45446664094924927,-0.20167607069015503
1.6715342998504639,0.09697946161031723,-0.4582586884498596,0.7580913305282593,0.8733701109886169,-0.45835816860198975,-0.2081826627254486
1.6916346549987793,0.05592453107237816,-0.4532116651535034,0.613617479801178,0.7973654270172119,-0.4791206419467926,-0.21923032402992249
1.7117440700531006,0.04090629518032074,-0.4618462920188904,0.58902907371521,0.8021291494369507,-0.48947596549987793,-0.22447343170642853
1.7317743301391602,0.010526823811233044,-0.47175300121307373,0.5566501021385193,0.8128381967544556,-0.5009223818778992,-0.23033501207828522
1.751945972442627,0.04230256378650665,-0.4769774079322815,0.7029165625572205,0.8916071653366089,-0.4728890061378479,-0.2232029289007187
1.7720160484313965,0.05318747088313103,-0.4763032793998718,0.740391731262207,0.8967847228050232,-0.47402459383010864,-0.2230360507965088
1.7920715808868408,0.06047852709889412,-0.46603381633758545,0.7378283739089966,0.8892529606819153,-0.46320897340774536,-0.22755283117294312
1.8122780323028564,0.09429401904344559,-0.4525996446609497,0.7901040315628052,0.9008969664573669,-0.45024728775024414,-0.2248748391866684
1.8323655128479004,0.06702110916376114,-0.4359716773033142,0.6488779783248901,0.7907936573028564,-0.461345911026001,-0.23482681810855865
1.8524208068847656,0.10215213894844055,-0.4177830219268799,0.6899368166923523,0.8084312081336975,-0.4462965726852417,-0.22870811820030212
1.8725171089172363,0.060623619705438614,-0.4278230667114258,0.6427815556526184,0.7917146682739258,-0.4834558367729187,-0.2345699667930603
1.8926029205322266,0.11478671431541443,-0.43437105417251587,0.808463454246521,0.8970091342926025,-0.45468974113464355,-0.2277592420578003
1.9127039909362793,0.09406480193138123,-0.439139187335968,0.7668672800064087,0.8898462653160095,-0.4604455232620239,-0.23391161859035492
1.932744026184082,0.05885264649987221,-0.4501223564147949,0.7290641069412231,0.8843116164207458,-0.4662473797798157,-0.24419233202934265
1.9528594017028809,0.00047436822205781937,-0.4505683183670044,0.5306711196899414,0.7900662422180176,-0.49897506833076477,-0.25607773661613464
1.972926378250122,0.00774612370878458,-0.4466608166694641,0.5240065455436707,0.7816168665885925,-0.4860026240348816,-0.2580428421497345
1.9930050373077393,0.05591790750622749,-0.42366892099380493,0.5905650854110718,0.7802936434745789,-0.44798287749290466,-0.2559254765510559
2.013267755508423,0.11738675087690353,-0.3986055850982666,0.6666999459266663,0.7846706509590149,-0.41614070534706116,-0.25043871998786926
2.0333871841430664,0.1658327877521515,-0.42121756076812744,0.860636830329895,0.9108291864395142,-0.4365059733390808,-0.23846963047981262
2.0534634590148926,0.1746174842119217,-0.40183407068252563,0.8883953094482422,0.8931527137756348,-0.4333783984184265,-0.2393796741962433
2.0735137462615967,0.15132397413253784,-0.38894492387771606,0.8215497732162476,0.8531174063682556,-0.42533737421035767,-0.24735623598098755
2.0936031341552734,0.010261471383273602,-0.4096548557281494,0.6764776110649109,0.7399698495864868,-0.49612563848495483,-0.26807066798210144
2.113736152648926,-0.09429788589477539,-0.4588277339935303,0.513957142829895,0.7451127767562866,-0.5152924060821533,-0.29331284761428833
2.1337809562683105,-0.1524074822664261,-0.4855976700782776,0.4012407660484314,0.7792651057243347,-0.5216270089149475,-0.296574205160141
2.1538655757904053,-0.1232585534453392,-0.47261500358581543,0.4234029948711395,0.7969167232513428,-0.48154377937316895,-0.2938148081302643
2.1739375591278076,-0.07416456937789917,-0.4588354229927063,0.4187038838863373,0.7657712697982788,-0.44876962900161743,-0.2951132655143738
2.194002151489258,0.027823958545923233,-0.43432730436325073,0.5410861968994141,0.7825692296028137,-0.39025524258613586,-0.2934749722480774
2.214083433151245,0.07428523153066635,-0.4314042925834656,0.6247512102127075,0.8037306070327759,-0.3869125247001648,-0.2903886139392853
2.2341582775115967,0.18693849444389343,-0.387770414352417,0.736360490322113,0.7884764075279236,-0.3241710662841797,-0.2830266058444977
2.2542333602905273,0.23914580047130585,-0.3556486964225769,0.8488163948059082,0.7648179531097412,-0.3085291087627411,-0.2736879885196686
2.2743780612945557,0.24858330190181732,-0.34037232398986816,0.8138604164123535,0.769173264503479,-0.29619938135147095,-0.2658889591693878
2.2944250106811523,0.1760236769914627,-0.3528212308883667,0.728629469871521,0.7501344680786133,-0.34160688519477844,-0.2760995030403137
2.3144803047180176,-0.032916825264692307,-0.40530550479888916,0.5911537408828735,0.7108326554298401,-0.4523841142654419,-0.3029728829860687
2.334653615951538,-0.0743522122502327,-0.42131471633911133,0.5177103877067566,0.7238420248031616,-0.45865383744239807,-0.31075319647789
2.354741096496582,-0.09131960570812225,-0.43462109565734863,0.5089401006698608,0.7826285362243652,-0.4539117217063904,-0.3122478425502777
2.3748207092285156,-0.06781189888715744,-0.42697811126708984,0.5034745931625366,0.7940095663070679,-0.4475446939468384,-0.3101576566696167
2.395223379135132,-0.0026796581223607063,-0.41133034229278564,0.5273528099060059,0.7821881771087646,-0.39578962326049805,-0.3138555586338043
2.4153056144714355,0.03903971239924431,-0.408216655254364,0.5879559516906738,0.8036960363388062,-0.3809598684310913,-0.3134256899356842
2.4353866577148438,0.14144542813301086,-0.37616848945617676,0.6535242199897766,0.7971627712249756,-0.3143649399280548,-0.30996301770210266
2.4563539028167725,0.24073557555675507,-0.338608980178833,0.7814911603927612,0.7567024827003479,-0.24701054394245148,-0.30727675557136536
2.476440668106079,0.23594976961612701,-0.33490878343582153,0.8050083518028259,0.7399206161499023,-0.2526751756668091,-0.30726855993270874
2.4965028762817383,0.1861582249403,-0.34594759345054626,0.7608462572097778,0.764124870300293,-0.2960003912448883,-0.3102811276912689
2.516577959060669,0.06499946117401123,-0.3693062663078308,0.679672122001648,0.764155924320221,-0.37274444103240967,-0.3280494511127472
2.536731243133545,-0.03330366313457489,-0.38702264428138733,0.5955067873001099,0.7428643703460693,-0.420238196849823,-0.33900848031044006
2.5569663047790527,-0.04688698798418045,-0.39831292629241943,0.5289626717567444,0.7685067057609558,-0.40525105595588684,-0.3497668206691742
2.5769119262695312,-0.030759122222661972,-0.4007067382335663,0.5181955099105835,0.8126933574676514,-0.39922043681144714,-0.3491545617580414
2.5970261096954346,-0.03522307425737381,-0.3997587561607361,0.4946346879005432,0.7993247509002686,-0.3945554494857788,-0.35209962725639343
2.617109537124634,0.012317894957959652,-0.3929685950279236,0.54624342918396,0.8155611753463745,-0.36164912581443787,-0.355347216129303
2.6371591091156006,0.12563303112983704,-0.3737331032752991,0.6177346706390381,0.8357180953025818,-0.2900204360485077,-0.3519282042980194
2.6572558879852295,0.17523612082004547,-0.3568826913833618,0.6963033676147461,0.8075556755065918,-0.24992474913597107,-0.3538302481174469
2.6773335933685303,0.22781702876091003,-0.33590275049209595,0.7711215615272522,0.8027257919311523,-0.20927578210830688,-0.3482725918292999
2.6974005699157715,0.20469586551189423,-0.3384771943092346,0.7526019811630249,0.8063982725143433,-0.2300778478384018,-0.35349950194358826
2.7174935340881348,0.1432134509086609,-0.35352081060409546,0.7367540597915649,0.802522599697113,-0.279599666595459,-0.3627622425556183
2.7375917434692383,-0.001121637411415577,-0.37275755405426025,0.6202131509780884,0.7820367217063904,-0.3609556555747986,-0.37939539551734924
2.7580108642578125,-0.015513808466494083,-0.38020551204681396,0.49130600690841675,0.7723343372344971,-0.35588690638542175,-0.3864441215991974
2.7780935764312744,0.010286430828273296,-0.3811548352241516,0.5190331935882568,0.806490957736969,-0.32992494106292725,-0.3909132182598114
2.7981479167938232,0.0028284182772040367,-0.39009931683540344,0.4827996492385864,0.8252398371696472,-0.3263840079307556,-0.39726242423057556
2.818399667739868,0.07267728447914124,-0.3796539902687073,0.5426556468009949,0.8441802263259888,-0.26190727949142456,-0.40171846747398376
2.8385188579559326,0.11998818069696426,-0.37757742404937744,0.5944387316703796,0.8473867774009705,-0.2370164394378662,-0.4028357267379761
2.8585927486419678,0.19951580464839935,-0.34977126121520996,0.7264974117279053,0.8505005836486816,-0.1683376133441925,-0.39868536591529846
2.878650426864624,0.2275550365447998,-0.33799993991851807,0.7764242887496948,0.8527048826217651,-0.13744550943374634,-0.3989563584327698
2.898843765258789,0.21193742752075195,-0.34721142053604126,0.7710733413696289,0.8847970366477966,-0.1644846796989441,-0.3998447358608246
2.9188647270202637,0.12902024388313293,-0.3560957908630371,0.7224264144897461,0.8712823390960693,-0.2313614785671234,-0.41252848505973816
2.938941717147827,0.014342236332595348,-0.37443119287490845,0.6173050999641418,0.8509976267814636,-0.3047243058681488,-0.42705240845680237
2.9590208530426025,-0.0464748777449131,-0.37959742546081543,0.5582860112190247,0.8452175259590149,-0.33698874711990356,-0.43142595887184143
2.979182481765747,0.09855016320943832,-0.3776893615722656,0.5283673405647278,0.8406672477722168,-0.2582835555076599,-0.4335675537586212
2.9992098808288574,0.08054035156965256,-0.3825990855693817,0.5199355483055115,0.8859342932701111,-0.23517543077468872,-0.43698906898498535
3.0193655490875244,0.09511085599660873,-0.3770614266395569,0.5843817591667175,0.8747011423110962,-0.1997075229883194,-0.44567224383354187
3.039405584335327,0.14806143939495087,-0.3676009774208069,0.6771628856658936,0.8890091180801392,-0.1311606913805008,-0.4495902359485626
3.059635639190674,0.1404011845588684,-0.36016416549682617,0.6987166404724121,0.8893668055534363,-0.1095736026763916,-0.4579440653324127
3.0798168182373047,0.12132009118795395,-0.36573582887649536,0.73679518699646,0.8995095491409302,-0.133305162191391,-0.46651092171669006
3.099916458129883,0.0858839601278305,-0.3637877106666565,0.714045524597168,0.9377992153167725,-0.17737101018428802,-0.46702516078948975
3.1202754974365234,0.011799286119639874,-0.3692522644996643,0.6072797775268555,0.9036986827850342,-0.21903018653392792,-0.4783664345741272
3.1403751373291016,-0.012575183995068073,-0.3747060000896454,0.5441861152648926,0.8878750801086426,-0.23295550048351288,-0.4833569824695587
3.1604526042938232,0.10979203879833221,-0.37209007143974304,0.4614761769771576,0.927474319934845,-0.19333219528198242,-0.4717908501625061
3.180807113647461,0.12205871939659119,-0.38899439573287964,0.5144124627113342,0.9397034049034119,-0.15449216961860657,-0.48188555240631104
3.200897455215454,0.14191465079784393,-0.38687530159950256,0.5492773652076721,0.9144781827926636,-0.10156278312206268,-0.4899003207683563
3.2209646701812744,0.18077056109905243,-0.37584561109542847,0.6922422051429749,0.9503673315048218,-0.016733303666114807,-0.4931226074695587
3.2413830757141113,0.19807256758213043,-0.37197208404541016,0.7812102437019348,0.9818782806396484,0.012391634285449982,-0.498553991317749
3.261474609375,0.1786104440689087,-0.37870338559150696,0.7732882499694824,0.9929584860801697,-0.009778320789337158,-0.5001747608184814
3.2816123962402344,0.10967592149972916,-0.3922496438026428,0.7507800459861755,1.0196001529693604,-0.11421240866184235,-0.5019843578338623
3.3016443252563477,0.04749443754553795,-0.38068801164627075,0.6641681790351868,0.9713523387908936,-0.13258221745491028,-0.5103744864463806
3.3217411041259766,0.004026043228805065,-0.3853941857814789,0.6086569428443909,0.9656554460525513,-0.15931300818920135,-0.5119978189468384
3.3418006896972656,0.04051698371767998,-0.38746100664138794,0.49555307626724243,0.9792612791061401,-0.15981370210647583,-0.5079620480537415
3.361868381500244,0.14191456139087677,-0.3982972502708435,0.5650978684425354,0.9830102324485779,-0.09810727089643478,-0.5111371278762817
3.38199520111084,0.16418014466762543,-0.39792710542678833,0.6311869621276855,1.0031288862228394,-0.0652875080704689,-0.5113949179649353
3.4020752906799316,0.1517251878976822,-0.3930879831314087,0.6727620959281921,0.9845564961433411,0.006149381399154663,-0.5219234228134155
3.4221127033233643,0.11436183005571365,-0.4043061137199402,0.6945502161979675,0.9951263666152954,0.006590336561203003,-0.532242476940155
3.4421989917755127,0.1161915734410286,-0.40880441665649414,0.7493845224380493,1.0282695293426514,-0.020587481558322906,-0.5344089865684509
3.462270975112915,0.06326673179864883,-0.40739762783050537,0.7179578542709351,1.0365393161773682,-0.0816139206290245,-0.5320024490356445
3.4823319911956787,0.01769004389643669,-0.3958287239074707,0.6232947111129761,1.0033763647079468,-0.1059316098690033,-0.5332226753234863
3.5024218559265137,0.005348662845790386,-0.4015622138977051,0.5873464941978455,0.9976977109909058,-0.11526545882225037,-0.5368224382400513
3.52250599861145,0.009992699138820171,-0.41173726320266724,0.5456386208534241,0.9980438947677612,-0.14921650290489197,-0.5373769402503967
3.5425920486450195,0.13205981254577637,-0.39400607347488403,0.6729713678359985,1.044527530670166,-0.0725104808807373,-0.532949686050415
3.5627336502075195,0.1170024573802948,-0.3967169523239136,0.6600775718688965,1.0075488090515137,-0.043890729546546936,-0.5364875793457031
3.5831000804901123,0.10123798996210098,-0.40201520919799805,0.7001562118530273,1.017727255821228,-0.00048451870679855347,-0.5447977185249329
3.6031322479248047,0.09392096847295761,-0.4084146022796631,0.7322919964790344,1.048365831375122,0.02070172131061554,-0.5498242378234863
3.6232306957244873,0.0921977087855339,-0.4119783639907837,0.7501869797706604,1.077771782875061,0.0002706274390220642,-0.5472642183303833
3.6433308124542236,0.058606911450624466,-0.40799933671951294,0.7225697040557861,1.072561502456665,-0.03124627098441124,-0.5469368100166321
3.6633951663970947,0.013343493454158306,-0.40762150287628174,0.6609115600585938,1.0483424663543701,-0.04535718262195587,-0.5516888499259949
3.683468818664551,-0.013948668725788593,-0.4118881821632385,0.6049641966819763,1.0322288274765015,-0.05833125859498978,-0.5541930198669434
3.703556537628174,-0.006425936706364155,-0.4198217988014221,0.5357440114021301,1.0630853176116943,-0.09267852455377579,-0.5490971803665161
3.7236409187316895,0.11773204058408737,-0.4088975191116333,0.5753694772720337,1.046623706817627,-0.00630631297826767,-0.547662615776062
3.744349241256714,0.07390112429857254,-0.42137837409973145,0.6477586030960083,1.0495439767837524,0.00920502096414566,-0.555446445941925
3.7644765377044678,0.06191767379641533,-0.41477149724960327,0.6823751926422119,1.0304361581802368,0.04035958647727966,-0.5631948113441467
3.784532308578491,0.04928536340594292,-0.42272377014160156,0.6808943748474121,1.044161319732666,0.04138517379760742,-0.5654678344726562
3.8046469688415527,0.02220040187239647,-0.4285343885421753,0.7362849712371826,1.1010982990264893,-0.0021608397364616394,-0.5635299682617188
3.8246819972991943,-0.0032679634168744087,-0.42062658071517944,0.6866142153739929,1.0873918533325195,-0.022591620683670044,-0.5634620189666748
3.844773292541504,-0.016923848539590836,-0.41812312602996826,0.6581265926361084,1.0758146047592163,-0.027984246611595154,-0.5638805031776428
3.8648343086242676,-0.05626862868666649,-0.42503196001052856,0.5832478404045105,1.0504257678985596,-0.04044656828045845,-0.5700919032096863
3.884888172149658,0.025941353291273117,-0.43493181467056274,0.4919983148574829,1.0937294960021973,-0.02839258313179016,-0.5572195649147034
3.9049668312072754,0.09408179670572281,-0.4255257248878479,0.6110671162605286,1.081519365310669,0.026576772332191467,-0.5590094923973083
3.925034761428833,0.06497923284769058,-0.4309975504875183,0.6437859535217285,1.0603965520858765,0.04357842355966568,-0.5630043745040894
3.94512677192688,0.050879862159490585,-0.42938458919525146,0.6872506141662598,1.07589852809906,0.10041682422161102,-0.5710443258285522
3.9651870727539062,0.03932390734553337,-0.4332834482192993,0.6854666471481323,1.0891999006271362,0.1114608645439148,-0.5727577805519104
3.9852826595306396,0.021158572286367416,-0.44149893522262573,0.7234376668930054,1.1307852268218994,0.03714919090270996,-0.5670899152755737
4.005485534667969,-0.04326412454247475,-0.4326742887496948,0.6674332022666931,1.0892889499664307,0.005491785705089569,-0.5721944570541382
4.025582551956177,-0.06783349812030792,-0.43751072883605957,0.62812739610672,1.083996295928955,-0.01605859398841858,-0.5732501149177551
4.04564905166626,0.0005115969106554985,-0.43557262420654297,0.48647356033325195,1.1118954420089722,0.03337957710027695,-0.5624011754989624
4.065712213516235,0.0892585963010788,-0.46438539028167725,0.6084661483764648,1.116849422454834,0.06475552916526794,-0.566484272480011
4.085820913314819,0.08391096442937851,-0.4647340178489685,0.5963802933692932,1.127800703048706,0.06956152617931366,-0.5620136260986328
4.10613489151001,0.07430445402860641,-0.44367605447769165,0.6647397875785828,1.1020026206970215,0.14354611933231354,-0.5706444978713989
4.126183032989502,0.0490107499063015,-0.4600760340690613,0.6997438073158264,1.129926085472107,0.15449023246765137,-0.5763640999794006
4.1463234424591064,0.06621197611093521,-0.46048104763031006,0.7752833962440491,1.1733973026275635,0.1241186112165451,-0.5727770924568176
4.1663665771484375,0.029641401022672653,-0.4536881446838379,0.7484140992164612,1.1498757600784302,0.07707566022872925,-0.5711174011230469
4.186420202255249,-0.03817884996533394,-0.45262712240219116,0.6836422085762024,1.1097437143325806,0.02852284163236618,-0.5751444101333618
4.206515312194824,-0.04448533430695534,-0.45047152042388916,0.6373640298843384,1.114434003829956,0.028017081320285797,-0.5727224349975586
4.226599216461182,-0.0548824705183506,-0.45963209867477417,0.5712501406669617,1.1023541688919067,0.034529127180576324,-0.5786468982696533
4.246655225753784,0.00046893488615751266,-0.45754116773605347,0.5361143350601196,1.1164417266845703,0.004962131381034851,-0.5650599002838135
4.266736030578613,0.048381876200437546,-0.45228898525238037,0.571921169757843,1.1171709299087524,0.07013259828090668,-0.566870927810669
4.286810636520386,0.022758226841688156,-0.46332770586013794,0.6936904191970825,1.1109362840652466,0.0788736492395401,-0.5746288299560547
4.306886911392212,0.022588666528463364,-0.4498629570007324,0.7216089963912964,1.1266181468963623,0.11000591516494751,-0.5748656988143921
4.32703971862793,0.0025084419175982475,-0.45695555210113525,0.7573257684707642,1.1697609424591064,0.07486110925674438,-0.570298433303833
4.347164630889893,-0.01677345111966133,-0.45162367820739746,0.7282229661941528,1.1516896486282349,0.06137928366661072,-0.5704030990600586
4.36721134185791,-0.07237739115953445,-0.4508216381072998,0.6848469376564026,1.1270291805267334,0.02423667162656784,-0.5732569694519043
4.3873162269592285,-0.1116451546549797,-0.4619503617286682,0.5576362609863281,1.1084160804748535,0.023814894258975983,-0.5768564343452454
4.40740704536438,-0.0938381776213646,-0.46793949604034424,0.49135592579841614,1.117916464805603,0.02930266410112381,-0.5742655992507935
4.4274749755859375,0.032154735177755356,-0.4766349792480469,0.5216678380966187,1.1442352533340454,0.1019563376903534,-0.5674287676811218
4.4475274085998535,0.03065330907702446,-0.4818204641342163,0.5882958173751831,1.1034940481185913,0.1306288093328476,-0.5721395015716553
4.467622518539429,0.033970799297094345,-0.4744521379470825,0.6836692690849304,1.1115161180496216,0.14701804518699646,-0.576964259147644
4.487766265869141,0.03873879835009575,-0.44787371158599854,0.7330210208892822,1.140106439590454,0.18593966960906982,-0.5702275037765503
4.5080320835113525,0.02248087152838707,-0.4532358646392822,0.8179812431335449,1.1940515041351318,0.1468958854675293,-0.5674047470092773
4.528136491775513,0.011372442357242107,-0.45248252153396606,0.7849922776222229,1.1901838779449463,0.12018169462680817,-0.5628278255462646
4.548189401626587,-0.06002039089798927,-0.4553075432777405,0.7052230834960938,1.1406806707382202,0.06341084837913513,-0.5690460205078125
4.568256855010986,-0.12595587968826294,-0.46267127990722656,0.5606216192245483,1.1053332090377808,0.03914545476436615,-0.5739923715591431
4.588349103927612,-0.08506745845079422,-0.4706866145133972,0.46601754426956177,1.133031964302063,0.05937552452087402,-0.5663368105888367
4.608441591262817,-0.008266960270702839,-0.4936644434928894,0.4888049066066742,1.1378209590911865,0.10388502478599548,-0.5716614723205566
4.628497362136841,0.08090995997190475,-0.48310285806655884,0.6235383152961731,1.1550133228302002,0.18343117833137512,-0.5672078728675842
4.6485960483551025,0.04465780779719353,-0.48407894372940063,0.660243034362793,1.125087022781372,0.188980370759964,-0.5754702091217041
4.668668746948242,0.054729726165533066,-0.4656141400337219,0.7140290141105652,1.1563429832458496,0.24297559261322021,-0.5731132626533508
4.688733100891113,0.05396704003214836,-0.47733789682388306,0.7809829115867615,1.2118006944656372,0.20267179608345032,-0.5696666240692139
4.708832740783691,0.017855878919363022,-0.48062974214553833,0.7887746095657349,1.1954593658447266,0.14432474970817566,-0.5719144344329834
4.728903770446777,-0.046734634786844254,-0.46931833028793335,0.7202945947647095,1.1531734466552734,0.07273140549659729,-0.5705328583717346
4.748962640762329,-0.09486610442399979,-0.46473079919815063,0.628278374671936,1.1284840106964111,0.057573094964027405,-0.5728996992111206
4.7690839767456055,-0.12202364951372147,-0.47742152214050293,0.5564410090446472,1.1182661056518555,0.050265803933143616,-0.5768349170684814
4.7891526222229,-0.0013702260330319405,-0.4800688624382019,0.4934251606464386,1.157163381576538,0.11537370085716248,-0.5648975372314453
4.8092200756073,0.034112464636564255,-0.49597275257110596,0.5834754705429077,1.1609842777252197,0.13932618498802185,-0.5689146518707275
4.829432725906372,0.03284698352217674,-0.4861389398574829,0.622318685054779,1.1308038234710693,0.17375028133392334,-0.573185384273529
4.849520921707153,-0.004849334247410297,-0.4822345972061157,0.7296616435050964,1.15111243724823,0.13948041200637817,-0.5754519104957581
4.869590759277344,0.006416807882487774,-0.4578895568847656,0.7873353958129883,1.181884765625,0.16054078936576843,-0.5692583322525024
4.889662027359009,-0.046873126178979874,-0.4561142921447754,0.7909138202667236,1.1838525533676147,0.07269397377967834,-0.5638428330421448
4.909838914871216,-0.06334760040044785,-0.4490653872489929,0.7600536346435547,1.1697275638580322,0.05641525983810425,-0.5620781183242798
4.929868459701538,-0.10245012491941452,-0.4500631093978882,0.6552344560623169,1.1323437690734863,0.059539467096328735,-0.5669896602630615
4.949948310852051,-0.1268620789051056,-0.4615987539291382,0.5748457908630371,1.1235029697418213,0.07127434015274048,-0.571537971496582
4.970017910003662,-0.016921360045671463,-0.4664471745491028,0.4645986557006836,1.163125991821289,0.1503029465675354,-0.5582562685012817
4.990084409713745,0.010456602089107037,-0.4996049404144287,0.5342293381690979,1.1558842658996582,0.14874950051307678,-0.5658210515975952
5.010346412658691,0.016596298664808273,-0.5012911558151245,0.6075117588043213,1.1442105770111084,0.14262661337852478,-0.5684443116188049
5.030446290969849,-0.019839543849229813,-0.4851125478744507,0.750256359577179,1.1366642713546753,0.121970534324646,-0.5756715536117554
5.050505638122559,0.0054348064586520195,-0.4441075921058655,0.7940706014633179,1.169129729270935,0.17903834581375122,-0.5648945569992065
5.07055926322937,-0.0021216021850705147,-0.4447552561759949,0.8271087408065796,1.2114113569259644,0.12643542885780334,-0.552709698677063
5.090755939483643,-0.031244192272424698,-0.4420021176338196,0.8108890056610107,1.1949812173843384,0.0954136997461319,-0.5535159111022949
5.110783338546753,-0.09674625843763351,-0.4532102346420288,0.6906938552856445,1.1445517539978027,0.0667468011379242,-0.5614989995956421
5.130829334259033,-0.17753271758556366,-0.474498987197876,0.5281962752342224,1.106433629989624,0.007547251880168915,-0.567212700843811
5.150957107543945,-0.12783093750476837,-0.47551190853118896,0.4679297208786011,1.135420322418213,0.02676376700401306,-0.5582589507102966
5.171030759811401,-0.05654669180512428,-0.48386144638061523,0.4737926125526428,1.14837646484375,0.07358580827713013,-0.5569614171981812
5.191164016723633,0.04303942248225212,-0.4818918704986572,0.557047963142395,1.1697083711624146,0.18764710426330566,-0.557418704032898
5.2112226486206055,0.055893149226903915,-0.4785912036895752,0.5717701315879822,1.1564679145812988,0.24875900149345398,-0.5603293180465698
5.23128080368042,0.05751296505331993,-0.48833566904067993,0.7298208475112915,1.1782550811767578,0.24441349506378174,-0.5659403204917908
5.251371383666992,0.04738174006342888,-0.48021000623703003,0.7499160170555115,1.1946111917495728,0.26104235649108887,-0.5662261247634888
5.271904706954956,0.047964464873075485,-0.4933052659034729,0.7788713574409485,1.2306199073791504,0.21724161505699158,-0.5617289543151855
5.29199481010437,-0.0010452019050717354,-0.48718494176864624,0.7532594203948975,1.1961311101913452,0.1516989767551422,-0.5647855997085571
5.312066555023193,-0.07953725010156631,-0.4886130094528198,0.6692792177200317,1.1558592319488525,0.08891758322715759,-0.5696876049041748
5.332889795303345,-0.13216738402843475,-0.4918116331100464,0.5587522983551025,1.1324560642242432,0.06017458438873291,-0.5734326839447021
5.352989435195923,-0.02002694085240364,-0.48152339458465576,0.49575120210647583,1.1830002069473267,0.15007413923740387,-0.5571576952934265
5.373063325881958,-0.012917985208332539,-0.515903115272522,0.5739165544509888,1.1675539016723633,0.11365118622779846,-0.5667366981506348
5.393160104751587,-0.039771560579538345,-0.5063074231147766,0.6620336771011353,1.1348447799682617,0.09123536944389343,-0.5699452757835388
5.4132399559021,-0.06815347820520401,-0.479533851146698,0.7289585471153259,1.1241036653518677,0.1048843264579773,-0.5765697956085205
5.433322906494141,-0.03987552598118782,-0.4735702872276306,0.7319152355194092,1.1812278032302856,0.1785285770893097,-0.5689083337783813
5.4534912109375,-0.05745573714375496,-0.46858906745910645,0.7058970928192139,1.1994978189468384,0.10399480164051056,-0.558840274810791
5.473583698272705,-0.10015802830457687,-0.4708781838417053,0.718192994594574,1.1731817722320557,0.06222708523273468,-0.5671586990356445
5.4936676025390625,-0.15296445786952972,-0.4778382182121277,0.5609450936317444,1.141005277633667,0.05399763584136963,-0.5695222616195679
5.513718128204346,-0.07294967025518417,-0.48693156242370605,0.4603201746940613,1.1493213176727295,0.11606109142303467,-0.5634734034538269
5.53380823135376,-0.08606094866991043,-0.5071901082992554,0.4786888360977173,1.1427711248397827,0.08543874323368073,-0.568010687828064
5.553889751434326,-0.01849997416138649,-0.5029924511909485,0.5051328539848328,1.1504089832305908,0.157492995262146,-0.5650227665901184
5.573949098587036,0.0681304857134819,-0.4850642681121826,0.6281218528747559,1.1632306575775146,0.28359144926071167,-0.5633323192596436
5.594042778015137,0.021271925419569016,-0.5053636431694031,0.7485696077346802,1.1675913333892822,0.2151443064212799,-0.5721091032028198
5.614117860794067,0.049768637865781784,-0.46405428647994995,0.8025306463241577,1.182042121887207,0.24549263715744019,-0.5621449947357178
5.634195566177368,0.0549655519425869,-0.46594083309173584,0.8545109033584595,1.2488231658935547,0.22377407550811768,-0.551232099533081
5.654318809509277,0.008743028156459332,-0.4688924551010132,0.8309541344642639,1.2224658727645874,0.17085349559783936,-0.555248498916626
5.674365282058716,-0.05485517159104347,-0.47181063890457153,0.722321093082428,1.1715173721313477,0.11759878695011139,-0.5598382353782654
5.694443702697754,-0.15087775886058807,-0.49171650409698486,0.585441529750824,1.130996823310852,0.050082504749298096,-0.5687069296836853
5.714524745941162,-0.15944361686706543,-0.4951154589653015,0.49911603331565857,1.1271809339523315,0.050511687994003296,-0.5683274865150452
5.734598636627197,-0.10382019728422165,-0.5066362023353577,0.5141709446907043,1.146195650100708,0.049503475427627563,-0.5638498067855835
5.7546234130859375,-0.010906477458775043,-0.4895382523536682,0.5384709239006042,1.159638524055481,0.14472126960754395,-0.5586607456207275
5.774809122085571,0.02347823604941368,-0.48990821838378906,0.5916694402694702,1.1663827896118164,0.19217312335968018,-0.5593056678771973
5.794823884963989,-0.022549573332071304,-0.4958726763725281,0.7164894938468933,1.1519309282302856,0.18548503518104553,-0.5720174312591553
5.8148720264434814,-0.003235285170376301,-0.47130727767944336,0.7567411661148071,1.1785606145858765,0.21813562512397766,-0.5658239126205444
5.834980010986328,-0.025073904544115067,-0.48114633560180664,0.7619852423667908,1.1938730478286743,0.18073207139968872,-0.5642033219337463
5.855055809020996,-0.09074292331933975,-0.4817429780960083,0.7357667088508606,1.1699581146240234,0.09350472688674927,-0.5652419328689575
5.875130653381348,-0.14431127905845642,-0.4821855425834656,0.6228371262550354,1.1401920318603516,0.08213329315185547,-0.5688143968582153
5.895199537277222,-0.1635526567697525,-0.4893037676811218,0.5614407658576965,1.1374167203903198,0.0679255872964859,-0.5703026056289673
5.915310382843018,-0.08860251307487488,-0.5065029263496399,0.484292209148407,1.1545484066009521,0.0954277515411377,-0.5628148317337036
5.935356378555298,-0.023756761103868484,-0.5018463134765625,0.48649317026138306,1.156273365020752,0.13423851132392883,-0.5581021308898926
5.955644369125366,0.04796015843749046,-0.48867499828338623,0.5775075554847717,1.1601821184158325,0.25411489605903625,-0.5583555698394775
5.975733280181885,0.06750669330358505,-0.4924338459968567,0.6887449622154236,1.1760742664337158,0.2754054367542267,-0.5620921850204468
5.995814561843872,0.08466523140668869,-0.48390400409698486,0.7569237947463989,1.2079253196716309,0.2931786775588989,-0.5571194291114807
6.015866994857788,0.06229567155241966,-0.4867090582847595,0.7860104441642761,1.2301276922225952,0.2616977095603943,-0.5562096238136292
6.035968780517578,0.0378611795604229,-0.4925655126571655,0.81171053647995,1.236900806427002,0.20805203914642334,-0.5566880702972412
6.056032419204712,-0.013001267798244953,-0.4844679832458496,0.7756462097167969,1.2012944221496582,0.1457209587097168,-0.5585135221481323
6.076178789138794,-0.1034553274512291,-0.49343061447143555,0.6660698652267456,1.1549290418624878,0.08118858933448792,-0.5652651786804199
6.096208572387695,-0.14507846534252167,-0.49802154302597046,0.6020259857177734,1.1389199495315552,0.05126814544200897,-0.5677305459976196
6.116289138793945,-0.09713578969240189,-0.5138449668884277,0.5024892091751099,1.160334587097168,0.07534882426261902,-0.5639596581459045
6.136366844177246,-0.039502669125795364,-0.517584502696991,0.5075842142105103,1.1705728769302368,0.09130588173866272,-0.5582194924354553
6.156450033187866,0.006817500106990337,-0.4933137893676758,0.5477805137634277,1.1473881006240845,0.18742960691452026,-0.5592952370643616
6.176539421081543,0.020027142018079758,-0.4951595664024353,0.6657208204269409,1.1623684167861938,0.20918291807174683,-0.5648245811462402
6.196613311767578,-0.00563021469861269,-0.4873684048652649,0.7574272155761719,1.1734485626220703,0.187924325466156,-0.564645528793335
6.2166900634765625,-0.02211124077439308,-0.47508758306503296,0.7915744185447693,1.2051317691802979,0.16054774820804596,-0.5582523941993713
6.236809492111206,-0.04718433693051338,-0.4731544256210327,0.7930480241775513,1.1999403238296509,0.12159165740013123,-0.5567539930343628
6.256860733032227,-0.08579839020967484,-0.46145445108413696,0.7361202836036682,1.1719849109649658,0.08417925238609314,-0.5541967153549194
6.276914358139038,-0.1686716079711914,-0.4783846139907837,0.5760878920555115,1.1294608116149902,0.06294301152229309,-0.5644816756248474
6.297001123428345,-0.13560165464878082,-0.4838041663169861,0.5196343064308167,1.14607834815979,0.09113168716430664,-0.5612632632255554
6.317080497741699,-0.09453292936086655,-0.49947094917297363,0.4750296473503113,1.1465654373168945,0.10594528913497925,-0.5603224039077759
6.3371288776397705,-0.06725548952817917,-0.5136067271232605,0.4929504990577698,1.1489871740341187,0.10880252718925476,-0.5611498355865479
6.357224225997925,-0.004833255894482136,-0.489899218082428,0.5008573532104492,1.1446239948272705,0.200911283493042,-0.5570783019065857
6.377292633056641,0.07010253518819809,-0.48909759521484375,0.6904187202453613,1.1850051879882812,0.29550695419311523,-0.5578348636627197
6.397359848022461,0.060661014169454575,-0.48892742395401,0.7433521151542664,1.2029058933258057,0.2835772931575775,-0.5580301284790039
6.417434930801392,0.049635808914899826,-0.4818013906478882,0.766666829586029,1.2053108215332031,0.28247904777526855,-0.5596700310707092
6.4375,0.02445913478732109,-0.4973338842391968,0.7889564037322998,1.2344682216644287,0.20610752701759338,-0.5570189952850342
6.457555770874023,-0.02674258127808571,-0.48781895637512207,0.7498137950897217,1.1948528289794922,0.1504625678062439,-0.5609220266342163
6.4776458740234375,-0.0639532282948494,-0.4876013398170471,0.7062171697616577,1.1691172122955322,0.1262427717447281,-0.5642668008804321
6.49774956703186,-0.17929384112358093,-0.5074986815452576,0.5554567575454712,1.133371353149414,0.02852696180343628,-0.5698060393333435
6.517822265625,-0.09830007702112198,-0.5036734342575073,0.5164306163787842,1.1497219800949097,0.06766322255134583,-0.5627403259277344
6.5388123989105225,-0.045165594667196274,-0.4997328519821167,0.5221628546714783,1.1628873348236084,0.10080447793006897,-0.5567370653152466
6.558907747268677,-0.025879595428705215,-0.49867022037506104,0.5564175248146057,1.1551859378814697,0.13589701056480408,-0.5603296160697937
6.578993320465088,0.007277722470462322,-0.49259573221206665,0.6818253993988037,1.1602228879928589,0.20047998428344727,-0.5635495185852051
6.599056959152222,-0.02608254924416542,-0.4820019006729126,0.722258985042572,1.178340196609497,0.19145643711090088,-0.5622564554214478
6.61922287940979,-0.03695421293377876,-0.4745505452156067,0.7502734065055847,1.1701691150665283,0.1885124146938324,-0.5663743019104004
6.6392436027526855,-0.05287942662835121,-0.47584080696105957,0.7554243803024292,1.2019582986831665,0.11899599432945251,-0.5558099150657654
6.659303903579712,-0.13156932592391968,-0.4756545424461365,0.6778494715690613,1.1577346324920654,0.06260077655315399,-0.5622613430023193
6.679632902145386,-0.13733774423599243,-0.4731956720352173,0.6148986220359802,1.147182583808899,0.07545007765293121,-0.5624300837516785
6.699719190597534,-0.09802130609750748,-0.49968385696411133,0.4753093719482422,1.1580851078033447,0.11387969553470612,-0.560811460018158
6.719799041748047,-0.05896039679646492,-0.5120950937271118,0.4631294012069702,1.1510775089263916,0.13406246900558472,-0.5616971254348755
6.739884853363037,0.010100151412189007,-0.4953106641769409,0.5090058445930481,1.1490983963012695,0.2325197458267212,-0.5598461627960205
6.760035037994385,0.03517090901732445,-0.4975748062133789,0.6247698068618774,1.1620440483093262,0.26151835918426514,-0.5645970702171326
6.780029535293579,0.037286367267370224,-0.49953073263168335,0.7420713901519775,1.18711256980896,0.2576722800731659,-0.5639836192131042
6.800288200378418,0.0606851689517498,-0.46748387813568115,0.7891623973846436,1.2071231603622437,0.30491727590560913,-0.5570926666259766
6.820363283157349,0.06462516635656357,-0.48411089181900024,0.8360461592674255,1.2584879398345947,0.2551620602607727,-0.5518085956573486
6.840461492538452,-0.010725726373493671,-0.48279333114624023,0.7918709516525269,1.215875267982483,0.147431418299675,-0.555679202079773
6.860509634017944,-0.10239393264055252,-0.48965132236480713,0.6895903944969177,1.1622467041015625,0.06950818002223969,-0.5618011951446533
6.880601406097412,-0.13600575923919678,-0.49015939235687256,0.6174895167350769,1.1435582637786865,0.050175756216049194,-0.5637297630310059
6.9006640911102295,-0.09184380620718002,-0.5035942792892456,0.48843419551849365,1.1647489070892334,0.09440433979034424,-0.559075117111206
6.920727491378784,-0.02169061079621315,-0.5041207075119019,0.5146129727363586,1.1683233976364136,0.1460409164428711,-0.5579260587692261
6.940823078155518,0.02025708183646202,-0.4993988275527954,0.595967710018158,1.1756058931350708,0.18791913986206055,-0.5590678453445435
6.960934400558472,-0.046204183250665665,-0.5063828229904175,0.6744571924209595,1.1393784284591675,0.17428550124168396,-0.5732433795928955
6.9810566902160645,-0.032627690583467484,-0.47916609048843384,0.679745078086853,1.1825283765792847,0.20233890414237976,-0.5629590153694153
7.001075744628906,-0.06112116947770119,-0.48754072189331055,0.686104416847229,1.1776432991027832,0.18161088228225708,-0.570658802986145
7.021151781082153,-0.08811109513044357,-0.48898106813430786,0.6847079992294312,1.2036329507827759,0.08707654476165771,-0.560667872428894
7.041213750839233,-0.11180109530687332,-0.4836403727531433,0.5408356785774231,1.1571177244186401,0.10040321946144104,-0.5634474754333496
7.061277866363525,-0.11207064241170883,-0.4960111975669861,0.49266594648361206,1.1443837881088257,0.10833807289600372,-0.5660908818244934
7.081366062164307,-0.070104219019413,-0.49734580516815186,0.4552688002586365,1.1343774795532227,0.12973552942276,-0.5611180067062378
7.101445913314819,-0.03477318957448006,-0.4893788695335388,0.4582798182964325,1.123220443725586,0.19198787212371826,-0.5598015785217285
7.121695280075073,0.04075874015688896,-0.4920485019683838,0.5777832269668579,1.1604340076446533,0.29400208592414856,-0.5598694086074829
7.141769886016846,0.05388876423239708,-0.5059878826141357,0.7407127618789673,1.1897201538085938,0.2599948048591614,-0.5641255378723145
7.161879539489746,0.08071426302194595,-0.47000348567962646,0.7979468107223511,1.2003428936004639,0.27801910042762756,-0.5524865388870239
7.181938648223877,0.07756955176591873,-0.46944117546081543,0.8378516435623169,1.2382049560546875,0.2751254141330719,-0.5488699078559875
7.202099800109863,0.0551941953599453,-0.47520536184310913,0.8366299271583557,1.2468279600143433,0.2328816056251526,-0.5480284690856934
7.222110986709595,-0.005946074612438679,-0.4798322916030884,0.7713564038276672,1.202028512954712,0.16411246359348297,-0.5550087690353394
7.242181062698364,-0.11768466979265213,-0.5020849108695984,0.6218621134757996,1.1431941986083984,0.07966594398021698,-0.5664986968040466
7.262325286865234,-0.1401066929101944,-0.5051237940788269,0.5576289892196655,1.1398975849151611,0.05666135251522064,-0.5662050247192383
7.2823615074157715,-0.07364415377378464,-0.509030818939209,0.5029081702232361,1.1512486934661865,0.08532682061195374,-0.5601307153701782
7.302414417266846,-0.03147544339299202,-0.5080747604370117,0.5420415997505188,1.1621439456939697,0.11120584607124329,-0.5571346879005432
7.322511672973633,0.02921932563185692,-0.4929923415184021,0.5969613790512085,1.1777925491333008,0.17962664365768433,-0.5533568859100342
7.342582941055298,0.01590101048350334,-0.4990242123603821,0.6845147013664246,1.179609775543213,0.2202596366405487,-0.5618888139724731
7.362696409225464,-0.0006944732740521431,-0.4827457070350647,0.7315021753311157,1.1859992742538452,0.2181849181652069,-0.5613245964050293
7.382759094238281,-0.0367341972887516,-0.48443877696990967,0.7797730565071106,1.204841136932373,0.13715201616287231,-0.5575630068778992
7.402938365936279,-0.0610063411295414,-0.47670865058898926,0.7523672580718994,1.1862008571624756,0.11675116419792175,-0.5578441619873047
7.422968864440918,-0.15246760845184326,-0.48503798246383667,0.6373047232627869,1.1430680751800537,0.053764015436172485,-0.5636166334152222
7.443049192428589,-0.14210855960845947,-0.48829710483551025,0.5054542422294617,1.1461060047149658,0.07458065450191498,-0.5612683296203613
7.463147878646851,-0.13930778205394745,-0.500185489654541,0.4922870993614197,1.144066572189331,0.06401993334293365,-0.5622946619987488
7.483262300491333,-0.10003450512886047,-0.5009070634841919,0.47452473640441895,1.1434693336486816,0.06196072697639465,-0.5554123520851135
7.503327131271362,-0.02877180650830269,-0.48703765869140625,0.5074405074119568,1.1482977867126465,0.1500810980796814,-0.5538153648376465
7.5234293937683105,0.0019202632829546928,-0.49100714921951294,0.5556343793869019,1.1638715267181396,0.19984495639801025,-0.5570438504219055
7.5434792041778564,0.026836734265089035,-0.4922899603843689,0.7675328254699707,1.1818900108337402,0.20943403244018555,-0.5599356293678284
7.563575983047485,0.016626562923192978,-0.4686368703842163,0.7802407741546631,1.1822659969329834,0.22710570693016052,-0.5564745664596558
7.584050178527832,0.028316285461187363,-0.4576154351234436,0.8036614656448364,1.2099014520645142,0.24495768547058105,-0.5514141321182251
7.604105234146118,-0.047003526240587234,-0.47639286518096924,0.7850162386894226,1.1992017030715942,0.13461977243423462,-0.5543466806411743
7.624189615249634,-0.11755403131246567,-0.475644052028656,0.6792545318603516,1.1474905014038086,0.09769590198993683,-0.5624681711196899
7.6442484855651855,-0.16492216289043427,-0.48693156242370605,0.6017968654632568,1.1311441659927368,0.06291308999061584,-0.5653329491615295
7.664337873458862,-0.13417810201644897,-0.4968433380126953,0.48951971530914307,1.1460051536560059,0.061955034732818604,-0.5581977367401123
7.684408903121948,-0.0781782940030098,-0.4986380338668823,0.49837514758110046,1.1606345176696777,0.06686043739318848,-0.5512705445289612
7.704625844955444,-0.03537460044026375,-0.4939672350883484,0.5171987414360046,1.1441824436187744,0.15695880353450775,-0.5574690699577332
7.724731683731079,0.019691552966833115,-0.4843282103538513,0.5718023777008057,1.161815881729126,0.2304738163948059,-0.5546025037765503
7.744825839996338,0.003848548047244549,-0.49821823835372925,0.7187027931213379,1.1735962629318237,0.20538809895515442,-0.5620239973068237
7.764879465103149,0.006492639891803265,-0.47097593545913696,0.7463947534561157,1.1892290115356445,0.23194023966789246,-0.55804842710495
7.784972906112671,-0.021339837461709976,-0.480618953704834,0.8070955872535706,1.2098875045776367,0.16772451996803284,-0.559013843536377
7.8050501346588135,-0.056424934417009354,-0.470292866230011,0.7706716060638428,1.1900577545166016,0.10436490178108215,-0.5543688535690308
7.825105667114258,-0.11622292548418045,-0.4709435701370239,0.6530924439430237,1.158505916595459,0.07484403252601624,-0.5560111999511719
7.845194578170776,-0.15501971542835236,-0.4795421361923218,0.5754492282867432,1.1353466510772705,0.0729748010635376,-0.5639411211013794
7.865274429321289,-0.09196058660745621,-0.50163733959198,0.4705621004104614,1.1551363468170166,0.1062692254781723,-0.5590099096298218
7.8853254318237305,-0.04638316109776497,-0.5092992186546326,0.45432138442993164,1.1530001163482666,0.14387966692447662,-0.5592752695083618
7.905409812927246,-0.02033378556370735,-0.504098653793335,0.4709286689758301,1.1484405994415283,0.18934768438339233,-0.5598184466362
7.925476789474487,0.0532773993909359,-0.5003328323364258,0.5977634787559509,1.1832141876220703,0.282495379447937,-0.5601425766944885
7.945549726486206,0.07210526615381241,-0.5022600889205933,0.7476267218589783,1.2086446285247803,0.26340606808662415,-0.557934045791626
7.965625047683716,0.07825586944818497,-0.4935773015022278,0.7407575845718384,1.215100884437561,0.27872776985168457,-0.5559446811676025
7.98570990562439,0.08390695601701736,-0.49046528339385986,0.8106508851051331,1.2536894083023071,0.2629634737968445,-0.5517657995223999
8.00578761100769,0.021605979651212692,-0.4911928176879883,0.7776928544044495,1.2261704206466675,0.17390602827072144,-0.5540310740470886
8.026023864746094,-0.06887324899435043,-0.49995601177215576,0.6887938976287842,1.1701462268829346,0.10436373949050903,-0.5639253854751587
8.046183586120605,-0.12233459204435349,-0.5042940974235535,0.629482090473175,1.1490377187728882,0.06154933571815491,-0.5664964914321899
8.066290855407715,-0.10976705700159073,-0.509617805480957,0.5020226240158081,1.1651455163955688,0.0684821754693985,-0.5599130392074585
8.086336851119995,-0.08814723789691925,-0.5149106979370117,0.508873701095581,1.15301513671875,0.06519481539726257,-0.559623658657074
8.106420278549194,-0.046924713999032974,-0.5030134320259094,0.5551353693008423,1.1619559526443481,0.10116356611251831,-0.558431088924408
8.12649416923523,-0.00448522437363863,-0.49331825971603394,0.6063550710678101,1.1537539958953857,0.19379395246505737,-0.5616482496261597
8.146549940109253,0.0018760068342089653,-0.48036491870880127,0.7624387145042419,1.1713263988494873,0.21996289491653442,-0.5656245946884155
8.16664457321167,-0.011562679894268513,-0.4843866229057312,0.7392017841339111,1.1806714534759521,0.20676717162132263,-0.5609250068664551
8.18672227859497,-0.005033050663769245,-0.46575260162353516,0.8187271952629089,1.222127079963684,0.18484613299369812,-0.5550192594528198
8.206774711608887,-0.0902831181883812,-0.46436452865600586,0.7499858140945435,1.1686252355575562,0.09163565933704376,-0.5575589537620544
8.226867198944092,-0.12305404990911484,-0.4651034474372864,0.7000889182090759,1.1582660675048828,0.07758836448192596,-0.5595113635063171
8.246937036514282,-0.17908918857574463,-0.48450690507888794,0.5540869235992432,1.1392886638641357,0.050748810172080994,-0.5631584525108337
8.267008066177368,-0.159623920917511,-0.5078662037849426,0.4689754247665405,1.1334534883499146,0.04690806567668915,-0.563989520072937
8.2871732711792,-0.04409937933087349,-0.4953609108924866,0.5018709897994995,1.160391092300415,0.1296975314617157,-0.5578062534332275
8.307259559631348,-0.03962891176342964,-0.494747519493103,0.47132033109664917,1.1364063024520874,0.17212681472301483,-0.5603986978530884
8.327336311340332,0.06478530913591385,-0.48738008737564087,0.6248340606689453,1.1813232898712158,0.288991779088974,-0.5568897724151611
8.34767198562622,0.021284442394971848,-0.4997408390045166,0.7501490712165833,1.187807321548462,0.2118406593799591,-0.5625846982002258
8.367766857147217,0.04788289591670036,-0.47643494606018066,0.76007479429245,1.198432445526123,0.24750202894210815,-0.557500422000885
8.387838363647461,0.04180124029517174,-0.4764120578765869,0.8151997327804565,1.2451131343841553,0.20554015040397644,-0.5497116446495056
8.407967567443848,-0.0284399576485157,-0.4680904746055603,0.7780344486236572,1.2043672800064087,0.12406645715236664,-0.5517102479934692
8.42809009552002,-0.04836474731564522,-0.4639536142349243,0.7104731202125549,1.1761705875396729,0.13359037041664124,-0.5547055006027222
8.448154211044312,-0.15044854581356049,-0.48786085844039917,0.5892450213432312,1.1386555433273315,0.059892818331718445,-0.564456582069397
8.468230724334717,-0.0777704268693924,-0.4859125018119812,0.4518582224845886,1.1658155918121338,0.11906525492668152,-0.5516290664672852
8.488298416137695,-0.023948032408952713,-0.5023928880691528,0.4695934057235718,1.1673043966293335,0.15772780776023865,-0.557590901851654
8.508354663848877,0.05137838050723076,-0.5067853927612305,0.5779468417167664,1.191210389137268,0.23594483733177185,-0.5591878890991211
8.528638362884521,0.05984121188521385,-0.5026757121086121,0.6822147369384766,1.1868324279785156,0.28027307987213135,-0.5654502511024475
8.548785209655762,0.05602000281214714,-0.5000104308128357,0.7282716035842896,1.2000930309295654,0.27856725454330444,-0.5657498836517334
8.568844079971313,0.035276126116514206,-0.4966548681259155,0.7525631189346313,1.2063343524932861,0.2613113820552826,-0.5673360824584961
8.588909149169922,0.0010222597047686577,-0.5019434690475464,0.7932106852531433,1.2205793857574463,0.1607738584280014,-0.5628081560134888
8.608996868133545,-0.01677766814827919,-0.4918731451034546,0.7378775477409363,1.200791835784912,0.1459687203168869,-0.5602003931999207
8.629090070724487,-0.10738042742013931,-0.48828065395355225,0.6771438121795654,1.158068060874939,0.07347357273101807,-0.565555214881897
8.649137735366821,-0.09695360064506531,-0.48794907331466675,0.5096502304077148,1.1652989387512207,0.10061095654964447,-0.5587878227233887
8.66922402381897,-0.08275295048952103,-0.5059704780578613,0.4932894706726074,1.1717294454574585,0.09596660733222961,-0.5601679086685181
8.689297676086426,-0.059803325682878494,-0.5128703713417053,0.48135867714881897,1.1561487913131714,0.10924166440963745,-0.5618330836296082
8.709374904632568,0.006783212535083294,-0.49157994985580444,0.5343981385231018,1.1547527313232422,0.20518481731414795,-0.5601143836975098
8.729453325271606,0.024021219462156296,-0.4932565689086914,0.5817683339118958,1.1592754125595093,0.25216320157051086,-0.5638521909713745
8.74952483177185,0.03484879061579704,-0.4937453269958496,0.7531973719596863,1.1833269596099854,0.2561434805393219,-0.5653454661369324
8.769605875015259,0.04105493053793907,-0.4884984493255615,0.745963990688324,1.198760747909546,0.2628249526023865,-0.5614821314811707
8.789659976959229,-0.006766443140804768,-0.4972095489501953,0.8056209087371826,1.2213575839996338,0.1621638536453247,-0.5620781779289246
8.809736490249634,-0.042711276561021805,-0.48826199769973755,0.7828726172447205,1.1996324062347412,0.11536775529384613,-0.5603384375572205
8.829821109771729,-0.11171675473451614,-0.48072493076324463,0.7044644951820374,1.1585333347320557,0.06429138779640198,-0.5630683302879333
8.8498854637146,-0.14208771288394928,-0.4831048250198364,0.5350123643875122,1.1399714946746826,0.07526075839996338,-0.5639254450798035
8.869989156723022,-0.1306200474500656,-0.49425262212753296,0.5062904357910156,1.1433706283569336,0.08435443043708801,-0.5655733346939087
8.890071392059326,-0.09548378735780716,-0.5070993304252625,0.4857117533683777,1.1445295810699463,0.08502267301082611,-0.5625214576721191
8.910160303115845,-0.021713990718126297,-0.4916830062866211,0.4948424696922302,1.1412948369979858,0.18660253286361694,-0.5600205063819885
8.93053126335144,0.002417321316897869,-0.49568796157836914,0.5862371325492859,1.1561040878295898,0.21905648708343506,-0.5639476776123047
8.950586557388306,-0.03133203461766243,-0.5034975409507751,0.7576206922531128,1.161336898803711,0.17980146408081055,-0.5732128620147705
8.970634937286377,-0.0057340459898114204,-0.4629283547401428,0.7640933990478516,1.1839861869812012,0.21822094917297363,-0.5594430565834045
8.991073846817017,-0.020534519106149673,-0.4683431386947632,0.787749707698822,1.2252929210662842,0.1520654559135437,-0.5511482954025269
9.011141538619995,-0.06463552266359329,-0.4636521339416504,0.7901033759117126,1.1887013912200928,0.11156076192855835,-0.5581175088882446
9.031222105026245,-0.12153201550245285,-0.46592259407043457,0.6664756536483765,1.150812029838562,0.09267112612724304,-0.5605825781822205
9.05153751373291,-0.1362341195344925,-0.4822124242782593,0.46318405866622925,1.142980694770813,0.09076757729053497,-0.5574480295181274
9.071610689163208,-0.1408793032169342,-0.5008059144020081,0.47003602981567383,1.141985297203064,0.06565859913825989,-0.5628764629364014
9.091688632965088,-0.0492914654314518,-0.5054381489753723,0.4824412167072296,1.1708416938781738,0.11676967144012451,-0.55729740858078
9.111746311187744,0.01676168665289879,-0.4925009608268738,0.5113291144371033,1.15607750415802,0.238969624042511,-0.5604414939880371
9.131832361221313,0.06965882331132889,-0.48810529708862305,0.6119126677513123,1.1785919666290283,0.3010919392108917,-0.5584259033203125
9.15190601348877,0.06919359415769577,-0.49420708417892456,0.7299585342407227,1.196653127670288,0.28977158665657043,-0.5607260465621948
9.171962976455688,0.06013999506831169,-0.47943687438964844,0.7691265940666199,1.2129013538360596,0.30238065123558044,-0.5605152249336243
9.192039966583252,0.0528627447783947,-0.4979100227355957,0.8242186307907104,1.2537592649459839,0.2325778305530548,-0.5570131540298462
9.212119817733765,0.025389906018972397,-0.48240989446640015,0.7880234122276306,1.2318544387817383,0.1774950921535492,-0.5538745522499084
9.232249975204468,-0.0736120417714119,-0.4894791841506958,0.6957588195800781,1.1712647676467896,0.10265403985977173,-0.5638612508773804
9.25233769416809,-0.12048421055078506,-0.49211496114730835,0.6178894639015198,1.1446846723556519,0.08988037705421448,-0.5695945620536804
9.272375345230103,-0.07944201678037643,-0.5030699372291565,0.4486229121685028,1.1834110021591187,0.10305848717689514,-0.5564741492271423
9.292570352554321,-0.01752224937081337,-0.5141079425811768,0.49722933769226074,1.1819781064987183,0.13963288068771362,-0.560012698173523
9.312658548355103,0.002830709330737591,-0.5091113448143005,0.5836843848228455,1.1783709526062012,0.16401970386505127,-0.5645701289176941
9.332727670669556,-0.01640653982758522,-0.5007574558258057,0.7124695777893066,1.1564562320709229,0.18225127458572388,-0.5757099390029907
9.353356838226318,-0.033418599516153336,-0.47359025478363037,0.7575868368148804,1.1728911399841309,0.17236189544200897,-0.5660409331321716
9.373440980911255,-0.05824701860547066,-0.4689115285873413,0.7935827970504761,1.184411644935608,0.1422145664691925,-0.5659240484237671
9.393535137176514,-0.07237527519464493,-0.4603283405303955,0.7862363457679749,1.1943378448486328,0.09474273025989532,-0.5572122931480408
9.413856267929077,-0.09272501617670059,-0.4552674889564514,0.6943064332008362,1.1671674251556396,0.10075637698173523,-0.5566636323928833
9.433943748474121,-0.14324498176574707,-0.4690026044845581,0.6556856036186218,1.1431901454925537,0.07155945897102356,-0.5662128329277039
9.454026222229004,-0.1677679717540741,-0.48830199241638184,0.44008493423461914,1.132332444190979,0.061096638441085815,-0.561581015586853
9.474084854125977,-0.14305661618709564,-0.5032423734664917,0.44022345542907715,1.1252437829971313,0.05327971279621124,-0.5630362033843994
9.494171619415283,-0.06877121329307556,-0.4946292042732239,0.4725022315979004,1.1561388969421387,0.10358351469039917,-0.5573363304138184
9.514303207397461,0.001060272566974163,-0.48501741886138916,0.5155065655708313,1.1590113639831543,0.20954573154449463,-0.5578979849815369
9.534324407577515,0.028831999748945236,-0.5003058910369873,0.6867452263832092,1.1773831844329834,0.2464316189289093,-0.5668396949768066
9.555411577224731,0.035462718456983566,-0.48720598220825195,0.7616076469421387,1.1950161457061768,0.23754703998565674,-0.5621629357337952
9.575500249862671,0.038557153195142746,-0.47294479608535767,0.7655428051948547,1.2023861408233643,0.25662919878959656,-0.559796154499054
9.59557819366455,0.0026419563218951225,-0.4865732192993164,0.7991710901260376,1.234743356704712,0.17813533544540405,-0.5575854182243347
9.615641832351685,-0.04548371210694313,-0.470131516456604,0.7364463210105896,1.181085228919983,0.13272157311439514,-0.559494137763977
9.635726690292358,-0.09095849841833115,-0.4772481322288513,0.6937361359596252,1.1620686054229736,0.10676753520965576,-0.565010130405426
9.655801057815552,-0.13815809786319733,-0.48726922273635864,0.5761840343475342,1.1457207202911377,0.08479917049407959,-0.5679473876953125
9.67586374282837,-0.048153337091207504,-0.5057224631309509,0.4838821589946747,1.1697452068328857,0.1358405202627182,-0.5603873133659363
9.695984840393066,-0.019895661622285843,-0.5125910043716431,0.5235956907272339,1.1773273944854736,0.14592710137367249,-0.5623654127120972
9.716057538986206,0.015296231023967266,-0.5090678930282593,0.5860022902488708,1.167941927909851,0.2071913182735443,-0.5649266839027405
9.736104726791382,0.01350883673876524,-0.4997648596763611,0.7547580003738403,1.1686880588531494,0.21508380770683289,-0.5709303617477417
9.756302833557129,0.022290658205747604,-0.4892534017562866,0.7465385794639587,1.1986000537872314,0.22392165660858154,-0.5615108609199524
9.77631139755249,0.011867771856486797,-0.4718496799468994,0.8172731399536133,1.2205400466918945,0.1944228708744049,-0.5571891069412231
9.796379327774048,-0.04328737035393715,-0.4759809374809265,0.7986776828765869,1.2037875652313232,0.11123797297477722,-0.5555715560913086
9.81646203994751,-0.05202344432473183,-0.4649774432182312,0.7446262836456299,1.1854923963546753,0.11507824063301086,-0.5542253255844116
9.836528539657593,-0.15572325885295868,-0.48359251022338867,0.6365147233009338,1.1382403373718262,0.04949392378330231,-0.5655239820480347
9.8565993309021,-0.12743844091892242,-0.48916423320770264,0.5067571401596069,1.1498887538909912,0.06982013583183289,-0.5591330528259277
9.87675952911377,-0.09356502443552017,-0.5088680386543274,0.4855996370315552,1.1554107666015625,0.05875459313392639,-0.556593120098114
9.89689302444458,-0.04372970387339592,-0.4932224154472351,0.4750840663909912,1.1462684869766235,0.12369829416275024,-0.5551332235336304
9.916948080062866,0.03893096372485161,-0.48334670066833496,0.5549386143684387,1.1597769260406494,0.2538108825683594,-0.5553587675094604
9.93701434135437,0.04540390893816948,-0.48855292797088623,0.6996088624000549,1.1696548461914062,0.2804539203643799,-0.5614432096481323
9.957206010818481,0.05909998342394829,-0.4826009273529053,0.7468953132629395,1.199023962020874,0.2948318123817444,-0.5592590570449829
9.97724175453186,0.035873498767614365,-0.48800933361053467,0.773094892501831,1.2181527614593506,0.26556551456451416,-0.5600016713142395
9.997382402420044,-0.014545758254826069,-0.49671119451522827,0.7707793116569519,1.2089452743530273,0.1603660136461258,-0.5616424083709717
10.017506122589111,-0.03829226270318031,-0.49021583795547485,0.7254292964935303,1.190784215927124,0.13862177729606628,-0.5611914992332458
10.037580013275146,-0.12517735362052917,-0.49472033977508545,0.6183809638023376,1.1475721597671509,0.08960868418216705,-0.5688510537147522
10.057643413543701,-0.06665528565645218,-0.494231641292572,0.4635505676269531,1.1807130575180054,0.111927330493927,-0.5530164241790771
10.077727794647217,-0.04293220117688179,-0.5017566084861755,0.519413411617279,1.167353630065918,0.1380123496055603,-0.5626978874206543
10.097801208496094,-0.014070783741772175,-0.5059357285499573,0.5787336826324463,1.1752727031707764,0.13750281929969788,-0.5606619119644165
10.117855310440063,-0.03158752992749214,-0.5031635761260986,0.6757937669754028,1.1510655879974365,0.1507110446691513,-0.5708710551261902
10.13794755935669,-0.012830187566578388,-0.48749876022338867,0.7348101139068604,1.1566829681396484,0.16772477328777313,-0.5658841133117676
10.158015251159668,-0.061536747962236404,-0.4810500144958496,0.7157881259918213,1.1690468788146973,0.17423607409000397,-0.5729576945304871
10.178111553192139,-0.06418194621801376,-0.486794650554657,0.7491432428359985,1.2102562189102173,0.12619194388389587,-0.5648081302642822
10.198172569274902,-0.15495137870311737,-0.48339366912841797,0.6305015683174133,1.1539372205734253,0.05434000492095947,-0.5693521499633789
10.218268871307373,-0.15082238614559174,-0.480779767036438,0.5424862504005432,1.1415501832962036,0.08891232311725616,-0.5701132416725159
10.238348722457886,-0.14850106835365295,-0.513170599937439,0.48342904448509216,1.1409237384796143,0.03132615238428116,-0.5662439465522766
10.258400201797485,-0.09197395294904709,-0.5018653869628906,0.4657454788684845,1.1388517618179321,0.053339362144470215,-0.5590893030166626
10.278496026992798,-0.08476173132658005,-0.493084192276001,0.43594133853912354,1.1144845485687256,0.11239156126976013,-0.562711775302887
10.298570394515991,0.004403631202876568,-0.49242162704467773,0.5455788373947144,1.1561226844787598,0.23412272334098816,-0.564988911151886
10.31864857673645,0.06527458876371384,-0.4979340434074402,0.7507519125938416,1.2047263383865356,0.26015591621398926,-0.5608242750167847
10.338727474212646,0.08444695919752121,-0.48623573780059814,0.7701757550239563,1.209161639213562,0.2776125967502594,-0.5552005767822266
10.358799934387207,0.09997614473104477,-0.45269960165023804,0.8216873407363892,1.2276110649108887,0.3430897295475006,-0.5491189956665039
10.378857135772705,0.0542282871901989,-0.4811641573905945,0.83083176612854,1.2450499534606934,0.24542096257209778,-0.5518611669540405
10.398948431015015,0.013279165141284466,-0.4834485650062561,0.7534589171409607,1.206315517425537,0.22054210305213928,-0.5593185424804688
10.419020652770996,-0.08903313428163528,-0.506292462348938,0.6353740096092224,1.1576719284057617,0.1237737238407135,-0.5709133148193359
10.43907642364502,-0.10409513860940933,-0.5101073384284973,0.5381808280944824,1.152378797531128,0.08100226521492004,-0.5675815343856812
10.459157466888428,-0.06283377856016159,-0.5049583315849304,0.5363239645957947,1.1656382083892822,0.10162776708602905,-0.5600414276123047
10.479233503341675,-0.0030656950548291206,-0.4957648515701294,0.594944417476654,1.1792802810668945,0.15628641843795776,-0.5554056167602539
10.4993896484375,-0.03251369670033455,-0.48251086473464966,0.7250846028327942,1.1402394771575928,0.18867415189743042,-0.5694162845611572
10.519415378570557,-0.04006702080368996,-0.4763731360435486,0.701046347618103,1.1518669128417969,0.2066715955734253,-0.5647516250610352
10.539489507675171,-0.04153183475136757,-0.46493154764175415,0.7652516961097717,1.1829164028167725,0.21421658992767334,-0.5648177266120911
10.559550762176514,-0.076197050511837,-0.4688549041748047,0.7534803152084351,1.1925338506698608,0.11118702590465546,-0.5572731494903564
10.579641342163086,-0.10435537993907928,-0.47082823514938354,0.6844997406005859,1.1685453653335571,0.09726345539093018,-0.5597047805786133
10.599726915359497,-0.1447787880897522,-0.4817413091659546,0.5494113564491272,1.1434998512268066,0.0818825513124466,-0.5638977289199829
10.619793176651001,-0.09624376147985458,-0.5024738907814026,0.4713956117630005,1.149134635925293,0.096830815076828,-0.5608691573143005
10.639966249465942,-0.051471199840307236,-0.5028500556945801,0.4995301365852356,1.1642837524414062,0.12226337194442749,-0.5593349933624268
10.659968852996826,0.015240366570651531,-0.49480050802230835,0.5500872135162354,1.162288784980774,0.21941682696342468,-0.5597695112228394
10.68004035949707,0.03356188163161278,-0.501329779624939,0.7052464485168457,1.1749904155731201,0.24530789256095886,-0.5655726790428162
10.700128078460693,0.02954278513789177,-0.49703139066696167,0.7541535496711731,1.1843442916870117,0.22846344113349915,-0.5637753009796143
10.720204591751099,0.03345121070742607,-0.47666043043136597,0.7899990677833557,1.2002029418945312,0.2391977608203888,-0.5604643821716309
10.740257740020752,0.01674577221274376,-0.4805266857147217,0.7924273610115051,1.231123447418213,0.18440642952919006,-0.5517002940177917
10.760380983352661,-0.0030032293871045113,-0.47719889879226685,0.8204070329666138,1.2295477390289307,0.13315877318382263,-0.5508532524108887
10.780447959899902,-0.09738697856664658,-0.4799569845199585,0.6751250624656677,1.1511162519454956,0.0918026715517044,-0.5618016719818115
10.800509214401245,-0.12840446829795837,-0.4926462173461914,0.4781092405319214,1.1497873067855835,0.09185917675495148,-0.560759961605072
10.820617198944092,-0.11705545336008072,-0.5069392919540405,0.46952688694000244,1.1565396785736084,0.07429592311382294,-0.5603476762771606
10.840756893157959,-0.052328962832689285,-0.5146757364273071,0.4947633147239685,1.1691913604736328,0.10578569769859314,-0.5592443346977234
10.860739946365356,-0.011879955418407917,-0.5040504932403564,0.5289062261581421,1.1531113386154175,0.18637585639953613,-0.5625556707382202
10.880839824676514,0.04498414322733879,-0.49149399995803833,0.6134506464004517,1.1723864078521729,0.25163206458091736,-0.559158444404602
10.900922060012817,0.04638257250189781,-0.4949154853820801,0.7290346622467041,1.1853413581848145,0.2452109158039093,-0.5598227381706238
10.921013593673706,0.05669323727488518,-0.47236406803131104,0.7647172212600708,1.2084226608276367,0.27875494956970215,-0.5551043152809143
10.941204071044922,0.019975479692220688,-0.48633354902267456,0.8059340715408325,1.237181305885315,0.16698065400123596,-0.5499711632728577
10.961313247680664,-0.0032679634168744087,-0.47600555419921875,0.7968738079071045,1.207798957824707,0.145722433924675,-0.5537228584289551
10.981372594833374,-0.091129831969738,-0.48331016302108765,0.684207558631897,1.1609697341918945,0.09217590093612671,-0.5599895715713501
11.001495599746704,-0.13797585666179657,-0.49073857069015503,0.6089077591896057,1.1386200189590454,0.07209688425064087,-0.5658745169639587
11.021593570709229,-0.10608755797147751,-0.5056971311569214,0.49552619457244873,1.1645808219909668,0.0798979103565216,-0.5595868825912476
11.04170298576355,-0.054973918944597244,-0.5133114457130432,0.5124417543411255,1.1694508790969849,0.10307908058166504,-0.5575359463691711
11.061765432357788,-0.03581157699227333,-0.5051442384719849,0.5133294463157654,1.1511449813842773,0.13699010014533997,-0.5596131086349487
11.081831693649292,0.03964781388640404,-0.48640894889831543,0.6197590231895447,1.166553020477295,0.24797844886779785,-0.5565478801727295
11.101988554000854,-0.02975766733288765,-0.4876587986946106,0.7513452172279358,1.1730339527130127,0.17662841081619263,-0.5648407936096191
11.122041702270508,-0.04372929409146309,-0.47909682989120483,0.7510970234870911,1.1691489219665527,0.1694440096616745,-0.563956618309021
11.14216923713684,-0.027109388262033463,-0.4666942358016968,0.7721604704856873,1.2166577577590942,0.1341070681810379,-0.5480309724807739
11.16221570968628,-0.11896192282438278,-0.467398464679718,0.6993671655654907,1.159220814704895,0.06646838784217834,-0.5575551390647888
11.182283878326416,-0.16165341436862946,-0.4742078185081482,0.621833324432373,1.1439929008483887,0.04544728249311447,-0.5598499774932861
11.202358484268188,-0.13290904462337494,-0.48558956384658813,0.4817516803741455,1.1504720449447632,0.07129603624343872,-0.5560753345489502
11.222416400909424,-0.10396310687065125,-0.4975961446762085,0.45024555921554565,1.1423850059509277,0.07056593894958496,-0.5554602146148682
11.242587566375732,-0.07494226098060608,-0.5020915269851685,0.48877567052841187,1.1522002220153809,0.08304014801979065,-0.5564959645271301
11.262655019760132,0.009130160324275494,-0.482649028301239,0.5291313529014587,1.1526949405670166,0.22514161467552185,-0.5568239688873291
11.28271746635437,0.036812152713537216,-0.4997398257255554,0.7098146677017212,1.1784729957580566,0.24930083751678467,-0.5632877945899963
11.30278730392456,0.014793152920901775,-0.5014393925666809,0.7374882698059082,1.184380292892456,0.21819400787353516,-0.5627971887588501
11.322874546051025,0.01075818669050932,-0.47363293170928955,0.7740687131881714,1.186611294746399,0.2302684485912323,-0.5612494945526123
11.342952013015747,-0.010993202216923237,-0.4847205877304077,0.7967586517333984,1.226609468460083,0.14776526391506195,-0.5525156259536743
11.363191366195679,-0.07248910516500473,-0.4743061661720276,0.7210527062416077,1.1779615879058838,0.09501899778842926,-0.5561023950576782
11.383283853530884,-0.12752147018909454,-0.480535089969635,0.68067467212677,1.1548148393630981,0.05314451456069946,-0.5613784193992615
11.40337085723877,-0.13902829587459564,-0.49053138494491577,0.4631170630455017,1.1500396728515625,0.06368681788444519,-0.5572235584259033
11.423698663711548,-0.1140267476439476,-0.49727559089660645,0.47891080379486084,1.1381804943084717,0.05907493829727173,-0.5598894953727722
11.443812847137451,-0.06943387538194656,-0.4947517514228821,0.5018214583396912,1.151569128036499,0.09940388798713684,-0.5577102899551392
11.463884115219116,-0.028369490057229996,-0.4922538995742798,0.5098752975463867,1.1455776691436768,0.19123554229736328,-0.5607296228408813
11.483935832977295,0.058473359793424606,-0.48498570919036865,0.702664315700531,1.182389736175537,0.27529624104499817,-0.5576404333114624
11.504029989242554,0.025761451572179794,-0.500737190246582,0.715261697769165,1.190422534942627,0.2380315661430359,-0.5605587363243103
11.524102687835693,0.04253695532679558,-0.47199052572250366,0.7610108852386475,1.2004313468933105,0.2711428105831146,-0.5573393702507019
11.544188499450684,0.005788023583590984,-0.48971378803253174,0.7919154763221741,1.2316763401031494,0.1724986582994461,-0.5540484189987183
11.56424856185913,-0.01640428975224495,-0.4819300174713135,0.7777462005615234,1.207095980644226,0.1418578028678894,-0.5556425452232361
11.58432412147522,-0.09762191772460938,-0.48341691493988037,0.6821853518486023,1.1608977317810059,0.08312413096427917,-0.5610157251358032
11.604385614395142,-0.1003858670592308,-0.48588764667510986,0.5201355814933777,1.1563687324523926,0.11897310614585876,-0.5600728988647461
11.624470472335815,-0.07285504788160324,-0.5027482509613037,0.4403972625732422,1.170032262802124,0.12850810587406158,-0.5565066933631897
11.644549131393433,-0.03464225307106972,-0.5115095376968384,0.45956411957740784,1.1628037691116333,0.14634820818901062,-0.5579143762588501
11.664628267288208,0.029266607016324997,-0.4982616901397705,0.5339481234550476,1.1659226417541504,0.22726905345916748,-0.5559310913085938
11.685164213180542,0.01943473145365715,-0.49812161922454834,0.6965147256851196,1.1676807403564453,0.2198922038078308,-0.5617630481719971
11.705266237258911,0.02514747902750969,-0.4878830909729004,0.7419573068618774,1.187685489654541,0.23032569885253906,-0.5607585906982422
11.72533369064331,0.0008196486160159111,-0.48009586334228516,0.7360612154006958,1.2077217102050781,0.18558508157730103,-0.5533219575881958
11.745402574539185,-0.05545288696885109,-0.48254454135894775,0.7796997427940369,1.2123613357543945,0.09376031160354614,-0.5508837699890137
11.765520572662354,-0.07480183988809586,-0.4685376286506653,0.7268953323364258,1.1857647895812988,0.09047544002532959,-0.5521491765975952
11.78560733795166,-0.1570645570755005,-0.479628324508667,0.5889003872871399,1.139281988143921,0.06521974503993988,-0.5619789361953735
11.806029796600342,-0.12571530044078827,-0.4997565746307373,0.44889846444129944,1.1566312313079834,0.06996405124664307,-0.5551154613494873
11.826164484024048,-0.10390689224004745,-0.500806987285614,0.48458194732666016,1.1405870914459229,0.0778515487909317,-0.5596786141395569
11.846224308013916,-0.04867354407906532,-0.49729853868484497,0.4551517069339752,1.137448787689209,0.13932284712791443,-0.556236982345581
11.86670207977295,0.048026617616415024,-0.48230743408203125,0.5707484483718872,1.1670547723770142,0.27945828437805176,-0.555277407169342
11.886784553527832,0.06180537864565849,-0.4981568455696106,0.6842542290687561,1.1931869983673096,0.2776007354259491,-0.5584989786148071
11.906893730163574,0.06479524821043015,-0.49405986070632935,0.7511254549026489,1.2086334228515625,0.2660099267959595,-0.5564526319503784
11.92700481414795,0.06563828140497208,-0.48252320289611816,0.8405572772026062,1.2525701522827148,0.2476799488067627,-0.5517575740814209
11.947111368179321,0.03957575187087059,-0.4898020625114441,0.8104369640350342,1.2446763515472412,0.19655928015708923,-0.5492597818374634
11.967162132263184,-0.03675590828061104,-0.487582802772522,0.7461515069007874,1.1894776821136475,0.11713641881942749,-0.5561791062355042
11.987217426300049,-0.13521938025951385,-0.493577241897583,0.6088340878486633,1.14340341091156,0.0648275762796402,-0.5644893050193787
12.007308959960938,-0.14053769409656525,-0.4991873502731323,0.5336035490036011,1.1440311670303345,0.06423184275627136,-0.563915491104126
12.02738618850708,-0.08920807391405106,-0.5079799890518188,0.5435326099395752,1.1532020568847656,0.08475121855735779,-0.5623971223831177
12.04744291305542,-0.03940713778138161,-0.4986913800239563,0.5584321618080139,1.161371111869812,0.11110532283782959,-0.5541599988937378
12.067553043365479,-0.035933468490839005,-0.4919009804725647,0.5455062389373779,1.1359061002731323,0.15883497893810272,-0.558496356010437
12.087618827819824,-0.17804840207099915,-0.796697735786438,0.44649702310562134,0.9133880734443665,-0.1256045699119568,-0.5472583770751953
12.107693910598755,-0.202946275472641,-0.7830353379249573,0.3667949438095093,0.885115385055542,-0.15793649852275848,-0.5299978256225586
12.127774000167847,-0.21979565918445587,-0.7808533906936646,0.38819417357444763,0.8961695432662964,-0.18299508094787598,-0.5282725691795349
12.147845029830933,-0.2574622631072998,-0.7681795358657837,0.39857763051986694,0.8966444134712219,-0.22738070785999298,-0.5233227014541626
12.167906999588013,-0.2764657139778137,-0.7673115730285645,0.3339310586452484,0.8847764730453491,-0.23973284661769867,-0.5213618874549866
12.188007354736328,-0.34478482604026794,-0.7674434781074524,0.267487108707428,0.872808039188385,-0.28690361976623535,-0.5118496417999268
12.208101987838745,-0.3734099864959717,-0.7633877992630005,0.2599107027053833,0.8707864880561829,-0.30209746956825256,-0.5076140761375427
12.228178024291992,-0.37285566329956055,-0.7556039094924927,0.2587403357028961,0.861510157585144,-0.2842571437358856,-0.5061863660812378
12.248258829116821,-0.3415828347206116,-0.7565873861312866,0.27784156799316406,0.8649739623069763,-0.2613746225833893,-0.5091524720191956
12.268369674682617,-0.3300825357437134,-0.758112370967865,0.28755173087120056,0.8672448992729187,-0.25462043285369873,-0.511410653591156
12.288437366485596,-0.3132975101470947,-0.7610418796539307,0.32135680317878723,0.8740146160125732,-0.25334662199020386,-0.514362633228302
12.30849027633667,-0.3025744557380676,-0.7608718872070312,0.3049938678741455,0.8722864985466003,-0.24419018626213074,-0.5158504843711853
12.328604459762573,-0.30607089400291443,-0.7637025713920593,0.2969205677509308,0.8725456595420837,-0.24988453090190887,-0.5158860087394714
12.348662376403809,-0.3117208480834961,-0.7653470039367676,0.28059840202331543,0.8727235198020935,-0.25989511609077454,-0.5133137702941895
12.368714332580566,-0.31927013397216797,-0.7665650248527527,0.2798999845981598,0.8718456029891968,-0.267560213804245,-0.512788712978363
12.388752460479736,-0.3109753727912903,-0.7637045383453369,0.2773955166339874,0.8745787143707275,-0.26022255420684814,-0.5107643008232117
12.408864736557007,-0.2990756332874298,-0.7641968131065369,0.29022663831710815,0.876687228679657,-0.25411269068717957,-0.5111144781112671
12.428924560546875,-0.3092942237854004,-0.7653037905693054,0.3032032251358032,0.8733997941017151,-0.2573010325431824,-0.5144038200378418
12.4490327835083,-0.30453506112098694,-0.7625828981399536,0.3141126334667206,0.8753339052200317,-0.2507707178592682,-0.5152060985565186
12.469099998474121,-0.31097304821014404,-0.7630823850631714,0.3195638060569763,0.8822647929191589,-0.26026254892349243,-0.514455258846283
12.48916244506836,-0.31411507725715637,-0.7633416652679443,0.2938663959503174,0.8745803833007812,-0.26167476177215576,-0.5137970447540283
12.509477138519287,-0.31177306175231934,-0.7648621201515198,0.29218506813049316,0.8728076815605164,-0.25973042845726013,-0.5139126181602478
12.529588222503662,-0.3147527277469635,-0.7655007839202881,0.2961311936378479,0.8730946183204651,-0.2623295187950134,-0.5139888525009155
12.549732446670532,-0.314877450466156,-0.7648618221282959,0.2988499701023102,0.873039960861206,-0.2627042233943939,-0.5137215256690979
12.57001805305481,-0.3113381862640381,-0.7649319171905518,0.29973769187927246,0.8740783333778381,-0.2593005299568176,-0.5139986872673035
12.590092897415161,-0.3091055154800415,-0.7645249366760254,0.3092353045940399,0.8756682872772217,-0.25894737243652344,-0.5140597820281982
12.61017918586731,-0.304890513420105,-0.7635793089866638,0.3089354336261749,0.8765599727630615,-0.25806158781051636,-0.514266848564148
12.630256652832031,-0.2933083772659302,-0.7660881280899048,0.3082599341869354,0.8764665126800537,-0.25320005416870117,-0.5145905613899231
12.650408029556274,-0.2953682541847229,-0.7679254412651062,0.303834468126297,0.8761451244354248,-0.25595077872276306,-0.5147607326507568
12.670446634292603,-0.29770514369010925,-0.7694489359855652,0.29814502596855164,0.8772206902503967,-0.2591654658317566,-0.5147428512573242
12.690531730651855,-0.29806140065193176,-0.7659229040145874,0.32158565521240234,0.881033182144165,-0.2574048340320587,-0.5145269632339478
12.710603713989258,-0.30458301305770874,-0.7654311060905457,0.3084353804588318,0.8761600255966187,-0.25940537452697754,-0.514662504196167
12.73068380355835,-0.3039720356464386,-0.7657713294029236,0.31091347336769104,0.8784252405166626,-0.2589624226093292,-0.5147073268890381
12.750948429107666,-0.30595290660858154,-0.7659748792648315,0.30700191855430603,0.8768536448478699,-0.2601551413536072,-0.5146292448043823
12.771101713180542,-0.2989159822463989,-0.766591489315033,0.3016695976257324,0.8797295689582825,-0.25793835520744324,-0.5130628347396851
12.791121244430542,-0.30051618814468384,-0.767719566822052,0.2999025583267212,0.8792595863342285,-0.25742512941360474,-0.5139793753623962
12.811653137207031,-0.30095186829566956,-0.7666701078414917,0.31320545077323914,0.8772021532058716,-0.25969070196151733,-0.5154696702957153
12.831746578216553,-0.3026515245437622,-0.7671496868133545,0.30405116081237793,0.875940203666687,-0.25957629084587097,-0.5148747563362122
12.851816654205322,-0.29121407866477966,-0.7670254707336426,0.319192498922348,0.8794876337051392,-0.25315067172050476,-0.5151868462562561
12.87202000617981,-0.29193150997161865,-0.7686768770217896,0.30393078923225403,0.879981279373169,-0.256698340177536,-0.5141134858131409
12.892117023468018,-0.2918667197227478,-0.7689175605773926,0.3071644604206085,0.8770365715026855,-0.25505539774894714,-0.515093982219696
12.912227869033813,-0.29286181926727295,-0.7706247568130493,0.3076605498790741,0.8755427002906799,-0.2553182542324066,-0.5158719420433044
12.93233323097229,-0.2883828282356262,-0.7693274021148682,0.30551570653915405,0.8756634593009949,-0.2508843243122101,-0.515917956829071
12.952423572540283,-0.28181004524230957,-0.7715529203414917,0.30431032180786133,0.878602147102356,-0.25300097465515137,-0.5159064531326294
12.972477912902832,-0.2840896546840668,-0.7723326683044434,0.31279218196868896,0.8786269426345825,-0.2539319396018982,-0.5171472430229187
12.992659568786621,-0.28259021043777466,-0.7708671689033508,0.30765336751937866,0.8771489858627319,-0.2508296072483063,-0.5169140696525574
13.01274847984314,-0.2784700393676758,-0.7722168564796448,0.3112936317920685,0.8803665637969971,-0.25045543909072876,-0.5174300670623779
13.0328209400177,-0.27955490350723267,-0.7703461647033691,0.32689356803894043,0.8823946714401245,-0.2521553337574005,-0.5181252956390381
13.052896976470947,-0.2826160788536072,-0.7702443599700928,0.3252153992652893,0.8822734951972961,-0.2548355758190155,-0.5176103711128235
13.07298469543457,-0.26573455333709717,-0.7695170044898987,0.31873515248298645,0.8832567930221558,-0.24374759197235107,-0.5164798498153687
13.093063831329346,-0.2624693214893341,-0.7748023271560669,0.3169330358505249,0.8839030265808105,-0.2438984215259552,-0.5188153982162476
13.113150119781494,-0.2681087851524353,-0.7727937698364258,0.3441280126571655,0.8873071670532227,-0.24820837378501892,-0.5192327499389648
13.133235692977905,-0.2754508852958679,-0.7711135745048523,0.32516780495643616,0.8829091787338257,-0.25247836112976074,-0.5180009603500366
13.15329360961914,-0.27064645290374756,-0.7728897333145142,0.31238657236099243,0.87962406873703,-0.24936935305595398,-0.5181946754455566
13.173409461975098,-0.27226677536964417,-0.7732875347137451,0.3170347213745117,0.8796337246894836,-0.24877239763736725,-0.5186123847961426
13.193471908569336,-0.2782108187675476,-0.7748779654502869,0.3208886981010437,0.8817459344863892,-0.2565303146839142,-0.5176897048950195
13.21352243423462,-0.2784998416900635,-0.7725204229354858,0.32018592953681946,0.883095383644104,-0.25394511222839355,-0.5168633460998535
13.233611106872559,-0.27948111295700073,-0.7722629308700562,0.31989791989326477,0.8816458582878113,-0.25450384616851807,-0.5170846581459045
13.253699541091919,-0.26355332136154175,-0.7715646624565125,0.32350286841392517,0.8863898515701294,-0.24710902571678162,-0.5170332789421082
13.273791551589966,-0.2599138617515564,-0.7727267146110535,0.32513993978500366,0.8858739137649536,-0.24560728669166565,-0.5177109837532043
13.293867349624634,-0.25654733180999756,-0.7724149227142334,0.33905428647994995,0.88666170835495,-0.2421102076768875,-0.5192608833312988
13.313931465148926,-0.25325679779052734,-0.77815181016922,0.3295103907585144,0.8850780725479126,-0.24496735632419586,-0.5202158093452454
13.33398699760437,-0.2578856945037842,-0.7760301828384399,0.32417866587638855,0.8812487125396729,-0.2430439442396164,-0.5201314091682434
13.354107856750488,-0.25287777185440063,-0.7748553156852722,0.3281916379928589,0.8823443055152893,-0.23748333752155304,-0.5207618474960327
13.374168634414673,-0.25663554668426514,-0.7759038209915161,0.3344212770462036,0.88594651222229,-0.24358396232128143,-0.5209967494010925
13.394245386123657,-0.2621392011642456,-0.7746321558952332,0.3315717875957489,0.8864882588386536,-0.24967631697654724,-0.5202975273132324
13.41431999206543,-0.26548701524734497,-0.7746254801750183,0.3215470016002655,0.8822526931762695,-0.25092270970344543,-0.5200438499450684
13.434396743774414,-0.2605713903903961,-0.7738119959831238,0.331400603055954,0.882941484451294,-0.24657584726810455,-0.5195158123970032
13.454450607299805,-0.2585207521915436,-0.7743740081787109,0.3263840973377228,0.882576048374176,-0.24516859650611877,-0.5205137729644775
13.47452998161316,-0.2590143084526062,-0.7750880122184753,0.3292909860610962,0.8854648470878601,-0.24781624972820282,-0.5199283957481384
13.494600296020508,-0.25550177693367004,-0.774955689907074,0.3345140218734741,0.8909485936164856,-0.24942734837532043,-0.5191119313240051
13.514675617218018,-0.2591603398323059,-0.7745101451873779,0.332832932472229,0.8859301209449768,-0.2491583377122879,-0.5196853876113892
13.535101175308228,-0.25157803297042847,-0.7739497423171997,0.3338265120983124,0.8852701187133789,-0.2429070621728897,-0.5200303792953491
13.555176258087158,-0.23852114379405975,-0.7763279676437378,0.344230055809021,0.8903065919876099,-0.2404288947582245,-0.5207524299621582
13.575228691101074,-0.24106465280056,-0.7768275141716003,0.3408260643482208,0.8861266374588013,-0.23766809701919556,-0.5217519998550415
13.595561981201172,-0.23475122451782227,-0.7766280770301819,0.3540811836719513,0.8895212411880493,-0.23193980753421783,-0.5228630900382996
13.615652799606323,-0.2432779222726822,-0.7788628339767456,0.34741657972335815,0.8896797299385071,-0.24233347177505493,-0.522754967212677
13.63572883605957,-0.24961678683757782,-0.777336597442627,0.3394201695919037,0.886753499507904,-0.24599795043468475,-0.5215835571289062
13.655786037445068,-0.2369421124458313,-0.7763015031814575,0.34731873869895935,0.8910660147666931,-0.24015307426452637,-0.52098548412323
13.675884246826172,-0.23534558713436127,-0.7771143317222595,0.3409854471683502,0.8930095434188843,-0.24116253852844238,-0.520485520362854
13.69603419303894,-0.244854137301445,-0.7772856950759888,0.3413351774215698,0.890137791633606,-0.24578285217285156,-0.5208395719528198
13.71605920791626,-0.23226001858711243,-0.7793184518814087,0.3421030044555664,0.8895633220672607,-0.24013188481330872,-0.5222082734107971
13.736168146133423,-0.23527173697948456,-0.7793183326721191,0.3424747586250305,0.8906692266464233,-0.23995248973369598,-0.5217200517654419
13.756221771240234,-0.23307083547115326,-0.7787302732467651,0.34491172432899475,0.8875075578689575,-0.23535281419754028,-0.5230932831764221
13.776276111602783,-0.23942579329013824,-0.779857873916626,0.3416275382041931,0.8896599411964417,-0.24290478229522705,-0.5223696827888489
13.796370267868042,-0.23468737304210663,-0.7763736248016357,0.36555033922195435,0.8935925960540771,-0.238426074385643,-0.5227310657501221
13.816434860229492,-0.23204688727855682,-0.7767050862312317,0.3570614159107208,0.8962754607200623,-0.24128662049770355,-0.5213072896003723
13.83651328086853,-0.23177452385425568,-0.7787121534347534,0.3436449468135834,0.8883622884750366,-0.24004203081130981,-0.5227376222610474
13.856645107269287,-0.228395476937294,-0.7801602482795715,0.34410208463668823,0.8876305818557739,-0.23623795807361603,-0.5236095190048218
13.876733779907227,-0.22731946408748627,-0.7805343866348267,0.34237226843833923,0.8874269127845764,-0.23525051772594452,-0.5238523483276367
13.896811246871948,-0.22937367856502533,-0.7820332050323486,0.3391439616680145,0.8904578685760498,-0.24070774018764496,-0.5226927399635315
13.91689682006836,-0.2318578064441681,-0.7806335091590881,0.35035067796707153,0.8887943625450134,-0.24021178483963013,-0.5229719877243042
13.936984300613403,-0.23239731788635254,-0.7809963822364807,0.3510446548461914,0.8899085521697998,-0.24165017902851105,-0.5227593779563904
13.957043409347534,-0.22863736748695374,-0.7801254391670227,0.3496529757976532,0.8900099396705627,-0.2370186746120453,-0.5231596231460571
13.977204322814941,-0.21877054870128632,-0.7771825194358826,0.3826383352279663,0.9002866744995117,-0.23057647049427032,-0.523534893989563
13.99729299545288,-0.22737185657024384,-0.7795025706291199,0.3693809509277344,0.9016887545585632,-0.24134238064289093,-0.5226105451583862
14.017367601394653,-0.2125263512134552,-0.7774325609207153,0.3607182204723358,0.8966601490974426,-0.2316211313009262,-0.5223792195320129
14.037429571151733,-0.20240521430969238,-0.7805312275886536,0.37054210901260376,0.892577588558197,-0.2190224528312683,-0.5266766548156738
14.05752444267273,-0.20929984748363495,-0.7849141359329224,0.3691861033439636,0.8940979242324829,-0.22882229089736938,-0.5266748666763306
14.077600717544556,-0.21696139872074127,-0.7836909890174866,0.35569727420806885,0.8901258111000061,-0.23260381817817688,-0.5255632400512695
14.09765911102295,-0.2237001359462738,-0.7831655740737915,0.354707270860672,0.8911432027816772,-0.23879145085811615,-0.5243947505950928
14.11775016784668,-0.22627656161785126,-0.7816964983940125,0.35417598485946655,0.8929773569107056,-0.2395300269126892,-0.52358478307724
14.137848138809204,-0.22347012162208557,-0.7804835438728333,0.35988569259643555,0.8929961323738098,-0.2400161474943161,-0.523780345916748
14.15789532661438,-0.21368096768856049,-0.7790456414222717,0.3700813055038452,0.8970330357551575,-0.23346327245235443,-0.5231077671051025
14.17798662185669,-0.2123095542192459,-0.7811089754104614,0.36048609018325806,0.8955892324447632,-0.2331039160490036,-0.5238635540008545
14.1980619430542,-0.19461394846439362,-0.7836409211158752,0.35812896490097046,0.902911365032196,-0.22591055929660797,-0.522102415561676
14.218114137649536,-0.19743280112743378,-0.7853320240974426,0.36468350887298584,0.8925355672836304,-0.22090131044387817,-0.5271292328834534
14.238198518753052,-0.20133306086063385,-0.7860797643661499,0.38019558787345886,0.8970630168914795,-0.22631040215492249,-0.5272470712661743
14.258239269256592,-0.21259325742721558,-0.7851545810699463,0.3656840920448303,0.8930524587631226,-0.23610563576221466,-0.5258116126060486
14.278300762176514,-0.20574995875358582,-0.7825738191604614,0.37842416763305664,0.8948061466217041,-0.23074737191200256,-0.5255541801452637
14.298388242721558,-0.20657271146774292,-0.7839757800102234,0.36942100524902344,0.8954551219940186,-0.23250757157802582,-0.5252212882041931
14.318461894989014,-0.20256872475147247,-0.7836104035377502,0.3717048764228821,0.898403525352478,-0.23091274499893188,-0.5243631601333618
14.338549852371216,-0.2034732699394226,-0.7847549319267273,0.36719876527786255,0.897162914276123,-0.23235216736793518,-0.5245886445045471
14.358665466308594,-0.2042541354894638,-0.7856221795082092,0.3656187653541565,0.8931111097335815,-0.23254555463790894,-0.5256098508834839
14.378705501556396,-0.19040177762508392,-0.7879412770271301,0.367786705493927,0.898064136505127,-0.22630329430103302,-0.5258742570877075
14.398793458938599,-0.1955426037311554,-0.7889539003372192,0.3754361569881439,0.8982638120651245,-0.2317199856042862,-0.5266983509063721
14.418871402740479,-0.19585761427879333,-0.7863367795944214,0.37896105647087097,0.8973821997642517,-0.22727932035923004,-0.5265408754348755
14.438907623291016,-0.19840238988399506,-0.7855789065361023,0.3777618408203125,0.8979134559631348,-0.22754830121994019,-0.5262308120727539
14.458951711654663,-0.1937343180179596,-0.7848827838897705,0.3822628855705261,0.8985368609428406,-0.22299513220787048,-0.5264327526092529
14.479104995727539,-0.19788050651550293,-0.7873039841651917,0.377136766910553,0.8983389139175415,-0.22856424748897552,-0.5264512300491333
14.499154806137085,-0.19363446533679962,-0.7866217494010925,0.381155401468277,0.8962891101837158,-0.22503410279750824,-0.5269777774810791
14.51919960975647,-0.1906176060438156,-0.7863250374794006,0.37901538610458374,0.8958190083503723,-0.22248560190200806,-0.5273755192756653
14.539291620254517,-0.18287205696105957,-0.7849612832069397,0.4044296145439148,0.9019030332565308,-0.2174365520477295,-0.5282107591629028
14.559363842010498,-0.1838505119085312,-0.7876099348068237,0.38650423288345337,0.9024916887283325,-0.22437475621700287,-0.5267987251281738
