liuyurong129/humanoid-gym/humanoid/data/target_q_20250522-031526.csv
timestamp,joint_1,joint_2,joint_3,joint_4,joint_5,joint_6
0.00018739700317382812,0.0,0.0,0.0,0.0,0.0,0.0
0.0203704833984375,0.0,0.0,0.0,0.0,0.0,0.0
0.04038858413696289,0.0,0.0,0.0,0.0,0.0,0.0
0.06046175956726074,0.0,0.0,0.0,0.0,0.0,0.0
0.08057284355163574,0.0,0.0,0.0,0.0,0.0,0.0
0.10065555572509766,0.08585608005523682,-0.5475857257843018,0.40835416316986084,-0.6140913367271423,0.047617409378290176,-0.2928942143917084
0.12072515487670898,0.0747525691986084,-0.5431164503097534,0.36688902974128723,-0.5976109504699707,0.05476225167512894,-0.30913859605789185
0.1408066749572754,0.06667762994766235,-0.5388754606246948,0.34604185819625854,-0.590704083442688,0.05631900206208229,-0.3166934847831726
0.16096806526184082,0.053670063614845276,-0.5286039710044861,0.32338249683380127,-0.5789321064949036,0.054105550050735474,-0.33097919821739197
0.18103384971618652,0.04389354959130287,-0.5197684168815613,0.31385159492492676,-0.5695481300354004,0.050009459257125854,-0.34249430894851685
0.2011423110961914,0.037567876279354095,-0.5161619782447815,0.3074339032173157,-0.5647443532943726,0.04815450683236122,-0.3471834063529968
0.22117280960083008,0.025622183457016945,-0.5111636519432068,0.2910398840904236,-0.5570015907287598,0.047277212142944336,-0.3545360565185547
0.24126553535461426,0.020108835771679878,-0.5093459486961365,0.2843339741230011,-0.5532363057136536,0.04686828702688217,-0.3575296401977539
0.2613639831542969,0.010566528886556625,-0.5055323839187622,0.2731095552444458,-0.5488895177841187,0.04629916697740555,-0.3625357449054718
0.2814607620239258,0.006488677579909563,-0.502530038356781,0.27222466468811035,-0.54522305727005,0.04502374678850174,-0.3667420744895935
0.3015720844268799,0.005698685999959707,-0.5018967390060425,0.27461710572242737,-0.5429432988166809,0.044285908341407776,-0.36851584911346436
0.3217167854309082,0.0024997987784445286,-0.49904194474220276,0.2763282358646393,-0.5413495302200317,0.04273461923003197,-0.37167322635650635
0.342510461807251,0.00038429826963692904,-0.4971710443496704,0.27826571464538574,-0.5405089259147644,0.04199109971523285,-0.3741268813610077
0.36259937286376953,-0.0030497752595692873,-0.49635109305381775,0.2735762596130371,-0.5395378470420837,0.04239180311560631,-0.3750322759151459
0.38266587257385254,-0.0050585828721523285,-0.4961031675338745,0.2722892761230469,-0.5378351211547852,0.043216776102781296,-0.3764345645904541
0.40276169776916504,-0.0060048350133001804,-0.495744526386261,0.2740916609764099,-0.5370792746543884,0.042738527059555054,-0.377183735370636
0.42284703254699707,-0.00888603925704956,-0.4946862757205963,0.2745281457901001,-0.5360015630722046,0.04228433221578598,-0.37838712334632874
0.4430382251739502,-0.007164988201111555,-0.4952787756919861,0.27877700328826904,-0.5366557240486145,0.04326540604233742,-0.3789477050304413
0.4631974697113037,-0.008103528060019016,-0.4952831268310547,0.27777165174484253,-0.5365554690361023,0.04381246864795685,-0.3792017102241516
0.48328471183776855,-0.003834653878584504,-0.4960131347179413,0.28725099563598633,-0.5358268618583679,0.043914176523685455,-0.3797608017921448
0.503411054611206,-0.0037572220899164677,-0.495938777923584,0.2883322536945343,-0.535986602306366,0.044180598109960556,-0.38007408380508423
0.5234591960906982,-0.004447826649993658,-0.4958568811416626,0.2898613214492798,-0.535824179649353,0.0444776676595211,-0.38060370087623596
0.5435247421264648,-0.0035669731441885233,-0.4959556460380554,0.29284918308258057,-0.5354318022727966,0.04443623498082161,-0.3808712661266327
0.5636835098266602,-0.0028891032561659813,-0.49604642391204834,0.29497048258781433,-0.5357572436332703,0.04529482498764992,-0.381226122379303
0.5837092399597168,-0.002292462158948183,-0.4964102804660797,0.2981010973453522,-0.5362942218780518,0.04587043076753616,-0.3816448450088501
0.6038024425506592,-0.0003649420104920864,-0.4970785081386566,0.3036695122718811,-0.5352365970611572,0.04546220600605011,-0.3818897306919098
0.6240134239196777,0.0008391882292926311,-0.4978730380535126,0.30808746814727783,-0.5350399017333984,0.04584360867738724,-0.3820878565311432
0.6441292762756348,0.0025841672904789448,-0.4991114139556885,0.3115648627281189,-0.5355302691459656,0.0469985231757164,-0.38213860988616943
0.6642584800720215,-0.0007714498788118362,-0.4997031092643738,0.30461257696151733,-0.5349820256233215,0.04871346056461334,-0.38205644488334656
0.6843271255493164,-0.001368560828268528,-0.500242292881012,0.30554476380348206,-0.5352156162261963,0.04971250891685486,-0.3822784721851349
0.7044050693511963,0.003452836535871029,-0.5003287196159363,0.3164675831794739,-0.5360815525054932,0.04864015430212021,-0.38266703486442566
0.7245492935180664,0.007323714904487133,-0.5015329718589783,0.3227337598800659,-0.5357211828231812,0.04941502586007118,-0.383027046918869
0.7451033592224121,0.003977256827056408,-0.5022685527801514,0.31734487414360046,-0.5344054102897644,0.05074923485517502,-0.3830716609954834
0.7651932239532471,0.0039012092165648937,-0.5028340816497803,0.3196573853492737,-0.5352061986923218,0.051567625254392624,-0.38331183791160583
0.7852544784545898,0.0036837647203356028,-0.50340735912323,0.3214207887649536,-0.5342813730239868,0.052118930965662,-0.3835490942001343
0.8056125640869141,0.0078018223866820335,-0.5034830570220947,0.33040904998779297,-0.5342063903808594,0.05123274028301239,-0.383864164352417
0.8255810737609863,0.006354205310344696,-0.5045660138130188,0.32812055945396423,-0.5345642566680908,0.052964821457862854,-0.38390517234802246
0.845787525177002,0.0045483228750526905,-0.5053567886352539,0.32892531156539917,-0.5329076051712036,0.053332358598709106,-0.38413774967193604
0.8658666610717773,0.002361502032727003,-0.505669355392456,0.32572001218795776,-0.5329026579856873,0.05431387200951576,-0.38408374786376953
0.8860177993774414,0.005058374255895615,-0.5065392255783081,0.3314165472984314,-0.531947672367096,0.05478041619062424,-0.3843432366847992
0.9061076641082764,0.007287940010428429,-0.5063803195953369,0.3382439613342285,-0.5320583581924438,0.0537208653986454,-0.38470953702926636
0.9261472225189209,0.009763403795659542,-0.5071093440055847,0.3424285650253296,-0.5341318845748901,0.054803524166345596,-0.38489457964897156
0.9462218284606934,0.011985089629888535,-0.5083075761795044,0.3478521704673767,-0.5345460772514343,0.055360738188028336,-0.38507500290870667
0.9663794040679932,0.00837995857000351,-0.5090243816375732,0.3421550393104553,-0.5338493585586548,0.05680547654628754,-0.3849657475948334
0.9864566326141357,0.009734093211591244,-0.5105313658714294,0.34636151790618896,-0.5339768528938293,0.057496972382068634,-0.38506585359573364
1.0065395832061768,0.015669643878936768,-0.5119085311889648,0.3582068085670471,-0.5331206321716309,0.05645374208688736,-0.3852813243865967
1.026700735092163,0.017009740695357323,-0.5122688412666321,0.3624376654624939,-0.5340583324432373,0.057019785046577454,-0.38542523980140686
1.0470435619354248,0.018659919500350952,-0.512455403804779,0.3695312440395355,-0.5336807370185852,0.056346092373132706,-0.38580965995788574
1.0672166347503662,0.0156234847381711,-0.5134521722793579,0.3631391227245331,-0.5337915420532227,0.05854072794318199,-0.3854902982711792
1.0872547626495361,0.02008194662630558,-0.514401912689209,0.37345048785209656,-0.5341219902038574,0.05824791640043259,-0.38586270809173584
1.107344150543213,0.024561427533626556,-0.5144306421279907,0.38340771198272705,-0.5341714024543762,0.05684565007686615,-0.38624340295791626
1.1274774074554443,0.024980727583169937,-0.514721155166626,0.38693568110466003,-0.5352888703346252,0.057293206453323364,-0.386496901512146
1.1475963592529297,0.019974302500486374,-0.5159605145454407,0.37994518876075745,-0.5339822173118591,0.05893084406852722,-0.3862713873386383
1.1676592826843262,0.02013516053557396,-0.5175387859344482,0.3817428648471832,-0.5327288508415222,0.06010119244456291,-0.38631922006607056
1.1877245903015137,0.02280128188431263,-0.5175080299377441,0.3869827687740326,-0.533922553062439,0.059887006878852844,-0.38652944564819336
1.2078769207000732,0.020587535575032234,-0.519444465637207,0.38325077295303345,-0.5327140092849731,0.06215241923928261,-0.3862878382205963
1.2279009819030762,0.02014557458460331,-0.5196500420570374,0.3819541931152344,-0.5331366658210754,0.06349994987249374,-0.38630908727645874
1.248046875,0.019472116604447365,-0.5202683210372925,0.3847828507423401,-0.5327916145324707,0.0636167973279953,-0.38667622208595276
1.2681033611297607,0.023202069103717804,-0.5205411314964294,0.3907940089702606,-0.5323429107666016,0.06332194805145264,-0.3869079351425171
1.2882862091064453,0.025243621319532394,-0.5200206637382507,0.3971032500267029,-0.5348577499389648,0.06296811997890472,-0.3876117765903473
1.3085010051727295,0.021106528118252754,-0.5212631821632385,0.39101743698120117,-0.5348439812660217,0.06469578295946121,-0.3874622881412506
1.328613042831421,0.02477811835706234,-0.5238311290740967,0.3959363102912903,-0.5337401032447815,0.06602811813354492,-0.3876003921031952
1.348764419555664,0.03214258328080177,-0.524211585521698,0.4080490469932556,-0.5345551371574402,0.064842589199543,-0.3880009055137634
1.36891508102417,0.035474538803100586,-0.5264530181884766,0.4147329032421112,-0.5339720249176025,0.06532948464155197,-0.38836026191711426
1.389286994934082,0.03658831864595413,-0.527233898639679,0.41778573393821716,-0.5353126525878906,0.0662081316113472,-0.3887125551700592
1.4095146656036377,0.03179338946938515,-0.528030276298523,0.4129382073879242,-0.5341737270355225,0.06732179969549179,-0.388702929019928
1.4294753074645996,0.034637417644262314,-0.5300674438476562,0.4175183176994324,-0.5345636606216431,0.06847682595252991,-0.3889825940132141
1.4495604038238525,0.03918701782822609,-0.5291605591773987,0.4269806742668152,-0.5356630682945251,0.06682763248682022,-0.3896351456642151
1.4696407318115234,0.040057457983493805,-0.5295186042785645,0.4333297312259674,-0.5351316332817078,0.06620259582996368,-0.390289306640625
1.489814281463623,0.041050542145967484,-0.5306662321090698,0.4353093206882477,-0.5364016890525818,0.06760181486606598,-0.3905446529388428
1.5099270343780518,0.035054631531238556,-0.5322951078414917,0.4280761480331421,-0.5363243222236633,0.06962171196937561,-0.39032870531082153
1.5299975872039795,0.036662764847278595,-0.5340175628662109,0.431941419839859,-0.5356164574623108,0.07018443942070007,-0.39052465558052063
1.55051851272583,0.042133476585149765,-0.5339800119400024,0.4404522478580475,-0.5364992022514343,0.06937991082668304,-0.3908330202102661
1.570600986480713,0.04305391386151314,-0.5341642498970032,0.44474050402641296,-0.5382046699523926,0.06980770081281662,-0.3911758065223694
1.5908470153808594,0.04193945229053497,-0.5369345545768738,0.44132956862449646,-0.5370883941650391,0.07249153405427933,-0.3908405303955078
1.6110868453979492,0.03640524297952652,-0.5395321249961853,0.43177106976509094,-0.5354632139205933,0.07539793848991394,-0.3903583288192749
1.6310961246490479,0.03634725511074066,-0.5411907434463501,0.43305495381355286,-0.5339804291725159,0.07628051936626434,-0.3905113935470581
1.651188611984253,0.03738584741950035,-0.540791392326355,0.43729978799819946,-0.5337880253791809,0.07563360780477524,-0.3908679485321045
1.671295166015625,0.03583601117134094,-0.5415104627609253,0.43646240234375,-0.5345737338066101,0.0771288350224495,-0.3911542296409607
1.6914567947387695,0.03421305865049362,-0.5430288314819336,0.4350140392780304,-0.5353392362594604,0.07873726636171341,-0.39135557413101196
1.7116448879241943,0.029854027554392815,-0.544700026512146,0.42948126792907715,-0.5341342687606812,0.08027082681655884,-0.3912101984024048
1.7316250801086426,0.03123781457543373,-0.5457937121391296,0.4313986897468567,-0.5339384078979492,0.08117596060037613,-0.3913847506046295
1.7518179416656494,0.03467283397912979,-0.54514479637146,0.437934011220932,-0.5338146686553955,0.08015936613082886,-0.3918708264827728
1.7718310356140137,0.03500876575708389,-0.544729471206665,0.4429016411304474,-0.533379077911377,0.07928164303302765,-0.3926069140434265
1.7923557758331299,0.035786572843790054,-0.5443166494369507,0.4476813077926636,-0.5347135066986084,0.07889456301927567,-0.3933620750904083
1.8124866485595703,0.03250643238425255,-0.5459430813789368,0.44219738245010376,-0.5340679883956909,0.08074934780597687,-0.39327868819236755
1.8325409889221191,0.033947478979825974,-0.5471243262290955,0.4451560378074646,-0.5338486433029175,0.08101668953895569,-0.39377984404563904
1.8526573181152344,0.04024020954966545,-0.5455482006072998,0.45584413409233093,-0.5355093479156494,0.07882079482078552,-0.3945820927619934
1.8727543354034424,0.042169440537691116,-0.5468992590904236,0.46114686131477356,-0.5339775681495667,0.07838049530982971,-0.3950601816177368
1.8928062915802002,0.03833303973078728,-0.5485135912895203,0.45670250058174133,-0.5332443714141846,0.08001748472452164,-0.3949284255504608
1.9131138324737549,0.04087397828698158,-0.548734188079834,0.4618787169456482,-0.5348339080810547,0.08022249490022659,-0.3955119848251343
1.9335873126983643,0.03961286321282387,-0.5497575998306274,0.46278321743011475,-0.5355392694473267,0.08101146668195724,-0.3958529829978943
1.9536919593811035,0.04232916980981827,-0.5501689910888672,0.4662006199359894,-0.5352290272712708,0.08092053979635239,-0.39607176184654236
1.9743664264678955,0.042230330407619476,-0.5520274043083191,0.4650127589702606,-0.5342217683792114,0.08255355060100555,-0.396196573972702
1.994466781616211,0.039751727133989334,-0.5543120503425598,0.45957693457603455,-0.533221960067749,0.08469059318304062,-0.3960046172142029
2.0145254135131836,0.04051278159022331,-0.5556376576423645,0.4620411992073059,-0.5322949886322021,0.08522268384695053,-0.3964109718799591
2.0346193313598633,0.043489936739206314,-0.5552172660827637,0.46707260608673096,-0.5328432321548462,0.08456393331289291,-0.39686119556427
2.0547635555267334,0.04172038286924362,-0.5563556551933289,0.46870625019073486,-0.5316458940505981,0.08469082415103912,-0.3973381817340851
2.0750491619110107,0.03930111229419708,-0.5568467378616333,0.46998798847198486,-0.5327479839324951,0.0846230685710907,-0.39777395129203796
2.0951626300811768,0.03789573535323143,-0.5578325390815735,0.4685339629650116,-0.5325591564178467,0.08543810993432999,-0.39779573678970337
2.1152734756469727,0.0356634147465229,-0.5588326454162598,0.46811535954475403,-0.5313742160797119,0.08584212511777878,-0.39800968766212463
2.1354260444641113,0.03299255669116974,-0.5591006875038147,0.46798139810562134,-0.5307636260986328,0.08531826734542847,-0.39823320508003235
2.155505657196045,0.03290504962205887,-0.5589210391044617,0.47172749042510986,-0.5315895080566406,0.08439069241285324,-0.39891621470451355
2.175934314727783,0.03361424058675766,-0.5597269535064697,0.47383004426956177,-0.5304002165794373,0.08427903056144714,-0.39927032589912415
2.196012258529663,0.03397722542285919,-0.5597542524337769,0.4747923016548157,-0.5308388471603394,0.08434753119945526,-0.3995043635368347
2.216106414794922,0.031755462288856506,-0.5617964863777161,0.47242534160614014,-0.5315797924995422,0.08545113354921341,-0.3997327387332916
2.236191749572754,0.03327484428882599,-0.5617128014564514,0.47611308097839355,-0.5311262607574463,0.08464732766151428,-0.40010520815849304
2.25626277923584,0.03240906074643135,-0.562828779220581,0.47725600004196167,-0.5307513475418091,0.08477745950222015,-0.4004477262496948
2.2764670848846436,0.03324078768491745,-0.5638935565948486,0.47726887464523315,-0.5318440794944763,0.08594111353158951,-0.4006630778312683
2.296581268310547,0.031673137098550797,-0.5652170181274414,0.4745103716850281,-0.5318453311920166,0.08721323311328888,-0.40064311027526855
2.316668748855591,0.030516471713781357,-0.5673657059669495,0.47243398427963257,-0.5298923254013062,0.0883186087012291,-0.4007570743560791
2.337021589279175,0.03450954705476761,-0.5668126940727234,0.4772704541683197,-0.5303404927253723,0.08758992701768875,-0.40117642283439636
2.3571341037750244,0.03441498428583145,-0.5673386454582214,0.48060572147369385,-0.5287197232246399,0.08670563995838165,-0.40183812379837036
2.377211093902588,0.03698308765888214,-0.5682331323623657,0.48285406827926636,-0.5311885476112366,0.08761367201805115,-0.40231576561927795
2.397272825241089,0.03440311551094055,-0.5698775053024292,0.4795631766319275,-0.5315876007080078,0.08891517668962479,-0.40228191018104553
2.4174113273620605,0.03420711308717728,-0.5712993144989014,0.4797658324241638,-0.5307755470275879,0.08952246606349945,-0.40256476402282715
2.437547445297241,0.034176405519247055,-0.5723004341125488,0.4803474247455597,-0.5303545594215393,0.09014272689819336,-0.402840793132782
2.457636833190918,0.034581929445266724,-0.5723545551300049,0.482963502407074,-0.5295228958129883,0.08933090418577194,-0.4032019078731537
2.4777462482452393,0.03523370996117592,-0.5729089975357056,0.48458343744277954,-0.5307341814041138,0.0897504985332489,-0.4035670757293701
2.497885227203369,0.03216763585805893,-0.5750515460968018,0.4793947637081146,-0.5309888124465942,0.09140509366989136,-0.4033428728580475
2.518073081970215,0.03218234330415726,-0.5761491656303406,0.4782405495643616,-0.5327335596084595,0.09279447793960571,-0.4035976827144623
2.5385024547576904,0.0333666130900383,-0.5764706134796143,0.4821256399154663,-0.530337929725647,0.09173142910003662,-0.4042630195617676
2.5585944652557373,0.03823120519518852,-0.5759927034378052,0.4875158965587616,-0.5316187143325806,0.09082407504320145,-0.40468427538871765
2.5789222717285156,0.04077091068029404,-0.5771602392196655,0.49138379096984863,-0.5306137800216675,0.09007420390844345,-0.4052239954471588
2.5989832878112793,0.038083869963884354,-0.5787860155105591,0.4889068603515625,-0.5291143655776978,0.09058523178100586,-0.4053080081939697
2.6190707683563232,0.03971142694354057,-0.5797902345657349,0.4924277067184448,-0.5313776135444641,0.09035436064004898,-0.40595364570617676
2.639146566390991,0.04324756935238838,-0.5785549879074097,0.49997439980506897,-0.5320515632629395,0.08816023916006088,-0.4066767394542694
2.659247398376465,0.04121789708733559,-0.5804699063301086,0.499632865190506,-0.5301960706710815,0.08880206197500229,-0.40694311261177063
2.6795849800109863,0.03932357579469681,-0.582436740398407,0.4972093105316162,-0.5292438268661499,0.0898624137043953,-0.4071008563041687
2.6996819972991943,0.03719961643218994,-0.5833853483200073,0.496083527803421,-0.5294139981269836,0.09033189713954926,-0.40730902552604675
2.7197530269622803,0.032292403280735016,-0.5849942564964294,0.4929627478122711,-0.5279869437217712,0.09099263697862625,-0.4075014591217041
2.7400174140930176,0.03316625952720642,-0.5851329565048218,0.493481308221817,-0.5287530422210693,0.0914980098605156,-0.40773269534111023
2.7602295875549316,0.029773812741041183,-0.5880169868469238,0.4883132576942444,-0.5290246605873108,0.09338399767875671,-0.40782395005226135
2.780283212661743,0.027251217514276505,-0.5898900628089905,0.4852775037288666,-0.5284796953201294,0.09408457577228546,-0.40799665451049805
2.8003885746002197,0.025588829070329666,-0.5908263325691223,0.4833166003227234,-0.5295833945274353,0.09500853717327118,-0.40808889269828796
2.820706605911255,0.027458645403385162,-0.5910969972610474,0.48590409755706787,-0.5269530415534973,0.09417694807052612,-0.40861833095550537
2.8407962322235107,0.03244004398584366,-0.5907724499702454,0.49080798029899597,-0.5266819596290588,0.09364299476146698,-0.40900686383247375
2.860863447189331,0.0364721342921257,-0.5911532044410706,0.4949457347393036,-0.5260984301567078,0.09308380633592606,-0.40956729650497437
2.8812198638916016,0.03442845493555069,-0.591643214225769,0.49493178725242615,-0.5265823602676392,0.09311674535274506,-0.40995585918426514
2.901230573654175,0.03502143174409866,-0.5905787944793701,0.5034139156341553,-0.5281900763511658,0.09019678831100464,-0.4112001359462738
2.921827793121338,0.03854440525174141,-0.5907163619995117,0.509792149066925,-0.5301414728164673,0.08927357941865921,-0.4119809865951538
2.9419901371002197,0.04486757889389992,-0.5907090306282043,0.5162985920906067,-0.5308427810668945,0.08821271359920502,-0.4124104380607605
2.962033987045288,0.048574790358543396,-0.5922256708145142,0.5205737948417664,-0.5312772393226624,0.08807777613401413,-0.412901908159256
2.9822561740875244,0.047482479363679886,-0.5946688652038574,0.5171459317207336,-0.5318031907081604,0.09018389880657196,-0.4128032922744751
3.002338409423828,0.048604052513837814,-0.5972455739974976,0.5163291692733765,-0.5333645343780518,0.09216596931219101,-0.41300374269485474
3.02242374420166,0.046790916472673416,-0.5990481376647949,0.5153246521949768,-0.5319034457206726,0.09376722574234009,-0.4133831262588501
3.042581796646118,0.04523712396621704,-0.6010535359382629,0.5120455026626587,-0.5313119292259216,0.09532476216554642,-0.4133679270744324
3.0628011226654053,0.04085560515522957,-0.603135347366333,0.5081690549850464,-0.5314674973487854,0.0969075933098793,-0.41375598311424255
3.0831105709075928,0.036535777151584625,-0.6048182249069214,0.5044498443603516,-0.5302448272705078,0.09760526567697525,-0.413877010345459
3.103301525115967,0.029930103570222855,-0.6076539158821106,0.49735745787620544,-0.5278058052062988,0.09883920103311539,-0.41394665837287903
3.1235196590423584,0.029805295169353485,-0.6075219511985779,0.4984533488750458,-0.5281928777694702,0.09851625561714172,-0.4142696261405945
3.143606662750244,0.03285200148820877,-0.608005166053772,0.5010190606117249,-0.5271100401878357,0.09825840592384338,-0.41464871168136597
3.1636691093444824,0.03591148555278778,-0.6092666387557983,0.5026487112045288,-0.5253815650939941,0.09870076924562454,-0.414975643157959
3.183839797973633,0.03758998587727547,-0.6096808910369873,0.50333571434021,-0.5255691409111023,0.09928537905216217,-0.415109246969223
3.2039642333984375,0.042122554033994675,-0.609014630317688,0.510909914970398,-0.5266256332397461,0.09789644181728363,-0.4158678948879242
3.2240593433380127,0.04492982104420662,-0.6086585521697998,0.5140531659126282,-0.5283422470092773,0.09768601506948471,-0.4162496328353882
3.244137763977051,0.048423491418361664,-0.6091105341911316,0.5208955407142639,-0.5284733772277832,0.09639544785022736,-0.4170207381248474
3.264188528060913,0.04829094186425209,-0.6094027161598206,0.5230315327644348,-0.5286209583282471,0.09598036855459213,-0.41733020544052124
3.2843575477600098,0.04449942335486412,-0.6106311678886414,0.524297833442688,-0.5277351140975952,0.09538792818784714,-0.41765663027763367
3.304419755935669,0.04443127661943436,-0.6110700964927673,0.5248017311096191,-0.5287432074546814,0.09585680067539215,-0.4177837371826172
3.3245174884796143,0.04199425131082535,-0.6119846701622009,0.5247163772583008,-0.5309838056564331,0.09633323550224304,-0.41825348138809204
3.3447253704071045,0.03752470016479492,-0.6133291721343994,0.523108959197998,-0.5309962034225464,0.09625940769910812,-0.41860097646713257
3.3648598194122314,0.03697926923632622,-0.614046037197113,0.5229924321174622,-0.5299293994903564,0.0960547924041748,-0.4187239706516266
3.384950637817383,0.03951883316040039,-0.6145686507225037,0.5245635509490967,-0.530754804611206,0.09647014737129211,-0.41923078894615173
3.405107259750366,0.037940315902233124,-0.6159345507621765,0.5234725475311279,-0.5293787121772766,0.09677886217832565,-0.4193309247493744
3.4252572059631348,0.036953818053007126,-0.6182902455329895,0.520304262638092,-0.5285983681678772,0.09821767359972,-0.4194108545780182
3.445267677307129,0.035799235105514526,-0.6211909055709839,0.5146840810775757,-0.5292109251022339,0.10077992081642151,-0.4194408059120178
3.465358257293701,0.033183228224515915,-0.6235232949256897,0.5092037916183472,-0.5286228060722351,0.10247508436441422,-0.41927051544189453
3.4854650497436523,0.03391939029097557,-0.6243090629577637,0.5083938241004944,-0.529562771320343,0.10342226922512054,-0.41969290375709534
3.5060815811157227,0.03751470148563385,-0.6231881380081177,0.5132894515991211,-0.5291294455528259,0.10212767869234085,-0.42030227184295654
3.526195764541626,0.04068742319941521,-0.6226705312728882,0.5183846950531006,-0.5290212035179138,0.10092519968748093,-0.42126184701919556
3.546241044998169,0.044629160314798355,-0.6231306791305542,0.5211194157600403,-0.531664252281189,0.10097557306289673,-0.42201095819473267
3.566333293914795,0.04355846345424652,-0.6248447299003601,0.5186797380447388,-0.5327389240264893,0.10224480926990509,-0.4221673607826233
3.586425304412842,0.047207389026880264,-0.626676082611084,0.5208249092102051,-0.5341896414756775,0.10224918276071548,-0.4227555990219116
3.6072990894317627,0.05148179829120636,-0.6277780532836914,0.5264421105384827,-0.5324299931526184,0.10108484327793121,-0.42338645458221436
3.62740421295166,0.05223638936877251,-0.6279205083847046,0.5289983749389648,-0.5324022769927979,0.10067488998174667,-0.42377063632011414
3.6474764347076416,0.0495280884206295,-0.6287885308265686,0.5319118499755859,-0.5307153463363647,0.09899212419986725,-0.4244815707206726
3.668090343475342,0.04759829863905907,-0.6291130781173706,0.5316661596298218,-0.53180330991745,0.09903252124786377,-0.4247415363788605
3.6882011890411377,0.04159443452954292,-0.6299248933792114,0.5309507250785828,-0.5321800708770752,0.0981912687420845,-0.42530232667922974
3.708333730697632,0.039239391684532166,-0.632803738117218,0.5285173058509827,-0.5301645994186401,0.09845442324876785,-0.42546993494033813
3.72837495803833,0.03859849274158478,-0.634024441242218,0.5281174182891846,-0.5298544764518738,0.09869962185621262,-0.42562419176101685
3.7485084533691406,0.03936448693275452,-0.6364315748214722,0.5268238186836243,-0.529539167881012,0.10020701587200165,-0.425756573677063
3.768824815750122,0.03935833275318146,-0.639593243598938,0.5227702856063843,-0.529026210308075,0.10230454802513123,-0.42578375339508057
3.7889420986175537,0.04072069004178047,-0.6407310962677002,0.5217447876930237,-0.5295823812484741,0.10348152369260788,-0.4258449077606201
3.8090200424194336,0.04353153333067894,-0.6408215165138245,0.5250606536865234,-0.5290292501449585,0.10363651812076569,-0.42658713459968567
3.8290798664093018,0.042426273226737976,-0.6412867307662964,0.526063084602356,-0.5280063152313232,0.10320267081260681,-0.42699626088142395
3.8491392135620117,0.04192274808883667,-0.6417868137359619,0.5285291075706482,-0.5282476544380188,0.10230390727519989,-0.4278546869754791
3.8692331314086914,0.04258190095424652,-0.6408699154853821,0.5318669080734253,-0.529003381729126,0.10116765648126602,-0.4284954369068146
3.8893136978149414,0.043498653918504715,-0.640465497970581,0.5361291170120239,-0.531241774559021,0.10039537400007248,-0.42962127923965454
3.909644603729248,0.04388253018260002,-0.6410043835639954,0.5388060212135315,-0.5294170379638672,0.09957106411457062,-0.4304090440273285
3.9297311305999756,0.044655658304691315,-0.6428027153015137,0.5365117192268372,-0.5296216607093811,0.10104159265756607,-0.430519700050354
3.949801445007324,0.0473020002245903,-0.6445929408073425,0.5372709631919861,-0.5303049087524414,0.10155348479747772,-0.43111851811408997
3.9698832035064697,0.04718863219022751,-0.6462926864624023,0.5357698202133179,-0.5311450362205505,0.10231369733810425,-0.43132394552230835
3.989993095397949,0.045192547142505646,-0.6478179693222046,0.5372441411018372,-0.530409038066864,0.10180345177650452,-0.432056188583374
4.010028839111328,0.04487225040793419,-0.6488040685653687,0.5363422632217407,-0.5309387445449829,0.10230526328086853,-0.4322332739830017
4.030120134353638,0.042317040264606476,-0.6503933072090149,0.5344802737236023,-0.5319964289665222,0.102983757853508,-0.4327164888381958
4.0501868724823,0.0401320643723011,-0.651875376701355,0.5337206721305847,-0.530444860458374,0.10308920592069626,-0.4332346022129059
4.070276498794556,0.04067821800708771,-0.653033971786499,0.5322333574295044,-0.530961811542511,0.10398482531309128,-0.43337708711624146
4.090351104736328,0.039932794868946075,-0.6562947630882263,0.5269021391868591,-0.52951580286026,0.10592909157276154,-0.43348973989486694
4.1104042530059814,0.040175244212150574,-0.6567298173904419,0.5277621150016785,-0.5291610956192017,0.10594053566455841,-0.433846116065979
4.130497694015503,0.04010589048266411,-0.6590224504470825,0.525505006313324,-0.5279507040977478,0.10665998607873917,-0.43411198258399963
4.150595188140869,0.04268414527177811,-0.6617789268493652,0.521920919418335,-0.527681291103363,0.1089521050453186,-0.43439415097236633
4.170660972595215,0.04517685994505882,-0.6614652872085571,0.5231611728668213,-0.5285355448722839,0.10918402671813965,-0.4348141849040985
4.190771818161011,0.04426514357328415,-0.6631360650062561,0.5232568383216858,-0.5262511372566223,0.10890091210603714,-0.43577754497528076
4.211075305938721,0.04469836875796318,-0.6633065342903137,0.5237144827842712,-0.5264803171157837,0.10882247984409332,-0.4362320303916931
4.231112003326416,0.04445547237992287,-0.6648767590522766,0.5243774652481079,-0.5263786315917969,0.10849618911743164,-0.43712228536605835
4.251169204711914,0.04863781854510307,-0.6656013131141663,0.5278903841972351,-0.5268502831459045,0.10832275450229645,-0.43821385502815247
4.271271467208862,0.04976848512887955,-0.666022002696991,0.5295719504356384,-0.5269455909729004,0.10818833112716675,-0.4387447237968445
4.29135274887085,0.05202861502766609,-0.667887806892395,0.5317072868347168,-0.5272215008735657,0.10806234180927277,-0.4397336542606354
4.311627626419067,0.05117318034172058,-0.6689037084579468,0.5347306728363037,-0.5287657976150513,0.10737906396389008,-0.440848171710968
4.331759691238403,0.04955580458045006,-0.6690760850906372,0.5358468294143677,-0.5288956761360168,0.10695183277130127,-0.44127094745635986
4.351825475692749,0.04946880415081978,-0.6701924800872803,0.536917507648468,-0.5286034941673279,0.1066521406173706,-0.4419667422771454
4.371916055679321,0.0491851344704628,-0.6699338555335999,0.5386948585510254,-0.5291949510574341,0.1059204712510109,-0.44241827726364136
4.391981363296509,0.04672461003065109,-0.6705641746520996,0.5416916608810425,-0.5258904695510864,0.10379787534475327,-0.44323402643203735
4.412040948867798,0.04548707231879234,-0.6729066967964172,0.5401183366775513,-0.5273891687393188,0.10430165380239487,-0.44371938705444336
4.432196378707886,0.042207591235637665,-0.6729671359062195,0.5400600433349609,-0.5277799367904663,0.10332324355840683,-0.4441070556640625
4.452234506607056,0.04357774555683136,-0.6743685007095337,0.5399686098098755,-0.528373122215271,0.10394264757633209,-0.4447643756866455
4.472442865371704,0.04531027004122734,-0.6757104396820068,0.539874792098999,-0.5289151668548584,0.10454705357551575,-0.44515180587768555
4.492679119110107,0.046482451260089874,-0.6785569190979004,0.5391799211502075,-0.5299719572067261,0.10575879365205765,-0.4459332823753357
4.512681484222412,0.05054989457130432,-0.6807077527046204,0.5412634611129761,-0.5305802226066589,0.10629815608263016,-0.446830689907074
4.532777547836304,0.05273762345314026,-0.6813416481018066,0.5431272387504578,-0.5312355756759644,0.10668669641017914,-0.4474462866783142
4.55289101600647,0.054898809641599655,-0.6838540434837341,0.5449985861778259,-0.5303041934967041,0.10726213455200195,-0.4484589695930481
4.572966814041138,0.05364624783396721,-0.6872038245201111,0.5415308475494385,-0.5282708406448364,0.1086786538362503,-0.4485129714012146
4.593032598495483,0.055932700634002686,-0.6890897154808044,0.5438857674598694,-0.5275042057037354,0.10894618928432465,-0.44927865266799927
4.61328911781311,0.05676737055182457,-0.6898279190063477,0.5468534231185913,-0.5272727012634277,0.1089165210723877,-0.45026442408561707
4.633399963378906,0.052548494189977646,-0.6900061368942261,0.5477908253669739,-0.5268970727920532,0.10769536346197128,-0.4509073495864868
4.653517484664917,0.053885675966739655,-0.6898993253707886,0.5509852170944214,-0.5310128927230835,0.10753747075796127,-0.45201990008354187
4.673595666885376,0.05521165952086449,-0.6918636560440063,0.5494157075881958,-0.5316080451011658,0.10867654532194138,-0.4522249102592468
4.693706750869751,0.055026620626449585,-0.6926552057266235,0.5536993741989136,-0.5308555364608765,0.10707502067089081,-0.4535382091999054
4.713765859603882,0.049630291759967804,-0.6926971077919006,0.5548550486564636,-0.5299568176269531,0.10527625679969788,-0.4543207883834839
4.733873605728149,0.04772251471877098,-0.6936757564544678,0.55689936876297,-0.5298643112182617,0.10452839732170105,-0.4555741846561432
4.754016637802124,0.04864611104130745,-0.6944230198860168,0.5575620532035828,-0.5298855304718018,0.10483473539352417,-0.45608270168304443
4.774226903915405,0.04890618845820427,-0.6975425481796265,0.558156430721283,-0.5261215567588806,0.10518219321966171,-0.45710018277168274
4.7945826053619385,0.045684538781642914,-0.6996234059333801,0.555687427520752,-0.5268505811691284,0.10617658495903015,-0.4580712914466858
4.814740896224976,0.045917000621557236,-0.6999997496604919,0.5566262006759644,-0.5258468389511108,0.10598289221525192,-0.45860734581947327
4.834738731384277,0.04649849236011505,-0.7013464570045471,0.5561597943305969,-0.5292587876319885,0.10707005858421326,-0.45968589186668396
4.854827642440796,0.04702328145503998,-0.7017667889595032,0.5586462020874023,-0.5289198160171509,0.10644043982028961,-0.46045058965682983
4.874908447265625,0.05020647495985031,-0.7033993005752563,0.5601049661636353,-0.5284221172332764,0.10714446753263474,-0.4617423713207245
4.895146369934082,0.049586910754442215,-0.7046275734901428,0.5605294704437256,-0.5278900861740112,0.10710010677576065,-0.4624231159687042
4.915223836898804,0.04874986410140991,-0.7057852745056152,0.5616031885147095,-0.5246769785881042,0.10700016468763351,-0.4637535512447357
4.935298442840576,0.04880023002624512,-0.7087628841400146,0.5599125027656555,-0.5243557691574097,0.10835224390029907,-0.46487313508987427
4.955398321151733,0.0490894578397274,-0.7102382779121399,0.5579943060874939,-0.5258321166038513,0.10956849157810211,-0.46548992395401
4.975510835647583,0.04752916470170021,-0.712400496006012,0.5564504861831665,-0.5281580090522766,0.11061730980873108,-0.46689125895500183
4.995560646057129,0.044032033532857895,-0.7128745913505554,0.555412232875824,-0.531315803527832,0.11079300940036774,-0.4684327244758606
5.01576828956604,0.040038228034973145,-0.7133907079696655,0.5558500289916992,-0.5298389792442322,0.10927113890647888,-0.46935516595840454
5.035834312438965,0.040769074112176895,-0.7131180763244629,0.5568831562995911,-0.5309361219406128,0.10937030613422394,-0.47111576795578003
5.055917978286743,0.03737618774175644,-0.7122735381126404,0.5587731599807739,-0.5302539467811584,0.10771912336349487,-0.47230264544487
5.076022148132324,0.03376511484384537,-0.7139296531677246,0.5586432218551636,-0.5279313325881958,0.10707628726959229,-0.47398802638053894
5.096146583557129,0.03176683187484741,-0.7152224183082581,0.5605310201644897,-0.5237115621566772,0.10584978759288788,-0.4755910336971283
5.116291046142578,0.03192631155252457,-0.7160170674324036,0.5607141852378845,-0.5229778289794922,0.10625872015953064,-0.4763227105140686
5.136443376541138,0.03263359144330025,-0.7174725532531738,0.5591976046562195,-0.5220872759819031,0.10718262940645218,-0.4777258336544037
5.156470537185669,0.0319986529648304,-0.7175519466400146,0.5596476793289185,-0.5204797387123108,0.10697733610868454,-0.4786674976348877
5.176582336425781,0.03518860414624214,-0.7190641164779663,0.5588505864143372,-0.5196288228034973,0.10853977501392365,-0.48051366209983826
5.196703195571899,0.03458523005247116,-0.7197813987731934,0.5592939257621765,-0.5173366069793701,0.10818488150835037,-0.4815528988838196
5.216832876205444,0.03749523684382439,-0.7207978963851929,0.5580869913101196,-0.5172117948532104,0.10979795455932617,-0.4835790693759918
5.236904859542847,0.03842149302363396,-0.7205315232276917,0.5590717196464539,-0.5161558985710144,0.10996908694505692,-0.4861755669116974
5.257017135620117,0.03932967409491539,-0.7209110260009766,0.5584694743156433,-0.517349898815155,0.11086846143007278,-0.48748502135276794
5.277139663696289,0.04088287428021431,-0.7205193042755127,0.5600689053535461,-0.5180746912956238,0.11125490069389343,-0.4904470443725586
5.297180652618408,0.03893062472343445,-0.7204804420471191,0.5597851276397705,-0.5169979333877563,0.11087444424629211,-0.4919936954975128
5.317355632781982,0.0369691327214241,-0.7198923826217651,0.5610190629959106,-0.5150683522224426,0.10966547578573227,-0.49519822001457214
5.337506055831909,0.03623146191239357,-0.7196006178855896,0.5618443489074707,-0.5157853960990906,0.10914666950702667,-0.4985211193561554
5.357524156570435,0.03595355898141861,-0.7197158336639404,0.5614745020866394,-0.516739547252655,0.1093691885471344,-0.5002174973487854
5.37762975692749,0.034108493477106094,-0.7208700180053711,0.5598162412643433,-0.5175558924674988,0.10987886786460876,-0.5035507678985596
5.397870302200317,0.034907057881355286,-0.7218508720397949,0.5597370266914368,-0.5185270309448242,0.11052380502223969,-0.5069103240966797
5.418049335479736,0.03624697029590607,-0.7218143343925476,0.5605800151824951,-0.5205405354499817,0.11092489957809448,-0.5086783766746521
5.4381372928619385,0.03936396911740303,-0.7218174338340759,0.5622486472129822,-0.5227254033088684,0.11156009137630463,-0.5120924711227417
5.45818829536438,0.04078878089785576,-0.7216196060180664,0.5636820793151855,-0.5231320261955261,0.11148186028003693,-0.5138733386993408
5.478266000747681,0.035762399435043335,-0.7214202284812927,0.5631159543991089,-0.5261021256446838,0.11079201102256775,-0.5172353982925415
5.499281406402588,0.03712323680520058,-0.7218273878097534,0.5638071894645691,-0.5300296545028687,0.11145412921905518,-0.5203405022621155
5.519402265548706,0.03761095553636551,-0.7224088907241821,0.5634737014770508,-0.5318804383277893,0.11190879344940186,-0.5218396186828613
5.539454460144043,0.033143725246191025,-0.7224618792533875,0.5620242357254028,-0.5334012508392334,0.11123966425657272,-0.52492356300354
5.559541940689087,0.03247685357928276,-0.7239932417869568,0.5591573715209961,-0.5345309972763062,0.11237547546625137,-0.5260677933692932
5.579628229141235,0.035953912883996964,-0.7253766059875488,0.5596098899841309,-0.5349136590957642,0.1134069636464119,-0.5284444689750671
5.6002891063690186,0.03944453224539757,-0.7255973219871521,0.5622089505195618,-0.5371803045272827,0.1139674112200737,-0.5308424830436707
5.620378255844116,0.040703184902668,-0.7252511382102966,0.5636194944381714,-0.5378041863441467,0.11387147754430771,-0.531986653804779
5.640440464019775,0.04402073845267296,-0.7251441478729248,0.5660289525985718,-0.5384917259216309,0.1138252392411232,-0.5343835949897766
5.660638093948364,0.04562648758292198,-0.7258063554763794,0.5655884742736816,-0.5391759276390076,0.11459790170192719,-0.5354346632957458
5.680755615234375,0.04482145980000496,-0.7281593084335327,0.5647856593132019,-0.5422275066375732,0.11547669768333435,-0.5375027656555176
5.700731039047241,0.039696644991636276,-0.7283997535705566,0.5625447034835815,-0.5465413331985474,0.11564669758081436,-0.5394890904426575
5.7208216190338135,0.03940349817276001,-0.728744626045227,0.5625192523002625,-0.5479545593261719,0.11592631042003632,-0.5404621362686157
5.74089789390564,0.03809712454676628,-0.7287960052490234,0.5647484064102173,-0.5466326475143433,0.11463945358991623,-0.5421620011329651
5.761023759841919,0.03960308060050011,-0.7275993227958679,0.5671423673629761,-0.545110821723938,0.1136263981461525,-0.5430465340614319
5.781084299087524,0.04305608198046684,-0.7277404069900513,0.5686444640159607,-0.5433908700942993,0.1135585680603981,-0.544518232345581
5.801154851913452,0.04499378055334091,-0.7283653020858765,0.5691933631896973,-0.5469504594802856,0.11428147554397583,-0.546116828918457
5.821343898773193,0.04282795265316963,-0.7285420298576355,0.5680643916130066,-0.5475530028343201,0.1143186017870903,-0.5468430519104004
5.841353893280029,0.03924499824643135,-0.7306276559829712,0.5631823539733887,-0.5499000549316406,0.1160588338971138,-0.5478854179382324
5.861454725265503,0.03579430654644966,-0.7310090661048889,0.5625985264778137,-0.5509685277938843,0.11562618613243103,-0.5485163331031799
5.881613731384277,0.033162672072649,-0.7309633493423462,0.5639721155166626,-0.5528097748756409,0.11469103395938873,-0.5496566891670227
5.901618003845215,0.037139713764190674,-0.7293003797531128,0.5681257247924805,-0.5541498064994812,0.11379741132259369,-0.5508937239646912
5.921720266342163,0.03974588215351105,-0.7286346554756165,0.5703334808349609,-0.5553122162818909,0.11351079493761063,-0.5515847206115723
5.941782474517822,0.04239564388990402,-0.7300066947937012,0.571418046951294,-0.5558569431304932,0.114160917699337,-0.5524621605873108
5.9618980884552,0.0418766513466835,-0.7307997345924377,0.5707892775535583,-0.5556677579879761,0.11462049931287766,-0.5527240037918091
5.9819653034210205,0.0411250926554203,-0.7318775653839111,0.5683948397636414,-0.5541456937789917,0.11596024036407471,-0.5532020330429077
6.002046823501587,0.04179791733622551,-0.7323839664459229,0.566949725151062,-0.5555338263511658,0.11713958531618118,-0.5535435676574707
6.022156476974487,0.0411904975771904,-0.734102189540863,0.566020667552948,-0.5587275624275208,0.11820393800735474,-0.5545048117637634
6.042417049407959,0.04129115119576454,-0.7341212034225464,0.5667970180511475,-0.5598579049110413,0.11817903071641922,-0.5550321936607361
6.0626795291900635,0.04172945022583008,-0.7340283989906311,0.568367600440979,-0.5608874559402466,0.11787443608045578,-0.5559501051902771
6.082845211029053,0.043579500168561935,-0.7333582639694214,0.5705650448799133,-0.560383141040802,0.11721008270978928,-0.5567970871925354
6.102978229522705,0.04330122098326683,-0.733989953994751,0.5699239373207092,-0.5587133765220642,0.11741684377193451,-0.5569300055503845
6.123056888580322,0.042906127870082855,-0.7352685332298279,0.5691398978233337,-0.5605425834655762,0.11826155334711075,-0.5573455691337585
6.143173694610596,0.04219365864992142,-0.735744297504425,0.5688291192054749,-0.5609973669052124,0.11837641894817352,-0.5575248003005981
6.1632678508758545,0.04235102981328964,-0.7358777523040771,0.5696126222610474,-0.5625911355018616,0.11841602623462677,-0.5580116510391235
6.18330717086792,0.041934095323085785,-0.7358620166778564,0.5703474879264832,-0.5626876354217529,0.1179717630147934,-0.5582560896873474
6.20342755317688,0.04300686717033386,-0.7346293330192566,0.5729937553405762,-0.562203586101532,0.11663112044334412,-0.5587893128395081
6.2235023975372314,0.0432840920984745,-0.735247015953064,0.5717180371284485,-0.5600885152816772,0.11712810397148132,-0.5589989423751831
6.243631839752197,0.04340861737728119,-0.7352798581123352,0.5722212195396423,-0.5583186149597168,0.11678674072027206,-0.5591186285018921
6.263814210891724,0.04320022836327553,-0.7372584342956543,0.568881094455719,-0.5593976378440857,0.11853975802659988,-0.5590858459472656
6.283853530883789,0.042961008846759796,-0.7389775514602661,0.5658711194992065,-0.5614376664161682,0.12012011557817459,-0.5591919422149658
6.3041181564331055,0.04328501224517822,-0.7391984462738037,0.5655348300933838,-0.5626848340034485,0.12062368541955948,-0.5593686103820801
6.324097394943237,0.04358087480068207,-0.7394378781318665,0.5656355619430542,-0.5638256669044495,0.12094257026910782,-0.5597683787345886
6.344210863113403,0.04484691470861435,-0.7387638092041016,0.5675039291381836,-0.5647869110107422,0.1205185279250145,-0.5601139068603516
6.364353656768799,0.047922663390636444,-0.7376774549484253,0.5714141726493835,-0.5656701922416687,0.11952534317970276,-0.560727596282959
6.384379863739014,0.04761787876486778,-0.7375231385231018,0.5733011364936829,-0.5632728338241577,0.11848350614309311,-0.5609825849533081
6.404475212097168,0.04877186939120293,-0.7371481657028198,0.5746355056762695,-0.5618658065795898,0.1179923266172409,-0.5610463619232178
6.424595832824707,0.04641538858413696,-0.7377946972846985,0.5744216442108154,-0.5628080368041992,0.11798916012048721,-0.5611406564712524
6.445225477218628,0.04438796639442444,-0.7379440069198608,0.5742138028144836,-0.5638298988342285,0.11792666465044022,-0.5611655712127686
6.465307712554932,0.042144112288951874,-0.7375928163528442,0.5738068222999573,-0.5646929740905762,0.11763463169336319,-0.5612168312072754
6.485401630401611,0.04099171236157417,-0.7378749251365662,0.5737514495849609,-0.5657093524932861,0.117542564868927,-0.5612163543701172
6.505535125732422,0.04109581559896469,-0.7380245327949524,0.5736440420150757,-0.565818727016449,0.11766711622476578,-0.5611560344696045
6.525636911392212,0.04145977273583412,-0.7384688854217529,0.5735562443733215,-0.5665340423583984,0.11800456047058105,-0.5610856413841248
6.5457541942596436,0.04135483130812645,-0.7386693954467773,0.5735061764717102,-0.5665844678878784,0.11803586035966873,-0.5610619187355042
6.5658040046691895,0.041043829172849655,-0.738861620426178,0.5735049247741699,-0.5665477514266968,0.11797682195901871,-0.5610111951828003
6.585983753204346,0.04125230386853218,-0.7386491298675537,0.573814868927002,-0.5661736130714417,0.11784663796424866,-0.5609578490257263
6.606147527694702,0.04120294004678726,-0.738683819770813,0.5736438632011414,-0.5656331777572632,0.11787436157464981,-0.5608711838722229
6.626209259033203,0.04117923602461815,-0.738323450088501,0.5736194252967834,-0.5649519562721252,0.11780527234077454,-0.5607551336288452
6.646260023117065,0.041823361068964005,-0.7380187511444092,0.5736196041107178,-0.5654414296150208,0.11803452670574188,-0.5607881546020508
6.666361570358276,0.04145767539739609,-0.7386380434036255,0.5729393362998962,-0.5660855174064636,0.11836220324039459,-0.5609330534934998
6.686434030532837,0.041726067662239075,-0.7387487888336182,0.5729276537895203,-0.5662893056869507,0.11845982074737549,-0.5610083341598511
6.70657205581665,0.04171346127986908,-0.7392026782035828,0.5722728371620178,-0.5665246844291687,0.11873285472393036,-0.5610907673835754
6.7267115116119385,0.04154735803604126,-0.7392659783363342,0.5727476477622986,-0.5669673681259155,0.11861200630664825,-0.5612753629684448
6.7467262744903564,0.04170229658484459,-0.7392840385437012,0.572880208492279,-0.5673428773880005,0.11866529285907745,-0.5613335371017456
6.766904830932617,0.041460033506155014,-0.7392162084579468,0.5732479691505432,-0.5673514604568481,0.11842841655015945,-0.5614174604415894
6.787130117416382,0.04093098267912865,-0.7392815947532654,0.5736578106880188,-0.5672657489776611,0.1180756613612175,-0.5614944100379944
6.8073670864105225,0.04094905033707619,-0.7396143674850464,0.5733486413955688,-0.5675891041755676,0.11827730387449265,-0.5614813566207886
6.827825546264648,0.041052546352148056,-0.7400329113006592,0.572868287563324,-0.5680885910987854,0.1186152994632721,-0.5614546537399292
6.847880125045776,0.04138944298028946,-0.7399607300758362,0.57309889793396,-0.5682660937309265,0.11866915225982666,-0.5614862442016602
6.867965936660767,0.04118781164288521,-0.7399455904960632,0.5729914307594299,-0.5673715472221375,0.11854903399944305,-0.5614781975746155
6.888036251068115,0.04142975062131882,-0.7399479150772095,0.5731364488601685,-0.5675566792488098,0.11851583421230316,-0.561496376991272
6.9082605838775635,0.041208166629076004,-0.7406898140907288,0.5720338821411133,-0.5668588876724243,0.11883345246315002,-0.5613550543785095
6.928240060806274,0.042967744171619415,-0.7408280372619629,0.5726510882377625,-0.5672589540481567,0.11918003857135773,-0.561345636844635
6.948385715484619,0.043782420456409454,-0.7405514717102051,0.5734918117523193,-0.5675941705703735,0.11899292469024658,-0.5614326000213623
6.968455791473389,0.045916490256786346,-0.7398613691329956,0.5759669542312622,-0.5678602457046509,0.11825712025165558,-0.5616198778152466
6.988674640655518,0.045966457575559616,-0.7394697666168213,0.577778160572052,-0.5659907460212708,0.11712285131216049,-0.5616869926452637
7.00876522064209,0.0451425202190876,-0.7397939562797546,0.5775794982910156,-0.5654006600379944,0.11698048561811447,-0.5616141557693481
7.0288190841674805,0.045008618384599686,-0.7407364845275879,0.5765818357467651,-0.5660593509674072,0.11769691109657288,-0.561470091342926
7.0489184856414795,0.04425608366727829,-0.7415487766265869,0.5754071474075317,-0.5663431882858276,0.1181425228714943,-0.5613316893577576
7.069058179855347,0.043447110801935196,-0.7423502802848816,0.5740597248077393,-0.5663458108901978,0.11864538490772247,-0.5612008571624756
7.089243173599243,0.04370603337883949,-0.7421811819076538,0.5744737386703491,-0.5667144060134888,0.11867642402648926,-0.5612280368804932
7.109358072280884,0.04364800080657005,-0.7421442270278931,0.5748437643051147,-0.5672511458396912,0.1185956820845604,-0.5612773895263672
7.129493713378906,0.04504360631108284,-0.7419289946556091,0.5754996538162231,-0.5679857730865479,0.11879174411296844,-0.5613186955451965
7.149621486663818,0.045706603676080704,-0.7417699694633484,0.576266884803772,-0.568518340587616,0.1186608076095581,-0.5613899827003479
7.169642448425293,0.04600350931286812,-0.7419182062149048,0.576149046421051,-0.5689529180526733,0.11886177957057953,-0.5613612532615662
7.189691781997681,0.04472044110298157,-0.7417605519294739,0.5760964751243591,-0.5686939358711243,0.11855747550725937,-0.5613695979118347
7.209804058074951,0.04399314522743225,-0.741847813129425,0.5762366652488708,-0.5688459277153015,0.11841258406639099,-0.5613589882850647
7.229936361312866,0.042444612830877304,-0.7425004839897156,0.5749122500419617,-0.5690248608589172,0.11856440454721451,-0.5612484216690063
7.250032186508179,0.04171818122267723,-0.7427242994308472,0.5744694471359253,-0.5687990188598633,0.11849562078714371,-0.5612155795097351
7.270102262496948,0.042894504964351654,-0.7426209449768066,0.5744922161102295,-0.5693728923797607,0.11893433332443237,-0.5612242221832275
7.2905051708221436,0.04314761608839035,-0.742550790309906,0.5745890736579895,-0.569499135017395,0.11899755150079727,-0.5612371563911438
7.31061577796936,0.043064139783382416,-0.7423807978630066,0.5749349594116211,-0.5694707036018372,0.11883573234081268,-0.5612794756889343
7.330652713775635,0.04281241446733475,-0.7423250675201416,0.5753183364868164,-0.5697044730186462,0.1186283677816391,-0.5613431930541992
7.350754499435425,0.042824290692806244,-0.7422724962234497,0.5753751993179321,-0.5696576833724976,0.11859793215990067,-0.561349093914032
7.370849132537842,0.042769480496644974,-0.7422658205032349,0.5754691362380981,-0.569612443447113,0.11854076385498047,-0.5613683462142944
7.391313552856445,0.042791299521923065,-0.7422787547111511,0.5753237009048462,-0.56908118724823,0.11856022477149963,-0.5613455772399902
7.4114158153533936,0.04280409216880798,-0.7422369122505188,0.5753768682479858,-0.5691221952438354,0.11854441463947296,-0.5613523125648499
7.4315454959869385,0.04282573610544205,-0.7421748042106628,0.5754582285881042,-0.569186806678772,0.11851941049098969,-0.5613623857498169
7.451602220535278,0.04316280037164688,-0.7421157360076904,0.5753809213638306,-0.5692977905273438,0.11866068840026855,-0.5613442063331604
7.471742630004883,0.043374236673116684,-0.7421277761459351,0.5753599405288696,-0.5694571733474731,0.11876632273197174,-0.5613296627998352
7.492108345031738,0.03999566659331322,-0.7412969470024109,0.5749734044075012,-0.5698003172874451,0.11792687326669693,-0.5614281892776489
7.5122902393341064,0.03973323479294777,-0.7411084175109863,0.5747077465057373,-0.5701131820678711,0.11795610189437866,-0.561406672000885
7.532331943511963,0.03962002322077751,-0.7410646080970764,0.5749474167823792,-0.5695484280586243,0.11762429028749466,-0.5613459348678589
7.552592754364014,0.03930606320500374,-0.7410558462142944,0.575188934803009,-0.5693882703781128,0.11735697090625763,-0.5613467693328857
7.57270359992981,0.03966115787625313,-0.7411463260650635,0.5751161575317383,-0.5692432522773743,0.11742012202739716,-0.561288595199585
7.592726945877075,0.04004589468240738,-0.7411422729492188,0.5750448107719421,-0.5691829323768616,0.11752359569072723,-0.5612367391586304
7.612902641296387,0.04053821787238121,-0.7411335110664368,0.5749514102935791,-0.5694165229797363,0.11773063987493515,-0.5612158179283142
7.633018732070923,0.040484193712472916,-0.7410743236541748,0.575036346912384,-0.5692286491394043,0.11765551567077637,-0.5612117052078247
7.653157711029053,0.041389983147382736,-0.7412038445472717,0.5749869346618652,-0.569442868232727,0.11798401176929474,-0.5611770749092102
7.678063631057739,0.041853148490190506,-0.7413802742958069,0.5750629901885986,-0.569538414478302,0.11811645328998566,-0.5611674785614014
7.698181390762329,0.043158505111932755,-0.7417702674865723,0.5753834247589111,-0.5694084763526917,0.1184222400188446,-0.5611538887023926
7.7182769775390625,0.043813034892082214,-0.7418838143348694,0.575531005859375,-0.5694359540939331,0.11869800835847855,-0.5612001419067383
7.738365888595581,0.044371385127305984,-0.7418439388275146,0.5752809047698975,-0.5693393349647522,0.11903075873851776,-0.5611785650253296
7.758473873138428,0.04475640133023262,-0.7418984174728394,0.5752332806587219,-0.5696570873260498,0.1193680688738823,-0.5612250566482544
7.778522253036499,0.044388800859451294,-0.741736114025116,0.575432300567627,-0.569535493850708,0.11921542882919312,-0.5612658858299255
7.798627138137817,0.044123582541942596,-0.7416183352470398,0.5754925012588501,-0.5690827965736389,0.11907544732093811,-0.5612719058990479
7.818734645843506,0.0433470644056797,-0.7416248321533203,0.5758692026138306,-0.5692094564437866,0.1187206506729126,-0.5613553524017334
7.838813304901123,0.04325253516435623,-0.7416596412658691,0.5757458209991455,-0.5689545273780823,0.11870187520980835,-0.5613396167755127
7.858899116516113,0.04364173859357834,-0.7417385578155518,0.5754451155662537,-0.5690875053405762,0.1189807653427124,-0.5613119602203369
7.8794190883636475,0.04352834075689316,-0.741687536239624,0.5754183530807495,-0.5689485669136047,0.11893312633037567,-0.56130450963974
7.8995139598846436,0.043624818325042725,-0.7416898012161255,0.5754584670066833,-0.5690397620201111,0.11897940188646317,-0.5613209009170532
7.919575214385986,0.0436389334499836,-0.7418004870414734,0.5753392577171326,-0.569079577922821,0.1190541684627533,-0.5613180994987488
7.939762592315674,0.043590255081653595,-0.7418238520622253,0.5753770470619202,-0.569168210029602,0.11902007460594177,-0.5613241791725159
7.959764719009399,0.042730480432510376,-0.7418407797813416,0.5757132172584534,-0.5690128803253174,0.11855526268482208,-0.5613752603530884
7.980010747909546,0.04297652095556259,-0.7419294714927673,0.5755882263183594,-0.5692538022994995,0.11872105300426483,-0.5613726377487183
7.999999761581421,0.04337195307016373,-0.7418518662452698,0.5754648447036743,-0.5694520473480225,0.11889222264289856,-0.5613487362861633
8.020063877105713,0.0433584563434124,-0.7418545484542847,0.5754808783531189,-0.5694867372512817,0.11887776106595993,-0.5613501071929932
8.04013991355896,0.04374583438038826,-0.7419996857643127,0.575343132019043,-0.5698354244232178,0.1191103532910347,-0.561343252658844
8.06023645401001,0.043685100972652435,-0.7419893741607666,0.5753846168518066,-0.569814920425415,0.11906261742115021,-0.5613449215888977
8.080329179763794,0.043362826108932495,-0.7420262098312378,0.5753278732299805,-0.5692307949066162,0.11891846358776093,-0.561318576335907
8.100385189056396,0.043326765298843384,-0.7420831322669983,0.5754764080047607,-0.5696505904197693,0.11888353526592255,-0.561352014541626
8.120480298995972,0.04304491728544235,-0.7419564127922058,0.5755232572555542,-0.5691795945167542,0.11868777871131897,-0.5613390207290649
8.140603065490723,0.04279956594109535,-0.7419751882553101,0.5756433010101318,-0.5692713260650635,0.11855962127447128,-0.5613661408424377
8.161046028137207,0.04311007261276245,-0.7420775890350342,0.5756112337112427,-0.5697895884513855,0.1187373548746109,-0.5613788962364197
8.181126117706299,0.04266471043229103,-0.7419060468673706,0.5755642056465149,-0.5697646737098694,0.11859070509672165,-0.5613890290260315
8.201232433319092,0.03955575451254845,-0.7409542202949524,0.5752154588699341,-0.5702241063117981,0.11773162335157394,-0.5614603757858276
8.22133183479309,0.0390227809548378,-0.7408976554870605,0.5755017995834351,-0.569866955280304,0.1173332929611206,-0.561467170715332
8.241495370864868,0.03896336629986763,-0.7409331798553467,0.5755513310432434,-0.569429337978363,0.11713910102844238,-0.5614126324653625
8.262209415435791,0.03903625160455704,-0.7409476041793823,0.5755573511123657,-0.5691189765930176,0.11701899766921997,-0.5613449215888977
8.2823166847229,0.03917191922664642,-0.7410706877708435,0.5754282474517822,-0.5689888000488281,0.1170884519815445,-0.5613128542900085
8.30245327949524,0.040253207087516785,-0.7413812279701233,0.575233519077301,-0.5691217184066772,0.117498479783535,-0.5612360239028931
8.322495937347412,0.04110308736562729,-0.7415822744369507,0.5751786828041077,-0.5693752765655518,0.11780591309070587,-0.5611944198608398
8.342569351196289,0.04177936911582947,-0.7417318224906921,0.5751190185546875,-0.5701420903205872,0.11815755069255829,-0.5611880421638489
8.362677097320557,0.04231371730566025,-0.741856038570404,0.575218677520752,-0.5701122879981995,0.11829083412885666,-0.5611702799797058
8.382795810699463,0.04311763495206833,-0.7420881986618042,0.5751042366027832,-0.5700407028198242,0.11862826347351074,-0.5611293315887451
8.402887344360352,0.04334422945976257,-0.7421379089355469,0.5751481652259827,-0.5704679489135742,0.11873465776443481,-0.5611377954483032
8.423140048980713,0.042916059494018555,-0.7420017123222351,0.5753525495529175,-0.5702061057090759,0.11848120391368866,-0.5611465573310852
8.443215370178223,0.04268450662493706,-0.7420494556427002,0.5753130316734314,-0.5698878169059753,0.11840888857841492,-0.5611440539360046
8.463260412216187,0.042651887983083725,-0.7420074939727783,0.5754488706588745,-0.5702251195907593,0.11839034408330917,-0.561167299747467
8.483733892440796,0.043440837413072586,-0.7421940565109253,0.5756822824478149,-0.5699788331985474,0.11854685097932816,-0.5611377358436584
8.503790855407715,0.04342959076166153,-0.7421690821647644,0.5756814479827881,-0.5699651837348938,0.11856185644865036,-0.5611349940299988
8.523862838745117,0.043083637952804565,-0.7420864105224609,0.575719952583313,-0.5695536136627197,0.11841928958892822,-0.5611300468444824
8.543990850448608,0.04311712458729744,-0.7420686483383179,0.5757079124450684,-0.5696015357971191,0.11845485121011734,-0.5611292123794556
8.564154863357544,0.04281163588166237,-0.7421343922615051,0.5757858753204346,-0.5696332454681396,0.1183711588382721,-0.5611572265625
8.584169387817383,0.04287959635257721,-0.7420834898948669,0.5756606459617615,-0.5693975687026978,0.11842690408229828,-0.5610895752906799
8.604319334030151,0.04293857514858246,-0.742058515548706,0.5756564736366272,-0.5694695711135864,0.11846154928207397,-0.5610946416854858
8.624491453170776,0.043086349964141846,-0.7419726252555847,0.5756468176841736,-0.5695459246635437,0.11851836740970612,-0.5610862970352173
8.644506216049194,0.04286176711320877,-0.7419519424438477,0.575751781463623,-0.5694835186004639,0.11839458346366882,-0.5610793828964233
8.664711236953735,0.04288559779524803,-0.7419610023498535,0.5756558179855347,-0.5692797303199768,0.11842450499534607,-0.5610309839248657
8.68466854095459,0.04288197308778763,-0.7418962121009827,0.5758222937583923,-0.5696336627006531,0.11838354915380478,-0.5610272884368896
8.70481562614441,0.042683809995651245,-0.7418785095214844,0.5758964419364929,-0.569560170173645,0.11827787756919861,-0.5610267519950867
8.724863529205322,0.04290853813290596,-0.7419149875640869,0.5758833289146423,-0.569934070110321,0.1183970719575882,-0.5610163807868958
8.744974136352539,0.04287740960717201,-0.7419190406799316,0.5757790207862854,-0.5696133375167847,0.11839459091424942,-0.5609899163246155
8.765114545822144,0.04289999604225159,-0.7418588399887085,0.5758801102638245,-0.5698500871658325,0.11837133765220642,-0.5609894394874573
8.785231590270996,0.04313375800848007,-0.741879403591156,0.5756666660308838,-0.5696665048599243,0.11853138357400894,-0.5609551668167114
8.805359125137329,0.043734803795814514,-0.7419569492340088,0.5755313634872437,-0.5702356100082397,0.11887431889772415,-0.5609526038169861
8.825487852096558,0.043692752718925476,-0.7419642210006714,0.5755546689033508,-0.5702040791511536,0.11885395646095276,-0.5609493851661682
8.845550298690796,0.04354603588581085,-0.7420511245727539,0.5755106210708618,-0.570172905921936,0.11881917715072632,-0.5609625577926636
8.865608215332031,0.04351486265659332,-0.7420337796211243,0.5755284428596497,-0.5701743364334106,0.11880546808242798,-0.5609624981880188
8.885761499404907,0.04331415519118309,-0.7420353889465332,0.5756837725639343,-0.5703445076942444,0.11867308616638184,-0.560989499092102
8.90584921836853,0.04322335124015808,-0.7420026659965515,0.5755876898765564,-0.5699596405029297,0.118642657995224,-0.5609686970710754
8.925941705703735,0.043293800204992294,-0.7418742179870605,0.5754740238189697,-0.5695750713348389,0.11862947046756744,-0.5609333515167236
8.946000814437866,0.04313892126083374,-0.7419141530990601,0.5753186345100403,-0.5691000819206238,0.11859843879938126,-0.5608728528022766
8.966195583343506,0.043233197182416916,-0.7418631911277771,0.5753195285797119,-0.5692044496536255,0.11863119155168533,-0.5608539581298828
8.986196041107178,0.04275180771946907,-0.7419307231903076,0.5756168961524963,-0.5695469379425049,0.11840394139289856,-0.5608893632888794
9.006300210952759,0.0428122915327549,-0.7419579029083252,0.5755833983421326,-0.5696079730987549,0.11843211203813553,-0.5608766674995422
9.026367664337158,0.043004680424928665,-0.7419869303703308,0.5755953192710876,-0.5700353980064392,0.11852739751338959,-0.5608711838722229
9.046482801437378,0.04337175562977791,-0.7419483661651611,0.5754521489143372,-0.5701207518577576,0.11870431900024414,-0.5608382821083069
9.066741704940796,0.04320042207837105,-0.7419595718383789,0.575309157371521,-0.5695072412490845,0.11864474415779114,-0.560797929763794
9.086876392364502,0.04351429641246796,-0.742067813873291,0.5750243067741394,-0.5692270398139954,0.1188427284359932,-0.5607462525367737
9.107016324996948,0.04329676926136017,-0.7419912219047546,0.5751885175704956,-0.569193959236145,0.11867958307266235,-0.560754656791687
9.127118110656738,0.04334279149770737,-0.7419165968894958,0.5751927495002747,-0.5690826177597046,0.11865359544754028,-0.5607330799102783
9.14727258682251,0.04340995103120804,-0.7419747710227966,0.5753044486045837,-0.5695386528968811,0.11868150532245636,-0.5607560276985168
9.167291402816772,0.043350864201784134,-0.7419814467430115,0.5752964615821838,-0.5696744322776794,0.11864590644836426,-0.5607433319091797
9.187359094619751,0.0418204627931118,-0.741659939289093,0.5749975442886353,-0.5705166459083557,0.1183825433254242,-0.5607895255088806
9.207484722137451,0.041504450142383575,-0.7416821122169495,0.5751169919967651,-0.5703954696655273,0.1181643158197403,-0.5607612133026123
9.227555274963379,0.041316963732242584,-0.7416712045669556,0.5753101706504822,-0.570630669593811,0.11798994243144989,-0.5607588887214661
9.247811079025269,0.04125603288412094,-0.7416971921920776,0.5751742124557495,-0.5703147053718567,0.11792659014463425,-0.560720682144165
9.267975807189941,0.040926817804574966,-0.7416791915893555,0.5751897692680359,-0.5699039697647095,0.11773906648159027,-0.5606856346130371
9.28800916671753,0.04244422912597656,-0.7419861555099487,0.5752425789833069,-0.5703623294830322,0.11824921518564224,-0.5606645941734314
9.308550357818604,0.043148573487997055,-0.7421292662620544,0.5751869678497314,-0.5704512000083923,0.11852104961872101,-0.5606427788734436
9.328629493713379,0.04375607892870903,-0.7422363758087158,0.5751368999481201,-0.5701391100883484,0.11876332759857178,-0.560609757900238
9.348693370819092,0.04404843598604202,-0.7421709299087524,0.5750133991241455,-0.5697786211967468,0.11894656717777252,-0.5605621337890625
9.368781328201294,0.04362047463655472,-0.7422149777412415,0.575198769569397,-0.56974196434021,0.11875618994235992,-0.5605887770652771
9.388855934143066,0.04311727359890938,-0.7419828772544861,0.5754665732383728,-0.5692434906959534,0.11843527108430862,-0.5605694055557251
9.408962726593018,0.04267208278179169,-0.7419710159301758,0.5755167007446289,-0.5689502358436584,0.11823264509439468,-0.5605562925338745
9.42905330657959,0.04248517379164696,-0.742002546787262,0.5756790637969971,-0.5691704750061035,0.11817880719900131,-0.5605800151824951
9.449158430099487,0.04297703132033348,-0.7420145273208618,0.5754089951515198,-0.5693869590759277,0.11850126087665558,-0.5605348348617554
9.469254732131958,0.04310285300016403,-0.742008626461029,0.5755251049995422,-0.5698160529136658,0.11855669319629669,-0.5605535507202148
9.489325761795044,0.043126240372657776,-0.7419937252998352,0.5756205916404724,-0.5702403783798218,0.11856958270072937,-0.560559093952179
9.509432792663574,0.04307778552174568,-0.7420542240142822,0.5756434202194214,-0.5702551603317261,0.11856637895107269,-0.5605675578117371
9.52959680557251,0.043112438172101974,-0.7421284914016724,0.575481116771698,-0.5700580477714539,0.1186194121837616,-0.5605363249778748
9.549696922302246,0.04304813966155052,-0.742012619972229,0.5754678249359131,-0.5697888135910034,0.11855072528123856,-0.5605101585388184
9.569911241531372,0.04273456335067749,-0.7419795989990234,0.5755459666252136,-0.5693951845169067,0.1183711588382721,-0.5605120062828064
9.590077638626099,0.042840491980314255,-0.7419586777687073,0.5756227374076843,-0.5698904991149902,0.11843324452638626,-0.5605283379554749
9.610072135925293,0.04315311834216118,-0.7420520782470703,0.5756082534790039,-0.5703785419464111,0.11862210184335709,-0.5605584979057312
9.630136489868164,0.04312093183398247,-0.7420883774757385,0.5756487846374512,-0.5703423023223877,0.11861027777194977,-0.5605654120445251
9.650188207626343,0.04332120344042778,-0.7421079277992249,0.5755096077919006,-0.5700756311416626,0.11870061606168747,-0.5605347752571106
9.670384407043457,0.04311564564704895,-0.7421930432319641,0.5755352973937988,-0.5701304078102112,0.11861775815486908,-0.5605381727218628
9.690407991409302,0.04243307188153267,-0.7421035766601562,0.5757279396057129,-0.5698975324630737,0.11823687702417374,-0.5605437755584717
9.710513591766357,0.04249829798936844,-0.7420956492424011,0.5757709741592407,-0.5702686905860901,0.11826294660568237,-0.560551106929779
9.730608701705933,0.04260712116956711,-0.7421129941940308,0.5757831931114197,-0.5706175565719604,0.11833816766738892,-0.5605649352073669
9.750743865966797,0.04283905401825905,-0.7421351671218872,0.5756373405456543,-0.570659339427948,0.11849171668291092,-0.5605494379997253
9.770870685577393,0.04323001205921173,-0.7420510053634644,0.5755410194396973,-0.5706701874732971,0.11865687370300293,-0.5605266690254211
9.790971755981445,0.043073903769254684,-0.7419831156730652,0.5756425857543945,-0.5703878998756409,0.11850040405988693,-0.5605347156524658
9.811152458190918,0.04263092577457428,-0.7419759035110474,0.5756208896636963,-0.5699300765991211,0.1182839423418045,-0.5605279803276062
9.831251621246338,0.04281102120876312,-0.7418935894966125,0.5757224559783936,-0.5706480145454407,0.11836816370487213,-0.5605373978614807
9.85165524482727,0.042794276028871536,-0.7419141530990601,0.5755956768989563,-0.5704907774925232,0.11838391423225403,-0.5605348944664001
9.87177300453186,0.04236697033047676,-0.7419201135635376,0.57558274269104,-0.5697169303894043,0.11819694936275482,-0.5605275630950928
9.891826629638672,0.042793210595846176,-0.7417837977409363,0.5754072070121765,-0.569646418094635,0.11839935183525085,-0.5604826211929321
9.912042617797852,0.04283604398369789,-0.7419000267982483,0.5752648115158081,-0.5695739984512329,0.11848415434360504,-0.5604671835899353
9.932100772857666,0.042878009378910065,-0.741870641708374,0.5753129124641418,-0.5696737766265869,0.118468277156353,-0.5604722499847412
9.952145338058472,0.04305540397763252,-0.7419055104255676,0.5754135251045227,-0.5701251029968262,0.11854984611272812,-0.5605164766311646
9.97232961654663,0.04329748824238777,-0.7418784499168396,0.5753275156021118,-0.5702424049377441,0.11866576969623566,-0.5604904294013977
9.992443084716797,0.04303291067481041,-0.7419911026954651,0.5753728151321411,-0.5699493885040283,0.11854967474937439,-0.560491144657135
10.012559652328491,0.04293949529528618,-0.7421011328697205,0.5753018260002136,-0.5699025988578796,0.11854922026395798,-0.5604775547981262
10.032775640487671,0.042782679200172424,-0.7421695590019226,0.5753592252731323,-0.5699882507324219,0.11848537623882294,-0.5604891777038574
10.052834033966064,0.04263688623905182,-0.742270827293396,0.57542884349823,-0.5700955986976624,0.11842477321624756,-0.5605008602142334
10.072926998138428,0.04263961687684059,-0.7422894835472107,0.5754899978637695,-0.5701256394386292,0.11842098832130432,-0.5605178475379944
10.092994689941406,0.042455241084098816,-0.7421870827674866,0.5754758715629578,-0.5698800086975098,0.11831758171319962,-0.560479462146759
10.113274574279785,0.04247116670012474,-0.7421339750289917,0.5754491090774536,-0.5695909261703491,0.11830765008926392,-0.560474157333374
10.133553266525269,0.04192863032221794,-0.7421393394470215,0.5757133960723877,-0.5696485042572021,0.11804977804422379,-0.5604861378669739
10.153469800949097,0.042179837822914124,-0.7421831488609314,0.5757875442504883,-0.5700922012329102,0.11816993355751038,-0.5605096817016602
10.17356276512146,0.04261312261223793,-0.7423427104949951,0.5757684111595154,-0.5697804093360901,0.11828650534152985,-0.5604698657989502
10.193801879882812,0.04342338815331459,-0.7422703504562378,0.5756087303161621,-0.5696119666099548,0.1186022236943245,-0.560437798500061
10.214112997055054,0.043647099286317825,-0.7423235177993774,0.5756269097328186,-0.5702062845230103,0.11876410990953445,-0.5604779720306396
10.23427939414978,0.04367871955037117,-0.7422057390213013,0.575637698173523,-0.5701612830162048,0.1187564879655838,-0.5604760646820068
10.254330158233643,0.04324471205472946,-0.7422462105751038,0.5757570862770081,-0.5700418949127197,0.11853994429111481,-0.5604953765869141
10.27443242073059,0.04331096634268761,-0.7421666979789734,0.5757048726081848,-0.5700095295906067,0.11854986846446991,-0.5604957342147827
10.294563293457031,0.04288109019398689,-0.7421396374702454,0.5759003758430481,-0.5701256394386292,0.11830997467041016,-0.5605084300041199
10.314704179763794,0.0429946705698967,-0.7420634031295776,0.5758212208747864,-0.5700823664665222,0.1183510273694992,-0.5605064630508423
10.334793090820312,0.04330342262983322,-0.7421056032180786,0.5757054090499878,-0.5701966881752014,0.11852625757455826,-0.5604814291000366
10.354867219924927,0.04305298998951912,-0.7421135306358337,0.5758417844772339,-0.5703614950180054,0.11842869967222214,-0.5605120658874512
10.374939203262329,0.04323120042681694,-0.7420573830604553,0.5758959054946899,-0.5706114172935486,0.11847661435604095,-0.5604960918426514
10.395062685012817,0.04322429746389389,-0.7420933246612549,0.5757761597633362,-0.570472776889801,0.11849114298820496,-0.5604687929153442
10.415127038955688,0.04272846505045891,-0.74205482006073,0.5758669376373291,-0.5701016187667847,0.11822496354579926,-0.5604910254478455
10.43522572517395,0.04311945661902428,-0.7421138286590576,0.5757744908332825,-0.5705342888832092,0.11843569576740265,-0.5604815483093262
10.45531415939331,0.04317562282085419,-0.7420596480369568,0.5756998062133789,-0.5703758001327515,0.11845279484987259,-0.5604714155197144
10.476083993911743,0.04304792359471321,-0.7421180009841919,0.5755789279937744,-0.570054829120636,0.1184445321559906,-0.5604720115661621
10.496256828308105,0.04356912523508072,-0.7420792579650879,0.5755858421325684,-0.5707931518554688,0.11869214475154877,-0.5604944229125977
10.516302585601807,0.04353250935673714,-0.742279052734375,0.5756994485855103,-0.5712659358978271,0.11869299411773682,-0.5605118274688721
10.536453008651733,0.043495889753103256,-0.7423622012138367,0.5757554173469543,-0.5714454054832458,0.11867932230234146,-0.5605196952819824
10.556565999984741,0.04321731626987457,-0.7423723340034485,0.5758475065231323,-0.5712909698486328,0.11851448565721512,-0.5605030655860901
10.576882123947144,0.04330945387482643,-0.7423478960990906,0.5758318901062012,-0.5713138580322266,0.11853165924549103,-0.5604620575904846
10.597050428390503,0.043634917587041855,-0.7422857284545898,0.5756759643554688,-0.5712346434593201,0.11867548525333405,-0.560438334941864
10.617165327072144,0.04394059628248215,-0.742270290851593,0.5753260850906372,-0.570546567440033,0.11883260309696198,-0.5603614449501038
10.637168645858765,0.04368181899189949,-0.7422698140144348,0.5755411982536316,-0.5707042217254639,0.11867538094520569,-0.5603775382041931
10.657265424728394,0.04360135644674301,-0.7422935962677002,0.5755537152290344,-0.5705998539924622,0.11863164603710175,-0.5603505373001099
10.677664995193481,0.04322802647948265,-0.7422637939453125,0.5755904912948608,-0.5701227188110352,0.11843888461589813,-0.5603238940238953
10.69782042503357,0.04319879412651062,-0.742159903049469,0.5754363536834717,-0.5695874094963074,0.11843614280223846,-0.5602492690086365
10.717980861663818,0.04310033842921257,-0.7421934604644775,0.575346827507019,-0.5692392587661743,0.11841161549091339,-0.560187578201294
10.738054513931274,0.043071962893009186,-0.7422918081283569,0.5753931999206543,-0.5694624185562134,0.11842437833547592,-0.5601710081100464
10.758127927780151,0.043008845299482346,-0.7422146201133728,0.5755260586738586,-0.5696351528167725,0.11834999918937683,-0.560124397277832
10.778214693069458,0.04333037883043289,-0.7422394752502441,0.5754255652427673,-0.5698959231376648,0.11853790283203125,-0.5600929260253906
10.798298358917236,0.04344693198800087,-0.7422777414321899,0.5755395889282227,-0.5703527927398682,0.11856728792190552,-0.5600719451904297
10.818362474441528,0.04314718768000603,-0.7421990633010864,0.5756475925445557,-0.5710345506668091,0.11849534511566162,-0.5600862503051758
10.838480949401855,0.04066786915063858,-0.7415015697479248,0.5753443837165833,-0.5710940957069397,0.11781223863363266,-0.5601474642753601
10.858617067337036,0.04091895371675491,-0.7415304780006409,0.5750997066497803,-0.5713099241256714,0.11793423444032669,-0.5600672364234924
10.878729104995728,0.04080399125814438,-0.7415732741355896,0.5752401351928711,-0.5711236000061035,0.11774051189422607,-0.5600356459617615
10.898819208145142,0.04083654657006264,-0.7416868805885315,0.5752397775650024,-0.571155846118927,0.11773349344730377,-0.5600184798240662
10.918887376785278,0.04109252616763115,-0.7416778802871704,0.5752204060554504,-0.5711250305175781,0.11775059998035431,-0.55996173620224
10.93897271156311,0.04175170511007309,-0.7417889833450317,0.5750866532325745,-0.5716810822486877,0.11806696653366089,-0.5599351525306702
10.959040641784668,0.04187352955341339,-0.741856038570404,0.5749795436859131,-0.5713373422622681,0.11809397488832474,-0.5598360896110535
10.979111194610596,0.04235577583312988,-0.7420673966407776,0.575104832649231,-0.5713068246841431,0.11821413040161133,-0.5598117709159851
10.999260663986206,0.04239576309919357,-0.741997241973877,0.5756024718284607,-0.5712850093841553,0.11804832518100739,-0.5598536133766174
11.019334077835083,0.042288638651371,-0.7419871687889099,0.575413703918457,-0.5706064701080322,0.11803044378757477,-0.5597844123840332
11.039440631866455,0.04271398484706879,-0.7421973943710327,0.575466513633728,-0.5706707835197449,0.11816953122615814,-0.5597660541534424
11.059520721435547,0.043143950402736664,-0.7423034906387329,0.5754995346069336,-0.5707271695137024,0.11830896139144897,-0.559730589389801
11.079725980758667,0.04431451857089996,-0.7425412535667419,0.5755863785743713,-0.5707845091819763,0.11871616542339325,-0.559700071811676
11.099813222885132,0.04420292377471924,-0.7424393892288208,0.5755205154418945,-0.5704236030578613,0.11867591738700867,-0.5596798062324524
11.119882822036743,0.044125039130449295,-0.742405354976654,0.5757027864456177,-0.570796012878418,0.11868695914745331,-0.5596548914909363
11.140034198760986,0.04404973238706589,-0.7423984408378601,0.57574462890625,-0.5707909464836121,0.11866491287946701,-0.5596368312835693
11.160099267959595,0.04368291422724724,-0.7423675656318665,0.5757930874824524,-0.5706313252449036,0.11851032078266144,-0.559623658657074
11.180840969085693,0.043302156031131744,-0.7422959804534912,0.5758248567581177,-0.5702587962150574,0.11834953725337982,-0.5596153140068054
11.200953960418701,0.04332400858402252,-0.7422910332679749,0.5757908821105957,-0.5703296065330505,0.11838071793317795,-0.5596082210540771
11.221025705337524,0.04367548227310181,-0.7421724796295166,0.5755947232246399,-0.5701864361763,0.11855286359786987,-0.5595461130142212
11.241169452667236,0.04372284561395645,-0.7422035932540894,0.5756697058677673,-0.5705779790878296,0.11858607828617096,-0.5595763921737671
11.26130199432373,0.044055283069610596,-0.7423592805862427,0.5754839181900024,-0.5708429217338562,0.11882299929857254,-0.5595837831497192
11.28127646446228,0.04388688877224922,-0.742409884929657,0.5756224393844604,-0.5709083676338196,0.11875678598880768,-0.5595929622650146
11.301448345184326,0.04365533962845802,-0.7423731684684753,0.5757978558540344,-0.5710760951042175,0.11861677467823029,-0.5596280694007874
11.321552038192749,0.04337059333920479,-0.7422988414764404,0.5758590698242188,-0.5708159804344177,0.1184617206454277,-0.559637725353241
11.34174633026123,0.043374814093112946,-0.7422870397567749,0.5758190155029297,-0.5707910656929016,0.11847074329853058,-0.5596403479576111
11.361838579177856,0.04338183254003525,-0.7422695159912109,0.5757578611373901,-0.5707529187202454,0.11848501861095428,-0.5596450567245483
11.381890535354614,0.043328069150447845,-0.7423036098480225,0.5757602453231812,-0.5707533359527588,0.11848321557044983,-0.5596539378166199
11.402127981185913,0.04326338320970535,-0.7423603534698486,0.5757443308830261,-0.570768415927887,0.1184784546494484,-0.5596653819084167
11.422241926193237,0.042893726378679276,-0.7423266768455505,0.575741171836853,-0.5703233480453491,0.1183074414730072,-0.5596712231636047
11.44267463684082,0.042778413742780685,-0.7421897649765015,0.5758072733879089,-0.5702226161956787,0.11821039766073227,-0.5596730709075928
11.462820291519165,0.03955936059355736,-0.7413802742958069,0.5756864547729492,-0.5706560611724854,0.1172480434179306,-0.5597726702690125
11.483104944229126,0.03987426310777664,-0.7413237690925598,0.5755774974822998,-0.5706143975257874,0.11727610975503922,-0.5596977472305298
11.503294706344604,0.03974588215351105,-0.7414344549179077,0.5756237506866455,-0.57060307264328,0.11717739701271057,-0.559677004814148
11.523782968521118,0.040714558213949203,-0.7415144443511963,0.5753540992736816,-0.5709261894226074,0.11757755279541016,-0.5596154928207397
11.54393720626831,0.04114710912108421,-0.7415398359298706,0.5752931833267212,-0.5710419416427612,0.11773940920829773,-0.5595858097076416
11.563969850540161,0.04144658148288727,-0.741716742515564,0.5752962827682495,-0.5712214708328247,0.11788243055343628,-0.5595754384994507
11.584158420562744,0.04172085225582123,-0.7417778968811035,0.5752515196800232,-0.5713306665420532,0.11800864338874817,-0.5595607757568359
11.60426950454712,0.04219164699316025,-0.7418879270553589,0.5753753185272217,-0.5712213516235352,0.11806171387434006,-0.5595309138298035
11.624372482299805,0.04186174273490906,-0.7418794631958008,0.5755248665809631,-0.5710934400558472,0.11788459122180939,-0.559543788433075
11.644402503967285,0.042499929666519165,-0.7421038150787354,0.5755876302719116,-0.570319414138794,0.11799713224172592,-0.5595088601112366
11.664698600769043,0.0424216091632843,-0.742287278175354,0.5758485198020935,-0.5706158876419067,0.11792212724685669,-0.5595703125
11.684839248657227,0.043471403419971466,-0.7425184845924377,0.5759687423706055,-0.5705844759941101,0.11824489384889603,-0.5595505237579346
11.705032348632812,0.04426587000489235,-0.7427455186843872,0.5760654211044312,-0.5708587765693665,0.11854670941829681,-0.5595617294311523
11.725113868713379,0.04381547123193741,-0.7426456809043884,0.5760294198989868,-0.5703826546669006,0.11837316304445267,-0.5595688819885254
11.745152711868286,0.04349241778254509,-0.7424703240394592,0.5760594010353088,-0.5703845024108887,0.11832180619239807,-0.5596063733100891
11.765344381332397,0.04349556565284729,-0.7424161434173584,0.5760447382926941,-0.5704235434532166,0.11837241053581238,-0.5596151351928711
11.785362482070923,0.043658092617988586,-0.7424604296684265,0.5758199095726013,-0.5706149339675903,0.11855127662420273,-0.5596231818199158
11.805405616760254,0.04337065666913986,-0.7423985004425049,0.5758885145187378,-0.5704996585845947,0.1184096485376358,-0.5596396923065186
11.825522184371948,0.04357118532061577,-0.7424464225769043,0.575779139995575,-0.5706741213798523,0.11857451498508453,-0.5596448183059692
11.845712423324585,0.043481335043907166,-0.7424960136413574,0.5758306980133057,-0.570697009563446,0.1185573935508728,-0.5596592426300049
11.865770816802979,0.04368441924452782,-0.7423886656761169,0.5757284760475159,-0.5704350471496582,0.11866255104541779,-0.5596299171447754
11.88585901260376,0.04373811557888985,-0.7422865033149719,0.5757628679275513,-0.5704395771026611,0.11867494136095047,-0.5596267580986023
11.905925512313843,0.04367797076702118,-0.7423121929168701,0.575857400894165,-0.5705361366271973,0.11864827573299408,-0.5596418380737305
11.926046133041382,0.04392639175057411,-0.7423597574234009,0.5758900046348572,-0.5709266066551208,0.11877003312110901,-0.5596510767936707
11.946214437484741,0.04386618360877037,-0.7423678636550903,0.5759181380271912,-0.5708812475204468,0.11873653531074524,-0.5596533417701721
11.966203927993774,0.043683577328920364,-0.7423659563064575,0.5758892893791199,-0.5704869031906128,0.11865083128213882,-0.5596423745155334
11.986328840255737,0.044150806963443756,-0.7423551678657532,0.5756362080574036,-0.5703840851783752,0.11889509856700897,-0.5595985054969788
12.00649118423462,0.044308073818683624,-0.7424309849739075,0.5757256746292114,-0.5708379149436951,0.1189734935760498,-0.5596186518669128
12.026675701141357,0.043892934918403625,-0.7423456907272339,0.5756843686103821,-0.5709142088890076,0.11887923628091812,-0.5596365928649902
12.046799898147583,0.04337288439273834,-0.742219865322113,0.5756988525390625,-0.5708943605422974,0.11870769411325455,-0.5596582293510437
12.066886186599731,0.038999129086732864,-0.7412505745887756,0.5755655169487,-0.5708776116371155,0.11733298003673553,-0.559787929058075
12.086995363235474,0.03945646062493324,-0.7410656213760376,0.5759158134460449,-0.5708028078079224,0.11716191470623016,-0.5597866177558899
12.107097625732422,0.040077634155750275,-0.7410141825675964,0.5767331719398499,-0.5704708099365234,0.11671377718448639,-0.5598235130310059
12.127216577529907,0.04057330638170242,-0.7410495281219482,0.5768778920173645,-0.5705780982971191,0.11675194650888443,-0.5598112344741821
12.147333860397339,0.0408286415040493,-0.74111008644104,0.5772135257720947,-0.5707501173019409,0.11669448018074036,-0.5597828030586243
12.167348623275757,0.04092631861567497,-0.7412822246551514,0.5770878195762634,-0.5707705020904541,0.11682789772748947,-0.5597727298736572
12.187779664993286,0.04122306406497955,-0.7414273619651794,0.5768854022026062,-0.5707452297210693,0.11706003546714783,-0.5597388744354248
12.208266973495483,0.04132003337144852,-0.7416183948516846,0.5766788721084595,-0.5707974433898926,0.11724674701690674,-0.5597330331802368
12.228444814682007,0.04128160700201988,-0.74176025390625,0.5765789747238159,-0.5708487629890442,0.11730986833572388,-0.5597409605979919
12.248601198196411,0.04165388271212578,-0.7420220375061035,0.5760926604270935,-0.5707870721817017,0.11763527989387512,-0.559718906879425
12.26877498626709,0.04197569191455841,-0.7420941591262817,0.5760102868080139,-0.5712456107139587,0.11782963573932648,-0.5597294569015503
12.288810014724731,0.04221348091959953,-0.7423426508903503,0.5753266215324402,-0.5711455345153809,0.11828336119651794,-0.5596668720245361
12.30899953842163,0.04291796311736107,-0.7426126003265381,0.5750069618225098,-0.5712858438491821,0.11877621710300446,-0.559627890586853
12.329033613204956,0.04300728440284729,-0.7424598932266235,0.575144350528717,-0.5710016489028931,0.11875051259994507,-0.559662401676178
12.349180698394775,0.042959243059158325,-0.7424020171165466,0.5752731561660767,-0.5709847807884216,0.11869273334741592,-0.5596890449523926
12.369288444519043,0.04281606897711754,-0.7423690557479858,0.5754736661911011,-0.5709782838821411,0.11859399080276489,-0.5597409009933472
12.389358282089233,0.04275413230061531,-0.742321252822876,0.5756127238273621,-0.5709410905838013,0.1185159981250763,-0.5597713589668274
12.409526348114014,0.04206937551498413,-0.7423925399780273,0.5753675699234009,-0.5704450607299805,0.11839020252227783,-0.5597530603408813
12.42992091178894,0.043418724089860916,-0.7431021928787231,0.575146496295929,-0.5704004168510437,0.11903141438961029,-0.559689462184906
12.450010538101196,0.04381271451711655,-0.7431504130363464,0.5752918720245361,-0.5704407691955566,0.11909766495227814,-0.5597156286239624
12.470069646835327,0.04428718984127045,-0.742825984954834,0.5753560066223145,-0.5705168843269348,0.11923624575138092,-0.5597621202468872
12.490153551101685,0.044364120811223984,-0.7428547143936157,0.5753237009048462,-0.5706732273101807,0.11929679661989212,-0.5597820281982422
12.510325908660889,0.04428457096219063,-0.7426784038543701,0.5754894018173218,-0.5705776214599609,0.1191602498292923,-0.559815526008606
12.530519247055054,0.044048942625522614,-0.7425974011421204,0.5757081508636475,-0.5704317092895508,0.118984155356884,-0.5598439574241638
12.550509691238403,0.04371319338679314,-0.7424827218055725,0.5759128928184509,-0.5702961683273315,0.11872155219316483,-0.5598525404930115
12.570601224899292,0.04358864575624466,-0.7424774169921875,0.5758669972419739,-0.5700006484985352,0.11865489184856415,-0.5598399639129639
12.590673685073853,0.04382789134979248,-0.7423787117004395,0.5757665038108826,-0.5698979496955872,0.11872539669275284,-0.5598068833351135
12.610775232315063,0.04377192631363869,-0.7424041032791138,0.5758145451545715,-0.569983720779419,0.1186932772397995,-0.5598156452178955
12.630833148956299,0.043804559856653214,-0.7425118088722229,0.5760048031806946,-0.5707544088363647,0.11871291697025299,-0.5598645210266113
12.650949001312256,0.043753482401371,-0.7425117492675781,0.5760158896446228,-0.5707136392593384,0.11867769807577133,-0.5598640441894531
12.676105499267578,0.043962087482213974,-0.7425440549850464,0.5759244561195374,-0.5707948207855225,0.11878801882266998,-0.559852123260498
12.696223974227905,0.04363745450973511,-0.7425089478492737,0.5760506987571716,-0.5706325769424438,0.11860146373510361,-0.5598648190498352
12.716268301010132,0.04341035708785057,-0.742546021938324,0.5760191679000854,-0.5703233480453491,0.11850940436124802,-0.5598626136779785
12.73639702796936,0.04308048635721207,-0.742563009262085,0.5761313438415527,-0.570257842540741,0.11835404485464096,-0.5598853230476379
12.756436109542847,0.04330318048596382,-0.7424435615539551,0.5761510133743286,-0.5705556869506836,0.11842457950115204,-0.5598839521408081
12.776554107666016,0.043399304151535034,-0.7424477338790894,0.5762026906013489,-0.5708644390106201,0.11846435070037842,-0.5598962306976318
12.796678066253662,0.043190132826566696,-0.7423392534255981,0.5760740041732788,-0.5708816051483154,0.11847832798957825,-0.5599055290222168
12.816864252090454,0.021004466339945793,-0.7541653513908386,0.5811178684234619,-0.573646068572998,0.11670977622270584,-0.559188187122345
12.836962223052979,6.646476686000824e-05,-0.7662419080734253,0.5866497755050659,-0.5763558745384216,0.11520685255527496,-0.5584440231323242
12.857100486755371,-0.04040846973657608,-0.7921244502067566,0.5991191267967224,-0.5813360810279846,0.11277484148740768,-0.5567913055419922
12.877193212509155,-0.057457029819488525,-0.8082484006881714,0.6071328520774841,-0.5843042135238647,0.1132190078496933,-0.5557252764701843
12.897335767745972,-0.08661969006061554,-0.8431603908538818,0.6266270279884338,-0.5901057720184326,0.11554797738790512,-0.5535247921943665
12.91774582862854,-0.10274913907051086,-0.8822792172431946,0.6516218185424805,-0.5962899327278137,0.12156257033348083,-0.5512926578521729
12.937843084335327,-0.10647877305746078,-0.9019016623497009,0.6659201383590698,-0.599105715751648,0.12512284517288208,-0.5502915382385254
12.957920551300049,-0.10974858701229095,-0.9407987594604492,0.6955754160881042,-0.6035484671592712,0.1334526687860489,-0.5483796000480652
12.977998733520508,-0.10975825041532516,-0.9587196111679077,0.7123793959617615,-0.6057698130607605,0.13745997846126556,-0.5476893186569214
12.99807858467102,-0.11130335927009583,-0.9957059621810913,0.743972659111023,-0.6089082956314087,0.14819198846817017,-0.5461558103561401
13.018523454666138,-0.12189042568206787,-1.0300137996673584,0.7767896056175232,-0.6092468500137329,0.15937957167625427,-0.5451712012290955
13.0386643409729,-0.1286323517560959,-1.0467993021011353,0.7931717038154602,-0.6086342334747314,0.16476143896579742,-0.5448866486549377
13.058792114257812,-0.14587025344371796,-1.0823981761932373,0.8203539252281189,-0.604076087474823,0.17687614262104034,-0.5441219210624695
13.079097509384155,-0.16203847527503967,-1.120192289352417,0.8445192575454712,-0.5983838438987732,0.19063754379749298,-0.5434738993644714
13.099182844161987,-0.1643400639295578,-1.140588641166687,0.8554103374481201,-0.5957533717155457,0.19945567846298218,-0.5428436994552612
13.119262218475342,-0.16312280297279358,-1.1773167848587036,0.8854662775993347,-0.588197648525238,0.2127055674791336,-0.5423188805580139
13.139363527297974,-0.15743547677993774,-1.192240834236145,0.9035246968269348,-0.5871644616127014,0.21924367547035217,-0.5424072742462158
13.159459352493286,-0.14359702169895172,-1.2176955938339233,0.9426696300506592,-0.582385241985321,0.22919976711273193,-0.5432294607162476
13.179726362228394,-0.12903322279453278,-1.2406208515167236,0.9806632995605469,-0.5803258419036865,0.24546265602111816,-0.5454854965209961
13.199872970581055,-0.1319996565580368,-1.2531534433364868,0.9945641160011292,-0.5757811665534973,0.2539791464805603,-0.5473912358283997
13.219953536987305,-0.15401700139045715,-1.2768311500549316,1.0149257183074951,-0.560084342956543,0.2649478316307068,-0.5518569350242615
13.23999834060669,-0.16887378692626953,-1.2896530628204346,1.02192223072052,-0.5503301620483398,0.2681801915168762,-0.5540567636489868
13.260077238082886,-0.18753209710121155,-1.3107112646102905,1.024707317352295,-0.5464965105056763,0.28357359766960144,-0.558139979839325
13.28018856048584,-0.2016776204109192,-1.317667841911316,1.0266687870025635,-0.5430992841720581,0.2876443564891815,-0.5609626770019531
13.30030632019043,-0.20274408161640167,-1.3362363576889038,1.038604974746704,-0.5228165984153748,0.2911671996116638,-0.5654025077819824
13.320374011993408,-0.19615399837493896,-1.3384675979614258,1.0523276329040527,-0.5216943025588989,0.2925955653190613,-0.568486750125885
13.34051775932312,-0.19579258561134338,-1.336429476737976,1.0821083784103394,-0.5086999535560608,0.28894054889678955,-0.5758853554725647
13.361161947250366,-0.18942327797412872,-1.3435394763946533,1.0918744802474976,-0.4880877137184143,0.29334282875061035,-0.5815346240997314
13.381249189376831,-0.18773990869522095,-1.3478754758834839,1.0908530950546265,-0.4796963334083557,0.2977074980735779,-0.5842705965042114
13.401349306106567,-0.1922590434551239,-1.3552254438400269,1.0762648582458496,-0.47987401485443115,0.3154042363166809,-0.5903202891349792
13.421409845352173,-0.19478082656860352,-1.3535218238830566,1.0751155614852905,-0.48362764716148376,0.3234584331512451,-0.5938867926597595
13.441519737243652,-0.19625824689865112,-1.3485703468322754,1.090193748474121,-0.4862935543060303,0.32679861783981323,-0.6016486883163452
13.46169924736023,-0.2047465592622757,-1.3464469909667969,1.1021206378936768,-0.4802500009536743,0.32400548458099365,-0.608949601650238
13.48179841041565,-0.21059507131576538,-1.346503496170044,1.1133698225021362,-0.4705670177936554,0.3172689378261566,-0.6125408411026001
13.501930713653564,-0.222813218832016,-1.3416533470153809,1.1304436922073364,-0.4444786310195923,0.3013659417629242,-0.6197816729545593
13.522151708602905,-0.2247413545846939,-1.3428614139556885,1.13027822971344,-0.4306039810180664,0.29807049036026,-0.6227426528930664
13.542346715927124,-0.22633826732635498,-1.3516886234283447,1.1133431196212769,-0.41243281960487366,0.3004639446735382,-0.6284306049346924
13.562367677688599,-0.21396173536777496,-1.361816644668579,1.0881707668304443,-0.42231449484825134,0.32201245427131653,-0.6340974569320679
13.582440614700317,-0.20000870525836945,-1.3614434003829956,1.0823795795440674,-0.43550851941108704,0.336603581905365,-0.6372042894363403
13.602523565292358,-0.17729325592517853,-1.3559764623641968,1.0894582271575928,-0.4495856463909149,0.35164913535118103,-0.6449285745620728
13.62292766571045,-0.168793722987175,-1.352589726448059,1.0992405414581299,-0.4517284631729126,0.3549337685108185,-0.6485947966575623
13.643100261688232,-0.16550099849700928,-1.3447890281677246,1.1282591819763184,-0.4410475194454193,0.34791097044944763,-0.6555353403091431
13.663133382797241,-0.18641775846481323,-1.3425445556640625,1.156898856163025,-0.42301371693611145,0.33074885606765747,-0.6618480086326599
13.683226108551025,-0.20035654306411743,-1.3445513248443604,1.1591880321502686,-0.41328027844429016,0.32516658306121826,-0.6643057465553284
13.703365564346313,-0.23776397109031677,-1.3482125997543335,1.1584044694900513,-0.38797077536582947,0.30632904171943665,-0.6693028211593628
13.723496437072754,-0.25650644302368164,-1.354741096496582,1.145841121673584,-0.38281768560409546,0.30366572737693787,-0.6717140078544617
13.743526458740234,-0.2645537555217743,-1.3650356531143188,1.1041452884674072,-0.38835906982421875,0.31542399525642395,-0.6756874322891235
13.763671159744263,-0.2562739849090576,-1.3658276796340942,1.0899975299835205,-0.39453017711639404,0.322807252407074,-0.6782143115997314
13.783789157867432,-0.21639065444469452,-1.3578695058822632,1.0931313037872314,-0.4088372588157654,0.3354800343513489,-0.6838852763175964
13.804450750350952,-0.18722623586654663,-1.3472280502319336,1.1135576963424683,-0.4119645655155182,0.34206271171569824,-0.6900493502616882
13.824538946151733,-0.16617213189601898,-1.3424370288848877,1.1215227842330933,-0.40825143456459045,0.34657081961631775,-0.692092776298523
13.844686031341553,-0.16065692901611328,-1.3387413024902344,1.1466503143310547,-0.40139952301979065,0.3447178304195404,-0.6963382959365845
13.864695072174072,-0.16720788180828094,-1.338826298713684,1.1598005294799805,-0.3970958888530731,0.33994588255882263,-0.6985993385314941
13.884791374206543,-0.1845693588256836,-1.339443325996399,1.1737632751464844,-0.38381630182266235,0.3314066529273987,-0.7019155025482178
13.905364751815796,-0.21867550909519196,-1.3469563722610474,1.1586666107177734,-0.37359508872032166,0.32539641857147217,-0.7049831748008728
13.925574541091919,-0.23499712347984314,-1.3520604372024536,1.1407160758972168,-0.37107983231544495,0.3238353133201599,-0.7062354683876038
13.945651531219482,-0.2457377016544342,-1.3564093112945557,1.1058789491653442,-0.37519365549087524,0.32767826318740845,-0.7096331715583801
13.965687274932861,-0.2283838391304016,-1.3529521226882935,1.1024889945983887,-0.38300326466560364,0.3332903981208801,-0.7121840715408325
13.98576307296753,-0.206390380859375,-1.3435478210449219,1.1124968528747559,-0.39403557777404785,0.3357546031475067,-0.7184845209121704
14.006013631820679,-0.1904098093509674,-1.3389960527420044,1.1228893995285034,-0.39072033762931824,0.33637553453445435,-0.7234137058258057
14.026119947433472,-0.18285459280014038,-1.3379045724868774,1.1265556812286377,-0.3869880437850952,0.3381190001964569,-0.7251858115196228
14.04619288444519,-0.16394735872745514,-1.3339961767196655,1.145939826965332,-0.3777042031288147,0.3384425938129425,-0.7284895181655884
14.066269874572754,-0.16151955723762512,-1.3327887058258057,1.157875657081604,-0.3730728328227997,0.33544689416885376,-0.7302239537239075
14.086395025253296,-0.17480845749378204,-1.3376003503799438,1.147857427597046,-0.3709909915924072,0.3392010033130646,-0.7325321435928345
14.106608629226685,-0.20123670995235443,-1.346313714981079,1.1117948293685913,-0.3754451274871826,0.34957417845726013,-0.7335674166679382
14.126769304275513,-0.21063515543937683,-1.3462913036346436,1.0975892543792725,-0.37785792350769043,0.3513971269130707,-0.7349165678024292
14.147178888320923,-0.23384782671928406,-1.3412834405899048,1.087554931640625,-0.37991347908973694,0.34358441829681396,-0.7397611737251282
14.167305946350098,-0.2414015531539917,-1.3390933275222778,1.0871155261993408,-0.3795413672924042,0.33997783064842224,-0.7420503497123718
14.187372207641602,-0.22259795665740967,-1.3316868543624878,1.1039766073226929,-0.3701989948749542,0.33372852206230164,-0.7457523941993713
14.20759105682373,-0.21513476967811584,-1.329491376876831,1.113874912261963,-0.3648269474506378,0.33047616481781006,-0.7474671602249146
14.2276451587677,-0.19385139644145966,-1.3275927305221558,1.1323062181472778,-0.35847529768943787,0.32944029569625854,-0.7503437995910645
14.247689723968506,-0.17890022695064545,-1.327401876449585,1.1341731548309326,-0.35974276065826416,0.3350153863430023,-0.7513387203216553
14.267863750457764,-0.17269696295261383,-1.3325783014297485,1.1187398433685303,-0.3630323112010956,0.3472070097923279,-0.7524403929710388
14.287924528121948,-0.1759553998708725,-1.333575963973999,1.1081488132476807,-0.36785250902175903,0.35384079813957214,-0.7530524134635925
14.307996034622192,-0.19048404693603516,-1.3341262340545654,1.082424521446228,-0.38112685084342957,0.3662600815296173,-0.7545433044433594
14.328115463256836,-0.20417162775993347,-1.3270699977874756,1.089205026626587,-0.37957096099853516,0.35692983865737915,-0.7583156228065491
14.348220348358154,-0.21186503767967224,-1.322387456893921,1.1010432243347168,-0.37578174471855164,0.3471284806728363,-0.7604278922080994
14.368293523788452,-0.23341001570224762,-1.317311406135559,1.1229749917984009,-0.3638421297073364,0.32666319608688354,-0.7635940909385681
14.388401746749878,-0.24102450907230377,-1.3165931701660156,1.1329026222229004,-0.3539832830429077,0.31633904576301575,-0.7647272944450378
14.408466577529907,-0.21724188327789307,-1.3204565048217773,1.1422086954116821,-0.3424723744392395,0.31520944833755493,-0.765791654586792
14.428545236587524,-0.21238748729228973,-1.3240466117858887,1.1371527910232544,-0.34122759103775024,0.3176277279853821,-0.7663887143135071
14.448640823364258,-0.19958384335041046,-1.3352835178375244,1.1107250452041626,-0.34639251232147217,0.333617240190506,-0.7664786577224731
14.468716621398926,-0.17558124661445618,-1.335334300994873,1.0894806385040283,-0.3608689606189728,0.35477742552757263,-0.7670963406562805
14.48890995979309,-0.16484257578849792,-1.3332855701446533,1.0815078020095825,-0.36975395679473877,0.36450353264808655,-0.7678036093711853
14.508987426757812,-0.1800428032875061,-1.327126383781433,1.0878782272338867,-0.3751872181892395,0.3638465404510498,-0.7706003785133362
14.529009103775024,-0.1883537471294403,-1.32351815700531,1.0943548679351807,-0.3744135797023773,0.3608795404434204,-0.7718483805656433
14.549099922180176,-0.2037561982870102,-1.3170356750488281,1.1138668060302734,-0.3673742711544037,0.34801605343818665,-0.7743656635284424
14.569307804107666,-0.23146940767765045,-1.3154358863830566,1.1274486780166626,-0.35034555196762085,0.3272620439529419,-0.7762734889984131
14.589399099349976,-0.24376210570335388,-1.3152698278427124,1.1312029361724854,-0.34396234154701233,0.31823021173477173,-0.7773525714874268
