liuyurong129/humanoid-gym/humanoid/data/target_q_20250523-001758.csv
timestamp,joint_1,joint_2,joint_3,joint_4,joint_5,joint_6
0.00010418891906738281,0.0,0.0,0.0,0.0,0.0,0.0
0.020194053649902344,0.0,0.0,0.0,0.0,0.0,0.0
0.0402987003326416,0.0,0.0,0.0,0.0,0.0,0.0
0.060346126556396484,0.0,0.0,0.0,0.0,0.0,0.0
0.0804128646850586,0.40890616178512573,-0.002495303750038147,0.6656911969184875,-0.5011845231056213,-0.047693707048892975,0.12149973213672638
0.10057330131530762,0.5334587693214417,-0.03877998888492584,0.7418713569641113,-0.6224994659423828,0.01591493934392929,0.06096581369638443
0.12072610855102539,0.5585448145866394,-0.05642922222614288,0.738569974899292,-0.6640269160270691,0.03431479632854462,0.02923501469194889
0.1408088207244873,0.5396392345428467,-0.10811882466077805,0.7183338403701782,-0.703357458114624,0.040569402277469635,0.0015339981764554977
0.16087794303894043,0.5414008498191833,-0.08638016134500504,0.7252447605133057,-0.6921190023422241,0.03149683028459549,0.008965438231825829
0.180924654006958,0.545077383518219,-0.08246367424726486,0.7325907349586487,-0.6897229552268982,0.03038976341485977,0.012398509308695793
0.20107555389404297,0.5551446676254272,-0.06764916330575943,0.7293405532836914,-0.6880629062652588,0.031965866684913635,0.010443976148962975
0.22119927406311035,0.5533469319343567,-0.07047078758478165,0.7298399209976196,-0.6890705823898315,0.031033821403980255,0.010847443714737892
0.24119186401367188,0.5521032810211182,-0.07939724624156952,0.7284064888954163,-0.6903010010719299,0.03344953805208206,0.01180163212120533
0.2612621784210205,0.5491718649864197,-0.07406314462423325,0.73032546043396,-0.6893978714942932,0.030396007001399994,0.012912368401885033
0.28135085105895996,0.5534436106681824,-0.07562704384326935,0.728252112865448,-0.6900188326835632,0.03223264217376709,0.012667795643210411
0.3014211654663086,0.5494319796562195,-0.08143959939479828,0.7292664051055908,-0.6922736167907715,0.03263393044471741,0.014002664014697075
0.32146358489990234,0.5490302443504333,-0.0748087465763092,0.7277406454086304,-0.6914435029029846,0.03025633841753006,0.012907562777400017
0.3415837287902832,0.5466374754905701,-0.08536482602357864,0.7314857244491577,-0.6930964589118958,0.031870037317276,0.015540363267064095
0.3616914749145508,0.5496940016746521,-0.08041056245565414,0.7326509356498718,-0.6920676231384277,0.031033769249916077,0.014414934441447258
0.3817281723022461,0.5489885807037354,-0.0784984603524208,0.7244104146957397,-0.6921665668487549,0.03139599412679672,0.013549378141760826
0.40212082862854004,0.5497544407844543,-0.07512210309505463,0.7285494804382324,-0.6940842270851135,0.028765276074409485,0.014489153400063515
0.42218804359436035,0.5422479510307312,-0.086861252784729,0.7212902903556824,-0.6944027543067932,0.031897373497486115,0.016577312722802162
0.4422588348388672,0.5461468696594238,-0.07819712162017822,0.726085901260376,-0.6946099996566772,0.02928563952445984,0.015854882076382637
0.4623136520385742,0.5475478172302246,-0.08669189363718033,0.7240214347839355,-0.6962966918945312,0.033745162189006805,0.016266515478491783
0.48241758346557617,0.5436248183250427,-0.09083141386508942,0.7289018630981445,-0.6967610716819763,0.031302355229854584,0.01776859723031521
0.5024738311767578,0.5443663001060486,-0.09305622428655624,0.7260056734085083,-0.6966803669929504,0.03368242830038071,0.01742471195757389
0.5226333141326904,0.5434668660163879,-0.09302959591150284,0.723578691482544,-0.6986965537071228,0.03419540077447891,0.01899517886340618
0.5426368713378906,0.544094979763031,-0.09327695518732071,0.7246520519256592,-0.6982768177986145,0.03347738832235336,0.01863952912390232
0.5628187656402588,0.5434741377830505,-0.08930739760398865,0.7171063423156738,-0.6977471113204956,0.03166251629590988,0.01670045219361782
0.5829317569732666,0.5425884127616882,-0.09225583076477051,0.71290123462677,-0.699012279510498,0.03455810993909836,0.016743557527661324
0.6029691696166992,0.5416845679283142,-0.0952703207731247,0.7149438261985779,-0.7010907530784607,0.034149765968322754,0.018628915771842003
0.6230330467224121,0.5417425036430359,-0.09140220284461975,0.7234632968902588,-0.7012401223182678,0.030439235270023346,0.020539121702313423
0.6431159973144531,0.5424354672431946,-0.09310580044984818,0.7178536653518677,-0.7017021775245667,0.033742211759090424,0.019486038014292717
0.6632096767425537,0.5405735373497009,-0.0974491685628891,0.7200607061386108,-0.7027813196182251,0.032825857400894165,0.019766731187701225
0.6833162307739258,0.5369365215301514,-0.1019558310508728,0.7177802324295044,-0.7051317095756531,0.03394343703985214,0.022535042837262154
0.7034204006195068,0.5411753058433533,-0.09117887914180756,0.7173215746879578,-0.7044668793678284,0.030470944941043854,0.02107815258204937
0.7234928607940674,0.5409783720970154,-0.09361494332551956,0.7186378240585327,-0.7050039172172546,0.031674206256866455,0.020820168778300285
0.7435555458068848,0.5395098328590393,-0.09652336686849594,0.7179611921310425,-0.7064300775527954,0.03194514662027359,0.02209903858602047
0.7636795043945312,0.5416552424430847,-0.09149812161922455,0.7138983011245728,-0.7043778300285339,0.031443677842617035,0.01988161914050579
0.783897876739502,0.5324984192848206,-0.10240599513053894,0.7129465341567993,-0.7053983807563782,0.03141652047634125,0.02289312519133091
0.8039093017578125,0.5341200828552246,-0.10621632635593414,0.711918294429779,-0.7073220610618591,0.03403320908546448,0.02436441369354725
0.8239493370056152,0.5347927212715149,-0.10369545221328735,0.7167795896530151,-0.7084513306617737,0.031926386058330536,0.02471226640045643
0.8440163135528564,0.5345399379730225,-0.11154018342494965,0.7054023146629333,-0.709027886390686,0.03788930922746658,0.024065474048256874
0.8641269207000732,0.5288644433021545,-0.1093234196305275,0.7050473690032959,-0.7086414694786072,0.03426971286535263,0.0242397990077734
0.8843200206756592,0.5307098627090454,-0.10780814290046692,0.7107611894607544,-0.709889829158783,0.031529076397418976,0.025624370202422142
0.9043099880218506,0.5305554866790771,-0.10573717951774597,0.7029715776443481,-0.7098548412322998,0.03361804038286209,0.024992750957608223
0.9244987964630127,0.536072313785553,-0.10091805458068848,0.7229810953140259,-0.7120890617370605,0.027833059430122375,0.02618083916604519
0.9445977210998535,0.5374574065208435,-0.10472843050956726,0.7193362712860107,-0.7114617228507996,0.031074337661266327,0.025036422535777092
0.9646553993225098,0.5378016829490662,-0.10044025629758835,0.7169051766395569,-0.7117870450019836,0.03035660833120346,0.02419794537127018
0.9846537113189697,0.5263981223106384,-0.11991973966360092,0.7012965679168701,-0.7122258543968201,0.03521280735731125,0.027804283425211906
1.0047571659088135,0.5248527526855469,-0.12151085585355759,0.6970020532608032,-0.7131442427635193,0.036950744688510895,0.028147520497441292
1.0249128341674805,0.5244597792625427,-0.12276314198970795,0.6985074877738953,-0.7142357230186462,0.03606688976287842,0.029408680275082588
1.0449190139770508,0.5252999663352966,-0.1236061230301857,0.699715256690979,-0.7142345309257507,0.03622017055749893,0.02897191233932972
1.0650279521942139,0.5325443148612976,-0.11082813143730164,0.7085667848587036,-0.7159947752952576,0.0322982594370842,0.02597220428287983
1.085076093673706,0.5302785634994507,-0.1108136996626854,0.7096513509750366,-0.7170175909996033,0.030720151960849762,0.027173181995749474
1.105137586593628,0.5292257070541382,-0.11582432687282562,0.7055788636207581,-0.7193480730056763,0.03323619067668915,0.02941223792731762
1.125209093093872,0.5273804068565369,-0.11579979956150055,0.7007045149803162,-0.7193671464920044,0.033381931483745575,0.028564581647515297
1.1453757286071777,0.5242827534675598,-0.11933521181344986,0.7049146294593811,-0.7192062735557556,0.03153165429830551,0.030831607058644295
1.1654510498046875,0.5240746140480042,-0.12512469291687012,0.7059726715087891,-0.721630871295929,0.03358577936887741,0.03316696733236313
1.1855590343475342,0.5221709609031677,-0.12383004277944565,0.6975255012512207,-0.7208218574523926,0.03359011560678482,0.03193099796772003
1.2056012153625488,0.527531623840332,-0.1186475157737732,0.7045477032661438,-0.7207690477371216,0.0321243554353714,0.02961624227464199
1.2256815433502197,0.526218831539154,-0.11478865146636963,0.7000075578689575,-0.7232851386070251,0.030733779072761536,0.030740002170205116
1.2457680702209473,0.5282237529754639,-0.11484485864639282,0.7053200006484985,-0.7241891622543335,0.02867448329925537,0.031401216983795166
1.265824794769287,0.5292230248451233,-0.12663304805755615,0.7077782154083252,-0.725695788860321,0.03347636014223099,0.03211437910795212
1.285921573638916,0.5135021209716797,-0.13204893469810486,0.6830495595932007,-0.7243451476097107,0.03588877618312836,0.0340263769030571
1.3059964179992676,0.5127531886100769,-0.1378629207611084,0.6810801029205322,-0.7265710234642029,0.037240758538246155,0.03578481078147888
1.326063871383667,0.51344895362854,-0.13315394520759583,0.6860651969909668,-0.7261973023414612,0.032308630645275116,0.03577234596014023
1.3461213111877441,0.5245441794395447,-0.12550926208496094,0.7033848762512207,-0.7275300025939941,0.03222595900297165,0.03343857079744339
1.3662655353546143,0.5187478065490723,-0.1290765106678009,0.696140706539154,-0.7295500636100769,0.03223634511232376,0.035124748945236206
1.3863062858581543,0.5169569253921509,-0.1329999566078186,0.6939480900764465,-0.7311955690383911,0.0331144779920578,0.03727780282497406
1.4064593315124512,0.5178148150444031,-0.1324055939912796,0.6966903209686279,-0.7310501337051392,0.03140104562044144,0.036938562989234924
1.4265778064727783,0.5110349655151367,-0.14638224244117737,0.6803528070449829,-0.7322933673858643,0.03893982619047165,0.03811780363321304
1.4466979503631592,0.5080329179763794,-0.14886346459388733,0.6795608997344971,-0.7327553629875183,0.037446118891239166,0.03912961483001709
1.4667518138885498,0.5111460089683533,-0.14450933039188385,0.6906918287277222,-0.7331215739250183,0.032715536653995514,0.0399499386548996
1.4868841171264648,0.5171387195587158,-0.13489274680614471,0.6935857534408569,-0.7336876392364502,0.03075045347213745,0.03679483383893967
1.506929874420166,0.5178253650665283,-0.13497811555862427,0.6885296106338501,-0.7348518967628479,0.033655062317848206,0.036966972053050995
1.5270171165466309,0.5130040049552917,-0.1481534242630005,0.6887030601501465,-0.7369387149810791,0.03431064635515213,0.039873525500297546
1.5470507144927979,0.5088924765586853,-0.15416906774044037,0.6781296730041504,-0.7367942929267883,0.03692479431629181,0.04077064245939255
1.5671422481536865,0.5134478807449341,-0.15225961804389954,0.6868169903755188,-0.7373507618904114,0.03723955899477005,0.04062098264694214
1.5872035026550293,0.5098464488983154,-0.15315860509872437,0.6868975162506104,-0.7385320663452148,0.035144634544849396,0.041299328207969666
1.6072807312011719,0.5090807676315308,-0.14988680183887482,0.6937165260314941,-0.7391950488090515,0.0308234766125679,0.0420801118016243
1.627382755279541,0.5078072547912598,-0.153079554438591,0.6878888607025146,-0.7402613759040833,0.033396266400814056,0.042407236993312836
1.647479772567749,0.5080715417861938,-0.15145666897296906,0.6767829060554504,-0.7403344511985779,0.03175058960914612,0.04132705181837082
1.6675772666931152,0.506640613079071,-0.1506354808807373,0.6661437749862671,-0.7421873211860657,0.0344986617565155,0.04169993847608566
1.6876158714294434,0.5085507035255432,-0.14983230829238892,0.6796189546585083,-0.7436321377754211,0.02978011965751648,0.04157419502735138
1.7077267169952393,0.5107905268669128,-0.1502922624349594,0.6941002607345581,-0.746662437915802,0.024726957082748413,0.045065321028232574
1.7278215885162354,0.4943084120750427,-0.16639912128448486,0.6695173978805542,-0.7460463643074036,0.035087376832962036,0.04803185164928436
1.7479054927825928,0.4941391944885254,-0.16640308499336243,0.672951877117157,-0.7461749911308289,0.031443968415260315,0.048212967813014984
1.7679550647735596,0.4951018989086151,-0.17092424631118774,0.676261305809021,-0.7476679086685181,0.032445259392261505,0.04942290484905243
1.7883050441741943,0.4923185408115387,-0.17552566528320312,0.6706385612487793,-0.7479627132415771,0.034715332090854645,0.04989645630121231
1.8084161281585693,0.509828507900238,-0.15719018876552582,0.6865796446800232,-0.750670850276947,0.02969316393136978,0.04522394388914108
1.8285222053527832,0.5079755783081055,-0.1656230390071869,0.6816809177398682,-0.7524474263191223,0.03356014937162399,0.04713050276041031
1.8485710620880127,0.5023199915885925,-0.17612731456756592,0.6808924078941345,-0.7537708282470703,0.035024337470531464,0.049728281795978546
1.8687472343444824,0.4940269887447357,-0.1775447577238083,0.6682648658752441,-0.7541870474815369,0.0350085124373436,0.05002741515636444
1.888831615447998,0.5002180337905884,-0.17130188643932343,0.6840053796768188,-0.7548460364341736,0.027805835008621216,0.05126959830522537
1.9089062213897705,0.4977251887321472,-0.187969371676445,0.6873493194580078,-0.7569540143013,0.03296978026628494,0.05450844764709473
1.9289567470550537,0.49119654297828674,-0.19335784018039703,0.6831004619598389,-0.7575824856758118,0.033490076661109924,0.05626245588064194
1.9491755962371826,0.49551084637641907,-0.1698807179927826,0.6499321460723877,-0.7572312951087952,0.03195185214281082,0.04759982228279114
1.969259262084961,0.49787721037864685,-0.17526978254318237,0.6621943712234497,-0.7596471309661865,0.030515655875205994,0.04884759336709976
1.9893696308135986,0.4984019994735718,-0.1750485897064209,0.6641421318054199,-0.7610985636711121,0.02976396679878235,0.04975469410419464
2.009392023086548,0.49500206112861633,-0.17641350626945496,0.6546748876571655,-0.7627779841423035,0.031608812510967255,0.049849532544612885
2.02947998046875,0.48230746388435364,-0.19984906911849976,0.6692192554473877,-0.7600757479667664,0.032301709055900574,0.05803471803665161
2.0495433807373047,0.4797605276107788,-0.20525242388248444,0.6723867058753967,-0.7637489438056946,0.03043431043624878,0.061924874782562256
2.06960129737854,0.4797806739807129,-0.2105947732925415,0.6649987697601318,-0.7634106278419495,0.034043557941913605,0.060983724892139435
2.0898027420043945,0.4769882559776306,-0.20744873583316803,0.6675981283187866,-0.7648943662643433,0.029328875243663788,0.06189624220132828
2.109896183013916,0.4882296919822693,-0.19414924085140228,0.6483078002929688,-0.7689778208732605,0.03330089896917343,0.05349130183458328
2.129983901977539,0.4822196960449219,-0.18878716230392456,0.6591196060180664,-0.7707322239875793,0.024062834680080414,0.05569421499967575
2.150019884109497,0.48249274492263794,-0.18755531311035156,0.6518681049346924,-0.7718955874443054,0.02529051899909973,0.05615531653165817
2.17010498046875,0.47573766112327576,-0.22005237638950348,0.6654427647590637,-0.7717332243919373,0.031003378331661224,0.06553971022367477
2.190186023712158,0.46970710158348083,-0.22927306592464447,0.6565995216369629,-0.7717177867889404,0.033214911818504333,0.06729336827993393
2.210364580154419,0.46618902683258057,-0.22919496893882751,0.6490120887756348,-0.7722211480140686,0.03192383795976639,0.0675383135676384
2.230342388153076,0.4653610587120056,-0.2301696538925171,0.6506513953208923,-0.7738537788391113,0.029952064156532288,0.06765462458133698
2.2504220008850098,0.4814390242099762,-0.2049856036901474,0.651546835899353,-0.7799246907234192,0.025963015854358673,0.05888989567756653
2.2704899311065674,0.475663959980011,-0.22967137396335602,0.6491638422012329,-0.7821170687675476,0.03168771415948868,0.06348961591720581
2.290553331375122,0.46128904819488525,-0.25771409273147583,0.637370228767395,-0.7825167775154114,0.04049168527126312,0.06965401768684387
2.311047315597534,0.4504263699054718,-0.2507674992084503,0.6334972977638245,-0.7808414101600647,0.03342948108911514,0.07066594809293747
2.3311829566955566,0.4850994050502777,-0.21673551201820374,0.6594209671020508,-0.7858298420906067,0.023135021328926086,0.06179071217775345
2.351407527923584,0.4820771813392639,-0.22774185240268707,0.663106381893158,-0.7886179089546204,0.02397490292787552,0.06512723118066788
2.371382713317871,0.47326600551605225,-0.24088174104690552,0.6441689729690552,-0.7884737253189087,0.029552966356277466,0.06609191745519638
2.3914568424224854,0.46113499999046326,-0.2562806010246277,0.6339917182922363,-0.7908822298049927,0.03113919496536255,0.07177765667438507
2.411546230316162,0.46240490674972534,-0.24389661848545074,0.6401578187942505,-0.7892425656318665,0.02216871827840805,0.06894847750663757
2.431633949279785,0.45766720175743103,-0.25870025157928467,0.6334046125411987,-0.7918222546577454,0.0260293111205101,0.07223404943943024
2.451694965362549,0.45610782504081726,-0.2534754276275635,0.6434206366539001,-0.7935914397239685,0.018329106271266937,0.07320086658000946
2.4719367027282715,0.45207110047340393,-0.25696396827697754,0.618844747543335,-0.7932254076004028,0.02216573804616928,0.06986579298973083
2.4919140338897705,0.4521993100643158,-0.2484629899263382,0.629104733467102,-0.7973878383636475,0.012983269989490509,0.07091037929058075
2.5119874477386475,0.45429304242134094,-0.2576766014099121,0.6377895474433899,-0.8015506863594055,0.012232780456542969,0.07398110628128052
2.5320286750793457,0.4596470594406128,-0.2651696503162384,0.6501244902610779,-0.8034245371818542,0.0088786780834198,0.07484669238328934
2.5521154403686523,0.42503121495246887,-0.2924257516860962,0.6048009395599365,-0.8026908040046692,0.017119698226451874,0.08168115466833115
2.5721943378448486,0.4286668598651886,-0.2905583083629608,0.6343613266944885,-0.8048247694969177,0.0034219250082969666,0.08362029492855072
2.5922653675079346,0.43361765146255493,-0.29493993520736694,0.6435612440109253,-0.8073145747184753,0.001434139907360077,0.08456440269947052
2.6123955249786377,0.4397072196006775,-0.27770140767097473,0.6631049513816833,-0.8123193383216858,-0.009724423289299011,0.08470863103866577
2.63248872756958,0.422475129365921,-0.3083076775074005,0.6060398817062378,-0.8120704889297485,0.0055405981838703156,0.08478634804487228
2.6526334285736084,0.4271641671657562,-0.28834962844848633,0.635158896446228,-0.8117361664772034,-0.014706946909427643,0.08270299434661865
2.6727089881896973,0.44025957584381104,-0.2902304232120514,0.6554023027420044,-0.8157688975334167,-0.019297510385513306,0.08263672143220901
2.692772388458252,0.4006832242012024,-0.33973783254623413,0.6107625365257263,-0.8152557015419006,-0.005602441728115082,0.08992363512516022
2.712839365005493,0.3887051045894623,-0.3422699570655823,0.6032426357269287,-0.813925564289093,-0.016971129924058914,0.0888640433549881
2.7329719066619873,0.38395944237709045,-0.33238980174064636,0.6047428846359253,-0.815801203250885,-0.03322124481201172,0.08732755482196808
2.752990484237671,0.4229404628276825,-0.35303831100463867,0.6703017354011536,-0.8294324278831482,-0.01995193213224411,0.09151969850063324
2.7731120586395264,0.3843667209148407,-0.4147430658340454,0.6331450939178467,-0.8287823796272278,-0.012219943106174469,0.09704362601041794
2.793170690536499,0.34002450108528137,-0.46524208784103394,0.6057049036026001,-0.8268062472343445,-0.015284109860658646,0.10535695403814316
2.8132190704345703,0.2996463477611542,-0.5033509135246277,0.5945361852645874,-0.8257548213005066,-0.024296056479215622,0.11812290549278259
2.8333024978637695,0.47480645775794983,-0.2839198112487793,0.7296273112297058,-0.8448386788368225,-0.08146453648805618,0.07677231729030609
2.8534486293792725,0.4583360254764557,-0.31606584787368774,0.7217136025428772,-0.8560236692428589,-0.07950277626514435,0.08090320229530334
2.8734958171844482,0.4181211292743683,-0.37757164239883423,0.6858664751052856,-0.8634397387504578,-0.06790390610694885,0.09315861761569977
2.893712282180786,0.3453790545463562,-0.4776538610458374,0.6970001459121704,-0.8339443802833557,-0.06777626276016235,0.12991946935653687
2.913701057434082,0.3809549808502197,-0.4361187219619751,0.7359511852264404,-0.8408052325248718,-0.0883975550532341,0.12347502261400223
2.933788537979126,0.4068143665790558,-0.3992531895637512,0.7646915912628174,-0.8495935201644897,-0.10760872066020966,0.11609738320112228
2.954016923904419,0.4203355312347412,-0.3954259753227234,0.762602686882019,-0.8581693768501282,-0.1125251054763794,0.10929016768932343
2.974107027053833,0.28554144501686096,-0.5970404744148254,0.6850267648696899,-0.8528761267662048,-0.07583799213171005,0.13812732696533203
2.9942376613616943,0.29060232639312744,-0.5919837951660156,0.7354069948196411,-0.8515946269035339,-0.09069985896348953,0.14889384806156158
3.0142574310302734,0.3043763041496277,-0.5689606666564941,0.77344810962677,-0.8559774160385132,-0.10933402180671692,0.15165932476520538
3.0343716144561768,0.39559563994407654,-0.41206544637680054,0.795773983001709,-0.8832067847251892,-0.14247745275497437,0.11710613965988159
3.054508686065674,0.39184191823005676,-0.46546870470046997,0.8071045875549316,-0.8863992691040039,-0.1303575038909912,0.12745508551597595
3.0745608806610107,0.3628314435482025,-0.551569402217865,0.786437451839447,-0.8837246298789978,-0.104738250374794,0.13884323835372925
3.0946316719055176,0.3513774573802948,-0.46929389238357544,0.8397578001022339,-0.8709043860435486,-0.16368627548217773,0.1391180157661438
3.1147243976593018,0.36524006724357605,-0.48501384258270264,0.8373944163322449,-0.8827973008155823,-0.1550782322883606,0.1391572654247284
3.134817123413086,0.36974820494651794,-0.4920414686203003,0.8427062034606934,-0.8877699971199036,-0.15656238794326782,0.13881532847881317
3.1548714637756348,0.36347663402557373,-0.5234879851341248,0.8350272178649902,-0.8942034840583801,-0.14888159930706024,0.1405620574951172
3.1755387783050537,0.3163125216960907,-0.6190445423126221,0.8567448854446411,-0.8811617493629456,-0.1393762081861496,0.16129912436008453
3.1955976486206055,0.3112219274044037,-0.6527974009513855,0.8450701236724854,-0.8897853493690491,-0.13089439272880554,0.16251882910728455
3.2157459259033203,0.29963797330856323,-0.6688053011894226,0.8386860489845276,-0.8909978866577148,-0.12693068385124207,0.16780273616313934
3.235915422439575,0.29396525025367737,-0.6473789215087891,0.8581476211547852,-0.891494631767273,-0.1443444788455963,0.17189684510231018
3.256108045578003,0.34836265444755554,-0.6368433833122253,0.8904196619987488,-0.9168559908866882,-0.14990898966789246,0.15827296674251556
3.2761645317077637,0.31822293996810913,-0.6942420601844788,0.8831406831741333,-0.9163071513175964,-0.14029142260551453,0.16915570199489594
3.2961809635162354,0.3159528076648712,-0.694092869758606,0.9203426837921143,-0.9131899476051331,-0.15812484920024872,0.17753754556179047
3.3162477016448975,0.3292478024959564,-0.6242784857749939,0.9091497659683228,-0.9164490103721619,-0.17853647470474243,0.17065121233463287
3.3363120555877686,0.3189859688282013,-0.657743513584137,0.9083907604217529,-0.9262767434120178,-0.17278918623924255,0.1765182912349701
3.3564391136169434,0.31321248412132263,-0.6594197750091553,0.9288471937179565,-0.9330077767372131,-0.18319544196128845,0.18344783782958984
3.37648606300354,0.3118191957473755,-0.6733539700508118,0.9384849667549133,-0.9382472634315491,-0.18553778529167175,0.18988053500652313
3.3966217041015625,0.30608877539634705,-0.7054455876350403,0.9808657169342041,-0.9402918219566345,-0.19248712062835693,0.19942066073417664
3.416693687438965,0.3089996874332428,-0.6983476877212524,0.9950330257415771,-0.9516725540161133,-0.2041471004486084,0.20447254180908203
3.436750888824463,0.30740633606910706,-0.7183002829551697,0.9888942837715149,-0.9610077738761902,-0.19744539260864258,0.2128114551305771
3.4568254947662354,0.2998093068599701,-0.7125621438026428,0.9910212755203247,-0.9664112329483032,-0.20432636141777039,0.21665823459625244
3.4769158363342285,0.29900118708610535,-0.7184656262397766,1.0047917366027832,-0.9779570698738098,-0.21321916580200195,0.22584891319274902
3.496973991394043,0.3054875135421753,-0.7564951777458191,0.9997828602790833,-0.9903802275657654,-0.20253059267997742,0.23593972623348236
3.517040491104126,0.2972055971622467,-0.7688482403755188,1.0023239850997925,-0.9947313666343689,-0.20322218537330627,0.24405387043952942
3.537107467651367,0.3058457672595978,-0.7617581486701965,1.0139964818954468,-1.0086919069290161,-0.20676633715629578,0.254954993724823
3.557321548461914,0.29981178045272827,-0.7979584336280823,0.9906809329986572,-1.0250871181488037,-0.19087806344032288,0.26655516028404236
3.5772926807403564,0.291219562292099,-0.7984409928321838,0.9852977395057678,-1.0390909910202026,-0.18978750705718994,0.2806428074836731
3.597414493560791,0.30528685450553894,-0.790166437625885,0.989239513874054,-1.0470263957977295,-0.1908341944217682,0.28718826174736023
3.6174941062927246,0.3057769238948822,-0.7808286547660828,0.9857306480407715,-1.0672619342803955,-0.18826627731323242,0.3035498261451721
3.6375937461853027,0.30242136120796204,-0.7873606085777283,0.9759845733642578,-1.088727593421936,-0.18441760540008545,0.3201203942298889
3.6576340198516846,0.3030772805213928,-0.7831712961196899,0.9724675416946411,-1.110526442527771,-0.18187028169631958,0.3375125229358673
3.677715539932251,0.28515830636024475,-0.7898443341255188,0.968181312084198,-1.127779483795166,-0.18798315525054932,0.35085612535476685
3.6978137493133545,0.30097198486328125,-0.7713911533355713,0.9683235883712769,-1.1528247594833374,-0.18113893270492554,0.37531381845474243
3.7178573608398438,0.3042251467704773,-0.7602565884590149,0.9626317620277405,-1.1860390901565552,-0.18002721667289734,0.39983895421028137
3.737955331802368,0.28146594762802124,-0.7669748067855835,0.9517586827278137,-1.2046295404434204,-0.1845213770866394,0.41486412286758423
3.758070468902588,0.28672587871551514,-0.7515794634819031,0.9514611959457397,-1.2382200956344604,-0.1838514506816864,0.4422154426574707
3.778162956237793,0.2861950099468231,-0.7506323456764221,0.9311217069625854,-1.2795157432556152,-0.173051655292511,0.4756230413913727
3.7982237339019775,0.2799069583415985,-0.7469545006752014,0.917549729347229,-1.319766879081726,-0.17392495274543762,0.509881317615509
3.8183224201202393,0.27161186933517456,-0.73716139793396,0.9168347120285034,-1.3424957990646362,-0.1801130473613739,0.5280594229698181
3.8384592533111572,0.2673766314983368,-0.7431235909461975,0.8985145092010498,-1.381003975868225,-0.17652055621147156,0.5620551109313965
3.8584628105163574,0.26433277130126953,-0.7227591872215271,0.8964452743530273,-1.4198256731033325,-0.18601757287979126,0.5951884984970093
3.878598213195801,0.26339051127433777,-0.72748202085495,0.8785542845726013,-1.437527060508728,-0.17660817503929138,0.6152102947235107
3.898700714111328,0.2619020640850067,-0.7073463797569275,0.8828004598617554,-1.4762520790100098,-0.1879729926586151,0.6464037895202637
3.9187870025634766,0.2508067786693573,-0.7060797810554504,0.8497965931892395,-1.5113428831100464,-0.17837989330291748,0.6794017553329468
3.938876152038574,0.2489754855632782,-0.6834440231323242,0.864246129989624,-1.5447739362716675,-0.1970638930797577,0.7071264982223511
3.958934783935547,0.2454955279827118,-0.6970717310905457,0.8250417113304138,-1.5618467330932617,-0.17786449193954468,0.726715087890625
3.979022264480591,0.24862003326416016,-0.6681528687477112,0.8549940586090088,-1.599112629890442,-0.19859036803245544,0.7491925954818726
3.999070644378662,0.23744195699691772,-0.673693835735321,0.8069968223571777,-1.6301569938659668,-0.18420526385307312,0.7828235626220703
4.0191473960876465,0.23864859342575073,-0.6688227653503418,0.816459059715271,-1.6464351415634155,-0.19066885113716125,0.7952080965042114
4.039222002029419,0.23568874597549438,-0.645509660243988,0.8130488395690918,-1.6724355220794678,-0.2067297101020813,0.8169741630554199
4.059277296066284,0.23612400889396667,-0.6521154046058655,0.7968682050704956,-1.6998026371002197,-0.19191694259643555,0.8420388698577881
4.079362392425537,0.23179271817207336,-0.6303616762161255,0.8088979721069336,-1.71597158908844,-0.21342337131500244,0.850298285484314
4.099426746368408,0.22784766554832458,-0.6434076428413391,0.7698326110839844,-1.7396923303604126,-0.19493862986564636,0.8769088387489319
4.11953067779541,0.2258395254611969,-0.6198781132698059,0.7863730192184448,-1.7662063837051392,-0.21644601225852966,0.8972629308700562
4.139581203460693,0.22324392199516296,-0.6244164705276489,0.7521539926528931,-1.775856852531433,-0.20219704508781433,0.9077544808387756
4.159743070602417,0.22190186381340027,-0.5960100293159485,0.7842640280723572,-1.8010507822036743,-0.2295144498348236,0.923382043838501
4.179742336273193,0.21962586045265198,-0.6178656220436096,0.7312307357788086,-1.8157858848571777,-0.20641964673995972,0.9408499002456665
4.1998231410980225,0.21965500712394714,-0.6161314249038696,0.718052089214325,-1.8277631998062134,-0.19730103015899658,0.9509721994400024
4.219914436340332,0.2165023684501648,-0.5786418318748474,0.7617673873901367,-1.8441351652145386,-0.23758059740066528,0.9611252546310425
4.239968299865723,0.21534043550491333,-0.6007183790206909,0.7074570655822754,-1.8613513708114624,-0.20790624618530273,0.9789779186248779
4.260195016860962,0.21277594566345215,-0.5595553517341614,0.7598106265068054,-1.8794711828231812,-0.2499198615550995,0.988064169883728
4.280280828475952,0.21250444650650024,-0.582326352596283,0.7060571908950806,-1.8866101503372192,-0.22289901971817017,0.99657142162323
4.300380706787109,0.21495631337165833,-0.5576624870300293,0.7197070121765137,-1.901776909828186,-0.23427510261535645,1.0080982446670532
4.320460557937622,0.21335896849632263,-0.5630413293838501,0.6906083822250366,-1.912636637687683,-0.22877970337867737,1.019536018371582
4.340583801269531,0.21329456567764282,-0.5664942264556885,0.6815370321273804,-1.9198238849639893,-0.2225850522518158,1.026609182357788
4.360612630844116,0.21025049686431885,-0.5450161099433899,0.7042365670204163,-1.935653567314148,-0.24345341324806213,1.035058856010437
4.381069660186768,0.2093053162097931,-0.5462085008621216,0.6815651059150696,-1.9460808038711548,-0.23394501209259033,1.0453742742538452
4.401162385940552,0.20985305309295654,-0.5363388657569885,0.6928213238716125,-1.9532527923583984,-0.2447706162929535,1.0488840341567993
4.421257734298706,0.21382275223731995,-0.5311388969421387,0.6684647798538208,-1.9581358432769775,-0.2374357283115387,1.0579026937484741
4.4412922859191895,0.21170291304588318,-0.5221596956253052,0.6732721328735352,-1.9714261293411255,-0.24886450171470642,1.0661888122558594
4.461383581161499,0.211266428232193,-0.5226370096206665,0.6653346419334412,-1.974836826324463,-0.24837768077850342,1.0702556371688843
4.481446743011475,0.20891305804252625,-0.5159267783164978,0.6631461977958679,-1.9843977689743042,-0.2499382197856903,1.0765448808670044
4.501508712768555,0.20975953340530396,-0.5093235373497009,0.6524399518966675,-1.9916574954986572,-0.2518320679664612,1.0831190347671509
4.5217204093933105,0.2084626853466034,-0.5023985505104065,0.6572928428649902,-1.9979914426803589,-0.2581651508808136,1.0865055322647095
4.541903257369995,0.20976793766021729,-0.49954384565353394,0.6425595283508301,-2.0049240589141846,-0.25333642959594727,1.0932804346084595
4.562083959579468,0.20637190341949463,-0.5001236200332642,0.6410236358642578,-2.010106086730957,-0.2530367970466614,1.0963257551193237
4.582156419754028,0.20713090896606445,-0.4891127943992615,0.6407678127288818,-2.017259359359741,-0.2580276429653168,1.1013339757919312
4.602169036865234,0.20561963319778442,-0.48690831661224365,0.6370261311531067,-2.0235018730163574,-0.25695183873176575,1.1066378355026245
4.622205018997192,0.20801687240600586,-0.4825356602668762,0.6368695497512817,-2.024794101715088,-0.2614513635635376,1.108689308166504
4.642275094985962,0.20764681696891785,-0.4820331335067749,0.6288143396377563,-2.029794454574585,-0.2610163390636444,1.1140917539596558
4.66232967376709,0.2086162269115448,-0.478457510471344,0.616399347782135,-2.034942626953125,-0.2567139267921448,1.1173959970474243
4.682843208312988,0.20838835835456848,-0.47127074003219604,0.6171244382858276,-2.039992094039917,-0.2625490128993988,1.12100350856781
4.702986478805542,0.2099539339542389,-0.46998292207717896,0.611089289188385,-2.0417683124542236,-0.25914129614830017,1.1226445436477661
4.723031282424927,0.2108825147151947,-0.4669346809387207,0.6037654876708984,-2.044407844543457,-0.2609727382659912,1.1261069774627686
4.743088245391846,0.208286315202713,-0.4594830870628357,0.6148598194122314,-2.0497825145721436,-0.26954886317253113,1.1293258666992188
4.763690233230591,0.20934435725212097,-0.4610106348991394,0.6028510332107544,-2.052006483078003,-0.26366621255874634,1.1323133707046509
4.783803939819336,0.21090403199195862,-0.4534810781478882,0.6065823435783386,-2.0523858070373535,-0.271071195602417,1.1334501504898071
4.8039021492004395,0.2114301323890686,-0.4526652693748474,0.600830614566803,-2.0553770065307617,-0.2692624032497406,1.1362754106521606
4.823997259140015,0.2110918164253235,-0.4472123384475708,0.6017376184463501,-2.059755325317383,-0.27250075340270996,1.1382921934127808
4.844112873077393,0.2093268632888794,-0.44631707668304443,0.5937807559967041,-2.0605807304382324,-0.2695937752723694,1.1396058797836304
4.864165306091309,0.20927652716636658,-0.44611603021621704,0.5859179496765137,-2.0630435943603516,-0.2657337188720703,1.1414191722869873
4.884214878082275,0.21010246872901917,-0.44069939851760864,0.5873799920082092,-2.066838264465332,-0.2691901624202728,1.143446683883667
4.9042816162109375,0.2118026316165924,-0.43952733278274536,0.5770182013511658,-2.0654897689819336,-0.26648619771003723,1.143829584121704
4.924354314804077,0.20895102620124817,-0.43493032455444336,0.5878437757492065,-2.071152925491333,-0.27156907320022583,1.1457390785217285
4.944417238235474,0.20891138911247253,-0.43225181102752686,0.5895628333091736,-2.0707509517669678,-0.27552229166030884,1.1476199626922607
4.9646008014678955,0.21024325489997864,-0.43526411056518555,0.5780420899391174,-2.0716371536254883,-0.26940280199050903,1.1479452848434448
4.984717607498169,0.21013584733009338,-0.4289270043373108,0.5856756567955017,-2.072787284851074,-0.276282399892807,1.1493912935256958
5.004925727844238,0.2111314833164215,-0.43227463960647583,0.5705053210258484,-2.07444429397583,-0.2669321596622467,1.150821566581726
5.024924039840698,0.21011051535606384,-0.42677319049835205,0.5797292590141296,-2.076622247695923,-0.2739756405353546,1.1523510217666626
5.04504919052124,0.20997682213783264,-0.4310762882232666,0.569644570350647,-2.076669931411743,-0.2689702808856964,1.1529595851898193
5.06513237953186,0.2108674943447113,-0.42215096950531006,0.5792145729064941,-2.0775890350341797,-0.2779252529144287,1.1537936925888062
5.085284233093262,0.21180784702301025,-0.4219056963920593,0.5758275985717773,-2.0795016288757324,-0.2759183943271637,1.1551270484924316
5.105362892150879,0.21358701586723328,-0.4240837097167969,0.5607317686080933,-2.0779552459716797,-0.26947060227394104,1.1550577878952026
5.125514268875122,0.21020206809043884,-0.4182712435722351,0.5732263326644897,-2.079972505569458,-0.276577353477478,1.155624270439148
5.145547389984131,0.2122887670993805,-0.420162558555603,0.5593430399894714,-2.08088755607605,-0.27020972967147827,1.156439185142517
5.165708065032959,0.20981013774871826,-0.416584312915802,0.565754771232605,-2.0838990211486816,-0.2735615074634552,1.156967043876648
5.18578839302063,0.21140384674072266,-0.41816240549087524,0.5610389113426208,-2.084073781967163,-0.27120861411094666,1.1575686931610107
5.205823183059692,0.21039247512817383,-0.4179965853691101,0.5598806142807007,-2.0848217010498047,-0.27129432559013367,1.1587092876434326
5.225858926773071,0.20990458130836487,-0.41461944580078125,0.5647196769714355,-2.0854110717773438,-0.275267094373703,1.1592978239059448
5.245936393737793,0.21159517765045166,-0.4140395522117615,0.561107873916626,-2.0850958824157715,-0.27339282631874084,1.1597082614898682
5.266033887863159,0.21112188696861267,-0.4137226343154907,0.561394989490509,-2.085867404937744,-0.2745114266872406,1.160255789756775
5.286163091659546,0.21167364716529846,-0.4129246473312378,0.5583661198616028,-2.0857059955596924,-0.2737876772880554,1.1605218648910522
5.306185722351074,0.21172767877578735,-0.4120340943336487,0.5591431856155396,-2.087073802947998,-0.2746853828430176,1.1611500978469849
5.326296091079712,0.2113739550113678,-0.4083186388015747,0.5649082064628601,-2.0872340202331543,-0.2789694666862488,1.1613761186599731
5.34645676612854,0.2120683491230011,-0.41116756200790405,0.5567212104797363,-2.0872347354888916,-0.2743547558784485,1.1620047092437744
5.366583585739136,0.21146753430366516,-0.41245508193969727,0.5520607829093933,-2.0883214473724365,-0.2710409164428711,1.1619895696640015
5.386559009552002,0.21067550778388977,-0.41017186641693115,0.5564124584197998,-2.088975429534912,-0.2741594612598419,1.1629445552825928
5.406640291213989,0.21236902475357056,-0.40749090909957886,0.5562909245491028,-2.0882787704467773,-0.2759111523628235,1.162760853767395
5.4267051219940186,0.2127721905708313,-0.40695035457611084,0.5527756214141846,-2.088050603866577,-0.27547597885131836,1.1633433103561401
5.44685697555542,0.2123604714870453,-0.40553396940231323,0.5537577271461487,-2.08851957321167,-0.27574658393859863,1.1629688739776611
5.467077732086182,0.2116265892982483,-0.4060640335083008,0.5539360642433167,-2.08866810798645,-0.2755337059497833,1.163088083267212
5.487154006958008,0.2119176685810089,-0.4052116274833679,0.5544055104255676,-2.088912010192871,-0.2766360640525818,1.163123607635498
5.507279872894287,0.21186286211013794,-0.40430551767349243,0.5532557368278503,-2.088780164718628,-0.27602553367614746,1.1627107858657837
5.5273261070251465,0.21135437488555908,-0.40401047468185425,0.5537198185920715,-2.0897250175476074,-0.27594542503356934,1.1629053354263306
5.547465085983276,0.21101948618888855,-0.403151273727417,0.5556700825691223,-2.089597702026367,-0.2775954604148865,1.1630922555923462
5.567572355270386,0.21080633997917175,-0.40403419733047485,0.5516462326049805,-2.089862823486328,-0.2745777666568756,1.1630560159683228
5.5875585079193115,0.21008619666099548,-0.4027808904647827,0.5535983443260193,-2.0903730392456055,-0.27585718035697937,1.1631007194519043
5.607619285583496,0.20995953679084778,-0.4017276167869568,0.5566371083259583,-2.090395450592041,-0.2774600684642792,1.1632434129714966
5.627781629562378,0.21070194244384766,-0.4015071392059326,0.5540573596954346,-2.0908780097961426,-0.27614569664001465,1.1636097431182861
5.647806644439697,0.2103990912437439,-0.402538001537323,0.5522736310958862,-2.0910484790802,-0.27487751841545105,1.1637824773788452
5.667865037918091,0.2099001109600067,-0.40492868423461914,0.5502475500106812,-2.091630220413208,-0.27311503887176514,1.164434790611267
5.6880271434783936,0.2107878029346466,-0.4025111198425293,0.5499558448791504,-2.091064453125,-0.27390894293785095,1.1641366481781006
5.708061695098877,0.21012088656425476,-0.40250128507614136,0.5523914098739624,-2.091536045074463,-0.2752390503883362,1.164284586906433
5.7281389236450195,0.2107609212398529,-0.4024403691291809,0.5513620376586914,-2.0910773277282715,-0.27525582909584045,1.164629578590393
5.748220205307007,0.21131408214569092,-0.4028242826461792,0.5484741926193237,-2.091407537460327,-0.2734570801258087,1.1648197174072266
5.768301963806152,0.2105499804019928,-0.40176838636398315,0.5509620308876038,-2.0916521549224854,-0.27550625801086426,1.16500723361969
5.7883501052856445,0.21113458275794983,-0.40053945779800415,0.5526701211929321,-2.0917673110961914,-0.2771846055984497,1.1652005910873413
5.808459043502808,0.21182265877723694,-0.4011309742927551,0.5486612319946289,-2.0918002128601074,-0.27501732110977173,1.1654595136642456
5.8284947872161865,0.21142837405204773,-0.40051960945129395,0.5502126216888428,-2.0917654037475586,-0.2760004699230194,1.1654398441314697
5.848602294921875,0.21125271916389465,-0.4009406566619873,0.5507068037986755,-2.0916848182678223,-0.27637171745300293,1.1656132936477661
5.8687050342559814,0.2124229371547699,-0.4009855389595032,0.5464407801628113,-2.090862512588501,-0.2753206789493561,1.1658905744552612
5.888784646987915,0.2117147147655487,-0.40138334035873413,0.5471713542938232,-2.0916366577148438,-0.2749505043029785,1.165709376335144
5.9089577198028564,0.2117246389389038,-0.4006969928741455,0.5488320589065552,-2.091576099395752,-0.2761739194393158,1.165611743927002
5.929039716720581,0.21179130673408508,-0.400875449180603,0.547537624835968,-2.0914270877838135,-0.2754400074481964,1.1656049489974976
5.949142932891846,0.2112264335155487,-0.4013691544532776,0.5487083196640015,-2.09187912940979,-0.27598997950553894,1.1659444570541382
5.9691691398620605,0.21181896328926086,-0.4003716707229614,0.5471658706665039,-2.0913729667663574,-0.27567821741104126,1.1656475067138672
5.989340543746948,0.21173426508903503,-0.4004499912261963,0.5474275946617126,-2.0915961265563965,-0.2754679024219513,1.1657748222351074
6.009429216384888,0.21193400025367737,-0.399427592754364,0.548090398311615,-2.0914266109466553,-0.27678626775741577,1.1658403873443604
6.0295093059539795,0.21148964762687683,-0.4002428650856018,0.5473324656486511,-2.091615676879883,-0.27588969469070435,1.1659139394760132
6.049596309661865,0.2113373875617981,-0.4001981019973755,0.5473319888114929,-2.0916640758514404,-0.2757786214351654,1.1658622026443481
6.0696494579315186,0.21167311072349548,-0.4005165696144104,0.5463413000106812,-2.09149169921875,-0.2754148542881012,1.1661138534545898
6.089732646942139,0.2118317186832428,-0.39920926094055176,0.5479400753974915,-2.091580390930176,-0.2764613926410675,1.1660300493240356
6.109795331954956,0.21203398704528809,-0.3996363878250122,0.5470279455184937,-2.0913918018341064,-0.2766883671283722,1.1662896871566772
6.129842758178711,0.21194788813591003,-0.399452269077301,0.5469855666160583,-2.0917844772338867,-0.2760940492153168,1.1660503149032593
6.15003776550293,0.2114366590976715,-0.40009039640426636,0.5468013882637024,-2.091752052307129,-0.2760851979255676,1.1663188934326172
6.170125484466553,0.21178662776947021,-0.39966708421707153,0.5473324656486511,-2.092060089111328,-0.27631327509880066,1.166268229484558
6.1901938915252686,0.21167853474617004,-0.4003862142562866,0.5466698408126831,-2.092015266418457,-0.27587640285491943,1.1664632558822632
6.2102978229522705,0.21167084574699402,-0.39917904138565063,0.548101007938385,-2.091862440109253,-0.2771415114402771,1.166385531425476
6.2303626537323,0.21189075708389282,-0.39997589588165283,0.5452863574028015,-2.091539144515991,-0.27582839131355286,1.166424036026001
6.250446319580078,0.2122231125831604,-0.39831387996673584,0.5475148558616638,-2.091665267944336,-0.277245432138443,1.1662887334823608
6.270516395568848,0.21219488978385925,-0.39939701557159424,0.5449651479721069,-2.0917506217956543,-0.2754810154438019,1.166190266609192
6.290571928024292,0.21172481775283813,-0.3989647626876831,0.5466935038566589,-2.09200382232666,-0.27645301818847656,1.1664096117019653
6.311187028884888,0.21181946992874146,-0.3990744948387146,0.5463696718215942,-2.092045783996582,-0.2761112153530121,1.1665360927581787
6.331258535385132,0.21173712611198425,-0.39925092458724976,0.5464389324188232,-2.0919528007507324,-0.2761947214603424,1.1666252613067627
6.351346731185913,0.2119775116443634,-0.39952921867370605,0.5455729365348816,-2.0919785499572754,-0.27595698833465576,1.1666373014450073
6.371384620666504,0.2117917835712433,-0.39840972423553467,0.5477229952812195,-2.0919909477233887,-0.27744796872138977,1.166723370552063
6.391561508178711,0.21202042698860168,-0.39886003732681274,0.5456551909446716,-2.0918049812316895,-0.27603915333747864,1.166622519493103
6.41171407699585,0.21166983246803284,-0.3987070918083191,0.5464394688606262,-2.0919456481933594,-0.27636998891830444,1.166673183441162
6.431772708892822,0.21190667152404785,-0.398492693901062,0.5465137958526611,-2.091809034347534,-0.2767770290374756,1.1666003465652466
6.451875448226929,0.21193483471870422,-0.39869725704193115,0.5460953116416931,-2.091967821121216,-0.27617546916007996,1.166627049446106
6.472027540206909,0.21191662549972534,-0.3987045884132385,0.5462186932563782,-2.092020034790039,-0.27632462978363037,1.1667512655258179
6.492104530334473,0.21163365244865417,-0.39860355854034424,0.5466763377189636,-2.091998338699341,-0.27653324604034424,1.1666886806488037
6.51213002204895,0.21183601021766663,-0.3983810544013977,0.5461004376411438,-2.091792106628418,-0.27669039368629456,1.1668524742126465
6.5321714878082275,0.21210983395576477,-0.39804011583328247,0.5461514592170715,-2.0920166969299316,-0.2765958905220032,1.1666754484176636
6.55225133895874,0.21180835366249084,-0.3986400365829468,0.5461293458938599,-2.0917515754699707,-0.27656999230384827,1.1668161153793335
6.572358846664429,0.21187317371368408,-0.39865005016326904,0.5467902421951294,-2.0919189453125,-0.27670806646347046,1.1667836904525757
6.59246826171875,0.21192941069602966,-0.39856457710266113,0.5465409159660339,-2.09205961227417,-0.2765199542045593,1.1667810678482056
6.612529516220093,0.21176865696907043,-0.39842283725738525,0.5461656451225281,-2.0918679237365723,-0.27665355801582336,1.1668119430541992
6.632585287094116,0.21171849966049194,-0.3983193635940552,0.5465713739395142,-2.0920772552490234,-0.2766313850879669,1.166750431060791
6.652711391448975,0.21217408776283264,-0.3981698751449585,0.5462731122970581,-2.0919437408447266,-0.2766995131969452,1.166714072227478
6.672730445861816,0.21191486716270447,-0.398684561252594,0.5453703999519348,-2.091897964477539,-0.27600646018981934,1.1667569875717163
6.692885398864746,0.21207189559936523,-0.398084819316864,0.5466616153717041,-2.0920028686523438,-0.27691927552223206,1.1667803525924683
6.712925910949707,0.21198853850364685,-0.3983771800994873,0.5462260842323303,-2.092097282409668,-0.27658113837242126,1.1668654680252075
6.732952356338501,0.21191862225532532,-0.3995943069458008,0.5445849299430847,-2.0921061038970947,-0.2754887044429779,1.1671197414398193
6.753540754318237,0.21179702877998352,-0.3990577459335327,0.5450906157493591,-2.092115640640259,-0.27580708265304565,1.167000412940979
6.773668527603149,0.21198251843452454,-0.3982471823692322,0.5460065007209778,-2.092191219329834,-0.27620837092399597,1.166989803314209
6.793787717819214,0.21239760518074036,-0.398331880569458,0.5452172756195068,-2.0920863151550293,-0.2760787010192871,1.1669042110443115
6.8138816356658936,0.2121162712574005,-0.3982587456703186,0.5463480949401855,-2.0921971797943115,-0.2770187556743622,1.1669650077819824
6.833911895751953,0.2121562957763672,-0.39840149879455566,0.54571932554245,-2.0919394493103027,-0.2763231694698334,1.1669607162475586
6.85407280921936,0.21187087893486023,-0.3983418941497803,0.5462292432785034,-2.092061996459961,-0.2767234444618225,1.1669261455535889
6.874115228652954,0.21207451820373535,-0.3983422517776489,0.5456039309501648,-2.0919647216796875,-0.27624279260635376,1.1669306755065918
6.8942320346832275,0.21203258633613586,-0.39911383390426636,0.5446637868881226,-2.091770887374878,-0.2761363387107849,1.167081594467163
6.914289712905884,0.2119709551334381,-0.39855360984802246,0.5455344915390015,-2.091989040374756,-0.276658833026886,1.1669402122497559
6.9343791007995605,0.2120090126991272,-0.3982815146446228,0.5455460548400879,-2.091841459274292,-0.27663078904151917,1.167046070098877
6.954420328140259,0.21203163266181946,-0.39812034368515015,0.5459739565849304,-2.092088222503662,-0.2767326831817627,1.166969895362854
6.974615812301636,0.21203643083572388,-0.3980652689933777,0.5462840795516968,-2.091860771179199,-0.27717792987823486,1.1670180559158325
6.99495792388916,0.21177801489830017,-0.39852434396743774,0.5455228090286255,-2.0919156074523926,-0.27657225728034973,1.1670295000076294
7.015032768249512,0.21182766556739807,-0.3978922963142395,0.5471059679985046,-2.0920114517211914,-0.2776360511779785,1.1670416593551636
7.0352325439453125,0.21225064992904663,-0.3980281949043274,0.5452926158905029,-2.0915842056274414,-0.27675661444664,1.1669081449508667
7.055271148681641,0.21189957857131958,-0.39811110496520996,0.5455955266952515,-2.091977596282959,-0.2766169309616089,1.1669520139694214
7.075362920761108,0.21204817295074463,-0.3976939916610718,0.5464205145835876,-2.0921292304992676,-0.2770295739173889,1.1669633388519287
7.095486164093018,0.21212878823280334,-0.3977256417274475,0.5461709499359131,-2.0920028686523438,-0.27716580033302307,1.166958212852478
7.1155500411987305,0.2122332751750946,-0.3981364369392395,0.5450769066810608,-2.091811180114746,-0.2764328718185425,1.1669453382492065
7.135595083236694,0.21206733584403992,-0.3982621431350708,0.54494309425354,-2.0917203426361084,-0.27650225162506104,1.1669597625732422
7.155684947967529,0.21205517649650574,-0.3977786898612976,0.5461269617080688,-2.0919852256774902,-0.2769457697868347,1.1669472455978394
7.175762891769409,0.2120824158191681,-0.3980664610862732,0.5455441474914551,-2.091951847076416,-0.27660995721817017,1.167000412940979
7.222378253936768,0.21220651268959045,-0.3978310227394104,0.5457606911659241,-2.0919852256774902,-0.2768338918685913,1.166905403137207
7.242453336715698,0.21195045113563538,-0.39782971143722534,0.546181321144104,-2.0919418334960938,-0.2771419584751129,1.1669716835021973
7.2626564502716064,0.21206119656562805,-0.39799100160598755,0.5455947518348694,-2.0919198989868164,-0.2765997648239136,1.1669570207595825
7.282785654067993,0.21213886141777039,-0.3981556296348572,0.545009970664978,-2.091775894165039,-0.2764971852302551,1.1669851541519165
7.303008556365967,0.2120285928249359,-0.39751148223876953,0.5467456579208374,-2.092151165008545,-0.27730828523635864,1.1669135093688965
7.322952032089233,0.21218210458755493,-0.39775532484054565,0.5458395481109619,-2.0919933319091797,-0.27670949697494507,1.1668986082077026
7.343050479888916,0.2120237648487091,-0.3980005383491516,0.5456271767616272,-2.0920000076293945,-0.2765575051307678,1.166967749595642
7.363098859786987,0.21213427186012268,-0.39781904220581055,0.5457992553710938,-2.0919241905212402,-0.27698808908462524,1.1669210195541382
7.38318133354187,0.21203085780143738,-0.3982540965080261,0.5449169874191284,-2.0917391777038574,-0.27642592787742615,1.1669833660125732
7.4032676219940186,0.21197474002838135,-0.3983510136604309,0.5447508096694946,-2.091707468032837,-0.2763795554637909,1.1669849157333374
7.423401355743408,0.21198105812072754,-0.3979299068450928,0.5458147525787354,-2.091986894607544,-0.2769372761249542,1.1669725179672241
7.443406343460083,0.2119644582271576,-0.3979789614677429,0.5457881689071655,-2.0920372009277344,-0.2767512798309326,1.1670030355453491
7.4634926319122314,0.21205314993858337,-0.39816343784332275,0.5451155304908752,-2.091902256011963,-0.27634233236312866,1.1669938564300537
7.483629941940308,0.21189647912979126,-0.39793533086776733,0.5457609295845032,-2.092045545578003,-0.27669206261634827,1.1669414043426514
7.503664970397949,0.2121771275997162,-0.3978918194770813,0.5456711649894714,-2.0918755531311035,-0.27687758207321167,1.1669490337371826
7.523719787597656,0.21191033720970154,-0.39768868684768677,0.5463770627975464,-2.092116117477417,-0.2770831882953644,1.1669316291809082
7.5437963008880615,0.21207603812217712,-0.3980119824409485,0.5454956293106079,-2.0920333862304688,-0.27656492590904236,1.1669517755508423
7.563901662826538,0.21212592720985413,-0.39797866344451904,0.5452260971069336,-2.091958522796631,-0.2765237092971802,1.1669176816940308
7.583999156951904,0.21197190880775452,-0.3981541395187378,0.545265257358551,-2.0919108390808105,-0.27641060948371887,1.1669776439666748
7.604285717010498,0.21217909455299377,-0.3980845808982849,0.5451454520225525,-2.091808319091797,-0.27659761905670166,1.1669745445251465
7.624405860900879,0.2119450569152832,-0.39777642488479614,0.5463356971740723,-2.092158317565918,-0.27707135677337646,1.166976809501648
7.644558668136597,0.2119542360305786,-0.39791160821914673,0.5458754301071167,-2.091968297958374,-0.27679646015167236,1.1669880151748657
7.664598703384399,0.2118869125843048,-0.3981231451034546,0.5454244017601013,-2.0918242931365967,-0.27666011452674866,1.16702401638031
7.685257434844971,0.21186736226081848,-0.397861123085022,0.5460679531097412,-2.092067241668701,-0.2768319249153137,1.1669905185699463
7.7053422927856445,0.21208977699279785,-0.39791548252105713,0.5457276105880737,-2.092008590698242,-0.27688148617744446,1.1669687032699585
7.725449085235596,0.21198979020118713,-0.3979630470275879,0.5457515120506287,-2.091970682144165,-0.27674877643585205,1.1669772863388062
7.745495080947876,0.2119186818599701,-0.3982139229774475,0.5453410744667053,-2.0918161869049072,-0.2766347825527191,1.1670615673065186
7.765673875808716,0.21194228529930115,-0.39771103858947754,0.546352207660675,-2.092099189758301,-0.27709466218948364,1.166956901550293
7.7857677936553955,0.21202298998832703,-0.39799249172210693,0.5456065535545349,-2.0919699668884277,-0.27680251002311707,1.1669760942459106
7.8058435916900635,0.21209409832954407,-0.3979946970939636,0.5454318523406982,-2.091902732849121,-0.2766455113887787,1.1669492721557617
7.825911998748779,0.21202006936073303,-0.3981524705886841,0.545280396938324,-2.091841697692871,-0.2766011357307434,1.1670087575912476
7.846311807632446,0.2120143473148346,-0.39792078733444214,0.5456886291503906,-2.091994524002075,-0.2767018675804138,1.1669663190841675
7.866495132446289,0.21199381351470947,-0.3979012370109558,0.5457865595817566,-2.0919322967529297,-0.2769320607185364,1.1669883728027344
7.886536598205566,0.212026447057724,-0.3978124260902405,0.5459914207458496,-2.0920186042785645,-0.2769967019557953,1.1669718027114868
7.906585216522217,0.2120133340358734,-0.3982030153274536,0.5450894236564636,-2.0918896198272705,-0.2763536870479584,1.166996717453003
7.926687002182007,0.21217861771583557,-0.39790236949920654,0.5454851984977722,-2.0919389724731445,-0.2766816318035126,1.1669437885284424
7.946756839752197,0.21215316653251648,-0.39783477783203125,0.5456403493881226,-2.092034339904785,-0.27666136622428894,1.1669074296951294
7.9668495655059814,0.21214744448661804,-0.39801281690597534,0.5451394319534302,-2.0919322967529297,-0.27650246024131775,1.1669281721115112
7.986886739730835,0.21190723776817322,-0.3980085849761963,0.5457738041877747,-2.0920300483703613,-0.2767384946346283,1.1669950485229492
8.00697636604309,0.2121075689792633,-0.39794814586639404,0.545703113079071,-2.091975212097168,-0.2767646908760071,1.1670335531234741
8.027095079421997,0.2121644914150238,-0.3976268768310547,0.5462934970855713,-2.0920910835266113,-0.27711087465286255,1.1669628620147705
8.047277212142944,0.21232745051383972,-0.3979470729827881,0.5451256632804871,-2.0920209884643555,-0.2762943208217621,1.1669069528579712
8.067275285720825,0.21200552582740784,-0.39777135848999023,0.5460385680198669,-2.092069149017334,-0.2769565284252167,1.166937232017517
8.087347984313965,0.21216711401939392,-0.3980786204338074,0.5453025698661804,-2.091871976852417,-0.27660250663757324,1.1670116186141968
8.10740852355957,0.21193331480026245,-0.39824485778808594,0.545295774936676,-2.0918805599212646,-0.2764141261577606,1.1670345067977905
8.127478122711182,0.21210861206054688,-0.3982343077659607,0.5451144576072693,-2.091726779937744,-0.27661624550819397,1.1670640707015991
8.147666931152344,0.21196243166923523,-0.3980597257614136,0.5455647706985474,-2.0919392108917236,-0.2766667306423187,1.1669872999191284
8.167659044265747,0.21204954385757446,-0.3979704976081848,0.5455717444419861,-2.0919737815856934,-0.27666640281677246,1.166973352432251
8.187744617462158,0.21196585893630981,-0.3979051113128662,0.5458115935325623,-2.0919926166534424,-0.2767491340637207,1.1669666767120361
8.20781421661377,0.21200311183929443,-0.39771074056625366,0.5462721586227417,-2.0921144485473633,-0.2771131992340088,1.1670023202896118
8.2279212474823,0.2119530737400055,-0.3980873227119446,0.5453821420669556,-2.0919227600097656,-0.2764524817466736,1.1669888496398926
8.248172283172607,0.21193182468414307,-0.3978482484817505,0.5459570288658142,-2.0920541286468506,-0.27677932381629944,1.1669583320617676
8.268361330032349,0.21205860376358032,-0.3979184031486511,0.5457877516746521,-2.0919954776763916,-0.27691254019737244,1.1669732332229614
8.288522958755493,0.21205177903175354,-0.39797699451446533,0.545619010925293,-2.09197735786438,-0.27669402956962585,1.1669743061065674
8.308604717254639,0.21200963854789734,-0.397697389125824,0.5461918711662292,-2.0921273231506348,-0.27702081203460693,1.1669398546218872
8.328680753707886,0.21188169717788696,-0.39805853366851807,0.545721173286438,-2.0919172763824463,-0.27676457166671753,1.167040467262268
8.348801374435425,0.21191555261611938,-0.3982524871826172,0.5451063513755798,-2.0917952060699463,-0.27650031447410583,1.167029857635498
8.368880987167358,0.21185892820358276,-0.3981439471244812,0.545401930809021,-2.0918993949890137,-0.276583194732666,1.166995882987976
8.389045715332031,0.21211785078048706,-0.3979288339614868,0.5456346273422241,-2.091998815536499,-0.27667850255966187,1.1669672727584839
8.4091055393219,0.2123475968837738,-0.39812660217285156,0.5448146462440491,-2.0918211936950684,-0.2762923836708069,1.1669687032699585
8.429138898849487,0.21210554242134094,-0.3980897068977356,0.5454595685005188,-2.091958522796631,-0.2766067087650299,1.1670197248458862
8.449235200881958,0.21210548281669617,-0.39806514978408813,0.5452775359153748,-2.091801643371582,-0.2766861319541931,1.1670362949371338
8.469343900680542,0.21209171414375305,-0.39763015508651733,0.5463200807571411,-2.0921590328216553,-0.27710944414138794,1.1669310331344604
8.489400625228882,0.21221894025802612,-0.39794808626174927,0.5455136895179749,-2.091918468475342,-0.2767253816127777,1.1670044660568237
8.509443521499634,0.2118489146232605,-0.39799612760543823,0.5458331108093262,-2.0920372009277344,-0.2766818702220917,1.166995644569397
8.529576301574707,0.21230077743530273,-0.3978244662284851,0.5456326007843018,-2.0920534133911133,-0.27672523260116577,1.1669594049453735
8.549660444259644,0.21205469965934753,-0.39785510301589966,0.5459736585617065,-2.092031955718994,-0.27689364552497864,1.167007565498352
8.5697021484375,0.2122008502483368,-0.3978908061981201,0.5455077290534973,-2.09194278717041,-0.276692271232605,1.1669437885284424
8.589804887771606,0.21190765500068665,-0.39797472953796387,0.5457320809364319,-2.0919628143310547,-0.276726633310318,1.1669753789901733
8.609898328781128,0.21210044622421265,-0.3978659510612488,0.5457638502120972,-2.092092752456665,-0.27669209241867065,1.1669358015060425
8.629989385604858,0.21217447519302368,-0.39809125661849976,0.545239269733429,-2.09181547164917,-0.2766402065753937,1.1670233011245728
8.650030612945557,0.2122116982936859,-0.3981793522834778,0.5449583530426025,-2.091871500015259,-0.27633535861968994,1.166998028755188
8.670115947723389,0.2119291126728058,-0.397888720035553,0.5458627939224243,-2.0919766426086426,-0.2768290936946869,1.1669846773147583
8.690246820449829,0.2119206190109253,-0.39782071113586426,0.5459426641464233,-2.092073440551758,-0.2767799496650696,1.1669524908065796
8.710319995880127,0.21189579367637634,-0.39785563945770264,0.5459821820259094,-2.0919206142425537,-0.27702030539512634,1.1669971942901611
8.730343103408813,0.21198871731758118,-0.3977372646331787,0.5460942387580872,-2.0920400619506836,-0.2770821154117584,1.1669689416885376
8.750426530838013,0.21203050017356873,-0.3980787396430969,0.5455765724182129,-2.0919370651245117,-0.2766614854335785,1.167039394378662
8.77049446105957,0.21218743920326233,-0.3980470299720764,0.5454086065292358,-2.0918145179748535,-0.27674975991249084,1.1670345067977905
8.790549516677856,0.21208184957504272,-0.3980898857116699,0.5453840494155884,-2.09187912940979,-0.27661243081092834,1.1669971942901611
8.810611724853516,0.21207395195960999,-0.3978580832481384,0.5458813905715942,-2.092068672180176,-0.2767983675003052,1.166956901550293
8.830699682235718,0.212111234664917,-0.3980786204338074,0.545154333114624,-2.0918655395507812,-0.276532918214798,1.1669622659683228
8.850764989852905,0.21210062503814697,-0.3979043960571289,0.5457566380500793,-2.0919365882873535,-0.2769228518009186,1.1669933795928955
8.870872735977173,0.21219328045845032,-0.3979749083518982,0.5455577969551086,-2.0920557975769043,-0.2767108380794525,1.1670833826065063
8.890933752059937,0.2119729220867157,-0.39808136224746704,0.5455179810523987,-2.0919361114501953,-0.2766512334346771,1.166992425918579
8.911009073257446,0.2120715081691742,-0.39791154861450195,0.5458120703697205,-2.0919885635375977,-0.27680933475494385,1.1670254468917847
8.931097030639648,0.21207228302955627,-0.39782148599624634,0.5458847284317017,-2.092090129852295,-0.2767358720302582,1.1669481992721558
8.951241254806519,0.2121787965297699,-0.39793652296066284,0.5454546809196472,-2.091947078704834,-0.27661845088005066,1.1669819355010986
8.971686363220215,0.21223962306976318,-0.39773720502853394,0.5459637641906738,-2.0920674800872803,-0.2771192193031311,1.1671139001846313
8.991773128509521,0.21191486716270447,-0.39810246229171753,0.545644998550415,-2.0919766426086426,-0.2767612636089325,1.1671881675720215
9.011860609054565,0.2120284140110016,-0.39787769317626953,0.5456632375717163,-2.0919575691223145,-0.27674832940101624,1.1670092344284058
9.031890630722046,0.2117992639541626,-0.39820581674575806,0.5454683303833008,-2.0919747352600098,-0.27654320001602173,1.1671768426895142
9.051945924758911,0.21187803149223328,-0.39793938398361206,0.5459551215171814,-2.0920839309692383,-0.276852548122406,1.167164921760559
9.072121381759644,0.2122577428817749,-0.3980802893638611,0.5450945496559143,-2.091977596282959,-0.2765469551086426,1.1670817136764526
9.092187404632568,0.21211493015289307,-0.3981130123138428,0.545368492603302,-2.092029333114624,-0.2765752673149109,1.1671514511108398
9.112223386764526,0.212102472782135,-0.3978487253189087,0.5460178852081299,-2.092156410217285,-0.27689096331596375,1.167136311531067
9.132338762283325,0.21197006106376648,-0.39798128604888916,0.5456929802894592,-2.092029094696045,-0.2767558991909027,1.1671231985092163
9.152509927749634,0.212212473154068,-0.39805543422698975,0.5452184677124023,-2.091968059539795,-0.27659928798675537,1.167084813117981
9.172510147094727,0.21210560202598572,-0.39791005849838257,0.5455921292304993,-2.092024087905884,-0.2768898606300354,1.1670690774917603
9.192572832107544,0.2121078372001648,-0.3981841802597046,0.5449357032775879,-2.0919227600097656,-0.27635499835014343,1.167085886001587
9.212820053100586,0.2120637595653534,-0.3978763222694397,0.546095609664917,-2.0920472145080566,-0.2770087718963623,1.16717529296875
9.232734441757202,0.2122032344341278,-0.3978257179260254,0.5457457304000854,-2.09201979637146,-0.2769404947757721,1.1670914888381958
9.252848625183105,0.21208205819129944,-0.3982013463973999,0.5452337265014648,-2.091881275177002,-0.2766481637954712,1.167162299156189
9.2729172706604,0.21198412775993347,-0.3981131911277771,0.5455915331840515,-2.09195876121521,-0.27675431966781616,1.1671483516693115
9.293018341064453,0.21190348267555237,-0.39795970916748047,0.5459578633308411,-2.092029094696045,-0.27704793214797974,1.1671644449234009
9.313135862350464,0.2119261920452118,-0.39798063039779663,0.5458784699440002,-2.09213924407959,-0.2766529321670532,1.1671373844146729
9.333147287368774,0.21193769574165344,-0.3981727957725525,0.545269250869751,-2.091888189315796,-0.2766403257846832,1.1671630144119263
9.353210926055908,0.21204805374145508,-0.39794284105300903,0.5457751750946045,-2.0919623374938965,-0.2770555019378662,1.1671584844589233
9.373295307159424,0.21215036511421204,-0.3979235291481018,0.5454235076904297,-2.0920891761779785,-0.2765655517578125,1.1670475006103516
9.393385648727417,0.21196693181991577,-0.3979420065879822,0.5457143187522888,-2.0920562744140625,-0.2768162190914154,1.1671026945114136
9.413424491882324,0.21190312504768372,-0.39828288555145264,0.545237123966217,-2.0918195247650146,-0.276633620262146,1.1671854257583618
9.433583498001099,0.21227312088012695,-0.39786970615386963,0.5455915927886963,-2.0920538902282715,-0.27676859498023987,1.1671048402786255
9.453608274459839,0.2121259868144989,-0.3981713652610779,0.5450225472450256,-2.091860055923462,-0.2765505313873291,1.167112112045288
9.473682880401611,0.21214190125465393,-0.39798402786254883,0.5454776883125305,-2.0919737815856934,-0.27675318717956543,1.167083978652954
9.49380612373352,0.21194526553153992,-0.39824622869491577,0.5452378392219543,-2.0918610095977783,-0.2766568064689636,1.1671667098999023
9.513885021209717,0.21223106980323792,-0.3980844020843506,0.5450167655944824,-2.0919651985168457,-0.27633941173553467,1.167075276374817
9.534003496170044,0.21218889951705933,-0.3981419801712036,0.5450387001037598,-2.0919296741485596,-0.27652981877326965,1.1670938730239868
9.554025411605835,0.21219328045845032,-0.398024320602417,0.5454203486442566,-2.09204363822937,-0.27653756737709045,1.1671072244644165
9.57460880279541,0.21206045150756836,-0.3983359932899475,0.5448986887931824,-2.0918495655059814,-0.27633365988731384,1.1671584844589233
9.594773292541504,0.21204543113708496,-0.3977012038230896,0.5462244749069214,-2.0921318531036377,-0.2771627902984619,1.1670949459075928
9.61488676071167,0.21207213401794434,-0.3978150486946106,0.546110987663269,-2.0920825004577637,-0.27709779143333435,1.1671656370162964
9.634931325912476,0.21207427978515625,-0.39767593145370483,0.5464751720428467,-2.0921730995178223,-0.277191698551178,1.167081356048584
9.655357599258423,0.2121143341064453,-0.39799779653549194,0.545531690120697,-2.092017650604248,-0.27658700942993164,1.1671240329742432
9.675441265106201,0.21201002597808838,-0.39802634716033936,0.5456117391586304,-2.09201979637146,-0.2767893671989441,1.167118787765503
9.695516109466553,0.21210697293281555,-0.3979454040527344,0.5455247163772583,-2.0919911861419678,-0.276714950799942,1.1670793294906616
9.715630531311035,0.21223995089530945,-0.3979937434196472,0.5453503131866455,-2.091982841491699,-0.27664515376091003,1.1670596599578857
9.735941886901855,0.2119809091091156,-0.39761292934417725,0.5465267896652222,-2.0922303199768066,-0.2771769165992737,1.1670594215393066
9.756057024002075,0.21208542585372925,-0.3983412981033325,0.5450353622436523,-2.091905117034912,-0.2763984203338623,1.167195200920105
9.776129484176636,0.21202102303504944,-0.3981744050979614,0.5453362464904785,-2.0919713973999023,-0.27657848596572876,1.167135238647461
9.796184062957764,0.21210575103759766,-0.39776384830474854,0.5460216403007507,-2.092195510864258,-0.27699941396713257,1.167075276374817
9.816270351409912,0.21198150515556335,-0.3979760408401489,0.5457769632339478,-2.092001438140869,-0.2769327461719513,1.16714608669281
9.836393117904663,0.212004154920578,-0.39796876907348633,0.5457808971405029,-2.092036008834839,-0.2767430543899536,1.1671642065048218
9.856481790542603,0.2121090590953827,-0.39798402786254883,0.5455365180969238,-2.091930389404297,-0.27677908539772034,1.1671175956726074
9.876513242721558,0.21218308806419373,-0.39806997776031494,0.5454320311546326,-2.092005491256714,-0.2766745388507843,1.1671078205108643
9.896644115447998,0.21198859810829163,-0.39799559116363525,0.5455408096313477,-2.0920729637145996,-0.27653393149375916,1.1671031713485718
9.916667222976685,0.2119911015033722,-0.39785754680633545,0.5459234714508057,-2.0920636653900146,-0.2770079970359802,1.1671160459518433
9.936731576919556,0.2119777500629425,-0.3979584574699402,0.5457932353019714,-2.0920169353485107,-0.2768286466598511,1.1671279668807983
9.956792831420898,0.21215388178825378,-0.3980805277824402,0.5452280640602112,-2.0919179916381836,-0.2766249477863312,1.1671134233474731
9.97701120376587,0.2121308147907257,-0.3978448510169983,0.5456896424293518,-2.092092990875244,-0.27673712372779846,1.1670526266098022
9.997074127197266,0.21193835139274597,-0.3980764150619507,0.5454466342926025,-2.0920042991638184,-0.2766284942626953,1.167117953300476
10.017131090164185,0.21208485960960388,-0.3979164958000183,0.5455108880996704,-2.092008590698242,-0.27687591314315796,1.1670793294906616
10.037246704101562,0.21206921339035034,-0.3981674313545227,0.5450477600097656,-2.0917792320251465,-0.27645498514175415,1.1670094728469849
10.057326555252075,0.21222832798957825,-0.3980904221534729,0.5450167655944824,-2.09195613861084,-0.27652081847190857,1.1670799255371094
10.077433824539185,0.21227958798408508,-0.3980942368507385,0.544987142086029,-2.091989755630493,-0.27650460600852966,1.1670646667480469
10.09746527671814,0.21211323142051697,-0.3979851007461548,0.5455942153930664,-2.0920701026916504,-0.276768296957016,1.1670924425125122
10.11757516860962,0.21215897798538208,-0.39805012941360474,0.5451698899269104,-2.0920021533966064,-0.2763832211494446,1.1670799255371094
10.137683868408203,0.21199649572372437,-0.39798957109451294,0.5454649329185486,-2.091989040374756,-0.27660027146339417,1.1669827699661255
10.157746315002441,0.21215581893920898,-0.39788079261779785,0.5454921126365662,-2.0920848846435547,-0.2766718566417694,1.167047142982483
10.177774429321289,0.21213042736053467,-0.3978949785232544,0.5457900762557983,-2.092081069946289,-0.27684417366981506,1.1670753955841064
10.197896480560303,0.2119140625,-0.39817607402801514,0.5452330112457275,-2.0918214321136475,-0.276574969291687,1.1670382022857666
10.21795392036438,0.21197649836540222,-0.3980602025985718,0.5454574823379517,-2.0920045375823975,-0.2766416072845459,1.167115330696106
10.238017559051514,0.2119612693786621,-0.3981028199195862,0.5454992651939392,-2.0919132232666016,-0.2768595516681671,1.1671557426452637
10.258131504058838,0.2119268774986267,-0.3978079557418823,0.5462545156478882,-2.0921573638916016,-0.27706557512283325,1.1671315431594849
10.278219223022461,0.2122083604335785,-0.39788496494293213,0.5458359122276306,-2.0919265747070312,-0.2770880460739136,1.1671499013900757
10.29832410812378,0.21210455894470215,-0.39800822734832764,0.5455229878425598,-2.092040777206421,-0.2766910493373871,1.1671148538589478
10.318352222442627,0.21223732829093933,-0.3976660966873169,0.5458643436431885,-2.0922555923461914,-0.2767380475997925,1.166998267173767
10.338431119918823,0.2118930220603943,-0.3979591131210327,0.5458906888961792,-2.0919337272644043,-0.27697932720184326,1.1670317649841309
10.358509302139282,0.212098628282547,-0.39794737100601196,0.5453445911407471,-2.091923236846924,-0.27660274505615234,1.1669645309448242
10.378546953201294,0.21201756596565247,-0.39795976877212524,0.5455655455589294,-2.092113733291626,-0.2766963541507721,1.1670851707458496
10.398627042770386,0.21228203177452087,-0.39795738458633423,0.5453120470046997,-2.091791868209839,-0.2768252491950989,1.1670273542404175
10.41877555847168,0.21209219098091125,-0.3981122374534607,0.545309841632843,-2.092001438140869,-0.27663058042526245,1.1671183109283447
10.438981056213379,0.2118377983570099,-0.398140549659729,0.5454949140548706,-2.091935157775879,-0.2766006588935852,1.1670411825180054
10.459102392196655,0.2119753360748291,-0.3980633020401001,0.5456361174583435,-2.091939926147461,-0.27671581506729126,1.1670349836349487
10.479245662689209,0.21217134594917297,-0.39769846200942993,0.5456929206848145,-2.092120409011841,-0.2767602205276489,1.16690194606781
10.499296426773071,0.21199128031730652,-0.39806240797042847,0.5452654361724854,-2.091902017593384,-0.27658534049987793,1.1669971942901611
10.519343614578247,0.21200543642044067,-0.398034930229187,0.5455087423324585,-2.092010974884033,-0.2767181098461151,1.1671148538589478
10.53944706916809,0.21218296885490417,-0.3983294367790222,0.5446740984916687,-2.0917866230010986,-0.2762709856033325,1.1671346426010132
10.559500694274902,0.2121826410293579,-0.3978578448295593,0.5459011793136597,-2.092163324356079,-0.27695393562316895,1.1670624017715454
10.579566240310669,0.21212628483772278,-0.3977644443511963,0.5459682941436768,-2.0922179222106934,-0.27680593729019165,1.167054533958435
10.599670648574829,0.21204888820648193,-0.3981130123138428,0.5453582406044006,-2.0919997692108154,-0.27659517526626587,1.1671040058135986
10.619874238967896,0.2119053602218628,-0.3982607126235962,0.5453546643257141,-2.0918986797332764,-0.27653124928474426,1.1672006845474243
10.639835596084595,0.21196919679641724,-0.398082435131073,0.5457401871681213,-2.091944694519043,-0.27680787444114685,1.1671420335769653
10.659918069839478,0.21208637952804565,-0.3982120156288147,0.5452858805656433,-2.091923236846924,-0.27647292613983154,1.167136549949646
10.679954528808594,0.21201005578041077,-0.3980153203010559,0.5455265045166016,-2.092103958129883,-0.2765985131263733,1.1670945882797241
10.700062990188599,0.21187227964401245,-0.3979339599609375,0.5460267663002014,-2.091956615447998,-0.27703675627708435,1.167067050933838
10.720150470733643,0.21190926432609558,-0.39797013998031616,0.5457423329353333,-2.091945171356201,-0.2767549455165863,1.1669962406158447
10.740180015563965,0.2120511531829834,-0.39772605895996094,0.5462549924850464,-2.092156410217285,-0.27711787819862366,1.167075753211975
10.76026439666748,0.21213042736053467,-0.39815354347229004,0.54509037733078,-2.091827154159546,-0.2763667404651642,1.166979432106018
10.780391216278076,0.21206030249595642,-0.3976152539253235,0.5466485619544983,-2.0922091007232666,-0.27735835313796997,1.1671035289764404
10.800614595413208,0.21206358075141907,-0.3978622555732727,0.5457643866539001,-2.0921530723571777,-0.2767023742198944,1.1670869588851929
10.820622205734253,0.21203023195266724,-0.3979751467704773,0.5455962419509888,-2.0919747352600098,-0.2766719162464142,1.1669789552688599
10.840763807296753,0.21186035871505737,-0.39813971519470215,0.5456211566925049,-2.0918877124786377,-0.27672576904296875,1.1670494079589844
10.860867977142334,0.21176400780677795,-0.39805907011032104,0.5459233522415161,-2.0919528007507324,-0.27676787972450256,1.167041301727295
10.880944728851318,0.21193978190422058,-0.3981354832649231,0.5454937815666199,-2.0919079780578613,-0.2767416536808014,1.1671754121780396
10.90098524093628,0.21219414472579956,-0.3979111909866333,0.5456780195236206,-2.0919251441955566,-0.2768271267414093,1.1670095920562744
10.921033143997192,0.21210473775863647,-0.39813554286956787,0.5452242493629456,-2.0919222831726074,-0.27636784315109253,1.1669844388961792
10.941121101379395,0.21214327216148376,-0.3977341055870056,0.5460218787193298,-2.091987133026123,-0.27711984515190125,1.1669880151748657
10.96118950843811,0.2119884490966797,-0.397769570350647,0.5462194681167603,-2.092167854309082,-0.27686166763305664,1.166969656944275
10.98137903213501,0.21186336874961853,-0.3980674147605896,0.5457326173782349,-2.0919060707092285,-0.2767523527145386,1.1670490503311157
11.001471996307373,0.21212062239646912,-0.3979300260543823,0.5456962585449219,-2.0920212268829346,-0.276754230260849,1.1670047044754028
11.021694660186768,0.2120276689529419,-0.3979325294494629,0.5456474423408508,-2.091989040374756,-0.2767350673675537,1.1669937372207642
11.041693687438965,0.21210059523582458,-0.3979218602180481,0.5459102988243103,-2.092106819152832,-0.27683600783348083,1.1671303510665894
11.062133550643921,0.21208062767982483,-0.3980313539505005,0.5451251864433289,-2.0919077396392822,-0.27652132511138916,1.1669648885726929
11.082205057144165,0.21207234263420105,-0.3983311057090759,0.544691264629364,-2.0917203426361084,-0.27625492215156555,1.1669849157333374
11.10226845741272,0.21203768253326416,-0.398221492767334,0.5452643632888794,-2.0919415950775146,-0.2765807807445526,1.167115330696106
11.122286081314087,0.21205613017082214,-0.3980051875114441,0.5457659363746643,-2.091966152191162,-0.2767963409423828,1.1670362949371338
11.142368793487549,0.21213558316230774,-0.39796656370162964,0.5453922152519226,-2.0919268131256104,-0.27666640281677246,1.1669920682907104
11.16255807876587,0.21198686957359314,-0.397622287273407,0.5462920665740967,-2.0921924114227295,-0.27696692943573,1.1669729948043823
11.182538986206055,0.21218803524971008,-0.3979337811470032,0.5453320741653442,-2.0918681621551514,-0.27678200602531433,1.1669647693634033
11.202695846557617,0.21196043491363525,-0.39791470766067505,0.5459117293357849,-2.0920746326446533,-0.2767774760723114,1.1669797897338867
11.222838640213013,0.21205690503120422,-0.3981971740722656,0.5450692772865295,-2.091887950897217,-0.27633196115493774,1.1669968366622925
11.242884397506714,0.21215543150901794,-0.39798659086227417,0.54533851146698,-2.0919182300567627,-0.27662941813468933,1.1669420003890991
11.26292872428894,0.2121247947216034,-0.39802664518356323,0.5453632473945618,-2.0919861793518066,-0.2765827178955078,1.166960597038269
11.282986402511597,0.21200993657112122,-0.3984208106994629,0.5445750951766968,-2.091637134552002,-0.276344358921051,1.1670125722885132
11.303142309188843,0.2121656835079193,-0.39779984951019287,0.5456731915473938,-2.091989040374756,-0.27668997645378113,1.1669179201126099
11.323224306106567,0.2120601236820221,-0.3979608416557312,0.5455594062805176,-2.091979503631592,-0.27665114402770996,1.1669689416885376
11.34331727027893,0.21189597249031067,-0.3979770541191101,0.5458715558052063,-2.0920214653015137,-0.2767699062824249,1.167008399963379
11.363374471664429,0.2119445502758026,-0.3978468179702759,0.5459097027778625,-2.092010259628296,-0.2769540250301361,1.1669760942459106
11.383639335632324,0.21206694841384888,-0.39802461862564087,0.5456507802009583,-2.091956377029419,-0.2766987085342407,1.1670355796813965
11.403736591339111,0.2120908498764038,-0.39816510677337646,0.5451897382736206,-2.091846466064453,-0.27654945850372314,1.1670135259628296
11.423810482025146,0.21197283267974854,-0.39802294969558716,0.5456660985946655,-2.0919435024261475,-0.27670973539352417,1.1669857501983643
11.44408655166626,0.21196547150611877,-0.3981897830963135,0.5450705289840698,-2.091975450515747,-0.2761959135532379,1.1669646501541138
11.464232683181763,0.2122674286365509,-0.39801502227783203,0.5453676581382751,-2.091886520385742,-0.2765708863735199,1.1670149564743042
11.484296798706055,0.2119109034538269,-0.39807987213134766,0.5455567836761475,-2.091926097869873,-0.2765969932079315,1.1669890880584717
11.504376411437988,0.21204707026481628,-0.39802467823028564,0.545440137386322,-2.0919535160064697,-0.2766202390193939,1.1669827699661255
11.524437189102173,0.2120271623134613,-0.39782488346099854,0.5459052920341492,-2.0920844078063965,-0.27675479650497437,1.1669503450393677
11.544493436813354,0.21204712986946106,-0.3980324864387512,0.545417308807373,-2.0919461250305176,-0.276496022939682,1.1669790744781494
11.564544200897217,0.21227076649665833,-0.39813095331192017,0.5448407530784607,-2.0918827056884766,-0.2764010429382324,1.1669515371322632
11.584590435028076,0.21216699481010437,-0.39801084995269775,0.545474112033844,-2.0919270515441895,-0.27669548988342285,1.1669825315475464
11.604694604873657,0.21208247542381287,-0.3979538679122925,0.5455393195152283,-2.091907501220703,-0.27672430872917175,1.1670020818710327
11.624748468399048,0.2121044099330902,-0.3979676365852356,0.5455243587493896,-2.0919151306152344,-0.276716411113739,1.1669987440109253
11.644876956939697,0.21206992864608765,-0.39808106422424316,0.5452884435653687,-2.0919508934020996,-0.2763884663581848,1.1669687032699585
11.664923906326294,0.2120451033115387,-0.3979554772377014,0.5456167459487915,-2.0920376777648926,-0.27654770016670227,1.1669553518295288
11.685072898864746,0.21214696764945984,-0.3980039954185486,0.5452543497085571,-2.0918498039245605,-0.2766192853450775,1.1669572591781616
11.705100536346436,0.212030291557312,-0.39816343784332275,0.5452496409416199,-2.0919017791748047,-0.27652159333229065,1.1669927835464478
11.72515869140625,0.21205362677574158,-0.3978080749511719,0.5459496378898621,-2.092103958129883,-0.2768160402774811,1.1669387817382812
11.745267868041992,0.2120155394077301,-0.3979363441467285,0.545700192451477,-2.092033624649048,-0.2766842246055603,1.1669648885726929
11.765361547470093,-0.22687867283821106,-0.7488630414009094,0.1654738038778305,-1.9116544723510742,-0.20620182156562805,1.0635594129562378
11.785402774810791,-0.32927432656288147,-0.9193254709243774,0.15938800573349,-1.9095758199691772,-0.27044862508773804,1.0956788063049316
11.805654287338257,-0.3436637818813324,-1.0145699977874756,0.1980699747800827,-1.9065171480178833,-0.29444420337677,1.1126700639724731
11.825805425643921,-0.2964514195919037,-1.183469295501709,0.3296286165714264,-1.8857346773147583,-0.2836504876613617,1.1449486017227173
11.845878601074219,-0.3041532337665558,-1.1464760303497314,0.30440855026245117,-1.8905695676803589,-0.2834186255931854,1.1384152173995972
11.866080522537231,-0.3114229142665863,-1.1237542629241943,0.2904033064842224,-1.8938099145889282,-0.2881992757320404,1.132729172706604
11.886260986328125,-0.3246571123600006,-1.1063776016235352,0.26294052600860596,-1.8977020978927612,-0.2937951683998108,1.1292754411697388
11.906341075897217,-0.3219367265701294,-1.1076173782348633,0.2706730365753174,-1.8987717628479004,-0.2935175895690918,1.1294307708740234
11.926444292068481,-0.32023710012435913,-1.1105868816375732,0.2732866406440735,-1.8973991870880127,-0.292874813079834,1.1308108568191528
11.94646668434143,-0.32011711597442627,-1.1078925132751465,0.27655816078186035,-1.8981364965438843,-0.2947100102901459,1.1292293071746826
11.966598510742188,-0.3181028962135315,-1.1123353242874146,0.27615639567375183,-1.8967794179916382,-0.29104384779930115,1.131057620048523
11.986679077148438,-0.31796127557754517,-1.111154556274414,0.27859312295913696,-1.8978806734085083,-0.29293060302734375,1.1312936544418335
12.006749629974365,-0.31810691952705383,-1.1100671291351318,0.27631357312202454,-1.8983646631240845,-0.2904469668865204,1.1315468549728394
12.027103185653687,-0.3171442747116089,-1.110610008239746,0.27693212032318115,-1.8976916074752808,-0.289775550365448,1.130542278289795
12.047267198562622,-0.3199756443500519,-1.105159044265747,0.2760513424873352,-1.8992416858673096,-0.2932315766811371,1.1296643018722534
12.06728458404541,-0.31974443793296814,-1.1062119007110596,0.27520549297332764,-1.899971842765808,-0.2918032705783844,1.1307387351989746
12.087347269058228,-0.31911423802375793,-1.1049405336380005,0.2781771421432495,-1.9003547430038452,-0.2923225462436676,1.130028247833252
12.107406854629517,-0.31838443875312805,-1.1040139198303223,0.2782450318336487,-1.8991163969039917,-0.29226550459861755,1.129835844039917
12.127501010894775,-0.3191699981689453,-1.1051664352416992,0.28046464920043945,-1.900814175605774,-0.29305499792099,1.1291723251342773
12.147561311721802,-0.3181576728820801,-1.1081483364105225,0.28007566928863525,-1.9000025987625122,-0.2916404604911804,1.1314610242843628
12.167702436447144,-0.3173840343952179,-1.1060163974761963,0.2823870778083801,-1.9016549587249756,-0.29315850138664246,1.1293658018112183
12.187730312347412,-0.31835630536079407,-1.1019456386566162,0.2816144824028015,-1.9033538103103638,-0.2930031418800354,1.1284692287445068
12.207820415496826,-0.3175515830516815,-1.1062411069869995,0.28231531381607056,-1.9007450342178345,-0.29201361536979675,1.131170392036438
12.227950811386108,-0.3179974853992462,-1.102601408958435,0.28223973512649536,-1.902459979057312,-0.293571799993515,1.130422592163086
12.247978687286377,-0.3176562786102295,-1.1037524938583374,0.28140169382095337,-1.9017736911773682,-0.2932552397251129,1.1315487623214722
12.26802682876587,-0.3172990381717682,-1.102813482284546,0.2824054956436157,-1.903826117515564,-0.2927221953868866,1.1303578615188599
12.288121223449707,-0.31754329800605774,-1.1046642065048218,0.2823166847229004,-1.9024275541305542,-0.29215729236602783,1.131760835647583
12.308197021484375,-0.31779909133911133,-1.0998221635818481,0.2846335172653198,-1.9031944274902344,-0.29408419132232666,1.1296449899673462
12.328374862670898,-0.3184148371219635,-1.097335934638977,0.2828899621963501,-1.9034408330917358,-0.29430443048477173,1.1294655799865723
12.348505020141602,-0.3181048333644867,-1.0980935096740723,0.28382229804992676,-1.9053658246994019,-0.293802410364151,1.1299253702163696
12.368595361709595,-0.3168320953845978,-1.1038384437561035,0.2850869297981262,-1.9039145708084106,-0.2923618257045746,1.1314221620559692
12.388665437698364,-0.31730544567108154,-1.101523995399475,0.285086065530777,-1.9040662050247192,-0.292853981256485,1.1313692331314087
12.408740043640137,-0.3166268765926361,-1.1026304960250854,0.28371185064315796,-1.9031157493591309,-0.29198306798934937,1.1308852434158325
12.428837299346924,-0.3157276213169098,-1.1032741069793701,0.28464436531066895,-1.90437912940979,-0.2904949486255646,1.131412148475647
12.448895692825317,-0.31837666034698486,-1.0965999364852905,0.28399544954299927,-1.9055898189544678,-0.29349544644355774,1.1308177709579468
12.468959093093872,-0.3181692659854889,-1.094408631324768,0.2845079302787781,-1.9068084955215454,-0.2941991090774536,1.1288121938705444
12.48912501335144,-0.31726542115211487,-1.0980682373046875,0.2844802737236023,-1.906247615814209,-0.2926104664802551,1.1300830841064453
12.509222269058228,-0.3166870176792145,-1.0975617170333862,0.2874748706817627,-1.9061416387557983,-0.29327377676963806,1.130756139755249
12.529280662536621,-0.317015141248703,-1.0969983339309692,0.2870202660560608,-1.9064961671829224,-0.29277467727661133,1.1315761804580688
12.5493483543396,-0.31761619448661804,-1.0920087099075317,0.2887146472930908,-1.9078208208084106,-0.29463234543800354,1.1283586025238037
12.569645643234253,-0.31654152274131775,-1.0973396301269531,0.28604990243911743,-1.905616044998169,-0.2931046485900879,1.130341649055481
12.589732646942139,-0.316726416349411,-1.0957510471343994,0.2891026735305786,-1.906996250152588,-0.2940613329410553,1.1302095651626587
12.609821081161499,-0.31642237305641174,-1.0948309898376465,0.2896697521209717,-1.9074941873550415,-0.2934364378452301,1.1303290128707886
12.629856586456299,-0.3158920109272003,-1.0947617292404175,0.2895180583000183,-1.9080524444580078,-0.29339519143104553,1.1303387880325317
12.650310039520264,-0.3175067603588104,-1.0916835069656372,0.2911686897277832,-1.9091304540634155,-0.2956295609474182,1.1295315027236938
12.670395135879517,-0.317223459482193,-1.0887374877929688,0.2923274636268616,-1.910136342048645,-0.29712367057800293,1.128696084022522
12.690463066101074,-0.3166908621788025,-1.0903221368789673,0.2898749113082886,-1.909049153327942,-0.2942655682563782,1.1310949325561523
12.710517644882202,-0.31577083468437195,-1.092694640159607,0.2911057472229004,-1.9087799787521362,-0.2936655879020691,1.1312520503997803
12.730600833892822,-0.31652891635894775,-1.092719316482544,0.2907658815383911,-1.9095510244369507,-0.29385852813720703,1.1313482522964478
12.750712156295776,-0.31539538502693176,-1.0942522287368774,0.29201555252075195,-1.9094430208206177,-0.29279813170433044,1.1314817667007446
12.770728826522827,-0.3155902028083801,-1.093361496925354,0.29266124963760376,-1.9095137119293213,-0.2931639850139618,1.1318905353546143
12.790805578231812,-0.3171757161617279,-1.0866239070892334,0.29278621077537537,-1.91119384765625,-0.2960394620895386,1.1298331022262573
12.810913801193237,-0.3172965347766876,-1.0856808423995972,0.29247862100601196,-1.9115782976150513,-0.29572123289108276,1.1295080184936523
12.830979824066162,-0.3167470395565033,-1.0887877941131592,0.2916322350502014,-1.9107825756072998,-0.2944980561733246,1.1313835382461548
12.851038932800293,-0.31616440415382385,-1.08830726146698,0.2949134111404419,-1.9119013547897339,-0.29644933342933655,1.1305454969406128
12.871154308319092,-0.31509077548980713,-1.0889756679534912,0.29266172647476196,-1.9121675491333008,-0.2940652668476105,1.1301777362823486
12.891243696212769,-0.31586092710494995,-1.085930347442627,0.2933030128479004,-1.913466453552246,-0.29467302560806274,1.12906014919281
12.911259174346924,-0.31517526507377625,-1.088818907737732,0.2936815023422241,-1.9123985767364502,-0.29318052530288696,1.1309540271759033
12.931506395339966,-0.31510812044143677,-1.084678053855896,0.29412758350372314,-1.9137908220291138,-0.29359352588653564,1.1297736167907715
12.951805353164673,-0.31612709164619446,-1.0836832523345947,0.29629969596862793,-1.9145609140396118,-0.29436203837394714,1.1302281618118286
12.971825122833252,-0.31614646315574646,-1.08318030834198,0.2961030900478363,-1.9134942293167114,-0.29469409584999084,1.1299198865890503
12.991804838180542,-0.3159070909023285,-1.0849004983901978,0.2945045828819275,-1.9138693809509277,-0.2939531207084656,1.1312297582626343
13.011877059936523,-0.3146578371524811,-1.0863052606582642,0.2984314560890198,-1.9139254093170166,-0.2952813506126404,1.1317933797836304
13.031947135925293,-0.3148384392261505,-1.0858830213546753,0.29610079526901245,-1.9134089946746826,-0.2929987907409668,1.1321090459823608
13.052000999450684,-0.31421729922294617,-1.086518406867981,0.2960726022720337,-1.9142640829086304,-0.29247239232063293,1.130859136581421
13.072062730789185,-0.3136802613735199,-1.0885560512542725,0.29711756110191345,-1.913319706916809,-0.2927227318286896,1.1320503950119019
13.09223222732544,-0.3167251944541931,-1.0750526189804077,0.30071932077407837,-1.9157301187515259,-0.29937446117401123,1.1283951997756958
13.112287521362305,-0.31620895862579346,-1.078158974647522,0.29757511615753174,-1.9158260822296143,-0.2963593602180481,1.1295090913772583
13.132330656051636,-0.315434992313385,-1.078533411026001,0.3004951477050781,-1.9156150817871094,-0.2976438105106354,1.1289598941802979
13.152399063110352,-0.315043568611145,-1.0792815685272217,0.3025889992713928,-1.917367696762085,-0.2982501983642578,1.129581332206726
13.172537803649902,-0.31430578231811523,-1.080045461654663,0.3029242753982544,-1.9163627624511719,-0.2974646985530853,1.130092740058899
13.192737817764282,-0.3148493766784668,-1.0762966871261597,0.30040740966796875,-1.9179891347885132,-0.29737433791160583,1.1286110877990723
13.212913274765015,-0.31396713852882385,-1.0785877704620361,0.2998923063278198,-1.9169353246688843,-0.2952969968318939,1.1306661367416382
13.233039379119873,-0.31391820311546326,-1.0797051191329956,0.30446308851242065,-1.9194447994232178,-0.2966158092021942,1.1298151016235352
13.253070831298828,-0.3136604130268097,-1.0790305137634277,0.30284225940704346,-1.9201629161834717,-0.2948753833770752,1.1299039125442505
13.273207426071167,-0.31419637799263,-1.0806876420974731,0.30406486988067627,-1.9188470840454102,-0.2954411208629608,1.1314163208007812
13.293250560760498,-0.3135454058647156,-1.0767779350280762,0.3028898239135742,-1.9184855222702026,-0.29514893889427185,1.1313964128494263
13.313335657119751,-0.3137035369873047,-1.077405571937561,0.30253148078918457,-1.9184900522232056,-0.29511070251464844,1.1313713788986206
13.333410024642944,-0.31389328837394714,-1.0767403841018677,0.30228590965270996,-1.9188532829284668,-0.29515767097473145,1.1309289932250977
13.353492259979248,-0.3136298358440399,-1.0767096281051636,0.3030855059623718,-1.9194883108139038,-0.29457131028175354,1.1304538249969482
13.37352967262268,-0.31381672620773315,-1.0717263221740723,0.30478450655937195,-1.9206082820892334,-0.29693740606307983,1.1276932954788208
13.393660068511963,-0.31355735659599304,-1.0759822130203247,0.30279606580734253,-1.9187010526657104,-0.29507747292518616,1.131090760231018
13.41374397277832,-0.31319791078567505,-1.0752674341201782,0.307912141084671,-1.9196327924728394,-0.29861244559288025,1.129517674446106
13.433791399002075,-0.3128298819065094,-1.073207974433899,0.3085511326789856,-1.9222004413604736,-0.2954554557800293,1.1288836002349854
13.453870058059692,-0.3141539692878723,-1.0692522525787354,0.30903947353363037,-1.9225573539733887,-0.29877305030822754,1.1272143125534058
13.473939895629883,-0.3143039643764496,-1.068300485610962,0.30924099683761597,-1.9231425523757935,-0.2987271845340729,1.1271806955337524
13.494054079055786,-0.31439051032066345,-1.0685330629348755,0.30985069274902344,-1.9231324195861816,-0.29865404963493347,1.128085732460022
13.514285802841187,-0.31421586871147156,-1.0680032968521118,0.3118307590484619,-1.9224269390106201,-0.299702912569046,1.1289221048355103
13.534427165985107,-0.31170567870140076,-1.073889970779419,0.31028831005096436,-1.9210957288742065,-0.29608839750289917,1.130916714668274
13.554476022720337,-0.3118422329425812,-1.0723515748977661,0.3099363446235657,-1.9212855100631714,-0.296751469373703,1.1308363676071167
13.574598789215088,-0.31217291951179504,-1.0709882974624634,0.31000208854675293,-1.9226633310317993,-0.2974311411380768,1.1305707693099976
13.595266580581665,-0.3120979964733124,-1.071871042251587,0.3102269768714905,-1.922514796257019,-0.29608917236328125,1.1312631368637085
13.615350246429443,-0.3124132752418518,-1.0686229467391968,0.30963099002838135,-1.924920916557312,-0.29638639092445374,1.128910779953003
13.635457515716553,-0.31224676966667175,-1.0702593326568604,0.3101072907447815,-1.9227946996688843,-0.2971738576889038,1.1296721696853638
13.655527114868164,-0.3124847412109375,-1.066788673400879,0.3158302903175354,-1.925607442855835,-0.2995483875274658,1.1284337043762207
13.675577640533447,-0.311697393655777,-1.06760835647583,0.31245511770248413,-1.9253793954849243,-0.297919362783432,1.1285263299942017
13.695729494094849,-0.3118038475513458,-1.0646100044250488,0.3171246647834778,-1.92483651638031,-0.2997342050075531,1.1292215585708618
13.715861082077026,-0.3120286166667938,-1.0652154684066772,0.3164478540420532,-1.9248276948928833,-0.2977963984012604,1.1300514936447144
13.735887289047241,-0.31110116839408875,-1.0651088953018188,0.31543028354644775,-1.9249308109283447,-0.29699552059173584,1.1297043561935425
13.756365537643433,-0.31321191787719727,-1.062932014465332,0.31613102555274963,-1.9274321794509888,-0.299686074256897,1.1274597644805908
13.776533842086792,-0.3126205801963806,-1.065321922302246,0.3142196834087372,-1.925510048866272,-0.29722774028778076,1.1301813125610352
13.79658031463623,-0.3120191693305969,-1.0657477378845215,0.3143653869628906,-1.9254440069198608,-0.2968413829803467,1.1308422088623047
13.81662130355835,-0.31159859895706177,-1.065040946006775,0.31497257947921753,-1.9258145093917847,-0.2972051799297333,1.1298776865005493
13.836726903915405,-0.31180551648139954,-1.0622375011444092,0.3149527907371521,-1.9274324178695679,-0.2969054877758026,1.1282027959823608
13.856780290603638,-0.31132200360298157,-1.064415454864502,0.31455016136169434,-1.9249593019485474,-0.2964005768299103,1.1301645040512085
13.876858949661255,-0.3099394142627716,-1.0662708282470703,0.317054808139801,-1.9255844354629517,-0.29649800062179565,1.1292178630828857
13.896925210952759,-0.3096824586391449,-1.0638633966445923,0.31932711601257324,-1.9276008605957031,-0.29728764295578003,1.1277226209640503
13.917067766189575,-0.3120700418949127,-1.056673288345337,0.3205246329307556,-1.9275881052017212,-0.3003327250480652,1.1275346279144287
13.93715763092041,-0.3125482201576233,-1.0542675256729126,0.32294490933418274,-1.9288355112075806,-0.30263978242874146,1.127246618270874
13.957339525222778,-0.3109104335308075,-1.0588927268981934,0.3194233179092407,-1.9279812574386597,-0.2979368567466736,1.1290363073349
13.977337837219238,-0.3109852075576782,-1.0595308542251587,0.32161879539489746,-1.9293988943099976,-0.29847246408462524,1.129037618637085
13.997434377670288,-0.3103812634944916,-1.0608018636703491,0.3198815584182739,-1.9279721975326538,-0.2980438470840454,1.1294922828674316
14.017472267150879,-0.3094581663608551,-1.0601879358291626,0.3200921416282654,-1.929194450378418,-0.297324538230896,1.1292381286621094
14.037556409835815,-0.3106437027454376,-1.0561918020248413,0.3217131495475769,-1.9300569295883179,-0.29939621686935425,1.1284888982772827
14.057711362838745,-0.309998095035553,-1.0571415424346924,0.3221220374107361,-1.9293370246887207,-0.298918753862381,1.1290425062179565
14.077725410461426,-0.30972427129745483,-1.055753469467163,0.32427990436553955,-1.9293416738510132,-0.3009032905101776,1.1287473440170288
14.09808087348938,-0.3086739480495453,-1.0580915212631226,0.32458627223968506,-1.9303312301635742,-0.2980080842971802,1.128888487815857
14.118250846862793,-0.3105420768260956,-1.0547724962234497,0.32404524087905884,-1.9315558671951294,-0.29857054352760315,1.129120111465454
14.138335466384888,-0.30940014123916626,-1.0570282936096191,0.3250843286514282,-1.929957389831543,-0.29897743463516235,1.129745364189148
14.158373594284058,-0.3086373507976532,-1.0561009645462036,0.3255571126937866,-1.930453896522522,-0.29778793454170227,1.1301113367080688
14.178448915481567,-0.31048867106437683,-1.0540179014205933,0.32415008544921875,-1.9331568479537964,-0.2977249026298523,1.128829002380371
14.198514699935913,-0.31013253331184387,-1.0537325143814087,0.3247509002685547,-1.9315217733383179,-0.2988722324371338,1.129722237586975
14.218580961227417,-0.30890318751335144,-1.0549936294555664,0.3239666223526001,-1.9311952590942383,-0.29790186882019043,1.1292005777359009
14.238651990890503,-0.30839183926582336,-1.0524224042892456,0.32604241371154785,-1.9322444200515747,-0.2996353209018707,1.1271036863327026
14.2587411403656,-0.309883177280426,-1.0447756052017212,0.32914501428604126,-1.9331961870193481,-0.30254626274108887,1.1256592273712158
14.278797388076782,-0.309405654668808,-1.0483229160308838,0.32971203327178955,-1.9334603548049927,-0.3017675280570984,1.1278022527694702
14.298911571502686,-0.3094375431537628,-1.0452003479003906,0.3327980041503906,-1.9362351894378662,-0.30341240763664246,1.125623345375061
14.318942546844482,-0.30988767743110657,-1.0436569452285767,0.33019304275512695,-1.937689185142517,-0.30116957426071167,1.1246026754379272
14.339022874832153,-0.306651771068573,-1.0519248247146606,0.3320772051811218,-1.9327527284622192,-0.2985636591911316,1.1289047002792358
14.3590989112854,-0.307123064994812,-1.050252914428711,0.3328835070133209,-1.9336670637130737,-0.2992154657840729,1.1295230388641357
14.379154682159424,-0.3078634440898895,-1.04712975025177,0.33360564708709717,-1.9350543022155762,-0.30083009600639343,1.1286284923553467
14.399368047714233,-0.30744266510009766,-1.0487301349639893,0.33248090744018555,-1.9351558685302734,-0.29955312609672546,1.1288808584213257
14.41946005821228,-0.30846309661865234,-1.043804407119751,0.3320247530937195,-1.935797095298767,-0.30161070823669434,1.1277124881744385
14.439529180526733,-0.3084791600704193,-1.0413506031036377,0.3333377242088318,-1.937772274017334,-0.30208420753479004,1.125707745552063
14.45962643623352,-0.308372437953949,-1.0432698726654053,0.3326842784881592,-1.937228798866272,-0.30094775557518005,1.1274586915969849
14.479763984680176,-0.30745258927345276,-1.0456016063690186,0.33330148458480835,-1.9363583326339722,-0.3000066578388214,1.128369688987732
14.499808073043823,-0.30706873536109924,-1.0430203676223755,0.3352013826370239,-1.9391838312149048,-0.29980534315109253,1.126440167427063
14.519873142242432,-0.3082692623138428,-1.0402612686157227,0.33804136514663696,-1.9393481016159058,-0.3038804233074188,1.126125693321228
14.539964199066162,-0.30765995383262634,-1.0429728031158447,0.3361347019672394,-1.939447283744812,-0.30022215843200684,1.1272035837173462
14.560027837753296,-0.30718502402305603,-1.04366135597229,0.33562737703323364,-1.9384962320327759,-0.30042764544487,1.127017855644226
14.580105304718018,-0.3078673183917999,-1.035645604133606,0.3373797535896301,-1.9372602701187134,-0.3032139539718628,1.1262798309326172
14.600180387496948,-0.3077208995819092,-1.0364015102386475,0.33762139081954956,-1.9387000799179077,-0.30264812707901,1.1265186071395874
14.620287656784058,-0.3072069585323334,-1.0362430810928345,0.3398955464363098,-1.9402023553848267,-0.30257412791252136,1.1259084939956665
14.6403226852417,-0.30702701210975647,-1.0361167192459106,0.33944010734558105,-1.9392201900482178,-0.30271947383880615,1.1265805959701538
14.660536289215088,-0.30612555146217346,-1.0394214391708374,0.3407863676548004,-1.941664218902588,-0.3021722435951233,1.1251428127288818
