liuyurong129/humanoid-gym/humanoid/data/target_q_20250522-040447.csv
timestamp,joint_1,joint_2,joint_3,joint_4,joint_5,joint_6
6.151199340820312e-05,0.0,0.0,0.0,0.0,0.0,0.0
0.020135164260864258,0.0,0.0,0.0,0.0,0.0,0.0
0.04024815559387207,0.0,0.0,0.0,0.0,0.0,0.0
0.06032562255859375,0.0,0.0,0.0,0.0,0.0,0.0
0.08042097091674805,0.0,0.0,0.0,0.0,0.0,0.0
0.10048627853393555,0.1273449957370758,-0.7815920114517212,0.6195002198219299,0.42210137844085693,-0.26566678285598755,-0.12386290729045868
0.12059640884399414,0.12486743181943893,-0.7882940173149109,0.6239411234855652,0.4251663386821747,-0.26540878415107727,-0.12407755106687546
0.14071893692016602,0.12354079633951187,-0.7915613651275635,0.6270391345024109,0.4268657863140106,-0.2649131715297699,-0.12427469342947006
0.16085076332092285,0.12090703845024109,-0.7978881597518921,0.6345651745796204,0.43073025345802307,-0.26404842734336853,-0.12467465549707413
0.18098020553588867,0.11822135001420975,-0.8040607571601868,0.6417704820632935,0.4343779385089874,-0.26316770911216736,-0.12513627111911774
0.20109343528747559,0.11700665950775146,-0.8069955110549927,0.6454118490219116,0.4362369775772095,-0.26265156269073486,-0.12537898123264313
0.22117400169372559,0.11407941579818726,-0.8129308819770813,0.6519838571548462,0.4398098886013031,-0.2618466317653656,-0.1259346306324005
0.2412586212158203,0.11281009018421173,-0.8157585859298706,0.6556557416915894,0.4415459930896759,-0.2613759934902191,-0.12621639668941498
0.261333703994751,0.11004424840211868,-0.8209167718887329,0.6632773280143738,0.4451945424079895,-0.2604133188724518,-0.12680326402187347
0.28139591217041016,0.10728678107261658,-0.8260257840156555,0.6705769896507263,0.44869330525398254,-0.2596941590309143,-0.12745146453380585
0.3014800548553467,0.10595721751451492,-0.8283525705337524,0.6742674112319946,0.45045095682144165,-0.25926992297172546,-0.1277802288532257
0.321549654006958,0.10301724821329117,-0.8332309722900391,0.680712878704071,0.4537198841571808,-0.25862476229667664,-0.12852106988430023
0.3418118953704834,0.10137243568897247,-0.8357194066047668,0.6838400959968567,0.45535120368003845,-0.258572518825531,-0.12888853251934052
0.3619234561920166,0.0983373150229454,-0.840488612651825,0.6899059414863586,0.45846253633499146,-0.25831106305122375,-0.1296682506799698
0.38200926780700684,0.09554928541183472,-0.8447965383529663,0.6964559555053711,0.4613921642303467,-0.2579868733882904,-0.13049766421318054
0.402097225189209,0.0942297875881195,-0.8470374941825867,0.6995209455490112,0.4627189636230469,-0.2579217851161957,-0.1309746652841568
0.4222393035888672,0.09128303825855255,-0.8512465357780457,0.7056965231895447,0.4654785692691803,-0.258084774017334,-0.13186576962471008
0.44291019439697266,0.088422492146492,-0.8553591966629028,0.712073028087616,0.4681326746940613,-0.2585347890853882,-0.1327730268239975
0.46300506591796875,0.08682847023010254,-0.8573932647705078,0.7150620222091675,0.4693571627140045,-0.25888344645500183,-0.1332581788301468
0.4830598831176758,0.08415962010622025,-0.860985517501831,0.7214458584785461,0.471698135137558,-0.2593592405319214,-0.13424396514892578
0.5031406879425049,0.0826820507645607,-0.8628230690956116,0.7243184447288513,0.47285065054893494,-0.25979286432266235,-0.13474789261817932
0.5232353210449219,0.0800619125366211,-0.8660610318183899,0.7305923104286194,0.4749639630317688,-0.2606070637702942,-0.13577444851398468
0.5433416366577148,0.07782004773616791,-0.8692350387573242,0.7375028729438782,0.47695842385292053,-0.26176056265830994,-0.13681194186210632
0.5634629726409912,0.07681788504123688,-0.8707471489906311,0.7412588000297546,0.4779328405857086,-0.26247259974479675,-0.13730469346046448
0.5835380554199219,0.07529019564390182,-0.873593270778656,0.7484289407730103,0.47965121269226074,-0.26353996992111206,-0.13843217492103577
0.6036062240600586,0.07466794550418854,-0.8750359416007996,0.7522006034851074,0.4804309904575348,-0.2641463577747345,-0.1390225738286972
0.6237390041351318,0.07369977980852127,-0.8777833580970764,0.7603617310523987,0.48204171657562256,-0.2657265067100525,-0.1400875598192215
0.6438264846801758,0.07334116101264954,-0.8804115056991577,0.7689993977546692,0.4833218455314636,-0.2670656442642212,-0.1412443369626999
0.6638715267181396,0.07315775752067566,-0.8816495537757874,0.7733952403068542,0.4839138388633728,-0.26782506704330444,-0.14181028306484222
0.6839709281921387,0.0732596218585968,-0.8840557336807251,0.782842218875885,0.484919935464859,-0.26935875415802,-0.14295607805252075
0.7040824890136719,0.07386751472949982,-0.8863238096237183,0.7930622696876526,0.4854866862297058,-0.27073273062705994,-0.144182950258255
0.7242181301116943,0.07459083944559097,-0.8872705101966858,0.7984099984169006,0.4855183959007263,-0.27105608582496643,-0.14486226439476013
0.744286298751831,0.07618877291679382,-0.8889903426170349,0.8104791641235352,0.48577889800071716,-0.2723195552825928,-0.1460101306438446
0.7643570899963379,0.07733877003192902,-0.8896545171737671,0.8167794346809387,0.4857577383518219,-0.2726426422595978,-0.14659982919692993
0.7844822406768799,0.07941921800374985,-0.8908805847167969,0.8289297223091125,0.4852483868598938,-0.27307844161987305,-0.14780008792877197
0.8045914173126221,0.08055675774812698,-0.8920348882675171,0.8390587568283081,0.4837441146373749,-0.27352872490882874,-0.14908850193023682
0.8246316909790039,0.08099765330553055,-0.8922346830368042,0.843338131904602,0.48222026228904724,-0.2734597325325012,-0.14982815086841583
0.8447091579437256,0.08147027343511581,-0.8925096392631531,0.8503020405769348,0.4789921045303345,-0.27331751585006714,-0.15135976672172546
0.864797830581665,0.08032850176095963,-0.8925250172615051,0.8531498908996582,0.47477713227272034,-0.2734967768192291,-0.15316158533096313
0.8848972320556641,0.07953371107578278,-0.8923463225364685,0.8531112670898438,0.47219765186309814,-0.2732836604118347,-0.15413910150527954
0.904982328414917,0.07675601541996002,-0.8922743201255798,0.8510068655014038,0.46684515476226807,-0.27340129017829895,-0.15624719858169556
0.9256246089935303,0.07377806305885315,-0.8923301696777344,0.8479114174842834,0.4617618918418884,-0.2734730839729309,-0.15852613747119904
0.945765495300293,0.07237910479307175,-0.8924651741981506,0.8465943932533264,0.45979389548301697,-0.2735403776168823,-0.1597088873386383
0.9658102989196777,0.07012536376714706,-0.8928418755531311,0.8445262908935547,0.4566718637943268,-0.27363258600234985,-0.1621420681476593
0.9861218929290771,0.06975152343511581,-0.8930432796478271,0.844942569732666,0.45563679933547974,-0.27342653274536133,-0.16340461373329163
1.0062141418457031,0.06950236111879349,-0.8934670686721802,0.846408486366272,0.45401695370674133,-0.2727886736392975,-0.16598398983478546
1.0262596607208252,0.0702822282910347,-0.893797755241394,0.8494790196418762,0.4530876874923706,-0.27156296372413635,-0.16863951086997986
1.0463547706604004,0.07105939090251923,-0.8939216732978821,0.8516770005226135,0.45287764072418213,-0.27075767517089844,-0.16999736428260803
1.0664455890655518,0.07295819371938705,-0.8938317894935608,0.8560762405395508,0.4523835778236389,-0.2687434256076813,-0.17277662456035614
1.0864882469177246,0.07441578805446625,-0.8938838243484497,0.8595343828201294,0.4523721933364868,-0.267087459564209,-0.17561745643615723
1.1065731048583984,0.0749213770031929,-0.894005537033081,0.8608488440513611,0.4526008367538452,-0.2663910388946533,-0.17705388367176056
1.1267175674438477,0.07464335113763809,-0.8947452902793884,0.861886203289032,0.4534252882003784,-0.26622530817985535,-0.17996495962142944
1.14683198928833,0.07382392883300781,-0.8955510258674622,0.861823558807373,0.4541953504085541,-0.2663715183734894,-0.1829359233379364
1.1669206619262695,0.07358255237340927,-0.8959755301475525,0.8622068166732788,0.45477306842803955,-0.2663673162460327,-0.184424489736557
1.1869819164276123,0.07321057468652725,-0.8967637419700623,0.8633880615234375,0.4558710753917694,-0.2663043737411499,-0.1874387264251709
1.207308292388916,0.07324112951755524,-0.8970687389373779,0.8644819855690002,0.4563295245170593,-0.26609373092651367,-0.1889842301607132
1.2275128364562988,0.07379043102264404,-0.8976691961288452,0.8669955730438232,0.4575801491737366,-0.26540446281433105,-0.1920514851808548
1.2475550174713135,0.07460761815309525,-0.8980369567871094,0.8693411350250244,0.45893824100494385,-0.26425448060035706,-0.1951228678226471
1.2676832675933838,0.07492809742689133,-0.8981817364692688,0.8702149987220764,0.4596013128757477,-0.26368194818496704,-0.19667470455169678
1.287735939025879,0.07537688314914703,-0.898583710193634,0.8716105818748474,0.46110302209854126,-0.2627805173397064,-0.19977164268493652
1.307807445526123,0.07568898797035217,-0.8990085124969482,0.8726497292518616,0.4627118706703186,-0.2619888186454773,-0.2028757631778717
1.3278870582580566,0.07578154653310776,-0.8992811441421509,0.8730946779251099,0.4636053144931793,-0.2617097795009613,-0.20441104471683502
1.3480141162872314,0.07598008215427399,-0.8997879028320312,0.8742724061012268,0.46530410647392273,-0.26115378737449646,-0.20750738680362701
1.3680922985076904,0.07622318714857101,-0.9002698659896851,0.8755742311477661,0.4671178162097931,-0.26055029034614563,-0.21058067679405212
1.3882725238800049,0.07630856335163116,-0.9005081653594971,0.8762386441230774,0.4679821729660034,-0.2602863907814026,-0.21212631464004517
1.4083528518676758,0.07639675587415695,-0.9009840488433838,0.8773617744445801,0.4697825312614441,-0.25977450609207153,-0.21520176529884338
1.4287400245666504,0.0764511376619339,-0.9012137651443481,0.8778537511825562,0.47076547145843506,-0.2594934403896332,-0.21670717000961304
1.4488191604614258,0.07659881561994553,-0.9016370177268982,0.8787487745285034,0.47261178493499756,-0.2588616907596588,-0.21973706781864166
1.4688897132873535,0.07677804678678513,-0.9020563364028931,0.879732072353363,0.47451096773147583,-0.258239209651947,-0.22272177040576935
1.4889979362487793,0.07694124430418015,-0.9022276997566223,0.8802675008773804,0.47545987367630005,-0.2578268051147461,-0.22420600056648254
1.509108304977417,0.07719765603542328,-0.9025777578353882,0.8813082575798035,0.47722959518432617,-0.25706741213798523,-0.2272089570760727
1.5297572612762451,0.0773364007472992,-0.9029988646507263,0.8825908899307251,0.4791218638420105,-0.2564947307109833,-0.2301933616399765
1.5499000549316406,0.07737334072589874,-0.9031635522842407,0.8830428719520569,0.47992801666259766,-0.25618404150009155,-0.23170019686222076
1.5699207782745361,0.07728327810764313,-0.9035342335700989,0.8836875557899475,0.48173022270202637,-0.2556665539741516,-0.23465484380722046
1.5900094509124756,0.07725726813077927,-0.9037055373191833,0.883912205696106,0.48264873027801514,-0.255357950925827,-0.2361288070678711
1.610215187072754,0.07722917199134827,-0.9040517210960388,0.8844759464263916,0.48455631732940674,-0.25475800037384033,-0.2390434443950653
1.6302835941314697,0.07716609537601471,-0.9042302966117859,0.884685218334198,0.4854885935783386,-0.25448697805404663,-0.24049454927444458
1.650503396987915,0.07735410332679749,-0.9044576287269592,0.8853857517242432,0.48733067512512207,-0.2536228597164154,-0.24343328177928925
1.6707658767700195,0.07747143507003784,-0.9046997427940369,0.8860160112380981,0.4892134368419647,-0.25281283259391785,-0.24634695053100586
1.690885066986084,0.07748866826295853,-0.9047988653182983,0.8862137198448181,0.49016204476356506,-0.2523890435695648,-0.2477954477071762
1.7109301090240479,0.0775800496339798,-0.9049885272979736,0.8867098093032837,0.4920254349708557,-0.25154101848602295,-0.25068679451942444
1.7310597896575928,0.07759746164083481,-0.9050769805908203,0.8868955969810486,0.4929240047931671,-0.25111123919487,-0.2521376311779022
1.7511632442474365,0.07754632085561752,-0.9052907228469849,0.887244701385498,0.49481794238090515,-0.25034040212631226,-0.2550239562988281
1.771195888519287,0.0776444748044014,-0.9054929614067078,0.8878009915351868,0.4967881739139557,-0.24950475990772247,-0.2578805685043335
1.7912838459014893,0.07768610119819641,-0.9055582284927368,0.8879790306091309,0.49773934483528137,-0.24901984632015228,-0.25930333137512207
1.81136155128479,0.077906034886837,-0.9056704044342041,0.8886050581932068,0.49962329864501953,-0.2479974627494812,-0.2621523439884186
1.8318202495574951,0.0781070813536644,-0.9057976603507996,0.8892126679420471,0.5015508532524109,-0.24701982736587524,-0.26496055722236633
1.8519067764282227,0.07815982401371002,-0.9058478474617004,0.8894506692886353,0.5024790167808533,-0.24653123319149017,-0.26636403799057007
1.871976613998413,0.07802155613899231,-0.9059754610061646,0.8897088766098022,0.5042127370834351,-0.24572445452213287,-0.26918840408325195
1.8923430442810059,0.07793319225311279,-0.9060344696044922,0.8898391723632812,0.5050735473632812,-0.24533425271511078,-0.2705867290496826
1.9124670028686523,0.07781632989645004,-0.9061461091041565,0.8899686932563782,0.5069525241851807,-0.24448028206825256,-0.27333515882492065
1.932523250579834,0.07759439200162888,-0.9063000679016113,0.8899139761924744,0.5088595747947693,-0.24370859563350677,-0.27604877948760986
1.952620506286621,0.07755439728498459,-0.9063513875007629,0.8899655938148499,0.5097857713699341,-0.2432544231414795,-0.2774025499820709
1.9727072715759277,0.0775410383939743,-0.9063916206359863,0.890112042427063,0.5115898847579956,-0.24221158027648926,-0.28012049198150635
1.992812156677246,0.0775621086359024,-0.9064071178436279,0.8902485966682434,0.5134549736976624,-0.2411145269870758,-0.28281474113464355
2.0130364894866943,0.07756470888853073,-0.9064182639122009,0.8902981877326965,0.5143776535987854,-0.240578755736351,-0.2841567099094391
2.03309965133667,0.07756875455379486,-0.9064397215843201,0.8904182314872742,0.5161961913108826,-0.2395215481519699,-0.2868383228778839
2.053104877471924,0.07754351943731308,-0.9064559936523438,0.8904411196708679,0.517156720161438,-0.2390063852071762,-0.2881558835506439
2.0731801986694336,0.07740689814090729,-0.9065216779708862,0.8904613852500916,0.5190253257751465,-0.23808376491069794,-0.2907888889312744
2.0932416915893555,0.07725318521261215,-0.9065865278244019,0.8904494643211365,0.5208702683448792,-0.2371547520160675,-0.29340869188308716
2.1133694648742676,0.07718054950237274,-0.9066234827041626,0.8904624581336975,0.5217962265014648,-0.236688032746315,-0.29471227526664734
2.1334691047668457,0.07705014199018478,-0.9066665172576904,0.8904162645339966,0.523659348487854,-0.23567655682563782,-0.29729360342025757
2.153498888015747,0.07700169086456299,-0.9066704511642456,0.8903485536575317,0.5245460867881775,-0.23511670529842377,-0.2985894978046417
2.17360520362854,0.0768747553229332,-0.9066910147666931,0.8902607560157776,0.5263718962669373,-0.2340540587902069,-0.3011550009250641
2.193647861480713,0.07683541625738144,-0.9066765904426575,0.8902284502983093,0.5281894207000732,-0.23289331793785095,-0.3037010729312897
2.2137370109558105,0.07680113613605499,-0.9066704511642456,0.8902000784873962,0.5290980339050293,-0.23232196271419525,-0.30496746301651
2.2337965965270996,0.07677815854549408,-0.9066431522369385,0.8902580738067627,0.5308990478515625,-0.23113662004470825,-0.30751216411590576
2.2538888454437256,0.07673685997724533,-0.9066572189331055,0.8902854919433594,0.5318301320075989,-0.23061195015907288,-0.308771550655365
2.273996114730835,0.07656335830688477,-0.906692385673523,0.8902427554130554,0.5336469411849976,-0.2296101152896881,-0.31128111481666565
2.2940471172332764,0.07639146596193314,-0.9066969752311707,0.89012610912323,0.5354977250099182,-0.22852832078933716,-0.3137633502483368
2.3141870498657227,0.07628210633993149,-0.9066885113716125,0.8900068998336792,0.5363945364952087,-0.2279755026102066,-0.3150012195110321
2.3342432975769043,0.07609119266271591,-0.9066774845123291,0.8898088932037354,0.5382530689239502,-0.2268553525209427,-0.31745702028274536
2.3543736934661865,0.07598128914833069,-0.906626284122467,0.8896123170852661,0.5400576591491699,-0.22562530636787415,-0.3199002742767334
2.3744587898254395,0.07595502585172653,-0.9065862894058228,0.8895560503005981,0.5409189462661743,-0.22497500479221344,-0.32112786173820496
2.3945298194885254,0.0758967474102974,-0.9065137505531311,0.8893510103225708,0.5427572727203369,-0.22366970777511597,-0.3235473930835724
2.4146149158477783,0.0758868083357811,-0.9064791798591614,0.8892381191253662,0.5436806678771973,-0.22300896048545837,-0.3247497081756592
2.434715509414673,0.07585854828357697,-0.9064153432846069,0.8889908790588379,0.5455164313316345,-0.22169432044029236,-0.327143132686615
2.4549849033355713,0.07573836296796799,-0.9063851833343506,0.8887341618537903,0.5473264455795288,-0.22048711776733398,-0.32952362298965454
2.475085735321045,0.07569321244955063,-0.9063773155212402,0.8885719776153564,0.5482471585273743,-0.2198767066001892,-0.3307047486305237
2.4951629638671875,0.07551306486129761,-0.9063565731048584,0.8882194757461548,0.550129771232605,-0.21867500245571136,-0.3330552577972412
2.5152742862701416,0.07543422281742096,-0.9063389897346497,0.88807213306427,0.551044762134552,-0.21806205809116364,-0.334230899810791
2.5353646278381348,0.07525888085365295,-0.9063050150871277,0.8877602219581604,0.5528804063796997,-0.2168358564376831,-0.3365608751773834
2.555420160293579,0.07510703057050705,-0.9062668085098267,0.8874694108963013,0.554674506187439,-0.21558797359466553,-0.3388800024986267
2.5755109786987305,0.07500408589839935,-0.9062405824661255,0.887313723564148,0.5555925369262695,-0.21495534479618073,-0.34002572298049927
2.595602512359619,0.07484126091003418,-0.9061822891235352,0.8870595097541809,0.5573529601097107,-0.21368159353733063,-0.3423326015472412
2.615654230117798,0.07472144812345505,-0.906124472618103,0.8868951797485352,0.559158444404602,-0.21239615976810455,-0.3446049094200134
2.635770320892334,0.07469478994607925,-0.9060705304145813,0.8867849111557007,0.5600038170814514,-0.21167942881584167,-0.34575319290161133
2.655858278274536,0.0746815949678421,-0.9059805274009705,0.8865658640861511,0.5617616772651672,-0.21025897562503815,-0.34802567958831787
2.6759424209594727,0.07464500516653061,-0.9059469103813171,0.8864349722862244,0.5626897811889648,-0.2095765769481659,-0.34914734959602356
2.6960372924804688,0.07450507581233978,-0.9058905243873596,0.8860945105552673,0.5644751787185669,-0.20824037492275238,-0.35139966011047363
2.716456174850464,0.07431936264038086,-0.905853807926178,0.8855739831924438,0.5663654208183289,-0.20691326260566711,-0.353610098361969
2.7366158962249756,0.07420758157968521,-0.905823290348053,0.8853653073310852,0.567282497882843,-0.20624640583992004,-0.35472556948661804
2.7566792964935303,0.07399770617485046,-0.9057675004005432,0.8850073218345642,0.5690698027610779,-0.20492134988307953,-0.35694876313209534
2.7767534255981445,0.07385458797216415,-0.9057430624961853,0.8847765922546387,0.5699964165687561,-0.2042769491672516,-0.35804182291030884
2.7968392372131348,0.07367975264787674,-0.9056699872016907,0.884552001953125,0.5718411803245544,-0.2029239386320114,-0.36021336913108826
2.816892623901367,0.07346632331609726,-0.9055910110473633,0.8841707706451416,0.5736140608787537,-0.20153561234474182,-0.3623969852924347
2.837001085281372,0.07339028269052505,-0.9055459499359131,0.8840100169181824,0.5745188593864441,-0.20080994069576263,-0.36348405480384827
2.857088327407837,0.07315824180841446,-0.9054878950119019,0.8836115598678589,0.5763447880744934,-0.19945096969604492,-0.36563244462013245
2.877127170562744,0.07288770377635956,-0.9054340720176697,0.8831389546394348,0.5781564712524414,-0.19810637831687927,-0.3677493929862976
2.897214412689209,0.07272422313690186,-0.9054093360900879,0.8828663229942322,0.5790688395500183,-0.1974450945854187,-0.3687955141067505
2.9172909259796143,0.07242105156183243,-0.9053504467010498,0.8823205828666687,0.5808860063552856,-0.19607967138290405,-0.3708766996860504
2.937704563140869,0.07221239805221558,-0.9052782654762268,0.8820173144340515,0.5826210379600525,-0.19469033181667328,-0.3729635775089264
2.957796573638916,0.07217191904783249,-0.9052306413650513,0.8819161057472229,0.5835475325584412,-0.19393877685070038,-0.37398436665534973
2.977907180786133,0.0721094086766243,-0.90513014793396,0.8817924857139587,0.5853169560432434,-0.1924290955066681,-0.37603437900543213
2.998116970062256,0.07210192084312439,-0.9050595164299011,0.8817464113235474,0.5862274765968323,-0.19162467122077942,-0.3770495057106018
3.01822566986084,0.07195429503917694,-0.9049269556999207,0.8814523816108704,0.5879413485527039,-0.19006302952766418,-0.3791142702102661
3.0382628440856934,0.07176993787288666,-0.9048283696174622,0.881151020526886,0.5896952748298645,-0.18859201669692993,-0.381160169839859
3.0583529472351074,0.07166873663663864,-0.9047637581825256,0.880901575088501,0.5905722975730896,-0.18781283497810364,-0.3821805417537689
3.078432321548462,0.07139841467142105,-0.9046841263771057,0.8804128766059875,0.5923961997032166,-0.18637357652187347,-0.3841942846775055
3.0985207557678223,0.07108601927757263,-0.904647171497345,0.8798052668571472,0.5942919254302979,-0.18499676883220673,-0.3861745297908783
3.1186208724975586,0.07092422246932983,-0.9046273231506348,0.8795373439788818,0.5951967835426331,-0.18431149423122406,-0.387173056602478
3.1387009620666504,0.07073255628347397,-0.9045659303665161,0.8790796995162964,0.5969263911247253,-0.18284066021442413,-0.38917332887649536
3.1588642597198486,0.0706234723329544,-0.9045439958572388,0.8788169026374817,0.5978208780288696,-0.18210849165916443,-0.3901562988758087
3.179013729095459,0.07034958153963089,-0.9044924974441528,0.8783540725708008,0.5995402932167053,-0.18067575991153717,-0.3921334147453308
3.198983669281006,0.07005378603935242,-0.904434323310852,0.8778749108314514,0.6013097167015076,-0.17923098802566528,-0.3940804600715637
3.2190699577331543,0.06986664235591888,-0.9044230580329895,0.8776292204856873,0.6021943688392639,-0.17855983972549438,-0.3950449526309967
3.239169120788574,0.0694192424416542,-0.9044639468193054,0.877180814743042,0.6039466857910156,-0.17737780511379242,-0.39695239067077637
3.259248733520508,0.06906960159540176,-0.9044477343559265,0.8767566680908203,0.6056591868400574,-0.17600370943546295,-0.3988499939441681
3.279339075088501,0.06887790560722351,-0.9044370055198669,0.8765521049499512,0.6064966917037964,-0.17531485855579376,-0.3997982144355774
3.2995376586914062,0.0684930831193924,-0.904437243938446,0.8761508464813232,0.6083012223243713,-0.173971027135849,-0.4016364514827728
3.3195688724517822,0.06816528737545013,-0.9044348001480103,0.8756524324417114,0.6100915670394897,-0.17253819108009338,-0.4034503400325775
3.3397443294525146,0.0680372416973114,-0.9044333696365356,0.8754323124885559,0.6109687685966492,-0.171803280711174,-0.4043563902378082
3.3597633838653564,0.06786128133535385,-0.9043959379196167,0.8750090003013611,0.6126981377601624,-0.170222669839859,-0.4061737060546875
3.380091905593872,0.06762011349201202,-0.9043400883674622,0.8745861649513245,0.6143912672996521,-0.16865016520023346,-0.407986581325531
3.4002044200897217,0.0675848200917244,-0.9042978286743164,0.8744463324546814,0.6152660846710205,-0.16780410706996918,-0.40888354182243347
3.4202582836151123,0.06750299781560898,-0.9042292833328247,0.8741752505302429,0.6170057654380798,-0.1661439836025238,-0.41066205501556396
3.440568447113037,0.0672517940402031,-0.9041697978973389,0.8738089799880981,0.6186746954917908,-0.16457395255565643,-0.4124568700790405
3.460723638534546,0.067082978785038,-0.9041646718978882,0.8735745549201965,0.6195312142372131,-0.16384954750537872,-0.413345068693161
3.4808390140533447,0.06663279980421066,-0.904197633266449,0.8730589747428894,0.6212284564971924,-0.1625272035598755,-0.4151052236557007
3.5008606910705566,0.06630624830722809,-0.9042378664016724,0.8726440668106079,0.6220209002494812,-0.16194209456443787,-0.41597798466682434
3.5210115909576416,0.0658208429813385,-0.9042540192604065,0.8719303607940674,0.62369304895401,-0.1605442464351654,-0.41769617795944214
3.541316270828247,0.06559375673532486,-0.9042782187461853,0.8715158104896545,0.6245728731155396,-0.1598488837480545,-0.41852837800979614
3.5615813732147217,0.06524299830198288,-0.9042729139328003,0.8709577918052673,0.6262891292572021,-0.158320352435112,-0.4202314019203186
3.5818822383880615,0.06497184932231903,-0.9042791724205017,0.8705218434333801,0.6280524134635925,-0.15677860379219055,-0.4219084084033966
3.601970672607422,0.06488773971796036,-0.9042707681655884,0.8703171014785767,0.6289167404174805,-0.15596552193164825,-0.42273861169815063
3.622040271759033,0.06464118510484695,-0.904246985912323,0.8699240684509277,0.6305407285690308,-0.15438112616539001,-0.4244208037853241
3.6421709060668945,0.06447666883468628,-0.9042412042617798,0.8696885108947754,0.631385326385498,-0.15361228585243225,-0.42525026202201843
3.6622157096862793,0.06410633772611618,-0.9042731523513794,0.8692803382873535,0.6330733299255371,-0.15219664573669434,-0.4268892705440521
3.6823225021362305,0.06360557675361633,-0.9043869376182556,0.8689287304878235,0.6347224116325378,-0.15100276470184326,-0.42850273847579956
3.7025630474090576,0.06341911107301712,-0.9043962955474854,0.8687146306037903,0.635522723197937,-0.15026447176933289,-0.4293201267719269
3.722694158554077,0.0630762055516243,-0.9044145941734314,0.8683767318725586,0.6370798349380493,-0.14878904819488525,-0.43096381425857544
3.744187831878662,0.06266765296459198,-0.9044525027275085,0.8678762912750244,0.6387290954589844,-0.14734824001789093,-0.43256571888923645
3.764263153076172,0.062473636120557785,-0.9044896960258484,0.8676327466964722,0.6395360231399536,-0.14664769172668457,-0.43336009979248047
3.784400701522827,0.06219939514994621,-0.9045750498771667,0.8671438694000244,0.6412789821624756,-0.14517833292484283,-0.43489888310432434
3.8045918941497803,0.06197435036301613,-0.9045976996421814,0.8667171001434326,0.6429616808891296,-0.1435677707195282,-0.43645191192626953
3.8246755599975586,0.06188694387674332,-0.9046133160591125,0.8665449619293213,0.6437881588935852,-0.14276321232318878,-0.4372237026691437
3.8447489738464355,0.061689116060733795,-0.9046158790588379,0.8662620782852173,0.6453729867935181,-0.14112553000450134,-0.43879419565200806
3.864837169647217,0.061582934111356735,-0.9046359062194824,0.8661640286445618,0.6462273001670837,-0.1403426080942154,-0.4395674169063568
3.8849077224731445,0.06127864494919777,-0.9047453999519348,0.8659906983375549,0.6480429172515869,-0.138947993516922,-0.44105926156044006
3.904994249343872,0.06086985766887665,-0.9048301577568054,0.8656675815582275,0.6497175693511963,-0.13755297660827637,-0.4425671398639679
3.9251492023468018,0.06078091263771057,-0.9048424959182739,0.8656619191169739,0.6505635380744934,-0.1367519646883011,-0.44333040714263916
3.945197582244873,0.06044645607471466,-0.9048939347267151,0.865485429763794,0.6522355079650879,-0.1352723389863968,-0.44483113288879395
3.965381383895874,0.06006288900971413,-0.9049205183982849,0.8651236891746521,0.6538141965866089,-0.13374632596969604,-0.44633936882019043
3.9854683876037598,0.05987922102212906,-0.9049481153488159,0.8649282455444336,0.6545693874359131,-0.13300801813602448,-0.4471004605293274
4.005533695220947,0.05939418822526932,-0.9050699472427368,0.8643854856491089,0.6562270522117615,-0.13165022432804108,-0.44855713844299316
4.025615453720093,0.059200484305620193,-0.9051036834716797,0.8641360998153687,0.657026469707489,-0.1308864802122116,-0.44929248094558716
4.045691013336182,0.05889144167304039,-0.9051666855812073,0.8636027574539185,0.6586912870407104,-0.1292889565229416,-0.4507361948490143
4.065763711929321,0.058523546904325485,-0.9052672982215881,0.863103985786438,0.6603289842605591,-0.12778785824775696,-0.4521741569042206
4.085852861404419,0.05833868309855461,-0.9052849411964417,0.8629600405693054,0.6610907316207886,-0.12701059877872467,-0.45291170477867126
4.1059205532073975,0.058047425001859665,-0.9053093791007996,0.8626717329025269,0.6626319885253906,-0.12538690865039825,-0.4543665051460266
4.125973701477051,0.05767233669757843,-0.9053870439529419,0.8624427914619446,0.6641810536384583,-0.12391636520624161,-0.455797016620636
4.146090507507324,0.057496991008520126,-0.9054067730903625,0.8623178005218506,0.6649947762489319,-0.12312868237495422,-0.45649731159210205
4.166128873825073,0.0571732297539711,-0.9054396748542786,0.8621193766593933,0.6665815711021423,-0.12154211103916168,-0.4578968286514282
4.186457395553589,0.05695582181215286,-0.9054784178733826,0.86197429895401,0.6673480868339539,-0.12080858647823334,-0.4585994780063629
4.2065935134887695,0.05653664097189903,-0.905525803565979,0.8616162538528442,0.6689168214797974,-0.1192554235458374,-0.46000418066978455
4.226848363876343,0.056059639900922775,-0.9056059718132019,0.8611684441566467,0.6704655289649963,-0.11777690052986145,-0.46140024065971375
4.246990203857422,0.05583444982767105,-0.9056767821311951,0.8608879446983337,0.6712915301322937,-0.11706473678350449,-0.4620750844478607
4.2670392990112305,0.055387236177921295,-0.9058242440223694,0.8603229522705078,0.6729443073272705,-0.11562755703926086,-0.46340760588645935
4.287098169326782,0.05513029545545578,-0.9058777093887329,0.8600885272026062,0.6737353801727295,-0.1149008646607399,-0.46408042311668396
4.307189702987671,0.054711565375328064,-0.9059464931488037,0.8596938848495483,0.6752296090126038,-0.11334823817014694,-0.4654443860054016
4.327252149581909,0.05429650843143463,-0.9060210585594177,0.8593660593032837,0.6766957640647888,-0.11182213574647903,-0.4668062627315521
4.347340822219849,0.05407841503620148,-0.9060763120651245,0.8592526316642761,0.6774119734764099,-0.11110802739858627,-0.467484712600708
4.3674232959747314,0.05355877801775932,-0.9062344431877136,0.8589768409729004,0.6789599061012268,-0.10978537797927856,-0.46878981590270996
4.387481451034546,0.05314771831035614,-0.9063398838043213,0.8585625886917114,0.6805300116539001,-0.10824187099933624,-0.47008663415908813
4.407573461532593,0.05288476496934891,-0.9064216017723083,0.8583287596702576,0.6812978982925415,-0.10754973441362381,-0.47073259949684143
4.427714824676514,0.052450720220804214,-0.9065308570861816,0.8579045534133911,0.6828340291976929,-0.10601361095905304,-0.4720195531845093
4.447746276855469,0.052292510867118835,-0.9065842628479004,0.8576823472976685,0.6835858821868896,-0.10520098358392715,-0.47266554832458496
4.467849493026733,0.05192963778972626,-0.9067198038101196,0.8571480512619019,0.6851896643638611,-0.10361655056476593,-0.4739212989807129
4.487948656082153,0.05152467265725136,-0.9068771004676819,0.8567139506340027,0.6867285966873169,-0.1021193191409111,-0.47518402338027954
4.508098363876343,0.05132351443171501,-0.9069352746009827,0.8565520644187927,0.6875026226043701,-0.10134261101484299,-0.4758104979991913
4.528120279312134,0.05085974559187889,-0.9070669412612915,0.8562281727790833,0.689079999923706,-0.09984700381755829,-0.47705623507499695
4.548385143280029,0.050409939140081406,-0.9072679877281189,0.8561119437217712,0.6906394958496094,-0.09849809855222702,-0.4782995879650116
4.568480491638184,0.050221532583236694,-0.9073686599731445,0.8561490774154663,0.6914896965026855,-0.09780590981245041,-0.47890087962150574
4.588568687438965,0.049629680812358856,-0.9075716733932495,0.8558902740478516,0.693065345287323,-0.09650228917598724,-0.48008567094802856
4.6087236404418945,0.04947581887245178,-0.9076259732246399,0.8558793663978577,0.6938431262969971,-0.09571181237697601,-0.4806726574897766
4.628847599029541,0.04913672059774399,-0.9077608585357666,0.8556950092315674,0.6953555345535278,-0.09414827823638916,-0.4818382263183594
4.648905992507935,0.04873272776603699,-0.9078382253646851,0.8554150462150574,0.6968940496444702,-0.09248306602239609,-0.4830152094364166
4.669047117233276,0.048495370894670486,-0.9079035520553589,0.8552684187889099,0.6976434588432312,-0.09172630310058594,-0.48360809683799744
4.689199209213257,0.048049114644527435,-0.9080347418785095,0.8549193739891052,0.6991427540779114,-0.09019235521554947,-0.48478344082832336
4.7091803550720215,0.04753730073571205,-0.9082009792327881,0.8544865250587463,0.7005698680877686,-0.08874005824327469,-0.4859609007835388
4.72927188873291,0.04729053005576134,-0.9082965850830078,0.8542518019676208,0.7013365626335144,-0.08801747113466263,-0.48653000593185425
4.749362468719482,0.04686470702290535,-0.9084866642951965,0.8538174033164978,0.7028160095214844,-0.0865217000246048,-0.48767367005348206
4.76946759223938,0.046629879623651505,-0.9085773825645447,0.8536478281021118,0.7035166621208191,-0.08579611778259277,-0.48825255036354065
4.789679050445557,0.046247661113739014,-0.9087281227111816,0.853234052658081,0.7050330638885498,-0.08420029282569885,-0.4893718659877777
4.809676647186279,0.04581211134791374,-0.9088818430900574,0.8528834581375122,0.7064582705497742,-0.08266501128673553,-0.4905068576335907
4.829758405685425,0.04563993960618973,-0.908972978591919,0.8526618480682373,0.7072063088417053,-0.08187545835971832,-0.49105897545814514
4.849889039993286,0.045149847865104675,-0.9091679453849792,0.8522263169288635,0.7087052464485168,-0.08041122555732727,-0.49215781688690186
4.8699951171875,0.04468875005841255,-0.9093644618988037,0.8518570065498352,0.7101625204086304,-0.07894717156887054,-0.4932531714439392
4.890044689178467,0.04448994621634483,-0.9094523787498474,0.8517431020736694,0.710858941078186,-0.07819141447544098,-0.4938107430934906
4.910157918930054,0.04416125267744064,-0.9096188545227051,0.85167396068573,0.712332546710968,-0.07664915174245834,-0.49490901827812195
4.930216550827026,0.04385228082537651,-0.909774124622345,0.8516175150871277,0.713757336139679,-0.07509148865938187,-0.4959927797317505
4.9502949714660645,0.0436975434422493,-0.9098470211029053,0.8515677452087402,0.7144601941108704,-0.07430324703454971,-0.4965299367904663
4.970458745956421,0.04344603046774864,-0.9099763035774231,0.8513471484184265,0.7159028649330139,-0.07261155545711517,-0.49760201573371887
4.990633249282837,0.04297211766242981,-0.9102463722229004,0.8511691689491272,0.7174553275108337,-0.07129062712192535,-0.49863433837890625
5.010788440704346,0.0426979660987854,-0.9103759527206421,0.850941002368927,0.7182089686393738,-0.07060565054416656,-0.49914053082466125
5.030881881713867,0.042226728051900864,-0.9105568528175354,0.8506007194519043,0.7196274995803833,-0.0690857544541359,-0.5001842975616455
5.05115270614624,0.041956912726163864,-0.9106552600860596,0.8504411578178406,0.7202967405319214,-0.06836479157209396,-0.5007166862487793
5.071260929107666,0.04128699004650116,-0.9109361171722412,0.8500640392303467,0.7217149138450623,-0.06713344156742096,-0.5017355680465698
5.091368913650513,0.04068519547581673,-0.911192774772644,0.8497453331947327,0.723113477230072,-0.06581734120845795,-0.5027419924736023
5.1114661693573,0.040457893162965775,-0.9112926125526428,0.8496564626693726,0.7237988710403442,-0.06507503986358643,-0.5032462477684021
5.131568431854248,0.04001437500119209,-0.9114931225776672,0.8493512272834778,0.7251915335655212,-0.06354457885026932,-0.5042490363121033
5.1516478061676025,0.039641350507736206,-0.9117091298103333,0.8491816520690918,0.7266079187393188,-0.06202179193496704,-0.5052425861358643
5.171719074249268,0.039489321410655975,-0.9118419289588928,0.8491194844245911,0.7273553609848022,-0.06127510592341423,-0.5057253837585449
5.191930055618286,0.03912993520498276,-0.912036657333374,0.848937451839447,0.7288532853126526,-0.059682901948690414,-0.5066875219345093
5.211971759796143,0.03890072554349899,-0.9122216701507568,0.848619282245636,0.7303881645202637,-0.05793984979391098,-0.5076370239257812
5.232038736343384,0.0387163870036602,-0.9123218655586243,0.8485464453697205,0.731073260307312,-0.057172905653715134,-0.5081291198730469
5.252270221710205,0.038236651569604874,-0.9125683307647705,0.8482586145401001,0.7324448227882385,-0.05574311688542366,-0.5091014504432678
5.272555351257324,0.03787929564714432,-0.9128007888793945,0.8481488227844238,0.7339425683021545,-0.05422673001885414,-0.5100512504577637
5.292678594589233,0.03765609487891197,-0.9129197001457214,0.8480754494667053,0.7346358895301819,-0.05350729450583458,-0.5105340480804443
5.312761068344116,0.03722092881798744,-0.9131895303726196,0.8480345606803894,0.7359943985939026,-0.05213848128914833,-0.5114946365356445
5.33290958404541,0.037015751004219055,-0.9133003354072571,0.847980260848999,0.7366842031478882,-0.05139365792274475,-0.5119660496711731
5.3529887199401855,0.036494798958301544,-0.9135706424713135,0.8477969169616699,0.7380046248435974,-0.05004754289984703,-0.5129063129425049
5.37310004234314,0.03624685853719711,-0.9136950969696045,0.8476840257644653,0.7386773228645325,-0.04933803528547287,-0.5133640766143799
5.393208742141724,0.035724204033613205,-0.9139610528945923,0.8474704027175903,0.740008533000946,-0.04795989394187927,-0.5142707228660583
5.413313865661621,0.03527068346738815,-0.9142581224441528,0.8472182154655457,0.7413812875747681,-0.04655640572309494,-0.5151451230049133
5.43339204788208,0.03506598249077797,-0.9143913388252258,0.847048819065094,0.7421028017997742,-0.04578540474176407,-0.5155715346336365
5.453526496887207,0.034665051847696304,-0.9146707057952881,0.8471100926399231,0.7435469031333923,-0.04436858743429184,-0.5164439082145691
5.473643779754639,0.034407928586006165,-0.9148241281509399,0.8470792174339294,0.744195818901062,-0.043717022985219955,-0.5168890357017517
5.493809938430786,0.03397949039936066,-0.9150601029396057,0.8469832539558411,0.7456071972846985,-0.042213406413793564,-0.5177457928657532
5.513843774795532,0.03357004001736641,-0.9152877330780029,0.8470041751861572,0.7469696998596191,-0.04073024541139603,-0.5186001062393188
5.533945083618164,0.03329399228096008,-0.9154367446899414,0.8469182848930359,0.7476498484611511,-0.04007115215063095,-0.5190224647521973
5.554013729095459,0.03278970345854759,-0.9157083630561829,0.8467276692390442,0.7489385008811951,-0.03867531195282936,-0.5198816061019897
5.574061393737793,0.03223125636577606,-0.9160153865814209,0.8464425206184387,0.7502717971801758,-0.037337612360715866,-0.5207089781761169
5.594230651855469,0.031980354338884354,-0.9161477088928223,0.8463088274002075,0.7509447336196899,-0.036613576114177704,-0.5211215019226074
5.614329099655151,0.0315573550760746,-0.916429877281189,0.8459640145301819,0.7523381114006042,-0.035103488713502884,-0.5219244360923767
5.634386777877808,0.031372591853141785,-0.9165481925010681,0.8458091616630554,0.7530223727226257,-0.034294407814741135,-0.522331714630127
5.654515027999878,0.03102642111480236,-0.9167932868003845,0.8456848859786987,0.7543229460716248,-0.03275112435221672,-0.5231672525405884
5.674681663513184,0.03075087070465088,-0.9170799851417542,0.8455979228019714,0.7557534575462341,-0.031215839087963104,-0.5239589214324951
5.694793462753296,0.030518099665641785,-0.9172285199165344,0.8455577492713928,0.7563996911048889,-0.03053276613354683,-0.5243706107139587
5.714874505996704,0.02998490445315838,-0.9175310134887695,0.8453778624534607,0.7576544880867004,-0.029191989451646805,-0.5251920819282532
5.735055923461914,0.029722636565566063,-0.9176730513572693,0.8452708125114441,0.7582862973213196,-0.02850307710468769,-0.5255995988845825
5.75507926940918,0.02905619889497757,-0.9180338382720947,0.8450099229812622,0.7595326900482178,-0.027332188561558723,-0.5263960957527161
5.775793790817261,0.028476571664214134,-0.9183565974235535,0.8448023796081543,0.7607334852218628,-0.026045970618724823,-0.5271981954574585
5.795889139175415,0.028161847963929176,-0.9185358285903931,0.8447051644325256,0.7613744735717773,-0.025443388149142265,-0.5275818705558777
5.816035509109497,0.027686310932040215,-0.9188752174377441,0.8447088003158569,0.7626645565032959,-0.024131154641509056,-0.5283556580543518
5.836094379425049,0.027425061911344528,-0.9190452098846436,0.8446795344352722,0.7633032202720642,-0.02348295785486698,-0.5287359952926636
5.856158971786499,0.0270481426268816,-0.9193352460861206,0.8446571230888367,0.7646669149398804,-0.022000400349497795,-0.5294791460037231
5.876230239868164,0.026791131123900414,-0.9196138381958008,0.8446120023727417,0.7659708857536316,-0.02041555568575859,-0.5302191376686096
5.896358966827393,0.026576530188322067,-0.9197489023208618,0.8445612788200378,0.7665954232215881,-0.019676391035318375,-0.5305941104888916
5.916427373886108,0.026122428476810455,-0.9200156927108765,0.8443822264671326,0.7678426504135132,-0.01819426193833351,-0.5313459038734436
5.936825275421143,0.0256650410592556,-0.9203307628631592,0.8441691398620605,0.7691481113433838,-0.016766851767897606,-0.5320802330970764
5.95696234703064,0.025369787588715553,-0.9205231666564941,0.8440130352973938,0.7697896957397461,-0.016148926690220833,-0.5324420928955078
5.9770073890686035,0.024830712005496025,-0.920914351940155,0.8438900709152222,0.7711347341537476,-0.01492072269320488,-0.5331496000289917
5.997168779373169,0.024308213964104652,-0.9212417602539062,0.843734622001648,0.7723994851112366,-0.013571729883551598,-0.5338706374168396
6.017267465591431,0.02406587079167366,-0.9213845133781433,0.8436717391014099,0.7730247974395752,-0.012853237800300121,-0.534231960773468
6.037338495254517,0.023636430501937866,-0.9216667413711548,0.8435642719268799,0.7742785215377808,-0.011390666477382183,-0.5349492430686951
6.057671308517456,0.02343936823308468,-0.9218320846557617,0.8435677886009216,0.7748991250991821,-0.01070611085742712,-0.5353106260299683
6.077837705612183,0.023126346990466118,-0.9221810102462769,0.843441903591156,0.776247501373291,-0.009248253889381886,-0.5359892845153809
6.0978991985321045,0.02287844382226467,-0.9225151538848877,0.8434333801269531,0.7775653600692749,-0.0077443779446184635,-0.5366644859313965
6.118060827255249,0.022777363657951355,-0.922671914100647,0.843514084815979,0.778215765953064,-0.00698421336710453,-0.5370022654533386
6.138068675994873,0.022531671449542046,-0.923001229763031,0.8434891104698181,0.7795178890228271,-0.005461508873850107,-0.5376683473587036
6.158312797546387,0.02226482704281807,-0.9233210682868958,0.8435143232345581,0.7808408141136169,-0.003952902741730213,-0.5383310914039612
6.178411245346069,0.022056616842746735,-0.9234804511070251,0.8434848189353943,0.7814528346061707,-0.003248716238886118,-0.5386677980422974
6.1984782218933105,0.021577859297394753,-0.9237985610961914,0.843343198299408,0.7826425433158875,-0.0018684369279071689,-0.5393462777137756
6.218629837036133,0.02130100317299366,-0.9239841103553772,0.8432705998420715,0.783205509185791,-0.0012544643832370639,-0.5396904945373535
6.238666296005249,0.020696276798844337,-0.924384593963623,0.8431023955345154,0.7843450903892517,-9.71939298324287e-05,-0.5403620600700378
6.258743524551392,0.020105566829442978,-0.924772322177887,0.8429481983184814,0.7854539155960083,0.0010966374538838863,-0.541034996509552
6.278859376907349,0.01983593963086605,-0.9249581098556519,0.842903196811676,0.7860381007194519,0.0017241539899259806,-0.5413626432418823
6.2989113330841064,0.01929900050163269,-0.9253654479980469,0.8429433703422546,0.7872752547264099,0.0029028893914073706,-0.5419965982437134
6.318995714187622,0.018932437524199486,-0.9257194399833679,0.8431486487388611,0.7884888648986816,0.004236928652971983,-0.5426381826400757
6.339086294174194,0.018727067857980728,-0.9259035587310791,0.8432509303092957,0.7891183495521545,0.004878291394561529,-0.5429436564445496
6.359218120574951,0.01828901842236519,-0.9262698888778687,0.8434368968009949,0.7903188467025757,0.006148432847112417,-0.5435481071472168
6.379268169403076,0.018180111423134804,-0.9263943433761597,0.843590259552002,0.7908989191055298,0.006929566152393818,-0.5438567399978638
6.399403095245361,0.017731716856360435,-0.9267203211784363,0.8435509204864502,0.7920594811439514,0.00830511748790741,-0.5444614291191101
6.419457197189331,0.017205312848091125,-0.9270806908607483,0.8433695435523987,0.7932494878768921,0.009614570997655392,-0.5450459122657776
6.439577341079712,0.01689876616001129,-0.927267849445343,0.8432793021202087,0.7938165664672852,0.010224763303995132,-0.5453446507453918
6.459606647491455,0.01633034646511078,-0.9276486039161682,0.843088686466217,0.7949645519256592,0.011473609134554863,-0.5459335446357727
6.479779243469238,0.01581634022295475,-0.9279944896697998,0.8428665995597839,0.7961242198944092,0.01282767578959465,-0.5465290546417236
6.4999401569366455,0.01564057357609272,-0.928202748298645,0.8429704308509827,0.7967730164527893,0.01344984583556652,-0.5468109846115112
6.519976615905762,0.015200257301330566,-0.9285845756530762,0.8430137634277344,0.7979989647865295,0.014734172262251377,-0.5473848581314087
6.540323495864868,0.014995119534432888,-0.9287511706352234,0.8430132865905762,0.7985925674438477,0.015427487902343273,-0.5476735234260559
6.560436010360718,0.014642426744103432,-0.9290626049041748,0.8428884148597717,0.7997597455978394,0.016914308071136475,-0.548255980014801
6.580546617507935,0.014197111129760742,-0.9293988347053528,0.8427870869636536,0.8008390069007874,0.018258720636367798,-0.5488569140434265
6.600623607635498,0.014008027501404285,-0.9295653700828552,0.8426962494850159,0.8014250993728638,0.01897864229977131,-0.5491409301757812
6.639765501022339,0.013512999750673771,-0.9299492239952087,0.8425595760345459,0.8025094866752625,0.020225999876856804,-0.54972243309021
6.659847259521484,0.013309238478541374,-0.9301062822341919,0.8425124883651733,0.8030816912651062,0.02093902789056301,-0.5500071048736572
6.67991304397583,0.012879681773483753,-0.930439829826355,0.842438280582428,0.8042363524436951,0.02230517566204071,-0.5505663156509399
6.700109004974365,0.012679079547524452,-0.9306186437606812,0.8424516916275024,0.8048206567764282,0.022959033027291298,-0.5508428812026978
6.720200061798096,0.012291369959712029,-0.9309914112091064,0.842555046081543,0.8059953451156616,0.02422873117029667,-0.5513865351676941
6.740279912948608,0.011946561746299267,-0.9313545823097229,0.8427322506904602,0.807190477848053,0.025518547743558884,-0.5519174337387085
6.760369539260864,0.011736578308045864,-0.9315280914306641,0.8427329063415527,0.8077396750450134,0.0261627659201622,-0.5521871447563171
6.780439853668213,0.011300619691610336,-0.9318893551826477,0.8427656888961792,0.8088218569755554,0.02740675024688244,-0.5527258515357971
6.800567626953125,0.010807202197611332,-0.932245135307312,0.8427021503448486,0.8098413944244385,0.028637094423174858,-0.5532698631286621
6.82062292098999,0.010548260994255543,-0.932433009147644,0.842661440372467,0.8103270530700684,0.02922806143760681,-0.5535469055175781
6.840753793716431,0.01001646276563406,-0.9328756928443909,0.8426735401153564,0.8113847374916077,0.030277365818619728,-0.5540704727172852
6.860825300216675,0.009546970017254353,-0.9333319664001465,0.8427159190177917,0.8125005960464478,0.03136907145380974,-0.5545660257339478
6.881018877029419,0.009401369839906693,-0.9335393309593201,0.8428333401679993,0.8130567073822021,0.03198987618088722,-0.5548179149627686
6.9010021686553955,0.009123106487095356,-0.9338828325271606,0.8428957462310791,0.8141806721687317,0.03339458256959915,-0.5553078651428223
6.921193599700928,0.008753976784646511,-0.9342235922813416,0.8429073095321655,0.8152317404747009,0.03473396599292755,-0.5558148622512817
6.941357851028442,0.008571520447731018,-0.9343966245651245,0.8429250717163086,0.8157456517219543,0.03539026901125908,-0.5560702681541443
6.961412668228149,0.008268238045275211,-0.9347878694534302,0.842940628528595,0.816892147064209,0.03669784218072891,-0.5565434694290161
6.981523036956787,0.008129188790917397,-0.9350244402885437,0.8429002165794373,0.817507803440094,0.03731918707489967,-0.5567610859870911
7.001594305038452,0.007954594679176807,-0.9354709982872009,0.842894971370697,0.8187816739082336,0.038685839623212814,-0.5571885108947754
7.021653175354004,0.007706755772233009,-0.9358411431312561,0.8428837656974792,0.8199080228805542,0.040103599429130554,-0.5576573014259338
7.041790246963501,0.007638329640030861,-0.9360157251358032,0.8430490493774414,0.8204582333564758,0.04080939292907715,-0.5579041838645935
7.061929941177368,0.007271500304341316,-0.9364041090011597,0.8431403040885925,0.8214854001998901,0.04204900935292244,-0.5583987236022949
7.0821754932403564,0.006893283687531948,-0.9367546439170837,0.8431335091590881,0.8224731087684631,0.043352413922548294,-0.5588951110839844
7.102266788482666,0.006693305913358927,-0.9369269609451294,0.8431243896484375,0.822973370552063,0.044004037976264954,-0.5591402053833008
7.122358798980713,0.006170252803713083,-0.9373688101768494,0.84312903881073,0.8240284323692322,0.045066412538290024,-0.5596047639846802
7.142455339431763,0.005914557725191116,-0.9376130700111389,0.8432056903839111,0.8245810866355896,0.0455494225025177,-0.559827983379364
7.162543058395386,0.005409511271864176,-0.9380582571029663,0.8432642817497253,0.8256134986877441,0.04661403223872185,-0.5602836608886719
7.183034896850586,0.005286344327032566,-0.9382399916648865,0.843392014503479,0.8261417746543884,0.047277018427848816,-0.5605134963989258
7.203113317489624,0.0049338494427502155,-0.9386202096939087,0.8434683680534363,0.8271443843841553,0.04853682219982147,-0.5609727501869202
7.2235589027404785,0.004551263991743326,-0.9389834403991699,0.8434494733810425,0.8281257152557373,0.04982133209705353,-0.5614279508590698
7.243649244308472,0.004336900543421507,-0.9391770362854004,0.8434402942657471,0.8285990953445435,0.0504227839410305,-0.5616593956947327
7.263701677322388,0.0039012592751532793,-0.9396185278892517,0.8432878255844116,0.8296414017677307,0.05159429460763931,-0.5620787143707275
7.284703969955444,0.00341322785243392,-0.9400777220726013,0.8433419466018677,0.8306715488433838,0.05265435576438904,-0.5624954700469971
7.3047873973846436,0.0031322601716965437,-0.9403310418128967,0.8433771729469299,0.8311935067176819,0.05312094837427139,-0.5626963973045349
7.3248419761657715,0.002686802064999938,-0.9407562017440796,0.8434914946556091,0.8321983218193054,0.05425924435257912,-0.5631141066551208
7.344935894012451,0.0023948776070028543,-0.9411537647247314,0.8437533378601074,0.8332556486129761,0.05550055950880051,-0.5635295510292053
7.365036725997925,0.0022358628921210766,-0.941364586353302,0.8438060879707336,0.8337887525558472,0.05611659213900566,-0.5637286305427551
7.3851587772369385,0.0019003008492290974,-0.9417489767074585,0.8438975811004639,0.8348032832145691,0.05738579481840134,-0.5641403198242188
7.405273199081421,0.0018098141299560666,-0.9419284462928772,0.8438786268234253,0.8353257775306702,0.05811840668320656,-0.564339816570282
7.425359725952148,0.0014339920599013567,-0.9423400163650513,0.8438098430633545,0.8363341689109802,0.059356898069381714,-0.5647421479225159
7.445438385009766,0.0010305140167474747,-0.9427090287208557,0.8436817526817322,0.8373181819915771,0.060650814324617386,-0.565158486366272
7.4655327796936035,0.0009167084936052561,-0.9428925514221191,0.8435693383216858,0.837867259979248,0.06138475984334946,-0.5653541088104248
7.485633850097656,0.0006643426022492349,-0.9433112740516663,0.843666672706604,0.8389608263969421,0.0626547560095787,-0.5657455921173096
7.505700349807739,0.00032398078474216163,-0.943791925907135,0.8439816236495972,0.8399988412857056,0.06368927657604218,-0.5661423802375793
7.525779485702515,0.0001482161897001788,-0.9439875483512878,0.8440371751785278,0.8405027985572815,0.06429734081029892,-0.5663401484489441
7.545853614807129,-0.00013947852130513638,-0.9443262815475464,0.8441546559333801,0.8414831161499023,0.06562288850545883,-0.5667380094528198
7.566546440124512,-0.0005150475190021098,-0.9447177648544312,0.8442391157150269,0.8424264788627625,0.06679818034172058,-0.5671409368515015
7.5866570472717285,-0.0006966957589611411,-0.9449666142463684,0.8444218039512634,0.8429252505302429,0.06727445870637894,-0.5673320889472961
7.606729745864868,-0.0011381619842723012,-0.9454424381256104,0.8446071743965149,0.8438845872879028,0.0682557076215744,-0.5677101612091064
7.6268393993377686,-0.0013293068623170257,-0.9456409215927124,0.8446608781814575,0.8443657159805298,0.06883972883224487,-0.567896842956543
7.6469197273254395,-0.0015915132826194167,-0.9459826350212097,0.8448541760444641,0.8453349471092224,0.07014032453298569,-0.5682703256607056
7.666973114013672,-0.0018442211439833045,-0.9463770985603333,0.8451940417289734,0.8463303446769714,0.07131381332874298,-0.568637490272522
7.68714451789856,-0.002037437865510583,-0.94658362865448,0.8452479839324951,0.8467882871627808,0.07186627388000488,-0.5688241720199585
7.707204818725586,-0.00247383420355618,-0.9470020532608032,0.8453046083450317,0.8477293848991394,0.07294180989265442,-0.5691781640052795
7.727253198623657,-0.0028873521368950605,-0.9474065899848938,0.8452677726745605,0.8486735224723816,0.07408720999956131,-0.5695303082466125
7.747345447540283,-0.0030799596570432186,-0.9476462602615356,0.8453421592712402,0.8491718173027039,0.07458984851837158,-0.5697001218795776
7.767503023147583,-0.0034709121100604534,-0.9481075406074524,0.8453348278999329,0.8501116633415222,0.0756661519408226,-0.570048451423645
7.788193225860596,-0.0037778259720653296,-0.9484964609146118,0.8453207015991211,0.8510563969612122,0.0769130140542984,-0.5703898668289185
7.808367967605591,-0.00396374799311161,-0.9486970901489258,0.8453458547592163,0.8515270948410034,0.07749032974243164,-0.5705611109733582
7.828367471694946,-0.00424204720184207,-0.9491464495658875,0.8456602096557617,0.8525152206420898,0.07856648415327072,-0.5708943605422974
7.8487467765808105,-0.004588632844388485,-0.9496586918830872,0.8458597660064697,0.853496789932251,0.07954777032136917,-0.571208119392395
7.868853807449341,-0.004774732515215874,-0.9498616456985474,0.845942497253418,0.85396409034729,0.08010952919721603,-0.5713706016540527
7.888912200927734,-0.005115355830639601,-0.9502648711204529,0.8461290597915649,0.8549222946166992,0.08124976605176926,-0.5716853141784668
7.909226894378662,-0.0055540259927511215,-0.9506930112838745,0.8462294936180115,0.8558301329612732,0.08229316771030426,-0.572005569934845
7.929316997528076,-0.005758152808994055,-0.9508782625198364,0.8462421298027039,0.8562772870063782,0.08287590742111206,-0.5721666216850281
7.949412822723389,-0.0061523267067968845,-0.9512538313865662,0.8462863564491272,0.8571190237998962,0.08401734381914139,-0.5725045800209045
7.969470024108887,-0.006529800593852997,-0.9516539573669434,0.8463699817657471,0.8579897880554199,0.08512406796216965,-0.5728275775909424
7.989556550979614,-0.00667560612782836,-0.9518357515335083,0.8464171290397644,0.858423113822937,0.08573102951049805,-0.5729897022247314
8.009666681289673,-0.00699599040672183,-0.9522820115089417,0.8465217351913452,0.8593961596488953,0.08681125193834305,-0.573276162147522
8.029724359512329,-0.007205606438219547,-0.9525148868560791,0.8465826511383057,0.859846830368042,0.08729217201471329,-0.5734236240386963
8.049867630004883,-0.0074445935897529125,-0.952886164188385,0.8466225862503052,0.8607908487319946,0.08856173604726791,-0.5737073421478271
8.069934368133545,-0.007694833911955357,-0.9533240795135498,0.8467959761619568,0.8617651462554932,0.0896778553724289,-0.5739810466766357
8.090005159378052,-0.007850025780498981,-0.953545331954956,0.8468500971794128,0.8622226715087891,0.09021715074777603,-0.5741199851036072
8.11011552810669,-0.008113842457532883,-0.953919529914856,0.8470581769943237,0.8630679249763489,0.09138302505016327,-0.5744258761405945
8.130424499511719,-0.008499705232679844,-0.9543201923370361,0.8470957279205322,0.863868772983551,0.0924539864063263,-0.5747440457344055
8.150522708892822,-0.008710519410669804,-0.9545259475708008,0.8471100330352783,0.8642935752868652,0.09296973794698715,-0.5748917460441589
8.170634031295776,-0.009141550399363041,-0.9549252390861511,0.8470641374588013,0.865075945854187,0.0940212607383728,-0.5752023458480835
8.191538572311401,-0.009654653258621693,-0.9554378390312195,0.8470639586448669,0.8659030795097351,0.09484031051397324,-0.5754773616790771
8.2116379737854,-0.009836489334702492,-0.955683171749115,0.8471572995185852,0.8663671612739563,0.09531036764383316,-0.5756028890609741
8.231861591339111,-0.010018521919846535,-0.9561391472816467,0.847470760345459,0.8673428297042847,0.09640718251466751,-0.5758464932441711
8.251969814300537,-0.010123885236680508,-0.9563352465629578,0.8475649356842041,0.8678007125854492,0.0970064252614975,-0.5759755373001099
8.272093772888184,-0.010268354788422585,-0.9567171931266785,0.847993791103363,0.8686879873275757,0.09816983342170715,-0.576249897480011
8.292128801345825,-0.010484674014151096,-0.9570988416671753,0.8483206629753113,0.8695370554924011,0.09929412603378296,-0.5765261650085449
8.312204599380493,-0.010655645281076431,-0.9572818875312805,0.8483654260635376,0.8699377775192261,0.09984905272722244,-0.5766639709472656
8.332281589508057,-0.01100038643926382,-0.9576513171195984,0.8484580516815186,0.8707301616668701,0.10094050318002701,-0.5769383311271667
8.352856397628784,-0.01146203838288784,-0.9580909609794617,0.8485072255134583,0.8715012073516846,0.10184618085622787,-0.577207624912262
8.372998714447021,-0.011693641543388367,-0.958319902420044,0.848521888256073,0.8718878030776978,0.10228901356458664,-0.5773366093635559
8.393071413040161,-0.012040932662785053,-0.958726704120636,0.8485634326934814,0.8727262020111084,0.10334763675928116,-0.5775794386863708
8.413118839263916,-0.0123970415443182,-0.959150493144989,0.8486536145210266,0.8735640645027161,0.10435258597135544,-0.5778166651725769
8.433224439620972,-0.01250187586992979,-0.9593713283538818,0.84874027967453,0.8740136027336121,0.10488919168710709,-0.57792729139328
8.453311443328857,-0.012776011601090431,-0.9598017930984497,0.848914384841919,0.8748853206634521,0.10591989010572433,-0.5781567692756653
8.473389625549316,-0.012903060764074326,-0.9600107073783875,0.8490272164344788,0.8752874732017517,0.10643818974494934,-0.5782815217971802
8.493477821350098,-0.013140122406184673,-0.9604109525680542,0.8491660356521606,0.8761129975318909,0.10753770917654037,-0.5785284638404846
8.513528823852539,-0.01349044218659401,-0.9608694911003113,0.8493942618370056,0.8769422769546509,0.1084330752491951,-0.5787572264671326
8.533681631088257,-0.013686809688806534,-0.9611108303070068,0.8495085835456848,0.8773543238639832,0.10884746164083481,-0.5788668990135193
8.553708553314209,-0.014200367033481598,-0.9616068005561829,0.8495655655860901,0.878107488155365,0.10962066054344177,-0.5790950059890747
8.573767900466919,-0.01455837581306696,-0.9620319604873657,0.8496897220611572,0.8789116144180298,0.11060108244419098,-0.5793159604072571
8.593883752822876,-0.01475171372294426,-0.9622414708137512,0.8497323989868164,0.8793127536773682,0.11108969897031784,-0.5794235467910767
8.614115238189697,-0.015113450586795807,-0.9626731872558594,0.8497374653816223,0.8801178932189941,0.11209002137184143,-0.5796363353729248
8.634602546691895,-0.015375197865068913,-0.9630450010299683,0.8497626185417175,0.8808895349502563,0.11322695016860962,-0.5798650979995728
8.654740571975708,-0.01549401506781578,-0.9632353782653809,0.8498051166534424,0.8812957406044006,0.11378785967826843,-0.5799740552902222
8.674795866012573,-0.01578359864652157,-0.9636223912239075,0.849932849407196,0.882055401802063,0.11483032256364822,-0.5802056789398193
8.695000648498535,-0.016065865755081177,-0.9640448093414307,0.8501843214035034,0.8828501105308533,0.11578555405139923,-0.5804252624511719
8.715123891830444,-0.01619727723300457,-0.9642648100852966,0.8503488898277283,0.8832376599311829,0.116242915391922,-0.5805371999740601
8.735282182693481,-0.01637217402458191,-0.9646860957145691,0.8508087992668152,0.8841040134429932,0.11721505969762802,-0.5807371139526367
8.755335330963135,-0.01645735837519169,-0.9648981690406799,0.8510332107543945,0.8845479488372803,0.11770215630531311,-0.580830454826355
8.775394439697266,-0.016709638759493828,-0.9653335213661194,0.8513601422309875,0.8853893876075745,0.11863631010055542,-0.5810160636901855
8.795483112335205,-0.01679801009595394,-0.9656835794448853,0.8514807224273682,0.8862203359603882,0.11987673491239548,-0.5812022686004639
8.815591812133789,-0.01686585322022438,-0.9658646583557129,0.85152667760849,0.8866159319877625,0.12046953290700912,-0.5813019275665283
8.83568263053894,-0.016934435814619064,-0.9662885069847107,0.851679801940918,0.8875311613082886,0.12161615490913391,-0.5814785361289978
8.855949640274048,-0.0169207863509655,-0.966688334941864,0.8517027497291565,0.8884479999542236,0.12289851903915405,-0.5816558599472046
8.876061201095581,-0.01699756272137165,-0.9669034481048584,0.851815402507782,0.8888826370239258,0.12341374158859253,-0.5817554593086243
8.896158933639526,-0.01709124818444252,-0.9672453999519348,0.8519234657287598,0.8896737098693848,0.12463747709989548,-0.5819814801216125
8.916399717330933,-0.017202191054821014,-0.9676560759544373,0.8522300720214844,0.8904891610145569,0.12567536532878876,-0.582196056842804
8.936518430709839,-0.017397621646523476,-0.9678854942321777,0.8522546291351318,0.8908330798149109,0.1260865181684494,-0.5823115706443787
8.956570625305176,-0.017947649583220482,-0.9683789610862732,0.852357029914856,0.8914798498153687,0.1267140805721283,-0.5825297236442566
8.976659774780273,-0.018142079934477806,-0.9686042070388794,0.8523687124252319,0.8918355107307434,0.12714241445064545,-0.5826278328895569
8.996729850769043,-0.018646368756890297,-0.969120979309082,0.8523997664451599,0.8925055861473083,0.12780600786209106,-0.5828179121017456
9.016793251037598,-0.01903328113257885,-0.969577431678772,0.8524667620658875,0.8931654095649719,0.1286468803882599,-0.5830057859420776
9.037004232406616,-0.019207842648029327,-0.9697911739349365,0.8525025844573975,0.8935054540634155,0.12910252809524536,-0.5830965042114258
9.057084321975708,-0.019498299807310104,-0.9701933860778809,0.8525795936584473,0.8941986560821533,0.13008473813533783,-0.5832758545875549
9.077162027359009,-0.01982879266142845,-0.9706060290336609,0.8526370525360107,0.8948917984962463,0.13101528584957123,-0.5834518671035767
9.097255229949951,-0.020003752782940865,-0.97080397605896,0.852647602558136,0.8952282071113586,0.13148696720600128,-0.583548367023468
9.117349863052368,-0.02031637355685234,-0.9712339043617249,0.8528841733932495,0.895941972732544,0.13233785331249237,-0.5837251543998718
9.137431621551514,-0.02054736390709877,-0.9714761972427368,0.8529310822486877,0.8962689638137817,0.13268530368804932,-0.5838111639022827
9.157492876052856,-0.020880546420812607,-0.9718860983848572,0.8530351519584656,0.8969625234603882,0.1335831880569458,-0.5839729905128479
9.177581071853638,-0.021032702177762985,-0.9720741510391235,0.8530756831169128,0.897310197353363,0.13406680524349213,-0.5840528607368469
9.197675228118896,-0.02132379077374935,-0.9724785685539246,0.853248655796051,0.8980181217193604,0.13496671617031097,-0.584208607673645
9.217745542526245,-0.021457776427268982,-0.972696840763092,0.8533592224121094,0.8983834385871887,0.13539302349090576,-0.5842836499214172
9.237871885299683,-0.021741975098848343,-0.9731351137161255,0.8535700440406799,0.8990989923477173,0.13622941076755524,-0.5844293236732483
9.25790548324585,-0.02199128083884716,-0.9735258221626282,0.8537928462028503,0.8997753858566284,0.1371440589427948,-0.5845870971679688
9.278000593185425,-0.022159410640597343,-0.9737316370010376,0.8538531064987183,0.9001083970069885,0.13756582140922546,-0.5846635699272156
9.29808259010315,-0.02259914204478264,-0.9742032289505005,0.8539420962333679,0.9007584452629089,0.1382511854171753,-0.5848073363304138
9.318194389343262,-0.022801529616117477,-0.9744141101837158,0.8539650440216064,0.9010661840438843,0.1386520117521286,-0.5848819017410278
9.338313579559326,-0.023180462419986725,-0.9748302698135376,0.8540377020835876,0.9017197489738464,0.13946601748466492,-0.5850206017494202
9.358344793319702,-0.023313704878091812,-0.9750163555145264,0.8541206121444702,0.9020476341247559,0.13992808759212494,-0.5850911736488342
9.378452777862549,-0.023532604798674583,-0.9754161834716797,0.854437530040741,0.9027655720710754,0.14079990983009338,-0.5852207541465759
9.39851999282837,-0.02357347309589386,-0.9757981896400452,0.8550106287002563,0.9035484790802002,0.14174297451972961,-0.5853433609008789
9.418643951416016,-0.023621346801519394,-0.9759809970855713,0.8552345633506775,0.9039113521575928,0.14222119748592377,-0.5854076147079468
9.438699960708618,-0.023863693699240685,-0.9763554930686951,0.8555150032043457,0.9046106934547424,0.14309795200824738,-0.5855379700660706
9.458771228790283,-0.024019092321395874,-0.9765526652336121,0.8556210994720459,0.9049472808837891,0.14350062608718872,-0.5856025218963623
9.478938102722168,-0.024360766634345055,-0.9769449234008789,0.8557626008987427,0.9055808782577515,0.14429883658885956,-0.5857335925102234
9.498933792114258,-0.024757085368037224,-0.9773838520050049,0.8557913899421692,0.9062260389328003,0.14502733945846558,-0.5858497023582458
9.519066572189331,-0.024918407201766968,-0.9775779247283936,0.8558860421180725,0.9065464735031128,0.14543361961841583,-0.5859163999557495
9.539161682128906,-0.025167245417833328,-0.9780136942863464,0.8562841415405273,0.907242476940155,0.14616331458091736,-0.5860363841056824
9.559491872787476,-0.025301331654191017,-0.9784007668495178,0.8567275404930115,0.9079946279525757,0.1470370888710022,-0.5861431360244751
9.579596996307373,-0.02535555511713028,-0.9785890579223633,0.856889009475708,0.9083776473999023,0.14750933647155762,-0.586191713809967
9.600379228591919,-0.025475751608610153,-0.9789540767669678,0.8571943044662476,0.9091328382492065,0.1484602391719818,-0.5862908959388733
9.620542287826538,-0.02558787167072296,-0.9791223406791687,0.857308030128479,0.9094576835632324,0.14891542494297028,-0.5863526463508606
9.640618801116943,-0.0258406363427639,-0.9794541597366333,0.8574357628822327,0.9100757837295532,0.14983463287353516,-0.5864814519882202
9.660809516906738,-0.026034608483314514,-0.9796531796455383,0.8574424386024475,0.9103608727455139,0.15020903944969177,-0.5865509510040283
9.680939435958862,-0.026398848742246628,-0.9800518155097961,0.8574471473693848,0.9109348654747009,0.1509762406349182,-0.5866876840591431
9.700998306274414,-0.026586519554257393,-0.9802671074867249,0.8574853539466858,0.9111987948417664,0.15131960809230804,-0.586757481098175
9.721071481704712,-0.026962101459503174,-0.9806547164916992,0.8574557900428772,0.9117916226387024,0.15210814774036407,-0.5868858098983765
9.741151571273804,-0.027129828929901123,-0.9808520674705505,0.8574849367141724,0.912091076374054,0.15249471366405487,-0.5869449377059937
9.761278629302979,-0.027457671239972115,-0.9812828898429871,0.8574878573417664,0.9127120971679688,0.15324319899082184,-0.5870478749275208
9.781356811523438,-0.027765315026044846,-0.9816714525222778,0.8575593829154968,0.9132643342018127,0.1540355086326599,-0.5871753096580505
9.80151104927063,-0.027896752581000328,-0.9818518757820129,0.857589840888977,0.913560688495636,0.15447112917900085,-0.587234377861023
9.821619749069214,-0.028151247650384903,-0.9822161793708801,0.8577138781547546,0.9141675233840942,0.15531598031520844,-0.5873462557792664
9.841729402542114,-0.02821946144104004,-0.9824135899543762,0.8578917980194092,0.9145268797874451,0.1557254195213318,-0.5873923301696777
9.86176872253418,-0.02846555970609188,-0.9828253388404846,0.858081579208374,0.9151811003684998,0.1564829796552658,-0.5874828696250916
9.881871461868286,-0.028653619810938835,-0.9832080006599426,0.8583257794380188,0.9158466458320618,0.15729911625385284,-0.5875714421272278
9.9019136428833,-0.028802944347262383,-0.9834139943122864,0.8584098219871521,0.9161357283592224,0.15764789283275604,-0.5876224637031555
9.92201018333435,-0.02909260243177414,-0.9838207960128784,0.8585290908813477,0.9167056679725647,0.15837976336479187,-0.5877237915992737
9.942123174667358,-0.029234977439045906,-0.9840118288993835,0.8585625290870667,0.9169803857803345,0.15876974165439606,-0.5877764821052551
9.96226167678833,-0.029452936723828316,-0.9844295978546143,0.8586243987083435,0.9175698161125183,0.15955843031406403,-0.5878690481185913
9.982340335845947,-0.029595836997032166,-0.9846246242523193,0.8586709499359131,0.9178594946861267,0.15994137525558472,-0.5879170894622803
10.002470016479492,-0.029837310314178467,-0.9850133061408997,0.8588271737098694,0.9185004830360413,0.16072073578834534,-0.5880046486854553
10.023133277893066,-0.030079562216997147,-0.9854771494865417,0.8591569662094116,0.9191550612449646,0.1613301932811737,-0.5880703926086426
10.043181896209717,-0.030187543481588364,-0.9856747984886169,0.8592634201049805,0.9194633364677429,0.16171038150787354,-0.5881063342094421
10.063300132751465,-0.030407775193452835,-0.9861345291137695,0.8596239686012268,0.9201169610023499,0.16233162581920624,-0.5881593227386475
10.08339238166809,-0.030509479343891144,-0.9863879680633545,0.8598765730857849,0.9204562902450562,0.1625930219888687,-0.5881800055503845
10.103440999984741,-0.030756482854485512,-0.9868085384368896,0.8601457476615906,0.9210576415061951,0.16327929496765137,-0.588233232498169
10.123584508895874,-0.030847890302538872,-0.9869944453239441,0.8602714538574219,0.9213677048683167,0.16368047893047333,-0.5882576704025269
10.143630981445312,-0.03107137233018875,-0.987429678440094,0.8606340289115906,0.922002375125885,0.1643223762512207,-0.5882989764213562
10.163723707199097,-0.031272005289793015,-0.9878057241439819,0.8609393239021301,0.9226099252700806,0.1650802046060562,-0.5883431434631348
10.18381142616272,-0.03134523332118988,-0.9879619479179382,0.8610736131668091,0.9229035377502441,0.16552206873893738,-0.588368833065033
10.203936338424683,-0.03159599378705025,-0.9883173108100891,0.8612533807754517,0.9234693050384521,0.1662834733724594,-0.588420033454895
10.223995208740234,-0.03175130486488342,-0.9885057210922241,0.8613207340240479,0.9237385988235474,0.16662979125976562,-0.588445782661438
10.244082927703857,-0.032089658081531525,-0.9889115691184998,0.8614275455474854,0.9242622256278992,0.1672651767730713,-0.5884957313537598
10.264227151870728,-0.03244634345173836,-0.9893559217453003,0.861478328704834,0.9247955083847046,0.16785041987895966,-0.5885347723960876
10.28429365158081,-0.032549984753131866,-0.9895472526550293,0.8615012764930725,0.9250789880752563,0.16824880242347717,-0.5885525941848755
10.304616689682007,-0.03279498592019081,-0.989945113658905,0.8615806102752686,0.925645649433136,0.1689758002758026,-0.5885913372039795
10.324662923812866,-0.03298921138048172,-0.9903139472007751,0.8617920279502869,0.9261987209320068,0.1697242110967636,-0.5886404514312744
10.34475326538086,-0.033001113682985306,-0.9905017018318176,0.862024188041687,0.9265413880348206,0.17011785507202148,-0.5886515378952026
10.364834070205688,-0.033137813210487366,-0.9908654689788818,0.8621465563774109,0.927137553691864,0.17094364762306213,-0.5886930227279663
10.385040521621704,-0.03327835723757744,-0.9912342429161072,0.8623956441879272,0.9276730418205261,0.17169561982154846,-0.5887527465820312
10.405145645141602,-0.03329254686832428,-0.9914104342460632,0.8624969720840454,0.9279626607894897,0.17213432490825653,-0.5887755751609802
10.425232410430908,-0.03350672870874405,-0.9917616248130798,0.8626024127006531,0.9284291863441467,0.17288357019424438,-0.5888480544090271
10.44526720046997,-0.03360690549015999,-0.9919366836547852,0.8626760244369507,0.9286691546440125,0.17325225472450256,-0.5888828039169312
10.465334177017212,-0.033811964094638824,-0.9922969937324524,0.8628206253051758,0.9291493892669678,0.1739673763513565,-0.5889543890953064
10.48538589477539,-0.0340610109269619,-0.9926512241363525,0.862865149974823,0.9296519160270691,0.17468464374542236,-0.5890341401100159
10.505488872528076,-0.03416445106267929,-0.992859423160553,0.8629962205886841,0.9299542307853699,0.17497943341732025,-0.5890599489212036
10.525568962097168,-0.03440779820084572,-0.9932300448417664,0.8631191849708557,0.9304649829864502,0.17564095556735992,-0.5891233682632446
10.545908212661743,-0.03461900353431702,-0.9935617446899414,0.8632388114929199,0.9309799671173096,0.1763741821050644,-0.5891803503036499
10.566052913665771,-0.03472012281417847,-0.9937519431114197,0.863353967666626,0.9312474727630615,0.17668773233890533,-0.5892059803009033
10.586089849472046,-0.034817326813936234,-0.9941434264183044,0.8637065887451172,0.9318601489067078,0.1773468405008316,-0.5892361998558044
10.606168031692505,-0.03494175896048546,-0.9943588376045227,0.8637698292732239,0.9321436285972595,0.1776261180639267,-0.5892513394355774
10.6262366771698,-0.034993190318346024,-0.9947221875190735,0.864205002784729,0.9327341914176941,0.1783226728439331,-0.5892914533615112
10.646294832229614,-0.03515219688415527,-0.9950640797615051,0.864408552646637,0.9332489967346191,0.1790383905172348,-0.5893516540527344
10.666400909423828,-0.03528622165322304,-0.9952566027641296,0.8644711375236511,0.9334833025932312,0.1793307363986969,-0.5893808603286743
10.686460256576538,-0.035488199442625046,-0.9955958724021912,0.8646232485771179,0.93397057056427,0.18001911044120789,-0.5894318222999573
10.706584930419922,-0.035649336874485016,-0.9957939386367798,0.8646517395973206,0.9342141151428223,0.18029257655143738,-0.5894560813903809
10.726668119430542,-0.035957757383584976,-0.9962459206581116,0.8648618459701538,0.9347088932991028,0.18072056770324707,-0.589493989944458
10.746735572814941,-0.03618243336677551,-0.996595025062561,0.864995539188385,0.935161292552948,0.1813899278640747,-0.5895394086837769
10.766822099685669,-0.036222007125616074,-0.9967382550239563,0.8650341033935547,0.9354268312454224,0.1818333864212036,-0.5895535945892334
10.787000894546509,-0.0363878570497036,-0.9970777034759521,0.8651951551437378,0.9359243512153625,0.18253497779369354,-0.5895916819572449
10.806997299194336,-0.03646480292081833,-0.9974046945571899,0.8654844760894775,0.9364750981330872,0.183274507522583,-0.5896213054656982
10.827183246612549,-0.03656242415308952,-0.997577428817749,0.8655385971069336,0.936724841594696,0.18361012637615204,-0.5896405577659607
10.847207307815552,-0.0366920568048954,-0.997900664806366,0.8655808568000793,0.9372710585594177,0.18438458442687988,-0.5896703004837036
10.867676496505737,-0.036889754235744476,-0.9982532262802124,0.8657117486000061,0.9377670884132385,0.18501746654510498,-0.5897088646888733
10.88777208328247,-0.03698065131902695,-0.9984472393989563,0.8658442497253418,0.9380532503128052,0.18529370427131653,-0.589718759059906
10.907846450805664,-0.037271175533533096,-0.9988819360733032,0.8660265207290649,0.9385578632354736,0.18571922183036804,-0.5897395610809326
10.927906274795532,-0.03735242411494255,-0.9990437030792236,0.8661160469055176,0.9387977719306946,0.1860617995262146,-0.5897544622421265
10.947999000549316,-0.03748541325330734,-0.9993277192115784,0.8662530183792114,0.9392616748809814,0.18682357668876648,-0.5897912979125977
10.968048334121704,-0.03767707198858261,-0.9997153878211975,0.8665221333503723,0.9397209882736206,0.18734367191791534,-0.5898228883743286
10.989108562469482,-0.03787357732653618,-1.0000667572021484,0.8667095899581909,0.9401664137840271,0.18793702125549316,-0.5898534655570984
11.009225845336914,-0.03794749081134796,-1.0002237558364868,0.8668104410171509,0.940395712852478,0.1882733553647995,-0.5898684859275818
11.029267072677612,-0.03801891580224037,-1.0005574226379395,0.867138683795929,0.9409146308898926,0.18893592059612274,-0.5898853540420532
11.049328327178955,-0.03800512105226517,-1.0007404088974,0.8673670291900635,0.9412076473236084,0.18926212191581726,-0.5898855924606323
11.069440364837646,-0.0380721241235733,-1.001072883605957,0.8676533699035645,0.9417106509208679,0.18994052708148956,-0.5899025201797485
11.089920997619629,-0.03811996430158615,-1.0013408660888672,0.8678573369979858,0.9422073364257812,0.19073466956615448,-0.5899244546890259
11.110054016113281,-0.03816322237253189,-1.0015078783035278,0.8679035902023315,0.9424595236778259,0.19108812510967255,-0.5899332165718079
11.130306720733643,-0.03846249729394913,-1.0018644332885742,0.867875337600708,0.9428839087486267,0.19162730872631073,-0.5899716019630432
11.150461435317993,-0.03862965106964111,-1.0020557641983032,0.867872953414917,0.9430942535400391,0.19185839593410492,-0.5899882912635803
11.170481204986572,-0.038941726088523865,-1.0024620294570923,0.8679711818695068,0.9434987306594849,0.19226866960525513,-0.5900107026100159
11.190571069717407,-0.03903885558247566,-1.002629280090332,0.8680375814437866,0.9437321424484253,0.19256627559661865,-0.590019166469574
11.210654497146606,-0.03921222686767578,-1.003035306930542,0.8683835864067078,0.9442340135574341,0.1930037885904312,-0.5900173783302307
11.231178760528564,-0.03928320109844208,-1.003207802772522,0.8685184717178345,0.9444873332977295,0.19329386949539185,-0.5900158882141113
11.251345872879028,-0.0393981896340847,-1.00350821018219,0.8687514066696167,0.94495689868927,0.1939578354358673,-0.590021550655365
11.271371841430664,-0.03960740938782692,-1.00381600856781,0.8688385486602783,0.945366382598877,0.19457626342773438,-0.5900413393974304
11.291454315185547,-0.03972181677818298,-1.0039724111557007,0.8688728213310242,0.9455525279045105,0.19487395882606506,-0.590057373046875
11.311582088470459,-0.039919570088386536,-1.004294514656067,0.8689679503440857,0.9459241032600403,0.19546453654766083,-0.5900892615318298
11.331619262695312,-0.0400766097009182,-1.0045994520187378,0.8690896034240723,0.9463608860969543,0.19609877467155457,-0.5901035666465759
11.351710081100464,-0.04007622227072716,-1.0047470331192017,0.8691863417625427,0.9466121792793274,0.1964712142944336,-0.5901058912277222
11.371826648712158,-0.04009947553277016,-1.0050567388534546,0.8695511221885681,0.9471349716186523,0.19710618257522583,-0.5901079773902893
11.392012357711792,-0.04013548791408539,-1.0053777694702148,0.8699005842208862,0.9476472735404968,0.1977149099111557,-0.5901103615760803
11.412126064300537,-0.04015788063406944,-1.0055376291275024,0.870066225528717,0.9479069709777832,0.19801802933216095,-0.5901116132736206
11.43223786354065,-0.0401892252266407,-1.0058506727218628,0.8702600002288818,0.9484336376190186,0.19868984818458557,-0.5901159048080444
11.452393770217896,-0.04026293009519577,-1.0060011148452759,0.8703436255455017,0.9486527442932129,0.1989865005016327,-0.5901250243186951
11.472446203231812,-0.040407102555036545,-1.0063008069992065,0.8705185055732727,0.9490724802017212,0.1995742917060852,-0.5901440382003784
11.492536544799805,-0.040556903928518295,-1.0065982341766357,0.8706694841384888,0.9494925737380981,0.2001614272594452,-0.5901633501052856
11.512645959854126,-0.040645115077495575,-1.0067578554153442,0.8707444071769714,0.9497113823890686,0.2004276067018509,-0.590169370174408
11.532743692398071,-0.04081859812140465,-1.0070641040802002,0.8708813786506653,0.9501368403434753,0.20097887516021729,-0.5901814699172974
11.552947998046875,-0.04103412851691246,-1.0073925256729126,0.8709922432899475,0.9505366086959839,0.2014724463224411,-0.5901954174041748
11.573020696640015,-0.04111107438802719,-1.0075550079345703,0.8710941076278687,0.9507598280906677,0.20172752439975739,-0.5901972055435181
11.593105792999268,-0.04129132255911827,-1.0079091787338257,0.8713279366493225,0.9512122869491577,0.20216506719589233,-0.5901983380317688
11.61319875717163,-0.04141528904438019,-1.0080934762954712,0.8714103102684021,0.951408863067627,0.20235896110534668,-0.5901983976364136
11.633264780044556,-0.041562069207429886,-1.0083738565444946,0.871563196182251,0.9518337845802307,0.20294901728630066,-0.5901970863342285
11.653358697891235,-0.041626978665590286,-1.0086764097213745,0.8719035387039185,0.952306866645813,0.2034989893436432,-0.5901867747306824
11.673484086990356,-0.04172597452998161,-1.0088595151901245,0.872032642364502,0.9525278210639954,0.2036907821893692,-0.5901799201965332
11.693542718887329,-0.04194391146302223,-1.009169101715088,0.87213534116745,0.9529159665107727,0.2041880190372467,-0.5901793837547302
11.713862419128418,-0.04214010387659073,-1.0094608068466187,0.8721958994865417,0.953295111656189,0.2047324776649475,-0.5901893973350525
11.733970165252686,-0.042205553501844406,-1.0096306800842285,0.8723201155662537,0.953498899936676,0.20496320724487305,-0.5901899337768555
11.754067182540894,-0.042366787791252136,-1.009986162185669,0.8724988102912903,0.9538655877113342,0.20540374517440796,-0.5901961326599121
11.774177074432373,-0.04243471100926399,-1.0101327896118164,0.8725828528404236,0.9540754556655884,0.20568174123764038,-0.5901892185211182
11.794313430786133,-0.04243694990873337,-1.0104215145111084,0.8729488849639893,0.9545502662658691,0.20626914501190186,-0.5901713371276855
11.814377069473267,-0.0425131656229496,-1.0106946229934692,0.8732129335403442,0.9549736380577087,0.2068474441766739,-0.5901616811752319
11.834430932998657,-0.04253505542874336,-1.0108299255371094,0.8733751177787781,0.9552061557769775,0.20713725686073303,-0.5901519060134888
11.85458755493164,-0.0426766537129879,-1.0111238956451416,0.8735882043838501,0.9556297063827515,0.20764073729515076,-0.5901389122009277
11.874634504318237,-0.042867328971624374,-1.0113964080810547,0.8736413717269897,0.9559985995292664,0.20818282663822174,-0.5901394486427307
11.89474368095398,-0.04293781891465187,-1.0115439891815186,0.8736557960510254,0.9561921954154968,0.2084626853466034,-0.5901347994804382
11.91480541229248,-0.043138228356838226,-1.0118210315704346,0.8736095428466797,0.9565498232841492,0.20902089774608612,-0.5901457667350769
11.934962034225464,-0.0432656966149807,-1.0119779109954834,0.8735858201980591,0.9567074179649353,0.20924994349479675,-0.5901568531990051
11.955043315887451,-0.04339801147580147,-1.0122350454330444,0.8735577464103699,0.9570658802986145,0.2098744511604309,-0.5901743769645691
11.975131750106812,-0.043490663170814514,-1.0124890804290771,0.8736733794212341,0.9574316143989563,0.21047170460224152,-0.5901912450790405
11.99521279335022,-0.043523285537958145,-1.0126129388809204,0.873759388923645,0.9576214551925659,0.2107706367969513,-0.5901994705200195
12.01537537574768,-0.04356179013848305,-1.0128966569900513,0.8740729093551636,0.9580592513084412,0.21128936111927032,-0.5901988744735718
12.035404205322266,-0.04353064298629761,-1.0131388902664185,0.8744286894798279,0.9584900140762329,0.21190187335014343,-0.5902010798454285
12.055490493774414,-0.0435631163418293,-1.0132683515548706,0.8745503425598145,0.9586938619613647,0.21217544376850128,-0.5902014970779419
12.075569868087769,-0.04364147037267685,-1.0135148763656616,0.8747402429580688,0.9590739607810974,0.2127366065979004,-0.5902087092399597
12.09592056274414,-0.0437985435128212,-1.0137931108474731,0.8748611211776733,0.9594184160232544,0.2132071852684021,-0.5902172327041626
12.116018533706665,-0.04391733929514885,-1.0139597654342651,0.8749126195907593,0.9595770239830017,0.2133750468492508,-0.5902201533317566
12.13614797592163,-0.044148627668619156,-1.014280915260315,0.8750098943710327,0.9599030613899231,0.2137359082698822,-0.5902203917503357
12.156224012374878,-0.044234927743673325,-1.014422059059143,0.8750652074813843,0.9600657224655151,0.21396519243717194,-0.5902211666107178
12.17632269859314,-0.04442409798502922,-1.0147238969802856,0.8751951456069946,0.9604169726371765,0.21437259018421173,-0.5902113914489746
12.19642424583435,-0.04451964423060417,-1.015041470527649,0.8755225539207458,0.9608370065689087,0.21476244926452637,-0.5901857018470764
12.216638803482056,-0.044577255845069885,-1.0151770114898682,0.8756195902824402,0.9610002636909485,0.21500316262245178,-0.5901830792427063
12.236717939376831,-0.04465249553322792,-1.015403151512146,0.8757956027984619,0.9613115191459656,0.2155781239271164,-0.5901873111724854
12.25718641281128,-0.04475879296660423,-1.0156481266021729,0.875964879989624,0.961628794670105,0.21609699726104736,-0.5901894569396973
12.277281522750854,-0.04480278119444847,-1.0157753229141235,0.8760643601417542,0.9618037343025208,0.21634924411773682,-0.5901851058006287
12.297353029251099,-0.04486112669110298,-1.0160212516784668,0.8762398362159729,0.9621680974960327,0.2168949395418167,-0.5901749134063721
12.317418575286865,-0.04486427083611488,-1.0161409378051758,0.8763071894645691,0.9623705744743347,0.2171998769044876,-0.5901644825935364
12.337620258331299,-0.04488874971866608,-1.0163657665252686,0.8764621019363403,0.9627452492713928,0.21779578924179077,-0.5901527404785156
12.357606649398804,-0.04497759789228439,-1.016599178314209,0.8765931725502014,0.9630857706069946,0.21832381188869476,-0.5901497602462769
12.377746820449829,-0.04502120986580849,-1.0167192220687866,0.8766242265701294,0.9632614254951477,0.21859443187713623,-0.5901479125022888
12.39780068397522,-0.04509062319993973,-1.0169726610183716,0.8767125606536865,0.9636103510856628,0.2191171795129776,-0.590141773223877
12.418252229690552,-0.045178841799497604,-1.0172393321990967,0.8768718838691711,0.963951826095581,0.21957585215568542,-0.5901398062705994
12.438405990600586,-0.04515442997217178,-1.017379641532898,0.8770961165428162,0.9641771912574768,0.2197967767715454,-0.5901294350624084
12.45842719078064,-0.045207880437374115,-1.0176928043365479,0.8774399757385254,0.9646323919296265,0.22014819085597992,-0.5901059508323669
12.478662490844727,-0.045181598514318466,-1.0178496837615967,0.8777105212211609,0.96486496925354,0.22032985091209412,-0.5900915265083313
12.49867296218872,-0.045220501720905304,-1.018086552619934,0.8779769539833069,0.9652028679847717,0.22082296013832092,-0.5900813341140747
12.518731832504272,-0.04533744603395462,-1.0183202028274536,0.8781090974807739,0.9655141830444336,0.22129733860492706,-0.5900765061378479
12.538809776306152,-0.045447759330272675,-1.0184592008590698,0.8781235814094543,0.9656513929367065,0.22148078680038452,-0.5900793075561523
12.558907270431519,-0.045660410076379776,-1.0187357664108276,0.8781620860099792,0.965925931930542,0.22185063362121582,-0.5900841355323792
12.57899808883667,-0.04588532820343971,-1.0190337896347046,0.8782358765602112,0.966218113899231,0.22216786444187164,-0.59007328748703
12.599089622497559,-0.045950982719659805,-1.019151210784912,0.878283679485321,0.9663663506507874,0.22240222990512848,-0.5900703072547913
12.619155406951904,-0.046069979667663574,-1.0194097757339478,0.8784520030021667,0.9667057991027832,0.22282180190086365,-0.5900521874427795
12.639317989349365,-0.046101827174425125,-1.019542932510376,0.878579318523407,0.9668998718261719,0.22303101420402527,-0.5900409817695618
12.659534215927124,-0.0463288351893425,-1.0198516845703125,0.8786768317222595,0.9671879410743713,0.22331270575523376,-0.5900231003761292
12.679877758026123,-0.046474944800138474,-1.0200881958007812,0.878758430480957,0.9674771428108215,0.22376149892807007,-0.590011477470398
12.700072050094604,-0.04656841605901718,-1.0202127695083618,0.878778874874115,0.9676090478897095,0.22396741807460785,-0.5900091528892517
12.720139980316162,-0.04674236848950386,-1.0204579830169678,0.8788194060325623,0.9678711891174316,0.22439099848270416,-0.5900055170059204
12.740264654159546,-0.04681788757443428,-1.0205978155136108,0.8788663148880005,0.9679926633834839,0.22457632422447205,-0.5900028347969055
12.760291814804077,-0.04691070318222046,-1.0208604335784912,0.8789157271385193,0.968296229839325,0.2250385582447052,-0.5899815559387207
12.78058648109436,-0.046983495354652405,-1.0211111307144165,0.8791208267211914,0.9685900211334229,0.2254687398672104,-0.5899675488471985
12.800724506378174,-0.046952638775110245,-1.021245002746582,0.8793551325798035,0.9687976241111755,0.22567641735076904,-0.5899482369422913
12.820831060409546,-0.047037262469530106,-1.0215014219284058,0.8795660138130188,0.9690728783607483,0.22608470916748047,-0.5899358987808228
12.840965032577515,-0.0470605343580246,-1.0216083526611328,0.8796613216400146,0.9692279100418091,0.22633303701877594,-0.5899274349212646
12.861135244369507,-0.047100190073251724,-1.0218416452407837,0.8799066543579102,0.9695754647254944,0.2267783135175705,-0.58990079164505
12.881159782409668,-0.04726044461131096,-1.0221163034439087,0.8800387382507324,0.9698778986930847,0.22711153328418732,-0.5898773074150085
12.901243925094604,-0.04731208458542824,-1.0222235918045044,0.8800864219665527,0.9700213074684143,0.22734494507312775,-0.5898697972297668
12.921359062194824,-0.0474252849817276,-1.022464632987976,0.8802084922790527,0.9703255295753479,0.2277556210756302,-0.5898458361625671
12.941475868225098,-0.04759852960705757,-1.022750735282898,0.8802093267440796,0.9706603288650513,0.22810284793376923,-0.5898136496543884
12.96156644821167,-0.04766349121928215,-1.0229005813598633,0.8803210258483887,0.9708358645439148,0.2282433658838272,-0.5897939205169678
12.981664180755615,-0.04784709960222244,-1.0232282876968384,0.8805219531059265,0.9711427688598633,0.2284543514251709,-0.5897520184516907
13.00182294845581,-0.047962844371795654,-1.0233755111694336,0.8805462121963501,0.9712794423103333,0.22859181463718414,-0.5897331833839417
13.021978378295898,-0.0480731762945652,-1.0235936641693115,0.8806421160697937,0.9715622067451477,0.22904518246650696,-0.5897021889686584
13.04204273223877,-0.048193156719207764,-1.02384614944458,0.8808035850524902,0.9718599319458008,0.2294129878282547,-0.5896640419960022
13.062201261520386,-0.048248544335365295,-1.0239695310592651,0.8808845281600952,0.9720109105110168,0.22960099577903748,-0.5896443724632263
13.082239151000977,-0.04833336919546127,-1.0242258310317993,0.8811162114143372,0.9723567962646484,0.22995713353157043,-0.5895941853523254
13.102290868759155,-0.04840285703539848,-1.0243452787399292,0.88116455078125,0.972503125667572,0.23014846444129944,-0.5895769000053406
13.122415781021118,-0.04847263917326927,-1.0245552062988281,0.8813056945800781,0.9727952480316162,0.2306004762649536,-0.5895413756370544
13.142503499984741,-0.04850688949227333,-1.024775505065918,0.8813806772232056,0.9731077551841736,0.23108811676502228,-0.5895022749900818
13.16262674331665,-0.0485675148665905,-1.0248936414718628,0.8814070224761963,0.9732471108436584,0.23128674924373627,-0.5894870758056641
13.182781219482422,-0.04858347401022911,-1.0251318216323853,0.8816837668418884,0.9735656380653381,0.23167824745178223,-0.58945232629776
13.202842235565186,-0.048650726675987244,-1.0253618955612183,0.8818725347518921,0.9738556146621704,0.23206868767738342,-0.5894201397895813
13.222948551177979,-0.04864794760942459,-1.0254489183425903,0.8819705843925476,0.9740009307861328,0.23232564330101013,-0.5894057154655457
13.243093252182007,-0.048673536628484726,-1.02566659450531,0.8822108507156372,0.9743103384971619,0.23273026943206787,-0.5893718004226685
13.263355255126953,-0.04868093505501747,-1.0257978439331055,0.8823896646499634,0.9744732975959778,0.23288357257843018,-0.5893512964248657
13.283435583114624,-0.048736322671175,-1.0260194540023804,0.882611095905304,0.9747487306594849,0.23326534032821655,-0.5893202424049377
13.303532600402832,-0.04878799989819527,-1.0262210369110107,0.8827890753746033,0.97502601146698,0.23368379473686218,-0.5892932415008545
13.323795795440674,-0.048758622258901596,-1.0263264179229736,0.8829865455627441,0.9752116203308105,0.23389177024364471,-0.5892696976661682
13.343882322311401,-0.04887986183166504,-1.0265475511550903,0.8830835819244385,0.9754876494407654,0.23425406217575073,-0.5892452001571655
13.363938808441162,-0.049040671437978745,-1.0267763137817383,0.8831536173820496,0.9757254719734192,0.23457516729831696,-0.5892223715782166
13.384049415588379,-0.04909440129995346,-1.026876449584961,0.8832027912139893,0.9758473634719849,0.23477008938789368,-0.5892107486724854
13.40416955947876,-0.04930216073989868,-1.0271424055099487,0.8832705616950989,0.9760805368423462,0.23499850928783417,-0.5891805291175842
13.424220323562622,-0.049418479204177856,-1.0272798538208008,0.8832982182502747,0.9762000441551208,0.23510026931762695,-0.5891618132591248
13.444367408752441,-0.049598272889852524,-1.0275261402130127,0.8833636045455933,0.976439893245697,0.23538091778755188,-0.5891262292861938
13.464405059814453,-0.049756068736314774,-1.0277507305145264,0.883428692817688,0.9766826629638672,0.23570756614208221,-0.5890894532203674
13.484480857849121,-0.04982403665781021,-1.027876377105713,0.8835068941116333,0.9768056869506836,0.2358422577381134,-0.5890689492225647
13.504553079605103,-0.04990026354789734,-1.0281412601470947,0.8837252855300903,0.9771124124526978,0.23612172901630402,-0.5890093445777893
13.524607181549072,-0.04997783899307251,-1.028372049331665,0.883795976638794,0.977385938167572,0.23650220036506653,-0.5889569520950317
13.544725179672241,-0.04999558627605438,-1.0284532308578491,0.8838604688644409,0.9775041937828064,0.2367393523454666,-0.5889391303062439
13.564842462539673,-0.050087712705135345,-1.0286508798599243,0.8839552998542786,0.9777259826660156,0.23712800443172455,-0.5889080166816711
13.585132837295532,-0.05019361153244972,-1.0288512706756592,0.884036123752594,0.9779261946678162,0.23750121891498566,-0.5888856053352356
13.605219841003418,-0.05027911067008972,-1.028959035873413,0.8840320110321045,0.9780367612838745,0.2376672476530075,-0.5888726115226746
13.625286340713501,-0.05039317160844803,-1.029194951057434,0.8841533064842224,0.9783071875572205,0.2379634529352188,-0.588837206363678
13.645543336868286,-0.050471238791942596,-1.0294325351715088,0.8843695521354675,0.9785804748535156,0.23825210332870483,-0.5887905359268188
13.665634393692017,-0.05046458914875984,-1.0295062065124512,0.8844623565673828,0.978715717792511,0.2384956330060959,-0.5887718796730042
13.685705184936523,-0.050491463392972946,-1.029676079750061,0.8846393823623657,0.9789745211601257,0.23891890048980713,-0.5887360572814941
13.70578646659851,-0.050524983555078506,-1.0298000574111938,0.8847761154174805,0.9791222214698792,0.23903904855251312,-0.588710367679596
13.725857496261597,-0.05060672387480736,-1.0300211906433105,0.8849563598632812,0.9793785214424133,0.23933643102645874,-0.588670551776886
13.746013641357422,-0.050749097019433975,-1.0302201509475708,0.8849882483482361,0.979606032371521,0.23966656625270844,-0.588639497756958
13.766032457351685,-0.05081316456198692,-1.0303194522857666,0.8850072026252747,0.9797101020812988,0.2398330569267273,-0.5886276960372925
13.786112070083618,-0.05095086619257927,-1.0305312871932983,0.8850816488265991,0.9799323678016663,0.24012356996536255,-0.5885936617851257
13.806289911270142,-0.05103154107928276,-1.0307178497314453,0.8851757049560547,0.9801618456840515,0.24047988653182983,-0.588559627532959
13.82637643814087,-0.05107938498258591,-1.0308234691619873,0.8852019309997559,0.9802888035774231,0.24064230918884277,-0.5885375142097473
13.846527338027954,-0.0511050671339035,-1.0309866666793823,0.885298490524292,0.9805285930633545,0.24106775224208832,-0.588503897190094
13.867233276367188,-0.051144734025001526,-1.031158208847046,0.8854352831840515,0.9807600378990173,0.2414475679397583,-0.5884741544723511
13.887329578399658,-0.0511760413646698,-1.0312570333480835,0.8855133056640625,0.9808746576309204,0.24160385131835938,-0.5884592533111572
13.907396793365479,-0.05125866457819939,-1.0314569473266602,0.885637104511261,0.9811097383499146,0.24190232157707214,-0.5884259343147278
13.92745304107666,-0.05121494457125664,-1.03156578540802,0.8858643174171448,0.9812865257263184,0.24204440414905548,-0.5883976817131042
13.947537660598755,-0.051194921135902405,-1.0318129062652588,0.8862851858139038,0.9816125631332397,0.24224962294101715,-0.5883396863937378
13.967592000961304,-0.05116509273648262,-1.0319894552230835,0.8865820169448853,0.9819038510322571,0.242605060338974,-0.5882895588874817
13.98768401145935,-0.051069557666778564,-1.0320580005645752,0.886832058429718,0.9820848107337952,0.2428324669599533,-0.5882607102394104
14.0077645778656,-0.05109868571162224,-1.0322418212890625,0.8870630860328674,0.9823253154754639,0.24314773082733154,-0.588222324848175
14.027827501296997,-0.05118364095687866,-1.0323896408081055,0.8871135115623474,0.9825173020362854,0.24352747201919556,-0.5882009863853455
14.04791808128357,-0.05127265676856041,-1.0324920415878296,0.8871169090270996,0.9826059341430664,0.24364648759365082,-0.5881912112236023
14.06800103187561,-0.05146992579102516,-1.0327348709106445,0.8871806263923645,0.9827587008476257,0.24379700422286987,-0.5881686210632324
14.088080406188965,-0.05157352611422539,-1.032914638519287,0.887256383895874,0.9829478859901428,0.24410401284694672,-0.5881429314613342
14.108150243759155,-0.05164405331015587,-1.03302001953125,0.8873039484024048,0.9830396771430969,0.2442178875207901,-0.5881267786026001
14.128322839736938,-0.05172354727983475,-1.0331834554672241,0.8873929381370544,0.983238697052002,0.24455583095550537,-0.5880982279777527
14.148316621780396,-0.051763784140348434,-1.0333647727966309,0.8875824213027954,0.9834768772125244,0.2448565810918808,-0.5880603194236755
14.168397903442383,-0.05178825557231903,-1.0334711074829102,0.8876852989196777,0.9835965633392334,0.2449808567762375,-0.5880386829376221
14.188547134399414,-0.051854729652404785,-1.033658742904663,0.887781023979187,0.9838075041770935,0.24529080092906952,-0.5880009531974792
14.20856237411499,-0.05189384147524834,-1.0338152647018433,0.8878786563873291,0.9840162992477417,0.24565771222114563,-0.5879663228988647
14.228803396224976,-0.05193651467561722,-1.033905029296875,0.887933075428009,0.9841090440750122,0.24580127000808716,-0.5879499316215515
14.248804807662964,-0.05205798149108887,-1.034104824066162,0.8880061507225037,0.9843045473098755,0.2460433393716812,-0.5879138708114624
14.268874168395996,-0.05209930241107941,-1.034195065498352,0.8880555629730225,0.9843968152999878,0.24618662893772125,-0.5878978967666626
14.289047718048096,-0.05222377926111221,-1.034402847290039,0.8881412744522095,0.9845952987670898,0.24640534818172455,-0.5878562927246094
14.310201406478882,-0.05229745805263519,-1.034572958946228,0.8882359862327576,0.9847930073738098,0.2467096447944641,-0.5878186225891113
14.330325365066528,-0.05233396217226982,-1.034657597541809,0.8882830142974854,0.9848909378051758,0.24686044454574585,-0.5878002047538757
14.350382566452026,-0.05241895839571953,-1.0348255634307861,0.888353168964386,0.9850637316703796,0.24716168642044067,-0.5877719521522522
14.370490550994873,-0.052469778805971146,-1.034911870956421,0.8883703351020813,0.9851435422897339,0.24730682373046875,-0.5877613425254822
14.390687704086304,-0.05258193239569664,-1.0350947380065918,0.8883793950080872,0.9853115081787109,0.24758560955524445,-0.5877425074577332
14.410912275314331,-0.0525442399084568,-1.0353084802627563,0.8885804414749146,0.9855838418006897,0.24787448346614838,-0.587693989276886
14.431090593338013,-0.05261402204632759,-1.0354408025741577,0.8886303305625916,0.9856947660446167,0.24793106317520142,-0.5876710414886475
14.451194286346436,-0.052593719214200974,-1.0356276035308838,0.8888841867446899,0.9859493374824524,0.24821603298187256,-0.5876252055168152
14.471407175064087,-0.052554402500391006,-1.035771369934082,0.8890914916992188,0.9861887097358704,0.24858525395393372,-0.5875788927078247
14.491560935974121,-0.05253494158387184,-1.0358411073684692,0.8891854286193848,0.9862938523292542,0.24877236783504486,-0.5875597596168518
14.511625289916992,-0.05251741781830788,-1.036027431488037,0.8894511461257935,0.9865384697914124,0.24903534352779388,-0.5875060558319092
14.531768560409546,-0.052585240453481674,-1.0361477136611938,0.88951176404953,0.9866310954093933,0.24909603595733643,-0.587482213973999
14.551866292953491,-0.0526604950428009,-1.0363315343856812,0.8896244764328003,0.9868054389953613,0.2493463009595871,-0.5874346494674683
14.571967840194702,-0.052723709493875504,-1.0365022420883179,0.8897348642349243,0.9869949221611023,0.24961918592453003,-0.5873829126358032
14.592187643051147,-0.05276025831699371,-1.0365912914276123,0.8897889256477356,0.9870879650115967,0.24974511563777924,-0.5873563289642334
14.612325668334961,-0.052808742970228195,-1.0367510318756104,0.8899022340774536,0.9872637391090393,0.2500375509262085,-0.5873087644577026
