liuyurong129/humanoid-gym/humanoid/data/target_q_20250521-050520.csv
timestamp,joint_1,joint_2,joint_3,joint_4,joint_5,joint_6
0.00012493133544921875,0.0,0.0,0.0,0.0,0.0,0.0
0.02023005485534668,0.0,0.0,0.0,0.0,0.0,0.0
0.040300607681274414,0.0,0.0,0.0,0.0,0.0,0.0
0.06035757064819336,0.0,0.0,0.0,0.0,0.0,0.0
0.0804135799407959,0.0,0.0,0.0,0.0,0.0,0.0
0.1004951000213623,-0.1815139353275299,-0.5831525325775146,0.7745791077613831,-0.3031370937824249,0.06111157312989235,0.3189035654067993
0.12058138847351074,-0.17296002805233002,-0.5551891326904297,0.7309865951538086,-0.2980550229549408,0.07581862807273865,0.33794695138931274
0.1406567096710205,-0.0723605826497078,-0.5853004455566406,0.7237952947616577,-0.28599223494529724,0.09858874976634979,0.3607301712036133
0.16071820259094238,-0.019835585728287697,-0.6306073665618896,0.7331441044807434,-0.27253684401512146,0.11943219602108002,0.37512263655662537
0.18080759048461914,-0.02444213069975376,-0.6645480394363403,0.6798321604728699,-0.26688694953918457,0.13815268874168396,0.3753156363964081
0.20090150833129883,0.014521902427077293,-0.7308374643325806,0.7282428741455078,-0.23416101932525635,0.15345482528209686,0.3862653374671936
0.22094202041625977,0.020830487832427025,-0.797019362449646,0.749773383140564,-0.21570241451263428,0.179677814245224,0.39832568168640137
0.24103665351867676,0.029727740213274956,-0.8301434516906738,0.7768875956535339,-0.20714010298252106,0.18297164142131805,0.4056278467178345
0.26109814643859863,0.013112245127558708,-0.8857754468917847,0.7343320846557617,-0.19938500225543976,0.19661979377269745,0.41053837537765503
0.28115224838256836,0.011783866211771965,-0.9033843278884888,0.7128701210021973,-0.17981305718421936,0.1958986073732376,0.4090723693370819
0.30130767822265625,0.02962942235171795,-0.9151513576507568,0.758979320526123,-0.18069712817668915,0.20312416553497314,0.41392630338668823
0.3213779926300049,0.04356738179922104,-0.8846006393432617,0.7921489477157593,-0.18120945990085602,0.18712037801742554,0.4134658873081207
0.34142565727233887,0.055156007409095764,-0.9545379877090454,0.8111764192581177,-0.16413968801498413,0.20233866572380066,0.4228146970272064
0.3615128993988037,0.040716588497161865,-0.9025624990463257,0.7859334945678711,-0.18021750450134277,0.1894606202840805,0.4128142297267914
0.3816101551055908,0.055092282593250275,-0.897487998008728,0.7835149168968201,-0.17070366442203522,0.17743724584579468,0.40822845697402954
0.4016575813293457,0.06340250372886658,-0.9076970815658569,0.7811117172241211,-0.17225418984889984,0.1798936426639557,0.4088284969329834
0.4217557907104492,0.0804193988442421,-0.9065600633621216,0.7916380763053894,-0.16803139448165894,0.17698563635349274,0.407823771238327
0.44182896614074707,0.07917075604200363,-0.9408632516860962,0.820425808429718,-0.16214273869991302,0.17132394015789032,0.4131074845790863
0.46188879013061523,0.053303927183151245,-0.9475356340408325,0.7852088809013367,-0.15309809148311615,0.16290295124053955,0.40947726368904114
0.4819948673248291,0.04270223528146744,-0.917617678642273,0.7655063271522522,-0.16197092831134796,0.1559453308582306,0.4033978283405304
0.5020601749420166,0.0508851483464241,-0.8974870443344116,0.7574856877326965,-0.17021970450878143,0.14527596533298492,0.3953005373477936
0.5221378803253174,0.07500550895929337,-0.8277662992477417,0.8545076251029968,-0.17045195400714874,0.10842199623584747,0.38733357191085815
0.5422616004943848,0.05700414627790451,-0.8352807760238647,0.8707433938980103,-0.18011465668678284,0.08974803984165192,0.3974240720272064
0.5622982978820801,-0.026899920776486397,-0.7790234088897705,0.8953111171722412,-0.1803639680147171,0.05117900297045708,0.3914133906364441
0.5823578834533691,-0.03289075940847397,-0.7733694314956665,0.9647549986839294,-0.14058911800384521,0.03228646144270897,0.3680177330970764
0.6024742126464844,-0.10651309043169022,-0.7865198850631714,0.9738942384719849,-0.14889340102672577,0.01446015015244484,0.3699698746204376
0.6225409507751465,-0.1187431737780571,-0.8161587715148926,0.9771473407745361,-0.10971841216087341,0.04255746677517891,0.373246967792511
0.6426031589508057,-0.018330300226807594,-0.9103786945343018,0.8221108317375183,-0.12831705808639526,0.12421904504299164,0.37552547454833984
0.662752628326416,-0.21405842900276184,-0.8679405450820923,0.897040605545044,-0.14492861926555634,0.06420646607875824,0.37773817777633667
0.6828420162200928,-0.011193627491593361,-0.9421664476394653,0.8271924257278442,-0.20490416884422302,0.20537684857845306,0.38020455837249756
0.702995777130127,0.056062258780002594,-0.8491182327270508,0.9248204231262207,-0.17823658883571625,0.22486387193202972,0.39451494812965393
0.7230172157287598,0.06772705167531967,-0.9144643545150757,0.9384838938713074,-0.16367106139659882,0.197525754570961,0.39336055517196655
0.7430992126464844,0.04548145830631256,-0.8501172065734863,0.9780179858207703,-0.16067352890968323,0.20168322324752808,0.40902581810951233
0.763155460357666,-0.008721301332116127,-0.814211368560791,1.0022881031036377,-0.17330050468444824,0.1519046425819397,0.4207519590854645
0.7832448482513428,-0.06288563460111618,-0.8395931720733643,0.9548845291137695,-0.1620033085346222,0.11756034195423126,0.4256809651851654
0.8033344745635986,-0.15100376307964325,-0.8212686777114868,0.9808674454689026,-0.15136933326721191,0.0789918601512909,0.4296115040779114
0.8234105110168457,-0.0565042719244957,-0.8323178291320801,0.9000416994094849,-0.1522374153137207,0.12645240128040314,0.43407702445983887
0.8436076641082764,-0.16500765085220337,-0.8565899133682251,0.9331080913543701,-0.14115619659423828,0.07718679308891296,0.4385588467121124
0.8636946678161621,-0.18191318213939667,-0.8360468149185181,0.9625497460365295,-0.15497344732284546,0.06621506810188293,0.44394421577453613
0.883774995803833,0.03203151375055313,-0.8813867568969727,0.9268026351928711,-0.16977597773075104,0.1420658379793167,0.4468047320842743
0.9038615226745605,-0.054153360426425934,-0.861323356628418,0.9902876615524292,-0.17790751159191132,0.1337263137102127,0.4609362483024597
0.9239404201507568,-0.03515941649675369,-0.8553911447525024,0.9465696215629578,-0.20502294600009918,0.16753634810447693,0.4690581262111664
0.9440228939056396,-0.02328714169561863,-0.8410414457321167,0.9627453684806824,-0.19755542278289795,0.15771237015724182,0.48613259196281433
0.9640853404998779,-0.1935768872499466,-0.8430080413818359,0.9347806572914124,-0.1824328899383545,0.08263362944126129,0.4924430251121521
0.9841852188110352,-0.17259268462657928,-0.855197548866272,0.8121663331985474,-0.1553150713443756,0.09977905452251434,0.4940442740917206
1.0042095184326172,-0.06914341449737549,-0.8517608642578125,0.9397048354148865,-0.13902594149112701,0.06800836324691772,0.490995854139328
1.0242664813995361,-0.19472743570804596,-0.8364897966384888,0.9319696426391602,-0.18423041701316833,0.07768566906452179,0.508074164390564
1.0443520545959473,-0.03651998192071915,-0.8529236316680908,0.8699510097503662,-0.19583344459533691,0.1267021745443344,0.5050177574157715
1.0649769306182861,-0.04712637513875961,-0.8427736759185791,1.076102375984192,-0.20395363867282867,0.09308940172195435,0.5095884203910828
1.0850489139556885,-0.11384188383817673,-0.8747538328170776,0.9099782705307007,-0.22157259285449982,0.12763622403144836,0.5281446576118469
1.1051363945007324,0.002193128690123558,-0.8892945051193237,0.794780433177948,-0.21263368427753448,0.1790296733379364,0.5314550995826721
1.125211477279663,0.10041270405054092,-0.877124547958374,1.0060012340545654,-0.21421223878860474,0.1642020344734192,0.5393269658088684
1.1452767848968506,-0.08925040811300278,-0.8576226234436035,0.9605246186256409,-0.2068691998720169,0.1041589230298996,0.546533465385437
1.1653680801391602,-0.23260597884655,-0.8402718305587769,0.972451388835907,-0.2218175083398819,0.0769156962633133,0.5506807565689087
1.1854562759399414,-0.09236493706703186,-0.8777676820755005,0.9073584079742432,-0.21578282117843628,0.09961685538291931,0.5499753952026367
1.205543041229248,-0.11553172022104263,-0.8245465755462646,0.9284464120864868,-0.2021005004644394,0.121505007147789,0.5600095987319946
1.2257487773895264,-0.08126238733530045,-0.8408797979354858,0.9177955389022827,-0.18869824707508087,0.08241365849971771,0.5568816065788269
1.2458579540252686,-0.02132190205156803,-0.8661180734634399,0.9181056022644043,-0.17493650317192078,0.09767298400402069,0.5551682114601135
1.2659354209899902,-0.1512097269296646,-0.866045355796814,0.9658409357070923,-0.23818117380142212,0.07752318680286407,0.565683901309967
1.2860252857208252,0.133700892329216,-0.8879536390304565,0.9286888837814331,-0.22342486679553986,0.20560257136821747,0.5797403454780579
1.3061130046844482,0.025704948231577873,-0.9076855182647705,0.9606163501739502,-0.22327165305614471,0.13274337351322174,0.572802722454071
1.3263027667999268,-0.20790977776050568,-0.8572717905044556,1.006683111190796,-0.24259139597415924,0.0615805946290493,0.580452024936676
1.3463363647460938,-0.033502787351608276,-0.8558089733123779,0.9499358534812927,-0.23568855226039886,0.13931618630886078,0.5970644354820251
1.3664295673370361,0.05070069432258606,-0.8851543664932251,0.9085065722465515,-0.22485463321208954,0.16974671185016632,0.5944375991821289
1.3865268230438232,-0.16983938217163086,-0.8484373092651367,0.9493601322174072,-0.2080109715461731,0.06670747697353363,0.5968180298805237
1.4066162109375,0.0540151372551918,-0.8682284355163574,0.868626594543457,-0.1838797926902771,0.1306241899728775,0.584627628326416
1.4267010688781738,-0.05620943009853363,-0.8830040693283081,0.9831388592720032,-0.18511171638965607,0.06667026877403259,0.5902368426322937
1.4467716217041016,-0.07154490798711777,-0.8772646188735962,0.9273442029953003,-0.22124560177326202,0.11833281815052032,0.6062944531440735
1.4668633937835693,0.04886040836572647,-0.8881216049194336,0.9683621525764465,-0.251432329416275,0.175606369972229,0.6127112507820129
1.4869532585144043,-0.2323235422372818,-0.877522349357605,0.9592204689979553,-0.2626974880695343,0.07311561703681946,0.6101968288421631
1.5251073837280273,-0.031308241188526154,-0.8709914684295654,0.9551070928573608,-0.24923069775104523,0.13896533846855164,0.6219039559364319
1.54518723487854,-0.17976878583431244,-0.8734773397445679,0.9357917308807373,-0.23110529780387878,0.08310666680335999,0.6266214847564697
1.5652515888214111,0.049808867275714874,-0.872315526008606,0.8913714289665222,-0.21751289069652557,0.1581898331642151,0.6261176466941833
1.5861868858337402,-0.0388646200299263,-0.8772234916687012,0.9596831202507019,-0.22377528250217438,0.10031160712242126,0.6254212260246277
1.6063380241394043,-0.1659402698278427,-0.8790210485458374,0.9519159197807312,-0.2241508513689041,0.06411206722259521,0.6318735480308533
1.6263854503631592,0.08748957514762878,-0.8887605667114258,0.9436099529266357,-0.23748382925987244,0.168997660279274,0.6375167369842529
1.646665334701538,-0.01366628147661686,-0.9135489463806152,0.9815877676010132,-0.24366828799247742,0.12143953144550323,0.634179949760437
1.6667675971984863,-0.017522716894745827,-0.8926198482513428,0.9767538905143738,-0.23481149971485138,0.12992171943187714,0.6411109566688538
1.6868815422058105,-0.08912386745214462,-0.8745425939559937,0.9469138383865356,-0.27602213621139526,0.13267260789871216,0.6519398093223572
1.7069261074066162,-0.07566610723733902,-0.9095324277877808,0.9413810968399048,-0.2627889811992645,0.10258086025714874,0.6381152272224426
1.7270398139953613,0.062046997249126434,-0.878750205039978,0.9723376035690308,-0.23305554687976837,0.1786113828420639,0.6520387530326843
1.7471027374267578,-0.15132208168506622,-0.8673450946807861,0.9570048451423645,-0.2625274658203125,0.09208603203296661,0.6481180787086487
1.767160177230835,0.11197280138731003,-0.9344829320907593,0.9494107961654663,-0.2234458476305008,0.16132156550884247,0.6411249041557312
1.7873010635375977,-0.16379617154598236,-0.8896903991699219,0.9850669503211975,-0.2470916360616684,0.05634951964020729,0.6418517231941223
1.807399034500122,0.09734887629747391,-0.9196277856826782,0.9413297176361084,-0.23929952085018158,0.18045732378959656,0.6498493552207947
1.8274481296539307,-0.014504114165902138,-0.8604328632354736,0.9625016450881958,-0.251755952835083,0.1551370918750763,0.6603226065635681
1.8478097915649414,-0.21472451090812683,-0.8762812614440918,0.9369815587997437,-0.2772778868675232,0.08001253008842468,0.6579010486602783
1.8678927421569824,0.057557784020900726,-0.8732280731201172,0.9348230957984924,-0.2530202269554138,0.18689236044883728,0.6637938618659973
1.8879735469818115,-0.16731314361095428,-0.8771589994430542,0.9742355346679688,-0.25336575508117676,0.05854209139943123,0.6565816402435303
1.9080655574798584,0.01786518655717373,-0.872706413269043,0.9447973966598511,-0.2537652254104614,0.1443890929222107,0.6641736626625061
1.928213357925415,-0.049541719257831573,-0.8956813812255859,0.9540862441062927,-0.2538350522518158,0.08900237083435059,0.6585410237312317
1.9482216835021973,-0.06097788363695145,-0.8559041023254395,0.9529985189437866,-0.23481105268001556,0.13721059262752533,0.6757833361625671
1.9682817459106445,-0.05439852178096771,-0.8691450357437134,0.9736658930778503,-0.2645028233528137,0.108404740691185,0.672295093536377
1.9883685111999512,-0.09167022258043289,-0.8936018943786621,0.9557634592056274,-0.263645738363266,0.08994688093662262,0.6714708805084229
2.008504629135132,-0.004600236192345619,-0.8956818580627441,0.9312996864318848,-0.2557934820652008,0.1258837878704071,0.6720345616340637
2.0285654067993164,-0.26501721143722534,-0.8885396718978882,0.9882102608680725,-0.28776705265045166,0.04053078964352608,0.6710861325263977
2.048724889755249,-0.05223037302494049,-0.8688008785247803,0.94871985912323,-0.27633747458457947,0.15350644290447235,0.6851255893707275
2.0688114166259766,-0.011357257142663002,-0.8987487554550171,0.9672499895095825,-0.27613964676856995,0.14142216742038727,0.683234691619873
2.0888888835906982,-0.21482343971729279,-0.8799465894699097,0.9793264269828796,-0.2583041787147522,0.050012845546007156,0.6849509477615356
2.1094374656677246,-0.08928423374891281,-0.8889949321746826,0.9479588270187378,-0.26679879426956177,0.08148744702339172,0.683952271938324
2.1295580863952637,0.0650254413485527,-0.9108885526657104,0.9141932725906372,-0.2464687079191208,0.15526436269283295,0.6831035017967224
2.1496357917785645,-0.056171901524066925,-0.8955856561660767,0.9700151681900024,-0.24631644785404205,0.1021093875169754,0.6866132020950317
2.1696937084198,-0.023014986887574196,-0.9025735855102539,0.9598716497421265,-0.2774777412414551,0.1317816823720932,0.692619800567627
2.1898083686828613,-0.018171267583966255,-0.9085019826889038,0.9778594374656677,-0.2831014096736908,0.12068334221839905,0.6908111572265625
2.209869146347046,-0.14213335514068604,-0.8976812362670898,0.9701898097991943,-0.2838301956653595,0.08644583821296692,0.6953629851341248
2.2299246788024902,0.12028376013040543,-0.9363563060760498,0.9431291818618774,-0.24454499781131744,0.18116435408592224,0.693093478679657
2.250023365020752,-0.09783890843391418,-0.9116522073745728,0.9733267426490784,-0.2577115595340729,0.05999526008963585,0.6851552128791809
2.2701151371002197,0.0034494008868932724,-0.9159896373748779,0.9572923183441162,-0.26071447134017944,0.11948208510875702,0.6892122626304626
2.290172815322876,-0.20916882157325745,-0.8728947639465332,0.9957737326622009,-0.28791695833206177,0.08083714544773102,0.7047409415245056
2.31026029586792,-0.15092189610004425,-0.8877279758453369,0.9577937126159668,-0.2876470685005188,0.08738262951374054,0.7033963203430176
2.3303334712982178,0.1054500862956047,-0.924972653388977,0.9355313777923584,-0.25749340653419495,0.17644132673740387,0.6978280544281006
2.3503878116607666,-0.055882662534713745,-0.8947434425354004,0.9453719258308411,-0.25383391976356506,0.1013513058423996,0.6947123408317566
2.3704826831817627,0.013987993821501732,-0.9091830253601074,0.9741764068603516,-0.25620338320732117,0.1202511340379715,0.6958204507827759
2.3905587196350098,-0.30401262640953064,-0.8935375213623047,0.9988251328468323,-0.29018932580947876,0.026879046112298965,0.6984459161758423
2.4106178283691406,-0.10516660660505295,-0.8958766460418701,0.9840903878211975,-0.30142495036125183,0.10539485514163971,0.7100728154182434
2.4307215213775635,-0.017864825204014778,-0.9004908800125122,0.9795812368392944,-0.28761133551597595,0.13268707692623138,0.7101554870605469
2.450789213180542,-0.24065472185611725,-0.893194317817688,0.9587523937225342,-0.27365535497665405,0.020549610257148743,0.6995115876197815
2.470845937728882,-0.131681427359581,-0.8857483863830566,0.9418357014656067,-0.2793024182319641,0.06602279841899872,0.706119954586029
2.4909353256225586,0.05731409788131714,-0.9077326059341431,0.9275490045547485,-0.26733726263046265,0.15654180943965912,0.7072305083274841
2.510998010635376,-0.09759252518415451,-0.9049136638641357,0.96978759765625,-0.24842585623264313,0.07166841626167297,0.7028228640556335
2.5310585498809814,0.029337463900446892,-0.8988908529281616,0.9933479428291321,-0.26826900243759155,0.13995887339115143,0.7114037871360779
2.5511362552642822,-0.04041432589292526,-0.924414873123169,1.0023820400238037,-0.29349833726882935,0.11354716122150421,0.7115480899810791
2.5712714195251465,-0.038459256291389465,-0.8878158330917358,0.9529201984405518,-0.2831602394580841,0.1372528225183487,0.7194838523864746
2.5912845134735107,-0.045189276337623596,-0.9057414531707764,0.9812685251235962,-0.2916361391544342,0.11515405774116516,0.7166504263877869
2.6115217208862305,-0.027083704248070717,-0.9224981069564819,0.9157895445823669,-0.27796757221221924,0.12697620689868927,0.7130051255226135
2.631626844406128,-0.1668357253074646,-0.8852875232696533,1.0680527687072754,-0.28096088767051697,0.042691487818956375,0.7107522487640381
2.651691198348999,-0.06730035692453384,-0.9182924032211304,0.9631814360618591,-0.28852713108062744,0.11065465211868286,0.713512122631073
2.6718575954437256,-0.11161258071660995,-0.8960809707641602,0.9775712490081787,-0.27584585547447205,0.0750630646944046,0.7140727639198303
2.691948175430298,0.10243580490350723,-0.9217795133590698,0.9718236327171326,-0.26637110114097595,0.16128981113433838,0.7133633494377136
2.7120161056518555,0.009017204865813255,-0.9348170757293701,1.003600835800171,-0.2777383029460907,0.12421886622905731,0.7103023529052734
2.732071876525879,-0.16156616806983948,-0.8940458297729492,0.9644109606742859,-0.29366570711135864,0.09739367663860321,0.7234445214271545
2.7521872520446777,0.062068872153759,-0.9117802381515503,0.9475899934768677,-0.2862200140953064,0.18161530792713165,0.7253800630569458
2.7722675800323486,-0.08155378699302673,-0.9175006151199341,0.979331374168396,-0.2935444712638855,0.12795555591583252,0.7203420996665955
2.7925586700439453,-0.1052192822098732,-0.8981736898422241,0.9603894948959351,-0.2903027832508087,0.10388101637363434,0.7181406617164612
2.812671184539795,0.07209139317274094,-0.9191465377807617,0.9447026252746582,-0.2697932720184326,0.16492138803005219,0.7135750651359558
2.8328311443328857,-0.07798127084970474,-0.9009888172149658,0.9686725735664368,-0.27377384901046753,0.0898628979921341,0.7100222110748291
2.8528900146484375,-0.028787875548005104,-0.9091689586639404,0.9761727452278137,-0.2774694859981537,0.11873555183410645,0.7142173051834106
2.8729867935180664,0.012584080919623375,-0.920319676399231,0.9815669059753418,-0.2811761200428009,0.14444592595100403,0.7161323428153992
2.8931162357330322,-0.2731679379940033,-0.8962198495864868,0.9861188530921936,-0.29956644773483276,0.04153570905327797,0.7150006890296936
2.913361072540283,-0.040725961327552795,-0.8860436677932739,0.9524307250976562,-0.2863302528858185,0.14421840012073517,0.7232497930526733
2.933471441268921,-0.059384919703006744,-0.9112468957901001,0.9730377197265625,-0.2994491457939148,0.1305321455001831,0.7217444777488708
2.9535322189331055,-0.1353442221879959,-0.8888657093048096,0.9439263343811035,-0.28167688846588135,0.07562926411628723,0.7153405547142029
2.973620653152466,0.06952798366546631,-0.9028793573379517,0.9463829398155212,-0.2659611999988556,0.14067350327968597,0.7084866166114807
2.993685245513916,-0.10663851350545883,-0.9164855480194092,1.00225830078125,-0.27269792556762695,0.06659282743930817,0.7074089646339417
3.0137457847595215,0.05295490473508835,-0.9171572923660278,0.9089246392250061,-0.26041337847709656,0.1578218936920166,0.7148534655570984
3.0340559482574463,0.1190556064248085,-0.9420241117477417,0.9817832112312317,-0.27135276794433594,0.17975933849811554,0.717171311378479
3.0541422367095947,0.0258594062179327,-0.9278606176376343,0.9929556846618652,-0.28170615434646606,0.1636635810136795,0.7193718552589417
3.074213743209839,-0.14245444536209106,-0.8886861801147461,0.9833467602729797,-0.301045686006546,0.12240700423717499,0.7272897362709045
3.0943825244903564,0.08146744221448898,-0.956834077835083,0.9274290800094604,-0.266213595867157,0.17235195636749268,0.709430992603302
3.1144771575927734,-0.09958852827548981,-0.914664626121521,0.9700547456741333,-0.27278345823287964,0.09516359865665436,0.7097517848014832
3.1345479488372803,-0.02821035124361515,-0.9013488292694092,0.9574873447418213,-0.27770596742630005,0.11158518493175507,0.7104029655456543
3.154813051223755,-0.08646008372306824,-0.9275298118591309,0.9925715327262878,-0.2876768112182617,0.10873554646968842,0.7124138474464417
3.1749207973480225,-0.06519106775522232,-0.9077126979827881,0.9745523929595947,-0.27596694231033325,0.111387237906456,0.7133325934410095
3.194951057434082,0.026123305782675743,-0.9197244644165039,0.9925815463066101,-0.2814645767211914,0.15795381367206573,0.7183008790016174
3.2150111198425293,-0.16950301826000214,-0.886292576789856,0.9775171279907227,-0.2927236557006836,0.09934143722057343,0.7227348685264587
3.2350966930389404,-0.10538973659276962,-0.8972659111022949,0.9693968892097473,-0.28880956768989563,0.10959580540657043,0.7224122881889343
3.255181074142456,-0.027110109105706215,-0.916671633720398,0.9648603796958923,-0.26274430751800537,0.08152979612350464,0.7032975554466248
3.2752325534820557,-0.10177183896303177,-0.913846492767334,0.9551210999488831,-0.28944680094718933,0.10930092632770538,0.7147558331489563
3.2953290939331055,-0.23842386901378632,-0.888039231300354,0.9948679804801941,-0.2893919348716736,0.04375718906521797,0.7147443890571594
3.315396785736084,-0.09773286432027817,-0.9173694849014282,0.9644531011581421,-0.28858885169029236,0.09314735233783722,0.7148760557174683
3.335454225540161,0.01691344939172268,-0.9017809629440308,0.9599793553352356,-0.27249258756637573,0.14164242148399353,0.7164759039878845
3.3555350303649902,0.11788859963417053,-0.9441406726837158,0.9682056307792664,-0.2629966735839844,0.184717059135437,0.7136691212654114
3.3756895065307617,0.028470641002058983,-0.8891013860702515,0.9663076400756836,-0.2765810489654541,0.17690765857696533,0.7230611443519592
3.3956964015960693,-0.15076787769794464,-0.8990273475646973,0.9831392168998718,-0.2931770980358124,0.08615458011627197,0.7194800972938538
3.4159252643585205,0.0745280310511589,-0.9283521175384521,0.946222722530365,-0.27480825781822205,0.17783865332603455,0.7184675335884094
3.4360127449035645,-0.05906970053911209,-0.9226686954498291,0.9712766408920288,-0.27706268429756165,0.09628196060657501,0.711738646030426
3.4560718536376953,-0.09015955775976181,-0.9105756282806396,0.9602463245391846,-0.28808581829071045,0.10451237857341766,0.717755138874054
3.4763290882110596,-0.03996115177869797,-0.9116706848144531,0.9791080355644226,-0.2830008268356323,0.11958880722522736,0.7192959189414978
3.4964165687561035,-0.060062699019908905,-0.9122921228408813,0.9723333120346069,-0.28639018535614014,0.11351475119590759,0.7187277674674988
3.516486883163452,-0.047362975776195526,-0.9033167362213135,0.9716678261756897,-0.28774842619895935,0.12485098838806152,0.7222175002098083
3.536564350128174,-0.04576020687818527,-0.9267749786376953,0.9773637056350708,-0.28057530522346497,0.10464717447757721,0.7128180861473083
3.5566511154174805,-0.10412497818470001,-0.9065268039703369,0.9776517748832703,-0.2864544689655304,0.09469346702098846,0.7165544033050537
3.5767276287078857,0.05144190788269043,-0.9141708612442017,0.9639024138450623,-0.27618274092674255,0.15592680871486664,0.7162256240844727
3.596790075302124,-0.08099937438964844,-0.9145653247833252,0.9845477938652039,-0.2853228747844696,0.11420132219791412,0.7171949744224548
3.616900682449341,-0.23664356768131256,-0.8903758525848389,0.9971235990524292,-0.28560301661491394,0.03812261298298836,0.7155951261520386
3.6369528770446777,-0.07717115432024002,-0.910332202911377,0.9701204299926758,-0.28957945108413696,0.10702778398990631,0.7203309535980225
3.657048463821411,-0.09186091274023056,-0.9057004451751709,0.9667431712150574,-0.28250283002853394,0.09094849228858948,0.7165148854255676
3.677119016647339,-0.13187943398952484,-0.897402286529541,0.9551216959953308,-0.27401116490364075,0.06321796774864197,0.7136167287826538
3.697221279144287,0.0791001245379448,-0.9233001470565796,0.9491705894470215,-0.268130362033844,0.1635073572397232,0.7160077095031738
3.7172491550445557,-0.0977918729186058,-0.9147288799285889,0.9852548837661743,-0.2811640202999115,0.08963695168495178,0.7150620818138123
3.7373390197753906,-0.1698940247297287,-0.9011255502700806,0.9830325245857239,-0.2859494686126709,0.06991255283355713,0.7197652459144592
3.7574265003204346,0.10456187278032303,-0.938848614692688,0.9910284280776978,-0.27830442786216736,0.1792002171278,0.7202742099761963
3.7774760723114014,0.022223567590117455,-0.8942315578460693,0.9964245557785034,-0.28354716300964355,0.18136945366859436,0.7301433086395264
3.7979562282562256,-0.19819863140583038,-0.8939175605773926,0.9914795160293579,-0.2969686686992645,0.07387669384479523,0.7235255837440491
3.81807017326355,-0.04581654071807861,-0.8912514448165894,0.9720175266265869,-0.29029300808906555,0.1395455300807953,0.7276952266693115
3.8381309509277344,-0.12056753784418106,-0.903232216835022,0.958942711353302,-0.26873984932899475,0.05092553421854973,0.7112538814544678
3.8582053184509277,-0.16183221340179443,-0.8854559659957886,0.9494955539703369,-0.27431267499923706,0.051532674580812454,0.7138275504112244
3.878296375274658,0.09160653501749039,-0.9412170648574829,0.9547170400619507,-0.26888003945350647,0.17153020203113556,0.7147679328918457
3.8983798027038574,-0.04605802148580551,-0.9062572717666626,0.983200192451477,-0.27935975790023804,0.12360474467277527,0.7196669578552246
3.9186017513275146,-0.008935192599892616,-0.939151406288147,0.9976180195808411,-0.2882328927516937,0.14242129027843475,0.7162508368492126
3.938694477081299,0.11648017168045044,-0.9313623905181885,0.998344361782074,-0.2766384780406952,0.2180040329694748,0.7248666882514954
3.958772897720337,0.01749509386718273,-0.8925654888153076,0.971218466758728,-0.2891024053096771,0.18416500091552734,0.7282506227493286
3.9789927005767822,-0.19420360028743744,-0.8993864059448242,0.988480269908905,-0.30022141337394714,0.07856704294681549,0.719099223613739
3.9990792274475098,-0.12735523283481598,-0.8850367069244385,0.9758080840110779,-0.296860933303833,0.12183745205402374,0.7261652946472168
4.019152641296387,0.01845199428498745,-0.9008519649505615,0.9593309760093689,-0.26334118843078613,0.1098567396402359,0.708191454410553
4.039206266403198,-0.26892364025115967,-0.8806291818618774,0.9719109535217285,-0.2791612446308136,0.015562977641820908,0.7127179503440857
4.059293270111084,0.019199078902602196,-0.887866735458374,0.9169604778289795,-0.271335631608963,0.13540278375148773,0.7125980854034424
4.079363584518433,-0.12160950154066086,-0.9037519693374634,1.0321450233459473,-0.2709217965602875,0.06210882589221001,0.7142381072044373
4.099438905715942,-0.01260850764811039,-0.9032748937606812,0.9247254133224487,-0.2782934606075287,0.1420615166425705,0.7235003113746643
4.119513034820557,0.006588822230696678,-0.923888087272644,0.9751551151275635,-0.2830811142921448,0.12959963083267212,0.7211671471595764
4.139627933502197,-0.1877487599849701,-0.8944610357284546,1.0012108087539673,-0.29837170243263245,0.08871932327747345,0.7290814518928528
4.1596832275390625,-0.027697639539837837,-0.9176772832870483,0.966313362121582,-0.27712252736091614,0.11936138570308685,0.7244583964347839
4.180023908615112,-0.0702424868941307,-0.9120856523513794,0.9818863868713379,-0.2902640700340271,0.09767372906208038,0.721723735332489
4.200103998184204,-0.13105930387973785,-0.8983232975006104,0.9688239097595215,-0.2869504988193512,0.07663752138614655,0.7235661149024963
4.220178604125977,0.09045042842626572,-0.9501359462738037,0.9623421430587769,-0.2658312916755676,0.14734774827957153,0.7127512097358704
4.240218877792358,-0.07146690040826797,-0.9290660619735718,0.9817879796028137,-0.2789645493030548,0.09376280009746552,0.7150931358337402
4.260295867919922,-0.025889450684189796,-0.9224151372909546,0.9635249972343445,-0.2852078080177307,0.13327868282794952,0.7226547598838806
4.2803754806518555,-0.059691645205020905,-0.9264055490493774,0.9909490346908569,-0.29687952995300293,0.12695273756980896,0.7245358824729919
4.300459623336792,-0.16368980705738068,-0.9040884971618652,0.9800488948822021,-0.30823537707328796,0.10257492959499359,0.727931797504425
4.320543050765991,0.09481268376111984,-0.9321597814559937,0.969427227973938,-0.27455997467041016,0.17854748666286469,0.7235116958618164
4.340625524520874,-0.054818421602249146,-0.9082326889038086,0.9581215381622314,-0.27487078309059143,0.10936255753040314,0.7188418507575989
4.360876798629761,-0.08008065074682236,-0.9023510217666626,0.9775253534317017,-0.2837659418582916,0.10200299322605133,0.7207463979721069
4.38096809387207,0.018209269270300865,-0.9193342924118042,0.9511540532112122,-0.27286651730537415,0.13292814791202545,0.717233419418335
4.401050090789795,-0.2679775059223175,-0.8932380676269531,1.0193414688110352,-0.28083691000938416,0.013316288590431213,0.7161230444908142
4.421097040176392,-0.0997268483042717,-0.9108030796051025,0.9762597680091858,-0.30212295055389404,0.09225527942180634,0.7228596806526184
4.441186904907227,0.08489872515201569,-0.9230302572250366,0.971566915512085,-0.27270522713661194,0.16832008957862854,0.7237537503242493
4.46126914024353,-0.062174782156944275,-0.9267276525497437,0.9853658676147461,-0.28174275159835815,0.10541115701198578,0.7177571654319763
4.48132586479187,-0.007014358416199684,-0.9098968505859375,0.9715070724487305,-0.28921088576316833,0.15693621337413788,0.7289583086967468
4.501408100128174,0.11520064622163773,-0.943597674369812,0.9671661853790283,-0.269814133644104,0.18680374324321747,0.7212268114089966
4.521517753601074,-0.004279950633645058,-0.8901556730270386,0.9853848218917847,-0.28300297260284424,0.15697704255580902,0.726612389087677
4.541553020477295,-0.23262767493724823,-0.8919521570205688,0.9690267443656921,-0.2826107144355774,0.05092707648873329,0.7222418189048767
4.561637878417969,-0.058543749153614044,-0.8886164426803589,0.9839748740196228,-0.28784486651420593,0.12235642969608307,0.7266750931739807
4.581695318222046,-0.10271332412958145,-0.8986402750015259,0.9644888639450073,-0.2758825719356537,0.0864240974187851,0.7221066355705261
4.601787328720093,0.050117313861846924,-0.9377076625823975,0.9704160690307617,-0.2739983797073364,0.15359102189540863,0.7193530797958374
4.6218554973602295,-0.3575390577316284,-0.8965741395950317,0.9815551042556763,-0.2925993800163269,0.0011359788477420807,0.7161657214164734
4.641935110092163,-0.15756161510944366,-0.9053343534469604,0.9716724157333374,-0.305392324924469,0.08270390331745148,0.7285881638526917
4.6619956493377686,0.03843041509389877,-0.9498423337936401,0.9607842564582825,-0.26372241973876953,0.12456466257572174,0.7139354348182678
4.682084560394287,0.020837565883994102,-0.9297186136245728,0.966767430305481,-0.27211374044418335,0.1364370435476303,0.7164390087127686
4.7021644115448,-0.2197989821434021,-0.8962687253952026,0.9940784573554993,-0.3014712631702423,0.05894866958260536,0.7223395705223083
4.72223973274231,-0.04555750638246536,-0.9164775609970093,0.9884692430496216,-0.2936078906059265,0.11607114970684052,0.7255231738090515
4.742603778839111,-0.05179501324892044,-0.9142600297927856,0.9692922830581665,-0.2936372458934784,0.13347940146923065,0.729634702205658
4.762688875198364,-0.11960557103157043,-0.8962467908859253,0.9637020826339722,-0.27713483572006226,0.06618836522102356,0.7188349962234497
4.782761096954346,0.048318617045879364,-0.9340959787368774,0.9398596286773682,-0.268598347902298,0.14386485517024994,0.7159601449966431
4.8028175830841064,-0.1553020030260086,-0.8720903396606445,0.9762161374092102,-0.26512765884399414,0.08309675753116608,0.7258407473564148
4.822914123535156,-0.2923004627227783,-0.8889306783676147,0.9684466123580933,-0.2849852740764618,0.001779899001121521,0.719135582447052
4.843007564544678,-0.02885800041258335,-0.9359558820724487,0.977336049079895,-0.2800717055797577,0.09776268899440765,0.7175087332725525
4.8630735874176025,-0.07270412892103195,-0.9275047779083252,0.9818371534347534,-0.2912919223308563,0.11060602962970734,0.7255380749702454
4.883163213729858,-0.2060064822435379,-0.9025975465774536,1.0026345252990723,-0.3128618896007538,0.07208782434463501,0.7287123799324036
4.903231620788574,-0.05135684460401535,-0.9263023138046265,0.9753646850585938,-0.2972378432750702,0.11383548378944397,0.7283287644386292
4.923284292221069,-0.07243828475475311,-0.8945474624633789,0.9763879776000977,-0.2964482307434082,0.13156349956989288,0.7337281107902527
4.943495512008667,-0.13713479042053223,-0.9104083776473999,0.956405520439148,-0.2950696349143982,0.08146171271800995,0.7262291312217712
4.963593244552612,0.10215606540441513,-0.9289698600769043,0.9413883686065674,-0.26398637890815735,0.17017538845539093,0.720097541809082
4.983667612075806,0.019840283319354057,-0.9200406074523926,0.9607047438621521,-0.2754642069339752,0.13973656296730042,0.7211073637008667
5.003846645355225,-0.22228536009788513,-0.9044167995452881,0.9920262098312378,-0.3063895106315613,0.061506208032369614,0.7258424162864685
5.023945331573486,-0.025297531858086586,-0.8977264165878296,0.9745690822601318,-0.2922184467315674,0.15316300094127655,0.7349249720573425
5.044023036956787,-0.05152519792318344,-0.9159855842590332,0.9868186712265015,-0.29326674342155457,0.13008688390254974,0.7320443391799927
5.064424514770508,-0.07567717880010605,-0.9129451513290405,0.9538974761962891,-0.28842395544052124,0.10082685947418213,0.7249748110771179
5.084515571594238,-0.06955938786268234,-0.9040795564651489,0.9736144542694092,-0.28401821851730347,0.09051872789859772,0.7230682969093323
5.104595899581909,-0.09416630119085312,-0.9079707860946655,0.9522879719734192,-0.28431007266044617,0.09243620932102203,0.724090039730072
5.124648332595825,0.00682692788541317,-0.9233548641204834,0.9802888631820679,-0.2796914875507355,0.13105371594429016,0.7233555316925049
5.144734621047974,-0.08167590200901031,-0.9254852533340454,0.9696165323257446,-0.27985528111457825,0.10821697115898132,0.7265356183052063
5.164825677871704,-0.0026375222951173782,-0.8996375799179077,0.9645084738731384,-0.2822980582714081,0.1464044153690338,0.7312158942222595
5.1848719120025635,-0.22185994684696198,-0.9055522680282593,1.001757025718689,-0.30172234773635864,0.05276602879166603,0.7279464602470398
5.204965829849243,-0.11608642339706421,-0.8937764167785645,0.9797194600105286,-0.29212212562561035,0.11005569994449615,0.7357454299926758
5.225043058395386,0.08437521010637283,-0.9324594736099243,0.9390877485275269,-0.2745738625526428,0.1758001148700714,0.7272346615791321
5.245093822479248,-0.09011387825012207,-0.9062421321868896,0.9705538153648376,-0.2822295129299164,0.09005187451839447,0.7229690551757812
5.265185832977295,-0.08700362592935562,-0.9105885028839111,0.9533712267875671,-0.2831362783908844,0.09462359547615051,0.723946750164032
5.285240650177002,0.01990947686135769,-0.9323872327804565,0.9841929078102112,-0.28666093945503235,0.14596442878246307,0.7264334559440613
5.305304050445557,-0.1751893013715744,-0.8835394382476807,0.9957913160324097,-0.29380831122398376,0.09142547845840454,0.735039234161377
5.325395345687866,-0.10729014873504639,-0.9045835733413696,0.976039469242096,-0.2951934337615967,0.09946846961975098,0.7325157523155212
5.345477104187012,0.05749424546957016,-0.9383987188339233,0.9759149551391602,-0.28154051303863525,0.1565433144569397,0.7283653020858765
5.3655455112457275,-0.20181550085544586,-0.8791626691818237,0.9700602293014526,-0.28969359397888184,0.06571686267852783,0.7318378686904907
5.385845899581909,-0.0005634967237710953,-0.90199875831604,0.9461276531219482,-0.28807470202445984,0.14225316047668457,0.7345243096351624
5.405935049057007,0.0086891558021307,-0.9296178817749023,0.9677474498748779,-0.2869277000427246,0.12576785683631897,0.7286389470100403
5.426078796386719,-0.24496686458587646,-0.8775284290313721,0.984925389289856,-0.2913888692855835,0.047649089246988297,0.7340576648712158
5.44654655456543,-0.045427002012729645,-0.9111199378967285,0.9828916192054749,-0.29801249504089355,0.11849348247051239,0.7397165298461914
5.466647386550903,0.09623844176530838,-0.9420465230941772,0.9643906950950623,-0.27700793743133545,0.1598026603460312,0.7296232581138611
5.486725091934204,-0.06702324002981186,-0.9217270612716675,0.9823761582374573,-0.28938964009284973,0.10441918671131134,0.729857861995697
5.5067832469940186,0.002274690195918083,-0.9285919666290283,0.9814800024032593,-0.2979593873023987,0.15708249807357788,0.7370077967643738
5.5268778800964355,-0.06449130922555923,-0.9273968935012817,0.9845168590545654,-0.29634806513786316,0.11798572540283203,0.7336351275444031
5.5470147132873535,-0.11183878034353256,-0.8889045715332031,0.9710735082626343,-0.3036451041698456,0.11853651702404022,0.7412779331207275
5.5670530796051025,0.05475222319364548,-0.9201449155807495,0.9551992416381836,-0.28440889716148376,0.15578867495059967,0.7318055033683777
5.587163686752319,-0.06211588531732559,-0.9194151163101196,0.9640005826950073,-0.2726610600948334,0.07552188634872437,0.7198438048362732
5.607214689254761,-0.11831111460924149,-0.8902755975723267,0.9572906494140625,-0.2836322784423828,0.07958962023258209,0.7291817665100098
5.627304315567017,0.11711336672306061,-0.9532521963119507,0.9722405672073364,-0.2725163698196411,0.17085658013820648,0.7254387736320496
5.647436141967773,-0.2881294786930084,-0.9106448888778687,1.0079576969146729,-0.2957431972026825,0.02635328099131584,0.7254732847213745
5.66750431060791,-0.014193804934620857,-0.9162615537643433,0.9722792506217957,-0.3013170659542084,0.1469201296567917,0.7381252646446228
5.687879800796509,-0.16603122651576996,-0.927541971206665,0.9945538640022278,-0.30061984062194824,0.06375908851623535,0.7285542488098145
5.707960605621338,-0.0886477679014206,-0.9032368659973145,0.969764769077301,-0.30009233951568604,0.12408563494682312,0.7367562055587769
5.728025197982788,-0.0168291125446558,-0.9244306087493896,0.965328574180603,-0.2791803777217865,0.10456784069538116,0.7230188846588135
5.748660326004028,-0.16816043853759766,-0.9082382917404175,0.9717403054237366,-0.29233843088150024,0.0716201663017273,0.7297553420066833
5.768811464309692,-0.09909027069807053,-0.8998366594314575,0.9703327417373657,-0.2977396845817566,0.09603159129619598,0.7304300665855408
5.788850545883179,-0.022171298041939735,-0.9334125518798828,0.9780972003936768,-0.27875131368637085,0.10037985444068909,0.720748245716095
5.809035778045654,-0.15630505979061127,-0.9118014574050903,0.9792916774749756,-0.29322633147239685,0.07727226614952087,0.728164553642273
5.82918381690979,-0.07963388413190842,-0.9035983085632324,0.9650129079818726,-0.295926958322525,0.10879512131214142,0.7298672795295715
5.849225759506226,0.016047244891524315,-0.9412544965744019,0.9846261739730835,-0.2826460897922516,0.13764570653438568,0.7237637639045715
5.869359970092773,-0.3128058612346649,-0.8921322822570801,0.9951169490814209,-0.29007458686828613,0.006870746612548828,0.7205907106399536
5.889439582824707,-0.1089780181646347,-0.876776933670044,1.0079114437103271,-0.2870040535926819,0.10574734210968018,0.7349758744239807
5.909532070159912,0.0008986201137304306,-0.92107093334198,0.8802743554115295,-0.2898164689540863,0.17500396072864532,0.7325197458267212
5.929623365402222,-0.10864398628473282,-0.909085750579834,1.0356762409210205,-0.2794661223888397,0.0544407032430172,0.7171857953071594
5.9497551918029785,-0.1671089380979538,-0.9071333408355713,0.9837714433670044,-0.2766793668270111,0.06681473553180695,0.7252378463745117
5.969803333282471,0.04085458070039749,-0.9330607652664185,0.9459161758422852,-0.27591076493263245,0.1537705510854721,0.7291209101676941
5.990101099014282,-0.11816022545099258,-0.9079011678695679,1.0110795497894287,-0.28994834423065186,0.09837183356285095,0.7308496832847595
6.010188817977905,-0.025920996442437172,-0.9184399843215942,0.9906421899795532,-0.2981294095516205,0.141061931848526,0.7330347299575806
6.030275821685791,-0.12447334080934525,-0.9227786064147949,0.9807981252670288,-0.29170769453048706,0.08013078570365906,0.7240228652954102
6.050318241119385,0.10772023350000381,-0.9617072343826294,0.9599590301513672,-0.2721400260925293,0.17064286768436432,0.7202993035316467
6.070414781570435,-0.12844668328762054,-0.9273548126220703,0.9800765514373779,-0.29323649406433105,0.09011951088905334,0.7219497561454773
6.090545654296875,0.09887929260730743,-0.9524508714675903,0.969089925289154,-0.27548807859420776,0.18256168067455292,0.7246199250221252
6.11055588722229,-0.029697367921471596,-0.8903367519378662,0.9885150194168091,-0.2872163653373718,0.1530214101076126,0.7344260811805725
6.130660772323608,-0.14061729609966278,-0.9101505279541016,0.9758639931678772,-0.2883305549621582,0.06249989941716194,0.7223120927810669
6.150724649429321,0.05854577571153641,-0.9187268018722534,0.9360949993133545,-0.2729414999485016,0.15426959097385406,0.7203435897827148
6.170788526535034,-0.0975928083062172,-0.9168981313705444,0.9791182279586792,-0.2807631492614746,0.09163130819797516,0.7209675908088684
6.190873146057129,-0.27629974484443665,-0.8945499658584595,0.9787164926528931,-0.28602921962738037,0.028517428785562515,0.7236019968986511
6.210943937301636,0.04728621244430542,-0.9318821430206299,0.9860485196113586,-0.28829747438430786,0.15650254487991333,0.7282019853591919
6.231124401092529,-0.18712200224399567,-0.8818323612213135,0.9790070056915283,-0.29118818044662476,0.08738352358341217,0.7324735522270203
6.251294851303101,-0.10864106565713882,-0.8991066217422485,0.9746594429016113,-0.2967912554740906,0.10259297490119934,0.7323448657989502
6.271334171295166,-0.012079054489731789,-0.9226195812225342,0.9670991897583008,-0.27685385942459106,0.10406987369060516,0.7205339670181274
6.29139518737793,-0.28007736802101135,-0.8925241231918335,1.0058915615081787,-0.29276537895202637,0.010379444807767868,0.7216024994850159
6.3114988803863525,-0.13050620257854462,-0.890878438949585,0.9647589325904846,-0.2929794192314148,0.07814700901508331,0.7319610118865967
6.331575393676758,0.06880717724561691,-0.9359744787216187,0.9587752819061279,-0.28068724274635315,0.1584070771932602,0.7283774018287659
6.351646900177002,-0.064118392765522,-0.9294713735580444,0.9736528992652893,-0.2767781913280487,0.07649831473827362,0.7208251357078552
6.371702194213867,-0.034312888979911804,-0.9122844934463501,0.9675777554512024,-0.28738510608673096,0.1288480907678604,0.7329503297805786
6.391752004623413,0.0030648764222860336,-0.948628306388855,0.9971849322319031,-0.2972192168235779,0.1439015120267868,0.7287965416908264
6.4119439125061035,0.012737689539790154,-0.9316866397857666,0.9942259192466736,-0.2877376079559326,0.14773349463939667,0.7293111085891724
6.4319798946380615,-0.14056414365768433,-0.8830028772354126,0.996349573135376,-0.3066713809967041,0.11460395157337189,0.7390222549438477
6.452037572860718,0.04090167582035065,-0.9397414922714233,0.9088291525840759,-0.2913026511669159,0.18777938187122345,0.7321667075157166
6.472198486328125,-0.13013304769992828,-0.9121170043945312,0.9542017579078674,-0.2852691411972046,0.06943948566913605,0.7210386395454407
6.4922401905059814,0.06499160081148148,-0.8964972496032715,0.935189425945282,-0.2681248188018799,0.14586813747882843,0.7177140116691589
6.512298583984375,-0.044804997742176056,-0.9215737581253052,0.9756443500518799,-0.27123525738716125,0.1034809798002243,0.7195454835891724
6.532385587692261,-0.06648287922143936,-0.9093277454376221,0.9711285829544067,-0.2904353439807892,0.11968956887722015,0.7303957939147949
6.552468776702881,0.10314526408910751,-0.9421262741088867,0.9179849624633789,-0.27620983123779297,0.17755354940891266,0.7226384282112122
6.572544574737549,0.023470645770430565,-0.9370599985122681,1.0076966285705566,-0.2765906751155853,0.14168202877044678,0.7229750156402588
6.592720985412598,-0.22234779596328735,-0.9013067483901978,0.9932537078857422,-0.3015931248664856,0.05441296473145485,0.7234678864479065
6.612863063812256,-0.0009592566639184952,-0.8972328901290894,0.9568953514099121,-0.28572210669517517,0.16711555421352386,0.7360935807228088
6.632988929748535,-0.2222374528646469,-0.9048645496368408,0.9738628268241882,-0.3019849359989166,0.06188597157597542,0.7253992557525635
6.653650999069214,-0.15381179749965668,-0.8877251148223877,0.9380919337272644,-0.284400075674057,0.06963798403739929,0.7249524593353271
6.673757076263428,-0.08708836883306503,-0.8965920209884644,0.9378662109375,-0.2796178162097931,0.08344052731990814,0.7228676676750183
6.693845748901367,-0.030516067519783974,-0.9278730154037476,0.9986642599105835,-0.270908921957016,0.09681539237499237,0.7181740403175354
6.714143514633179,-0.14263422787189484,-0.8882489204406738,0.9639146327972412,-0.2730121612548828,0.07450465857982635,0.7283535599708557
6.734240293502808,-0.045721374452114105,-0.9112441539764404,0.9859554171562195,-0.2895958125591278,0.10919992625713348,0.7309058308601379
6.754325866699219,-0.029410893097519875,-0.9481874704360962,0.986974835395813,-0.28505390882492065,0.12482377886772156,0.724900484085083
6.774387836456299,-0.07781887799501419,-0.9185037612915039,0.9937396049499512,-0.2935057580471039,0.10140831768512726,0.7270022034645081
6.794482469558716,0.02479260228574276,-0.9223247766494751,0.9546313285827637,-0.29404953122138977,0.1775881052017212,0.7345290780067444
6.814552068710327,-0.17823512852191925,-0.9082304239273071,0.9907377362251282,-0.3077348470687866,0.08597388863563538,0.7275927066802979
6.83461594581604,0.0011430587619543076,-0.8851168155670166,0.9403545260429382,-0.2782774269580841,0.14521266520023346,0.7265892028808594
6.854722023010254,-0.16654905676841736,-0.9057935476303101,0.9689547419548035,-0.2890547811985016,0.049241695553064346,0.7209522128105164
6.874799489974976,0.058411456644535065,-0.9006860256195068,0.9213663339614868,-0.26554054021835327,0.16088013350963593,0.7185748815536499
6.894882440567017,-0.03559347987174988,-0.8817435503005981,1.0024383068084717,-0.2706844210624695,0.10374428331851959,0.7224834561347961
6.914963722229004,0.036211349070072174,-0.9385857582092285,0.9675025939941406,-0.2768215239048004,0.15239283442497253,0.7239717245101929
6.935041904449463,-0.17721271514892578,-0.9005146026611328,0.9970852136611938,-0.2954733967781067,0.06547577679157257,0.7272427082061768
6.955105304718018,0.04033052921295166,-0.9578714370727539,0.9689359068870544,-0.2958553731441498,0.1683753877878189,0.7267616391181946
6.975197076797485,0.05715140700340271,-0.9452611207962036,0.979271411895752,-0.285237580537796,0.1834779530763626,0.7282398343086243
6.9952967166900635,-0.06981047242879868,-0.9108256101608276,0.9905886650085449,-0.2914091944694519,0.1270674169063568,0.7291444540023804
7.0153398513793945,0.01555669866502285,-0.9225082397460938,0.9793873429298401,-0.2833973467350006,0.14570485055446625,0.7261053919792175
7.035644054412842,-0.2843393385410309,-0.8913611173629761,1.020341396331787,-0.30426275730133057,0.02474069967865944,0.7203784584999084
7.0557403564453125,-0.1951606422662735,-0.8922222852706909,0.9733870029449463,-0.29133084416389465,0.06290973722934723,0.7285468578338623
7.0758068561553955,-0.08360768854618073,-0.9079204797744751,0.9423590302467346,-0.2699732184410095,0.06110541895031929,0.7152850031852722
7.0960423946380615,-0.1369977742433548,-0.8788931369781494,0.9676293134689331,-0.286910742521286,0.08906632661819458,0.7290307879447937
7.116136789321899,-0.16654759645462036,-0.9052165746688843,0.9498121738433838,-0.2942366898059845,0.07332831621170044,0.728667140007019
7.136225461959839,0.0928167849779129,-0.9540938138961792,0.9733466506004333,-0.27630218863487244,0.16589027643203735,0.7226765155792236
7.156288146972656,-0.02958371676504612,-0.8982917070388794,0.9641788601875305,-0.28670209646224976,0.15378925204277039,0.7346832156181335
7.176381349563599,-0.033543020486831665,-0.9275245666503906,0.9726269841194153,-0.30724501609802246,0.1381799727678299,0.7309636473655701
7.196460008621216,-0.024114282801747322,-0.9198905229568481,0.9904745817184448,-0.29708313941955566,0.15399901568889618,0.7368258833885193
7.216541051864624,-0.147966668009758,-0.896221399307251,0.9569739103317261,-0.2955438494682312,0.08078093826770782,0.7299535274505615
7.23663067817688,0.05056890845298767,-0.9062362909317017,0.9364246129989624,-0.2737351953983307,0.14099159836769104,0.7220059633255005
7.2567033767700195,-0.15732704102993011,-0.8990710973739624,0.9680749773979187,-0.2672339677810669,0.02271471545100212,0.7108157277107239
7.276757478713989,-0.017129966989159584,-0.903193473815918,0.9572018384933472,-0.27078676223754883,0.10965417325496674,0.7208277583122253
7.29686427116394,0.0198828112334013,-0.9302291870117188,0.9727956056594849,-0.2787984609603882,0.13229580223560333,0.7240526080131531
7.316965579986572,-0.284358948469162,-0.8982170820236206,1.0069749355316162,-0.2909605801105499,0.022893499583005905,0.7272916436195374
7.3370521068573,-0.07217630743980408,-0.930546760559082,0.968341588973999,-0.29393818974494934,0.0892854630947113,0.7233802676200867
7.357212543487549,0.08903449773788452,-0.9283204078674316,0.9660311341285706,-0.2724994719028473,0.17593659460544586,0.72977215051651
7.37731671333313,-0.14406773447990417,-0.911655068397522,0.9780607223510742,-0.30308353900909424,0.0997929573059082,0.7296776175498962
7.397381067276001,0.10963697731494904,-0.9427963495254517,0.9534794092178345,-0.2716217637062073,0.1851484477519989,0.7258169054985046
7.4178547859191895,-0.07482483237981796,-0.929416298866272,0.9900301098823547,-0.2854817509651184,0.0889027863740921,0.718762218952179
7.43794846534729,-0.06985730677843094,-0.9186650514602661,0.9722445011138916,-0.2781405746936798,0.08447512984275818,0.7183274030685425
7.458025217056274,-0.020474420860409737,-0.8931611776351929,0.9871975183486938,-0.2876933217048645,0.1474863439798355,0.7334398031234741
7.478090286254883,-0.12126557528972626,-0.9156551361083984,0.9786394238471985,-0.29696810245513916,0.0872640460729599,0.7258373498916626
7.498182535171509,0.038749583065509796,-0.9024909734725952,0.9404424428939819,-0.2704228460788727,0.12866543233394623,0.7167980670928955
7.518265724182129,-0.1854572296142578,-0.9138531684875488,1.013627052307129,-0.2858114242553711,0.04767169430851936,0.7142384648323059
7.538344860076904,-0.0159537885338068,-0.9048402309417725,0.9608680009841919,-0.27899301052093506,0.1492832899093628,0.7248114347457886
7.558432340621948,-0.168004110455513,-0.9105943441390991,1.0048249959945679,-0.29671311378479004,0.07499928772449493,0.7241347432136536
7.578501462936401,0.03594982624053955,-0.9122552871704102,0.9856324791908264,-0.28658467531204224,0.1678929626941681,0.7342387437820435
7.59858250617981,0.048805899918079376,-0.937606692314148,0.9922778606414795,-0.2818741500377655,0.14967094361782074,0.7261059880256653
7.618664741516113,-0.18464915454387665,-0.8828980922698975,0.9945288896560669,-0.299147367477417,0.07267232239246368,0.7286063432693481
7.6387364864349365,-0.003744998946785927,-0.9130500555038452,0.9515108466148376,-0.2825615704059601,0.13903482258319855,0.7310655117034912
7.658849716186523,0.07958102971315384,-0.9413148164749146,0.9350977540016174,-0.26734021306037903,0.1472182720899582,0.7171697020530701
7.678941011428833,-0.11040253192186356,-0.8797074556350708,0.9633479118347168,-0.2860739529132843,0.10502579808235168,0.728076696395874
7.6990065574646,0.040428467094898224,-0.9056284427642822,0.9358495473861694,-0.27520737051963806,0.15437796711921692,0.7254236936569214
7.719072341918945,0.12080571800470352,-0.9605691432952881,0.9678375124931335,-0.27056607604026794,0.1962585747241974,0.7240925431251526
7.739189147949219,0.03560160845518112,-0.9085947275161743,0.9579550623893738,-0.28235557675361633,0.17806454002857208,0.729453980922699
7.759229898452759,-0.07289137691259384,-0.9203664064407349,0.9919865131378174,-0.29924893379211426,0.13020579516887665,0.7284315228462219
7.779311418533325,-0.13138069212436676,-0.9021704196929932,0.9843301773071289,-0.3083079755306244,0.12304238975048065,0.7340565919876099
7.799396514892578,0.08418847620487213,-0.9319949150085449,0.9522275328636169,-0.2735465466976166,0.17133283615112305,0.7243867516517639
7.819472312927246,-0.056011930108070374,-0.899471640586853,0.959122896194458,-0.28180086612701416,0.10996808111667633,0.7215463519096375
7.839587688446045,0.03610367327928543,-0.9205228090286255,0.9410134553909302,-0.26796916127204895,0.13013096153736115,0.715364396572113
7.859647989273071,-0.1575876623392105,-0.9047249555587769,1.0122110843658447,-0.2832679748535156,0.059068892151117325,0.7207650542259216
7.879721403121948,-0.05114375054836273,-0.9132274389266968,0.9600282907485962,-0.283864825963974,0.11361752450466156,0.7267947793006897
7.899801015853882,0.12144684046506882,-0.937214732170105,0.985481321811676,-0.26710736751556396,0.1813187599182129,0.7245902419090271
7.919896364212036,-0.10463403165340424,-0.9230427742004395,0.9765375256538391,-0.2816240191459656,0.08172516524791718,0.7176583409309387
7.9400763511657715,0.10598286986351013,-0.9190976619720459,0.9821888208389282,-0.28076833486557007,0.2072708010673523,0.7345340847969055
7.960190773010254,0.14287085831165314,-0.9733965396881104,0.9623863697052002,-0.2612886428833008,0.18522204458713531,0.7167710065841675
7.980209589004517,0.043793171644210815,-0.9187400341033936,0.9910018444061279,-0.2750384509563446,0.15874166786670685,0.7210063338279724
8.000345468521118,-0.18457648158073425,-0.9026074409484863,0.9989336729049683,-0.2982187271118164,0.08590729534626007,0.7238180637359619
8.020432949066162,-0.10969754308462143,-0.8974182605743408,0.9817641377449036,-0.2964837849140167,0.11469444632530212,0.7280133366584778
8.0405113697052,-0.004027673974633217,-0.9162939786911011,0.9597958326339722,-0.2657085657119751,0.09931714832782745,0.7118191123008728
8.060965538024902,-0.2738911807537079,-0.8867013454437256,0.9731605052947998,-0.2917572855949402,0.038738448172807693,0.7212985754013062
8.081062078475952,-0.016688251867890358,-0.8914563655853271,0.9366127252578735,-0.28206610679626465,0.13443444669246674,0.7226268649101257
8.101136684417725,-0.22846971452236176,-0.9005067348480225,1.0344234704971313,-0.28570228815078735,0.03940039500594139,0.7212259769439697
8.121232986450195,-0.08220282196998596,-0.8806300163269043,0.9592870473861694,-0.28641176223754883,0.11932095885276794,0.730229914188385
8.141330242156982,-0.05743325501680374,-0.9152071475982666,0.9821662306785583,-0.28879037499427795,0.11520656943321228,0.7305734157562256
8.161417007446289,-0.06497412174940109,-0.9220534563064575,0.9667358994483948,-0.288383811712265,0.10616333782672882,0.7264087200164795
8.181482553482056,-0.0820755884051323,-0.9105937480926514,0.9673038721084595,-0.28726890683174133,0.1016916036605835,0.7278793454170227
8.201586246490479,0.10679610818624496,-0.9380823373794556,0.9397337436676025,-0.27156862616539,0.18302033841609955,0.7236046195030212
8.221659183502197,-0.004962051287293434,-0.929694414138794,0.9716221690177917,-0.27901703119277954,0.13519927859306335,0.7221595644950867
8.24172067642212,-0.12652656435966492,-0.8856338262557983,1.0066182613372803,-0.29562848806381226,0.11475108563899994,0.7355894446372986
8.261831998825073,-0.06213304400444031,-0.9092593193054199,0.9903481602668762,-0.3021095097064972,0.12369821965694427,0.734504222869873
8.281893014907837,-0.06257041543722153,-0.9184733629226685,0.9790287613868713,-0.2796754240989685,0.0940418541431427,0.7243918180465698
8.301961898803711,-0.12824809551239014,-0.9079325199127197,0.9529294967651367,-0.28414836525917053,0.06759950518608093,0.721183717250824
8.322059392929077,-0.05762281268835068,-0.9047216176986694,0.9532501101493835,-0.28227150440216064,0.10774488747119904,0.7260173559188843
8.342191696166992,-0.06093551963567734,-0.933124303817749,0.969060480594635,-0.28046128153800964,0.09702169895172119,0.7199344038963318
8.362221479415894,-0.04508938640356064,-0.9114251136779785,0.9587755799293518,-0.27588871121406555,0.11141203343868256,0.7242032885551453
8.382323265075684,0.09889813512563705,-0.9336459636688232,0.9777524471282959,-0.27437853813171387,0.18096506595611572,0.7247133851051331
8.402407884597778,-0.018356645479798317,-0.9263174533843994,1.002785563468933,-0.28154540061950684,0.13351009786128998,0.7233883738517761
8.42245101928711,-0.054512910544872284,-0.8944293260574341,0.9737170934677124,-0.29075419902801514,0.14830531179904938,0.7349609136581421
8.442559003829956,-0.005520926788449287,-0.9171454906463623,1.0007102489471436,-0.2939952611923218,0.13814620673656464,0.7305000424385071
8.462634801864624,-0.3138755261898041,-0.8974841833114624,0.9495671391487122,-0.29637396335601807,0.01966927945613861,0.721465528011322
8.482702732086182,-0.20857656002044678,-0.888241171836853,0.9304845929145813,-0.27813875675201416,0.027699586004018784,0.7205635905265808
8.502918481826782,-0.046148695051670074,-0.922990083694458,0.9313310384750366,-0.268462210893631,0.08248305320739746,0.7145088315010071
8.523154497146606,-0.17654700577259064,-0.8974505662918091,1.009448766708374,-0.2662885785102844,0.024657495319843292,0.7164331078529358
8.543232440948486,-0.09484302252531052,-0.9132242202758789,0.9392425417900085,-0.27713051438331604,0.09833301603794098,0.7259864211082458
8.563503503799438,0.05777253210544586,-0.9430488348007202,1.0301339626312256,-0.28242969512939453,0.14132992923259735,0.7258377075195312
8.583615064620972,-0.20705609023571014,-0.9197748899459839,1.0279173851013184,-0.292478084564209,0.04889770969748497,0.7261146903038025
8.60365915298462,-0.02330944873392582,-0.9183576107025146,0.9993528127670288,-0.29391390085220337,0.1263056844472885,0.7369858622550964
8.623772621154785,-0.09739848226308823,-0.9343335628509521,0.9652749300003052,-0.3002490699291229,0.10478866100311279,0.7286940813064575
8.6438627243042,-0.07051970809698105,-0.9086199998855591,0.9794249534606934,-0.2951662242412567,0.1020926982164383,0.7277688384056091
8.663940191268921,-0.04713539034128189,-0.9186239242553711,0.9354782700538635,-0.2883791923522949,0.11671683192253113,0.7239670157432556
8.684086561203003,-0.1945875734090805,-0.8920031785964966,1.1098352670669556,-0.2862046957015991,0.028824221342802048,0.7195217609405518
8.704192876815796,-0.18848934769630432,-0.9057559967041016,0.998361349105835,-0.2818784713745117,0.049575868993997574,0.7237228155136108
8.724372386932373,0.09823049604892731,-0.9379786252975464,0.992836594581604,-0.27104508876800537,0.14940834045410156,0.722979724407196
8.744515180587769,-0.02410031296312809,-0.935194730758667,1.024308681488037,-0.2820267975330353,0.0994403213262558,0.7210798263549805
8.764514207839966,-0.10368499904870987,-0.9276705980300903,0.9220802187919617,-0.29352062940597534,0.11190520226955414,0.7298049926757812
8.784567594528198,0.11665725708007812,-0.9420676231384277,1.0405826568603516,-0.28275266289711,0.19121509790420532,0.729746401309967
8.804693937301636,-0.287139356136322,-0.9235862493515015,0.9614488482475281,-0.31554341316223145,0.06811463832855225,0.7241619229316711
8.82476282119751,-0.09723405539989471,-0.9126031398773193,0.9717409014701843,-0.29724442958831787,0.11153289675712585,0.7289149165153503
8.84484052658081,-0.009035089984536171,-0.9124348163604736,0.9560214877128601,-0.2809743285179138,0.12595359981060028,0.7234814167022705
8.864934206008911,-0.0930183157324791,-0.9062647819519043,0.9813605546951294,-0.27683237195014954,0.0639508068561554,0.7173066735267639
8.885019540786743,-0.061528004705905914,-0.8899396657943726,0.9909003973007202,-0.268104612827301,0.09392304718494415,0.7245842218399048
8.905076742172241,-0.1143372431397438,-0.923110842704773,0.9810529351234436,-0.29324883222579956,0.0860258936882019,0.7275773882865906
8.925173997879028,-0.14429397881031036,-0.9113079309463501,0.9603496193885803,-0.2941616475582123,0.08644403517246246,0.731216549873352
8.94525671005249,0.07642343640327454,-0.9710078239440918,0.9566779732704163,-0.278390496969223,0.17107464373111725,0.723906934261322
8.965311765670776,-0.03600383549928665,-0.9304522275924683,0.9681910276412964,-0.29180705547332764,0.13855844736099243,0.7257607579231262
8.985401391983032,-0.09938705712556839,-0.9152653217315674,0.9774543046951294,-0.298444002866745,0.11525470018386841,0.7278518676757812
9.005472183227539,-0.03765350580215454,-0.9155006408691406,1.0007257461547852,-0.29714688658714294,0.126484215259552,0.7301480174064636
9.025545835494995,-0.12271401286125183,-0.9074667692184448,0.9730961918830872,-0.29437005519866943,0.0850401222705841,0.7254406213760376
9.045609712600708,-0.10987921804189682,-0.8932390213012695,0.987185001373291,-0.28128862380981445,0.06710191071033478,0.72288978099823
9.06570315361023,-0.04050181061029434,-0.9257978200912476,0.9147375226020813,-0.2592189311981201,0.08466042578220367,0.7111298441886902
9.085758924484253,-0.126510351896286,-0.893882155418396,1.0608824491500854,-0.27904099225997925,0.05927516892552376,0.7200369834899902
9.105838060379028,-0.022312233224511147,-0.949371337890625,0.9512919187545776,-0.27728962898254395,0.13497401773929596,0.7198442816734314
9.125930070877075,-0.0788748487830162,-0.9184361696243286,0.9766440391540527,-0.28154799342155457,0.09735606610774994,0.7190542221069336
9.146106243133545,0.002789972350001335,-0.9238826036453247,0.9950861930847168,-0.289704829454422,0.1425975114107132,0.7280945181846619
9.166152715682983,-0.20228137075901031,-0.8924099206924438,0.9940902590751648,-0.3100668787956238,0.0705891102552414,0.7272495627403259
9.186261653900146,-0.03242378681898117,-0.8965063095092773,0.9920124411582947,-0.30099475383758545,0.1467774659395218,0.7349865436553955
9.206331729888916,-0.07976482063531876,-0.9046957492828369,0.9421652555465698,-0.2963613271713257,0.12886688113212585,0.7313175797462463
9.226393222808838,-0.11756394803524017,-0.9173411130905151,0.9419744610786438,-0.27203091979026794,0.06441478431224823,0.7140425443649292
9.246616840362549,-0.2656764090061188,-0.8863073587417603,0.9711368083953857,-0.2864988148212433,0.024389740079641342,0.7193259596824646
9.266722679138184,-0.07447664439678192,-0.9261617660522461,0.9667321443557739,-0.28837838768959045,0.09442727267742157,0.7211689949035645
9.286797285079956,-0.0705258920788765,-0.9033900499343872,0.9796922206878662,-0.27917471528053284,0.10698746144771576,0.7291943430900574
9.307388305664062,-0.0251262579113245,-0.9207636117935181,0.9963866472244263,-0.28468412160873413,0.11279468238353729,0.7265371680259705
9.327492713928223,-0.030883627012372017,-0.9247269630432129,0.9858094453811646,-0.2869625389575958,0.12553904950618744,0.7292881608009338
9.347599506378174,-0.06697289645671844,-0.9073705673217773,0.9659815430641174,-0.29478487372398376,0.11939235031604767,0.7325800061225891
9.367642164230347,-0.053051941096782684,-0.9361672401428223,0.9621354341506958,-0.2779073715209961,0.09489351511001587,0.7172539234161377
9.387739181518555,-0.039098791778087616,-0.9113000631332397,0.9860178828239441,-0.27593839168548584,0.10882161557674408,0.7218961119651794
9.407824277877808,-0.04903616011142731,-0.9042366743087769,0.9783008694648743,-0.28549015522003174,0.1168670505285263,0.7263647317886353
9.42787790298462,-0.03227765113115311,-0.9370567798614502,1.0004481077194214,-0.28086820244789124,0.1148597002029419,0.720739483833313
9.447979211807251,-0.0163391325622797,-0.9214617013931274,0.9880682826042175,-0.27658191323280334,0.12097616493701935,0.721161961555481
9.468099355697632,-0.10623399168252945,-0.9053483009338379,0.9870233535766602,-0.30069446563720703,0.1087203323841095,0.7304429411888123
9.488165616989136,0.009749760851264,-0.9428197145462036,0.9526936411857605,-0.2677304744720459,0.1265714317560196,0.7167980074882507
9.508254289627075,-0.03979571908712387,-0.9180130958557129,0.9707269668579102,-0.27471020817756653,0.10690100491046906,0.7165191769599915
9.528352499008179,-0.03915365785360336,-0.8987536430358887,0.9652760624885559,-0.27959370613098145,0.14090986549854279,0.7280765771865845
9.548442602157593,-0.07150169461965561,-0.9139207601547241,0.9841333031654358,-0.28230640292167664,0.10845459997653961,0.7253294587135315
9.568602085113525,-0.06810048222541809,-0.9135313034057617,0.9741882085800171,-0.283267080783844,0.10721199214458466,0.7234827876091003
9.588683128356934,-0.03217589110136032,-0.9134604930877686,0.984789252281189,-0.28300029039382935,0.12420953810214996,0.7257869243621826
9.608758211135864,-0.1343918889760971,-0.9100251197814941,0.9798668026924133,-0.28796201944351196,0.08373881876468658,0.726165771484375
9.628859281539917,-0.11771325021982193,-0.9047274589538574,0.9715436697006226,-0.2901400327682495,0.08544434607028961,0.7249178290367126
9.648948907852173,0.06926257908344269,-0.9488259553909302,0.978355884552002,-0.27239343523979187,0.15252940356731415,0.7172442078590393
9.669025659561157,-0.015365669503808022,-0.93492591381073,0.9821430444717407,-0.27762073278427124,0.12752629816532135,0.7177228331565857
9.689118146896362,-0.05386289209127426,-0.9054505825042725,0.9952828884124756,-0.2937793731689453,0.1392810195684433,0.729093611240387
9.709198236465454,0.0018195416778326035,-0.9463540315628052,0.9840858578681946,-0.27315381169319153,0.11951243877410889,0.7122932076454163
9.72927474975586,0.047454312443733215,-0.9216192960739136,0.9926983118057251,-0.27818313241004944,0.1818137764930725,0.7224449515342712
9.749348878860474,-0.15721683204174042,-0.8711568117141724,0.991706907749176,-0.28869739174842834,0.10382246971130371,0.7269299626350403
9.769536972045898,-0.014148080721497536,-0.9156161546707153,0.9026528000831604,-0.27494704723358154,0.15211237967014313,0.7213274836540222
9.789611101150513,-0.04375568777322769,-0.8962781429290771,0.9345651865005493,-0.2612352967262268,0.07235738635063171,0.705559253692627
9.809669017791748,-0.16715119779109955,-0.8958959579467773,0.9800230264663696,-0.2671143412590027,0.062203098088502884,0.7169460654258728
9.829829454421997,-0.04676762968301773,-0.9075309038162231,0.9479042291641235,-0.27721062302589417,0.12141482532024384,0.720939040184021
9.84985613822937,-0.06166762858629227,-0.926294207572937,1.0013484954833984,-0.28431183099746704,0.10030199587345123,0.7174071669578552
9.869924783706665,-0.0026386771351099014,-0.9174281358718872,0.967050313949585,-0.2814285457134247,0.14228272438049316,0.7252207398414612
9.89000654220581,0.14075414836406708,-0.9483593702316284,0.9804734587669373,-0.27103179693222046,0.2034185528755188,0.7228471040725708
9.910087585449219,-0.08533584326505661,-0.8997559547424316,0.9888947010040283,-0.2865976393222809,0.11944906413555145,0.724712073802948
9.93014669418335,0.014098947867751122,-0.9143370389938354,0.9641793370246887,-0.27647989988327026,0.15265610814094543,0.7238947749137878
9.950250625610352,-0.05046018213033676,-0.9183813333511353,0.9740546345710754,-0.2825302481651306,0.10344405472278595,0.7157555222511292
9.970339059829712,-0.13946591317653656,-0.8740816116333008,0.9525159597396851,-0.28302624821662903,0.09329110383987427,0.7241150736808777
9.991075277328491,0.09848853945732117,-0.9193196296691895,0.9251823425292969,-0.2665945291519165,0.18023957312107086,0.7152341604232788
10.011196851730347,0.042990244925022125,-0.9495854377746582,0.958791971206665,-0.25826767086982727,0.12549059092998505,0.7098569869995117
10.031272649765015,-0.18270091712474823,-0.9044746160507202,1.000510811805725,-0.2765631377696991,0.04493558779358864,0.7157294154167175
10.051359415054321,0.028497492894530296,-0.9279206991195679,0.9870122671127319,-0.2929159700870514,0.1519298404455185,0.7244380116462708
10.071477890014648,0.0027361419051885605,-0.9319939613342285,0.991611897945404,-0.28517287969589233,0.15077249705791473,0.7257076501846313
10.091536521911621,-0.1683240383863449,-0.8827974796295166,0.9805736541748047,-0.29187968373298645,0.09877879917621613,0.7309136986732483
10.112502813339233,0.01629638485610485,-0.924903154373169,0.955345869064331,-0.28391844034194946,0.1461639404296875,0.7254056930541992
10.132589340209961,-0.06030880659818649,-0.9201117753982544,0.9645533561706543,-0.28361448645591736,0.1001661866903305,0.7195191979408264
10.152677297592163,-0.14059807360172272,-0.871751070022583,0.9547325372695923,-0.2824265658855438,0.09275619685649872,0.727171778678894
10.17272400856018,0.027937477454543114,-0.8995922803878784,0.9237961769104004,-0.270480751991272,0.13777971267700195,0.7217410206794739
10.192817687988281,-0.06815358996391296,-0.9241058826446533,0.944320797920227,-0.2609914541244507,0.0721409022808075,0.7169735431671143
10.21293044090271,-0.07360322028398514,-0.8918676376342773,0.9817183017730713,-0.2776944041252136,0.10984285175800323,0.7275493741035461
10.233091354370117,0.0009620767086744308,-0.9268844127655029,0.9811084866523743,-0.274581640958786,0.1172235757112503,0.7267798781394958
10.253190755844116,-0.014341557398438454,-0.9313153028488159,0.9721481204032898,-0.27777376770973206,0.12995700538158417,0.7297095656394958
10.273263931274414,-0.08978144079446793,-0.9068081378936768,0.990379810333252,-0.3000571131706238,0.10762174427509308,0.7324363589286804
10.293586730957031,0.05416117608547211,-0.9411969184875488,0.9670695662498474,-0.2759779989719391,0.1545335054397583,0.7257629036903381
10.313696384429932,-0.1935134381055832,-0.9128497838973999,1.0022404193878174,-0.2875831425189972,0.04804602637887001,0.7204453349113464
10.333798885345459,-0.06404022127389908,-0.907549262046814,0.9576718807220459,-0.2902921736240387,0.10279618203639984,0.7241329550743103
10.353845834732056,-0.07044196873903275,-0.9235448837280273,0.9971656799316406,-0.2817370295524597,0.09264421463012695,0.7234329581260681
10.373972654342651,-0.37677669525146484,-0.8858535289764404,0.9989904165267944,-0.2845134139060974,-0.028933536261320114,0.7188386917114258
10.394033193588257,-0.19294039905071259,-0.9047466516494751,1.0031660795211792,-0.2954657971858978,0.035734985023736954,0.7253856062889099
10.414095401763916,-0.08434142172336578,-0.9290850162506104,0.9681010842323303,-0.2849162518978119,0.08664315938949585,0.7280240058898926
10.43417739868164,-0.17590634524822235,-0.9078505039215088,0.9765888452529907,-0.27981269359588623,0.04535361006855965,0.7280225157737732
10.454276084899902,0.0009684916585683823,-0.9310557842254639,0.9624162912368774,-0.29061055183410645,0.12785349786281586,0.7304034233093262
10.474330425262451,-0.1756022721529007,-0.9128737449645996,0.9865148067474365,-0.3028605282306671,0.07013793289661407,0.7326305508613586
10.494423866271973,-0.09157314896583557,-0.9074448347091675,0.9688839316368103,-0.29133811593055725,0.10099680721759796,0.7335166335105896
10.514493703842163,0.04836767911911011,-0.9398173093795776,0.9952058792114258,-0.28341227769851685,0.14722612500190735,0.7299445867538452
10.534560680389404,-0.1641233116388321,-0.8802307844161987,0.984320878982544,-0.2878618836402893,0.09229959547519684,0.7376236319541931
10.554672956466675,-0.16384553909301758,-0.9049060344696045,0.9778659343719482,-0.304662823677063,0.06723809242248535,0.7328848838806152
10.574738502502441,0.018475299701094627,-0.9378273487091064,0.9743812680244446,-0.2825031280517578,0.13455665111541748,0.7323830723762512
10.59479308128357,-0.3238697946071625,-0.8797372579574585,0.9749133586883545,-0.2753451466560364,0.0024327002465724945,0.7315848469734192
10.614890098571777,-0.12383962422609329,-0.8844594955444336,0.9607845544815063,-0.29039332270622253,0.08566994965076447,0.7366874814033508
10.634964227676392,0.02792375348508358,-0.9271422624588013,0.9462380409240723,-0.2833476960659027,0.13255423307418823,0.7308712601661682
10.655105829238892,-0.13922430574893951,-0.9265273809432983,0.9980586767196655,-0.2901455760002136,0.06504862010478973,0.7290930151939392
10.675146579742432,-0.09517195075750351,-0.9113093614578247,1.0191521644592285,-0.28957921266555786,0.08224205672740936,0.7341412305831909
10.695231914520264,0.05942413955926895,-0.963955283164978,0.9687448143959045,-0.2869150638580322,0.1601070910692215,0.7308054566383362
10.715282440185547,-0.10127105563879013,-0.9265913963317871,1.0296366214752197,-0.29880470037460327,0.08485183119773865,0.728198230266571
10.735405445098877,-0.0678437128663063,-0.9131381511688232,1.0062905550003052,-0.31087982654571533,0.13095985352993011,0.7361336946487427
10.755478620529175,0.01537231169641018,-0.9307945966720581,0.9641515016555786,-0.27846595644950867,0.12467262148857117,0.7254570126533508
10.775554180145264,-0.3794814348220825,-0.8870649337768555,0.9848975539207458,-0.2990819215774536,-0.025013018399477005,0.7169430255889893
10.796261072158813,-0.21663500368595123,-0.8930257558822632,0.975039005279541,-0.297910213470459,0.05204015597701073,0.7319512963294983
10.81636357307434,-0.020564967766404152,-0.9022939205169678,0.9091359376907349,-0.283126562833786,0.1441846638917923,0.7306665778160095
10.836413383483887,-0.2460433691740036,-0.8760011196136475,1.086690068244934,-0.2667408585548401,-0.017774052917957306,0.7167982459068298
10.856493473052979,-0.165842205286026,-0.9150879383087158,0.9814451932907104,-0.27067384123802185,0.041477758437395096,0.7199131846427917
10.87666368484497,-0.15924711525440216,-0.9041886329650879,0.9652173519134521,-0.26821431517601013,0.05456417426466942,0.7274629473686218
10.89674186706543,0.12717917561531067,-0.9717934131622314,0.9851716756820679,-0.27347972989082336,0.18938396871089935,0.729119062423706
10.916764974594116,0.0312982052564621,-0.9274035692214966,0.9940886497497559,-0.28026700019836426,0.15247280895709991,0.7302886843681335
10.936854839324951,0.057709984481334686,-0.9455039501190186,0.9828179478645325,-0.28347650170326233,0.16821430623531342,0.7297506928443909
10.95692253112793,-0.06012430042028427,-0.8947803974151611,1.012352466583252,-0.30680927634239197,0.15334029495716095,0.7407354116439819
10.97697114944458,-0.04129991680383682,-0.9311239719390869,0.9221936464309692,-0.2858864367008209,0.12460188567638397,0.7239730358123779
10.99706482887268,-0.15565408766269684,-0.9013564586639404,0.9558777809143066,-0.28732091188430786,0.07306307554244995,0.7235128283500671
11.017141580581665,0.030857926234602928,-0.9226576089859009,0.9417432546615601,-0.26556265354156494,0.13687115907669067,0.7151115536689758
11.037192821502686,-0.16437195241451263,-0.8952691555023193,0.9887272119522095,-0.2686622142791748,0.04488038644194603,0.7188957929611206
11.057310342788696,-0.07467038184404373,-0.90179443359375,1.0021852254867554,-0.28873780369758606,0.09371212124824524,0.7233766913414001
11.077409744262695,-0.009876871481537819,-0.9386070966720581,0.9502677917480469,-0.2763909101486206,0.12323707342147827,0.7244328260421753
11.097500085830688,-0.08094874769449234,-0.9030634164810181,0.9894974827766418,-0.29389703273773193,0.12191882729530334,0.7347289323806763
11.117728233337402,0.0010673310607671738,-0.9280728101730347,0.9595866203308105,-0.28176435828208923,0.14970166981220245,0.7330201268196106
11.13782000541687,-0.049554243683815,-0.924615740776062,0.9773383140563965,-0.2917422950267792,0.12084738910198212,0.7288504242897034
11.157881259918213,-0.09930620342493057,-0.8841803073883057,0.9497525095939636,-0.29003337025642395,0.1130286306142807,0.7334194779396057
11.17806339263916,-0.014844218268990517,-0.9057244062423706,0.9490851163864136,-0.28477492928504944,0.13048528134822845,0.7281445264816284
11.198145627975464,0.05306098610162735,-0.940041184425354,0.9422318935394287,-0.26246267557144165,0.139182910323143,0.7195046544075012
11.218231916427612,-0.14069582521915436,-0.8821597099304199,0.9955518245697021,-0.27807411551475525,0.05892891064286232,0.7238446474075317
11.23830509185791,0.06887318938970566,-0.9423450231552124,0.9754290580749512,-0.280718058347702,0.15890811383724213,0.7302767038345337
11.2583909034729,-0.1130918636918068,-0.9325151443481445,0.9893380403518677,-0.2884005606174469,0.08183005452156067,0.7277039885520935
11.278518199920654,0.10264309495687485,-0.9368596076965332,0.9564439058303833,-0.2722042500972748,0.17556890845298767,0.7281739711761475
11.298535585403442,0.0496302992105484,-0.9400404691696167,1.0011804103851318,-0.2858891487121582,0.16484500467777252,0.729243814945221
11.318643569946289,-0.20461508631706238,-0.9171040058135986,1.0052810907363892,-0.2975993752479553,0.05675153061747551,0.7241407036781311
11.338724136352539,-0.01696053333580494,-0.9091857671737671,0.9797450304031372,-0.29067131876945496,0.1438051015138626,0.734653115272522
11.358787536621094,-0.21684645116329193,-0.913454532623291,0.9751467108726501,-0.28083890676498413,0.018353905528783798,0.7115979194641113
11.378875732421875,0.011223969981074333,-0.8939845561981201,0.9621903896331787,-0.2740422189235687,0.14473797380924225,0.7234463095664978
11.398951053619385,-0.28341275453567505,-0.886309027671814,0.9808675050735474,-0.28760579228401184,0.026730496436357498,0.7241881489753723
11.419003963470459,-0.1176372691988945,-0.9268864393234253,0.9606051445007324,-0.28386038541793823,0.05579714849591255,0.717878520488739
11.439114809036255,-0.06484945118427277,-0.9043253660202026,0.9677951335906982,-0.2847829759120941,0.11243529617786407,0.7279730439186096
11.459208726882935,-0.027129778638482094,-0.9298008680343628,0.9758643507957458,-0.2852402627468109,0.11750991642475128,0.7235748767852783
11.479267358779907,-0.07410246878862381,-0.8987551927566528,0.9815815687179565,-0.2892189919948578,0.12478141486644745,0.7344932556152344
11.499333381652832,-0.051479585468769073,-0.9198659658432007,0.9605920910835266,-0.2985902428627014,0.12984268367290497,0.73179030418396
11.548528909683228,-0.040988221764564514,-0.9274903535842896,0.9958057403564453,-0.2876797616481781,0.11737167835235596,0.7276380062103271
11.568600416183472,-0.09402047842741013,-0.9264237880706787,0.9617034196853638,-0.2924273908138275,0.09612403810024261,0.73196941614151
11.588671922683716,-0.06298194080591202,-0.9029965400695801,0.9581628441810608,-0.2824785113334656,0.09098748862743378,0.7273145914077759
11.60877776145935,-0.04346170276403427,-0.9329245090484619,1.0022032260894775,-0.28670066595077515,0.10400833189487457,0.7289252877235413
11.62886095046997,-0.28481483459472656,-0.9045435190200806,1.0123846530914307,-0.2995081841945648,0.02355053648352623,0.7299605011940002
11.64894437789917,-0.14735983312129974,-0.9228256940841675,0.9910839200019836,-0.31328675150871277,0.07849465310573578,0.7339486479759216
11.66928505897522,0.11534745246171951,-0.9532968997955322,0.9301061630249023,-0.2728237211704254,0.19268278777599335,0.7287876605987549
11.689414024353027,-0.03137514740228653,-0.9388099908828735,0.965715229511261,-0.2683829963207245,0.08743409812450409,0.7202842831611633
11.709529876708984,-0.03191549330949783,-0.9409141540527344,0.9675326943397522,-0.29747098684310913,0.13620685040950775,0.7297345995903015
11.729693412780762,-0.05518021434545517,-0.9123834371566772,0.9776197671890259,-0.2949742376804352,0.13203252851963043,0.7358715534210205
11.74977421760559,0.060321010649204254,-0.9299131631851196,0.9726684093475342,-0.28451263904571533,0.17702336609363556,0.7339683175086975
11.769837379455566,-0.23266619443893433,-0.8915845155715942,1.0065966844558716,-0.28234902024269104,0.023426827043294907,0.7231711745262146
11.789864540100098,-0.07417383044958115,-0.9198874235153198,0.982462465763092,-0.29062485694885254,0.10322678089141846,0.7302305102348328
11.809960126876831,-0.10542627424001694,-0.9117549657821655,0.9901899099349976,-0.29327306151390076,0.0934317409992218,0.7324707508087158
11.830090284347534,0.013842945918440819,-0.91327965259552,0.9359420537948608,-0.26851195096969604,0.12037920951843262,0.7225069403648376
11.850110530853271,-0.30794745683670044,-0.8961378335952759,1.0421043634414673,-0.2918325662612915,-0.0041337572038173676,0.7178502678871155
11.87020230293274,-0.10056710243225098,-0.8908849954605103,0.9691548347473145,-0.29492419958114624,0.13272085785865784,0.7365431189537048
11.890358686447144,0.019304392859339714,-0.8994662761688232,0.9453516602516174,-0.2718828320503235,0.13595150411128998,0.7258136868476868
11.91036081314087,-0.24355706572532654,-0.9094440937042236,1.0233547687530518,-0.2939385175704956,0.01636068895459175,0.7208158373832703
11.93043828010559,-0.22180040180683136,-0.8915488719940186,0.982802152633667,-0.29507994651794434,0.05895235762000084,0.7316002249717712
11.95051884651184,-0.040138356387615204,-0.9178483486175537,0.9598017930984497,-0.29078951478004456,0.12124420702457428,0.7350370287895203
11.970571279525757,-0.14392845332622528,-0.9165788888931274,0.975088357925415,-0.2909804880619049,0.06417694687843323,0.7264986634254456
11.990660667419434,-0.24075497686862946,-0.8975151777267456,0.9712440371513367,-0.29265856742858887,0.03889235481619835,0.7303152680397034
12.0107262134552,0.047709375619888306,-0.9428374767303467,0.983502984046936,-0.2826273441314697,0.145658478140831,0.7298998832702637
12.030797243118286,-0.16531680524349213,-0.9107823371887207,1.0047540664672852,-0.28289565443992615,0.061252888292074203,0.729354202747345
12.050873041152954,0.05010421574115753,-0.925338625907898,0.9009199142456055,-0.284309059381485,0.18019923567771912,0.7334147095680237
12.07094669342041,-0.022279659286141396,-0.9342613220214844,1.009148359298706,-0.29237115383148193,0.12434841692447662,0.729511022567749
12.091044664382935,-0.0928361639380455,-0.9254418611526489,0.9593068361282349,-0.29416847229003906,0.10364118218421936,0.7307425737380981
12.111307382583618,-0.06481913477182388,-0.9117716550827026,0.9738839864730835,-0.29395097494125366,0.11571110785007477,0.733704149723053
12.131401300430298,-0.024059513583779335,-0.9324746131896973,0.9794350862503052,-0.28798770904541016,0.1231124997138977,0.7270196676254272
12.15147614479065,0.828646719455719,-0.41497790813446045,0.24297523498535156,-0.3472816050052643,0.1322222799062729,0.2422950714826584
12.171569585800171,0.9623886346817017,-0.7161998748779297,0.48229527473449707,-0.36386990547180176,0.10671278834342957,0.13195863366127014
12.191636800765991,0.910683274269104,-0.7269123792648315,0.4650711417198181,-0.3305220603942871,0.13521355390548706,0.09280845522880554
12.211702823638916,0.9258213043212891,-0.7406589984893799,0.44417861104011536,-0.3220703899860382,0.1334785372018814,0.0926922932267189
12.231799125671387,0.905147910118103,-0.7471350431442261,0.43852871656417847,-0.32384201884269714,0.13366709649562836,0.09325917810201645
12.251882314682007,0.9236946105957031,-0.7559565305709839,0.45857658982276917,-0.32227620482444763,0.14385099709033966,0.09334822744131088
12.271966218948364,0.9280971884727478,-0.7666363716125488,0.4561675190925598,-0.3176870346069336,0.1523684412240982,0.0935109481215477
12.292049646377563,0.9322030544281006,-0.7663623094558716,0.4605979323387146,-0.32716232538223267,0.16336138546466827,0.09397794306278229
12.312209844589233,0.9189597964286804,-0.7595206499099731,0.4522218108177185,-0.32097822427749634,0.15152734518051147,0.09334026277065277
12.332201480865479,0.9197757244110107,-0.7516374588012695,0.455471009016037,-0.3199518322944641,0.14407764375209808,0.09467130154371262
12.35234808921814,0.8994041681289673,-0.7414602041244507,0.4474354386329651,-0.32744738459587097,0.13298527896404266,0.0941791981458664
12.372435092926025,0.9141234159469604,-0.7438738346099854,0.44848018884658813,-0.32424396276474,0.13540302217006683,0.09607186913490295
12.392493724822998,0.9250468015670776,-0.7476413249969482,0.4496717154979706,-0.32520171999931335,0.13920654356479645,0.09854327142238617
12.412574529647827,0.9204299449920654,-0.7543021440505981,0.4480723440647125,-0.3244967460632324,0.13786734640598297,0.09849075973033905
12.432705163955688,0.9098584651947021,-0.750084400177002,0.45381879806518555,-0.32213279604911804,0.12785647809505463,0.09766384214162827
12.452764749526978,0.9035478234291077,-0.7546182870864868,0.44983986020088196,-0.33256077766418457,0.13471968472003937,0.09810829162597656
12.473336219787598,0.8930703401565552,-0.751812219619751,0.4525982737541199,-0.33635297417640686,0.13302193582057953,0.0989694595336914
12.493455648422241,0.9251787662506104,-0.7656263113021851,0.4461868405342102,-0.32936620712280273,0.15088753402233124,0.10163408517837524
12.51353907585144,0.926944375038147,-0.7557817697525024,0.4539602994918823,-0.32406532764434814,0.14186157286167145,0.10160211473703384
12.533577919006348,0.9181875586509705,-0.7524186372756958,0.4476414620876312,-0.32801133394241333,0.13608472049236298,0.1013534739613533
12.553670406341553,0.8840175867080688,-0.7385098934173584,0.44976621866226196,-0.33487582206726074,0.11500932276248932,0.09907075017690659
12.573755979537964,0.8969172239303589,-0.743095874786377,0.44860613346099854,-0.34008467197418213,0.12179368734359741,0.10255495458841324
12.593797206878662,0.9093514680862427,-0.7488710880279541,0.456295371055603,-0.3377887010574341,0.1254143863916397,0.10328993201255798
12.613885164260864,0.9015520811080933,-0.7509980201721191,0.4524434208869934,-0.3345852494239807,0.12308348715305328,0.10275287926197052
12.633962154388428,0.8918314576148987,-0.7520726919174194,0.4480922818183899,-0.33755114674568176,0.12011657655239105,0.10307248681783676
12.65403151512146,0.8929989337921143,-0.7592418193817139,0.4466109871864319,-0.3397403061389923,0.125380277633667,0.10324980318546295
12.674086093902588,0.8926097750663757,-0.7581877708435059,0.4446619749069214,-0.3394920825958252,0.12720705568790436,0.10448941588401794
12.694205522537231,0.8840707540512085,-0.754145622253418,0.444734126329422,-0.3408103585243225,0.11930492520332336,0.10346751660108566
12.714259147644043,0.9007057547569275,-0.7625408172607422,0.4500373303890228,-0.338157594203949,0.12691281735897064,0.1059102788567543
12.734312772750854,0.9125171899795532,-0.7553473711013794,0.45862963795661926,-0.34085363149642944,0.12690864503383636,0.10605756938457489
12.754400253295898,0.8636438250541687,-0.7399740219116211,0.44806212186813354,-0.34903329610824585,0.10410897433757782,0.10405220091342926
12.774475812911987,0.8673405647277832,-0.743295431137085,0.44282257556915283,-0.3454563617706299,0.1015649139881134,0.1056331917643547
12.794527530670166,0.8587161302566528,-0.7322866916656494,0.45480918884277344,-0.3503807783126831,0.09417472779750824,0.10620060563087463
12.814615726470947,0.9201256036758423,-0.7610443830490112,0.4445126950740814,-0.3452661633491516,0.1317887306213379,0.1104314774274826
12.834685802459717,0.9024447202682495,-0.7600511312484741,0.43922901153564453,-0.34834444522857666,0.12573246657848358,0.109845831990242
12.854735612869263,0.901636004447937,-0.7594246864318848,0.44721904397010803,-0.3483636975288391,0.12180054187774658,0.10978122800588608
12.874828100204468,0.869519054889679,-0.7553195953369141,0.4421290457248688,-0.3485848903656006,0.10601435601711273,0.10832516103982925
12.894909858703613,0.8907623291015625,-0.7588021755218506,0.4510050415992737,-0.35172584652900696,0.11520373821258545,0.1097191721200943
12.915077924728394,0.8946182727813721,-0.762101411819458,0.448643296957016,-0.3485015332698822,0.11948707699775696,0.11123820394277573
12.935200452804565,0.8632239103317261,-0.748509407043457,0.44439542293548584,-0.35132652521133423,0.09824493527412415,0.10862509161233902
12.955273866653442,0.8495417833328247,-0.7442796230316162,0.44642260670661926,-0.3615553081035614,0.09567166864871979,0.10915444046258926
12.975326299667358,0.8325437307357788,-0.7355049848556519,0.44200730323791504,-0.36011362075805664,0.08202680945396423,0.10948057472705841
12.995418548583984,0.8931769132614136,-0.7494266033172607,0.44640856981277466,-0.3513305187225342,0.10847839713096619,0.11469008028507233
13.015653610229492,0.8939134478569031,-0.7495249509811401,0.4489264488220215,-0.35681259632110596,0.10877101123332977,0.11605143547058105
13.035692930221558,0.877269983291626,-0.7507150173187256,0.4435426592826843,-0.3525506258010864,0.1001153290271759,0.1169704794883728
13.055754899978638,0.8568494319915771,-0.7448503971099854,0.44629496335983276,-0.35631564259529114,0.08631223440170288,0.11521638929843903
13.076086044311523,0.8690252304077148,-0.7493705749511719,0.45097899436950684,-0.3647123873233795,0.09664666652679443,0.11667243391275406
13.096112251281738,0.8688555955886841,-0.753189206123352,0.44610220193862915,-0.36467719078063965,0.09670676290988922,0.11740405112504959
13.116209983825684,0.8845071196556091,-0.7642344236373901,0.45432108640670776,-0.3610230088233948,0.10502128303050995,0.11775100976228714
13.136282682418823,0.8845019340515137,-0.7573271989822388,0.45540136098861694,-0.36526626348495483,0.1055847704410553,0.12006835639476776
13.156343460083008,0.8659408092498779,-0.7520242929458618,0.4482457637786865,-0.36962562799453735,0.09658566117286682,0.11930947750806808
13.17644715309143,0.878505527973175,-0.7632436752319336,0.4548306465148926,-0.3637903332710266,0.10043203830718994,0.11941196769475937
13.19651198387146,0.8769806623458862,-0.7522989511489868,0.4541982412338257,-0.36942240595817566,0.09855121374130249,0.1210201159119606
13.21660852432251,0.8732722997665405,-0.7544354200363159,0.44057971239089966,-0.3687032461166382,0.0968756228685379,0.12162675708532333
13.236672639846802,0.7930546998977661,-0.7332854270935059,0.42687734961509705,-0.3724099099636078,0.05697974935173988,0.11884963512420654
13.256739854812622,0.814365029335022,-0.7279136180877686,0.4425891041755676,-0.37283727526664734,0.05390376225113869,0.12124009430408478
13.2767972946167,0.8215427994728088,-0.742292046546936,0.4394133985042572,-0.37372177839279175,0.061958689242601395,0.12163315713405609
13.296907901763916,0.8671993613243103,-0.7526392936706543,0.44446879625320435,-0.37145334482192993,0.08734780550003052,0.12526963651180267
13.316958665847778,0.8716090321540833,-0.7563014030456543,0.4403649568557739,-0.3756370544433594,0.08974091708660126,0.1257493942975998
13.337033987045288,0.8673251867294312,-0.760485053062439,0.44230666756629944,-0.381070613861084,0.09373591840267181,0.12644997239112854
13.357161045074463,0.8214932680130005,-0.7468341588973999,0.449385404586792,-0.3818933367729187,0.06590054929256439,0.12389619648456573
13.377254247665405,0.8138670921325684,-0.7407946586608887,0.44747787714004517,-0.38161659240722656,0.0592532642185688,0.12508106231689453
13.39730715751648,0.819251298904419,-0.744483470916748,0.43457138538360596,-0.38317757844924927,0.06010366603732109,0.12641772627830505
13.417485475540161,0.8040722608566284,-0.7308951616287231,0.4397694170475006,-0.38970398902893066,0.049284759908914566,0.12752942740917206
13.437613725662231,0.8528220653533936,-0.7503052949905396,0.439222127199173,-0.3859928250312805,0.07606533169746399,0.13058100640773773
13.457669734954834,0.8594260215759277,-0.750234842300415,0.4380148649215698,-0.38449880480766296,0.07650764286518097,0.13170111179351807
13.478103637695312,0.8441879749298096,-0.7425801753997803,0.435305655002594,-0.39080190658569336,0.07079127430915833,0.13417649269104004
13.498220920562744,0.8100791573524475,-0.7475028038024902,0.4414867162704468,-0.39290887117385864,0.05239132419228554,0.13164448738098145
13.518283128738403,0.8004860877990723,-0.7370078563690186,0.4407344162464142,-0.3932541608810425,0.04501354321837425,0.1318647265434265
13.53834319114685,0.7775205373764038,-0.7305257320404053,0.43673595786094666,-0.4014895558357239,0.034391943365335464,0.1313238888978958
13.558473825454712,0.8425703048706055,-0.7530580759048462,0.4300903081893921,-0.3957764506340027,0.07245710492134094,0.13674595952033997
13.5785391330719,0.838382363319397,-0.7469477653503418,0.45127803087234497,-0.39100944995880127,0.060773614794015884,0.13696838915348053
13.598593950271606,0.8256347179412842,-0.7491244077682495,0.43859121203422546,-0.39242762327194214,0.056605126708745956,0.13805130124092102
13.61868953704834,0.7745787501335144,-0.7276606559753418,0.4307681620121002,-0.3995569944381714,0.02578020468354225,0.13607056438922882
13.63875961303711,0.7503674626350403,-0.7170369625091553,0.43578025698661804,-0.40805763006210327,0.013102039694786072,0.13660544157028198
13.65881896018982,0.7357289791107178,-0.7113242149353027,0.4330115020275116,-0.4095366597175598,0.0026552341878414154,0.1380157321691513
13.67890477180481,0.8354330062866211,-0.7349413633346558,0.4353983402252197,-0.40635818243026733,0.05243787541985512,0.14346657693386078
13.699038743972778,0.8302674293518066,-0.739875316619873,0.4329460859298706,-0.40841007232666016,0.051906321197748184,0.14464987814426422
13.719062805175781,0.8272510766983032,-0.7404322624206543,0.42597317695617676,-0.4112333059310913,0.05293535813689232,0.14690569043159485
13.739155292510986,0.707844614982605,-0.7001248598098755,0.4434981346130371,-0.41933026909828186,-0.01647019013762474,0.1422923505306244
13.75925326347351,0.6987850666046143,-0.697839617729187,0.43600189685821533,-0.42345839738845825,-0.022942977026104927,0.14399535953998566
13.779286861419678,0.6905485391616821,-0.6910206079483032,0.4417409598827362,-0.4266110360622406,-0.0321987047791481,0.14583829045295715
13.79939889907837,0.8149444460868835,-0.7310229539871216,0.41858893632888794,-0.41896265745162964,0.035913873463869095,0.15233811736106873
13.819489479064941,0.7904215455055237,-0.714737057685852,0.42012566328048706,-0.4271954894065857,0.017901446670293808,0.1539408564567566
13.839545726776123,0.7945821285247803,-0.7197147607803345,0.4263485372066498,-0.42731189727783203,0.019823189824819565,0.15713082253932953
13.859656810760498,0.6845607757568359,-0.6984831094741821,0.4289548695087433,-0.4328811764717102,-0.036393653601408005,0.1540772169828415
13.87972903251648,0.6595319509506226,-0.6792982816696167,0.43414729833602905,-0.4341033697128296,-0.05590929090976715,0.15640707314014435
13.899795770645142,0.6509243845939636,-0.6704158782958984,0.4493188261985779,-0.44393274188041687,-0.06605499982833862,0.15804289281368256
13.91985821723938,0.7772088050842285,-0.7118363380432129,0.42136311531066895,-0.434803307056427,0.0027959756553173065,0.1642283946275711
13.939955949783325,0.7649794220924377,-0.7146790027618408,0.4306902289390564,-0.42729926109313965,-0.005673930048942566,0.16730453073978424
13.960120677947998,0.7444944381713867,-0.7031068801879883,0.4320092499256134,-0.43686723709106445,-0.020803362131118774,0.16878286004066467
13.980178356170654,0.6634324789047241,-0.6875795125961304,0.4311676621437073,-0.4464520812034607,-0.058810167014598846,0.16703106462955475
14.000229835510254,0.6602171659469604,-0.6958984136581421,0.42816293239593506,-0.4514123499393463,-0.05671773850917816,0.1684647500514984
14.02031922340393,0.6061183214187622,-0.6750778555870056,0.42639151215553284,-0.45536136627197266,-0.0842406302690506,0.16933949291706085
14.0404531955719,0.7252456545829773,-0.6898552179336548,0.41731637716293335,-0.4565685987472534,-0.03064565360546112,0.17515335977077484
14.060538053512573,0.7065445780754089,-0.6809847950935364,0.42899370193481445,-0.45683765411376953,-0.048007603734731674,0.17715927958488464
14.080610036849976,0.6872917413711548,-0.6847875118255615,0.44141852855682373,-0.4589759111404419,-0.05788164958357811,0.17875173687934875
14.10073208808899,0.632732093334198,-0.6770161390304565,0.41977208852767944,-0.46313583850860596,-0.08047197759151459,0.17916713654994965
14.120816946029663,0.6044023036956787,-0.6558752059936523,0.43741315603256226,-0.4551306962966919,-0.10352182388305664,0.18290045857429504
14.140873908996582,0.5588653087615967,-0.6412842273712158,0.4619784355163574,-0.47673818469047546,-0.12864509224891663,0.18159985542297363
14.161177158355713,0.5174921154975891,-0.6274434328079224,0.4500672221183777,-0.4730118215084076,-0.14992466568946838,0.18406838178634644
14.181315183639526,0.6585493683815002,-0.6542421579360962,0.4383883774280548,-0.46378546953201294,-0.0861094743013382,0.1910368949174881
14.201435089111328,0.602298378944397,-0.6373430490493774,0.45112740993499756,-0.4700770378112793,-0.11617116630077362,0.19238243997097015
14.22145128250122,0.6190407276153564,-0.6288830041885376,0.4267449378967285,-0.4673631191253662,-0.10398292541503906,0.197409987449646
14.24153470993042,0.19753113389015198,-0.5304174423217773,0.5054611563682556,-0.4540852904319763,-0.30314984917640686,0.1831803321838379
14.261610984802246,0.14799602329730988,-0.5399810075759888,0.5024616122245789,-0.4525359570980072,-0.318272203207016,0.18970037996768951
14.281661033630371,0.17385387420654297,-0.5577097535133362,0.5100513100624084,-0.4622424840927124,-0.30403608083724976,0.19579729437828064
14.301748991012573,0.383980929851532,-0.5324885845184326,0.462399959564209,-0.43939512968063354,-0.21949425339698792,0.1974520981311798
14.321828842163086,0.3641493320465088,-0.562812089920044,0.4788297414779663,-0.447952002286911,-0.21274159848690033,0.20412693917751312
14.34189748764038,0.3238688111305237,-0.569585919380188,0.47132718563079834,-0.4509657919406891,-0.2245616614818573,0.20659585297107697
14.361980438232422,0.32012906670570374,-0.6350846290588379,0.5357623100280762,-0.460160493850708,-0.21053212881088257,0.2158721685409546
14.382068395614624,0.3136814832687378,-0.6723154783248901,0.5831371545791626,-0.4555495083332062,-0.19878126680850983,0.22146914899349213
14.40213656425476,0.2736585736274719,-0.694493293762207,0.6093672513961792,-0.462044894695282,-0.2059914916753769,0.22482052445411682
14.422593593597412,0.2588690519332886,-0.6890829801559448,0.6171128749847412,-0.4538555145263672,-0.20323146879673004,0.22578845918178558
14.442682981491089,0.33250388503074646,-0.6585643887519836,0.5478113889694214,-0.44532686471939087,-0.17017526924610138,0.22169704735279083
14.462774515151978,0.30575093626976013,-0.6757084131240845,0.577637791633606,-0.4396418333053589,-0.18540646135807037,0.22228938341140747
14.482834815979004,0.28947848081588745,-0.664499044418335,0.573403000831604,-0.4424368739128113,-0.18851721286773682,0.22178591787815094
14.502925872802734,0.23124803602695465,-0.6104744076728821,0.5246942639350891,-0.43200019001960754,-0.23565293848514557,0.21544669568538666
14.523000478744507,0.26379820704460144,-0.632107675075531,0.5095107555389404,-0.4370960593223572,-0.20995770394802094,0.21996812522411346
14.543066024780273,0.3763482868671417,-0.6260045170783997,0.5146223306655884,-0.46783846616744995,-0.1715860664844513,0.2195134311914444
14.5631582736969,0.3220159113407135,-0.6535664796829224,0.5208167433738708,-0.4688052535057068,-0.18189413845539093,0.2229316085577011
14.583235740661621,0.29499635100364685,-0.6422040462493896,0.5189234018325806,-0.4739823043346405,-0.19280391931533813,0.2218446135520935
14.603282690048218,0.3083912432193756,-0.6416052579879761,0.5152561664581299,-0.4902294874191284,-0.17865802347660065,0.22475901246070862
14.623385906219482,0.3611742854118347,-0.5702086687088013,0.4439564049243927,-0.4781104028224945,-0.17847585678100586,0.21604886651039124
