liuyurong129/humanoid-gym/humanoid/data/target_q_20250521-003240.csv
timestamp,joint_1,joint_2,joint_3,joint_4,joint_5,joint_6
2.7894973754882812e-05,0.0,0.0,0.0,0.0,0.0,0.0
0.020128726959228516,0.0,0.0,0.0,0.0,0.0,0.0
0.04019951820373535,0.0,0.0,0.0,0.0,0.0,0.0
0.060239553451538086,-1.0035279989242554,-0.5938804149627686,1.0116891860961914,0.44989335536956787,-0.46609610319137573,-0.4111494719982147
0.08032417297363281,-1.1289777755737305,-0.8307490348815918,1.4877039194107056,0.6232790946960449,-0.3859366178512573,-0.452814519405365
0.10047388076782227,-1.2851003408432007,-0.9521598815917969,1.4666237831115723,0.4641556441783905,-0.4634545147418976,-0.40929731726646423
0.12046504020690918,-1.3183259963989258,-0.9808449745178223,1.4161221981048584,0.4384368658065796,-0.48344331979751587,-0.41095536947250366
0.14057707786560059,-1.3103817701339722,-0.9866117238998413,1.4159026145935059,0.4473462402820587,-0.4879041910171509,-0.4121951460838318
0.1606438159942627,-1.266923427581787,-0.9995003342628479,1.4540352821350098,0.4571363031864166,-0.45814162492752075,-0.4158574640750885
0.1807246208190918,-1.2488887310028076,-0.9826855659484863,1.5332763195037842,0.4846668541431427,-0.4230905771255493,-0.41738706827163696
0.2007887363433838,-1.2414578199386597,-0.9777329564094543,1.5401670932769775,0.47066086530685425,-0.4186827540397644,-0.41719669103622437
0.22088193893432617,-1.2080779075622559,-0.9949871301651001,1.533591628074646,0.46151724457740784,-0.4039519429206848,-0.41729405522346497
0.2409534454345703,-1.2119063138961792,-1.0012272596359253,1.4948031902313232,0.4501298666000366,-0.4161335527896881,-0.4170878827571869
0.26099324226379395,-1.2108287811279297,-1.0079667568206787,1.4753329753875732,0.46038883924484253,-0.4292193055152893,-0.4185198247432709
0.2811133861541748,-1.2307264804840088,-0.9956035614013672,1.4699184894561768,0.4620552062988281,-0.43489086627960205,-0.4178871810436249
0.3011939525604248,-1.239135503768921,-0.9884178042411804,1.47625732421875,0.4636952877044678,-0.43600088357925415,-0.41758280992507935
0.3212587833404541,-1.167823314666748,-1.0160326957702637,1.486790657043457,0.46363162994384766,-0.4054065942764282,-0.4228954017162323
0.3413529396057129,-1.1882543563842773,-0.9963657259941101,1.517333984375,0.471330463886261,-0.3996560573577881,-0.4209892451763153
0.36150503158569336,-1.1944689750671387,-0.995069682598114,1.4933357238769531,0.4612051844596863,-0.4128890633583069,-0.4200643301010132
0.38166284561157227,-1.1852599382400513,-1.0039136409759521,1.471081018447876,0.4616745114326477,-0.4174703359603882,-0.4200725555419922
0.40171170234680176,-1.1544559001922607,-1.0127921104431152,1.4881212711334229,0.47142237424850464,-0.39714011549949646,-0.424896240234375
0.42177581787109375,-1.179124116897583,-0.9868721961975098,1.5248022079467773,0.4887504279613495,-0.39906346797943115,-0.42354878783226013
0.44200706481933594,-1.1696276664733887,-0.9913964867591858,1.5086922645568848,0.47949036955833435,-0.3989112973213196,-0.42462462186813354
0.4621467590332031,-1.1663038730621338,-0.9981749057769775,1.4859647750854492,0.46442675590515137,-0.40458786487579346,-0.421905517578125
0.48221421241760254,-1.1414287090301514,-1.0068717002868652,1.4904075860977173,0.4652487337589264,-0.3898366391658783,-0.42435747385025024
0.5023128986358643,-1.1184529066085815,-1.014585018157959,1.4978808164596558,0.4722737967967987,-0.37397244572639465,-0.4284590184688568
0.5223519802093506,-1.1271954774856567,-1.009108066558838,1.5012760162353516,0.46667200326919556,-0.37332168221473694,-0.42844724655151367
0.5424561500549316,-1.1331934928894043,-1.0051710605621338,1.4872502088546753,0.466573029756546,-0.3878015875816345,-0.42732757329940796
0.5625202655792236,-1.1131943464279175,-1.0120137929916382,1.4921443462371826,0.47086769342422485,-0.37564295530319214,-0.42870309948921204
0.5826373100280762,-1.1430418491363525,-0.9904541969299316,1.4870052337646484,0.4766938090324402,-0.38723695278167725,-0.42752864956855774
0.6026673316955566,-1.1150217056274414,-1.003434658050537,1.4838968515396118,0.4752575159072876,-0.3798293173313141,-0.4304395616054535
0.6227459907531738,-1.0856597423553467,-1.013758659362793,1.4958399534225464,0.4770224690437317,-0.36529991030693054,-0.4336029589176178
0.6428482532501221,-1.10359787940979,-1.001957654953003,1.5045697689056396,0.4802514314651489,-0.3670866787433624,-0.43414396047592163
0.6629645824432373,-1.1035748720169067,-0.9954524040222168,1.5173890590667725,0.47787904739379883,-0.3633146286010742,-0.4318805932998657
0.682959794998169,-1.0836882591247559,-1.0080784559249878,1.4945592880249023,0.47477808594703674,-0.3570414185523987,-0.43462979793548584
0.7031979560852051,-1.0746421813964844,-1.0077462196350098,1.4959684610366821,0.47772669792175293,-0.35544389486312866,-0.4366580843925476
0.7232751846313477,-1.104945421218872,-0.9828588366508484,1.5080273151397705,0.4896300137042999,-0.3640235662460327,-0.43405571579933167
0.743366003036499,-1.0929433107376099,-0.9961999654769897,1.4658143520355225,0.46821069717407227,-0.3754849433898926,-0.43352633714675903
0.7634100914001465,-1.0606391429901123,-1.0067484378814697,1.4845730066299438,0.4725048243999481,-0.3542797267436981,-0.43753910064697266
0.7837376594543457,-1.0279604196548462,-1.0160284042358398,1.5036828517913818,0.48772943019866943,-0.33278781175613403,-0.44265827536582947
0.803823709487915,-1.0163440704345703,-1.0214734077453613,1.4811745882034302,0.4730468988418579,-0.33948561549186707,-0.4421957731246948
0.8239068984985352,-1.0012997388839722,-1.0202571153640747,1.4903079271316528,0.4807876646518707,-0.3299272358417511,-0.4445446729660034
0.8440289497375488,-1.0488018989562988,-0.9950607419013977,1.4642179012298584,0.4736022353172302,-0.3568190336227417,-0.4387805163860321
0.8640687465667725,-1.0777249336242676,-0.9783766269683838,1.4769775867462158,0.4830136299133301,-0.36207717657089233,-0.4386771619319916
0.8841378688812256,-1.0020490884780884,-1.015118956565857,1.4806396961212158,0.4902108311653137,-0.32909637689590454,-0.44656509160995483
0.9042916297912598,-0.9617135524749756,-1.0206494331359863,1.5274100303649902,0.5041460394859314,-0.30085140466690063,-0.44999590516090393
0.9243168830871582,-0.9857438206672668,-1.007045030593872,1.488507628440857,0.488545686006546,-0.32256683707237244,-0.446065753698349
0.9443914890289307,-0.9769079089164734,-1.0085185766220093,1.493996024131775,0.4913289248943329,-0.3141041398048401,-0.44866031408309937
0.9644625186920166,-0.9661949872970581,-1.0073922872543335,1.4876987934112549,0.4982472360134125,-0.3117664158344269,-0.4511946737766266
0.9845468997955322,-0.9649359583854675,-1.0086352825164795,1.4746102094650269,0.4954942464828491,-0.31245899200439453,-0.45182570815086365
1.0046780109405518,-0.9337602853775024,-1.0200626850128174,1.4705355167388916,0.5045617818832397,-0.30056658387184143,-0.4561727046966553
1.02476167678833,-0.9725069999694824,-1.0064895153045654,1.46250319480896,0.48044353723526,-0.3208157420158386,-0.44972696900367737
1.0448529720306396,-0.9410355091094971,-1.0152478218078613,1.457505226135254,0.4790434241294861,-0.31239190697669983,-0.45255938172340393
1.0649051666259766,-0.9179819226264954,-1.0172897577285767,1.4729180335998535,0.47372522950172424,-0.2931850254535675,-0.4571996033191681
1.0849947929382324,-0.91249018907547,-1.0016297101974487,1.4969085454940796,0.513314962387085,-0.2874363958835602,-0.46424397826194763
1.1050999164581299,-0.9625272750854492,-0.9807778000831604,1.485276460647583,0.5095585584640503,-0.29811736941337585,-0.45859968662261963
1.1251952648162842,-0.9020029306411743,-1.0090186595916748,1.4607311487197876,0.5032132863998413,-0.2856186330318451,-0.4637772738933563
1.1452445983886719,-0.8396739363670349,-1.0333526134490967,1.4667658805847168,0.5165310502052307,-0.2582513391971588,-0.47261542081832886
1.1653897762298584,-0.8677155375480652,-1.0230941772460938,1.4251646995544434,0.49560096859931946,-0.2875344455242157,-0.46703577041625977
1.1854612827301025,-0.8795251250267029,-1.0141572952270508,1.4206463098526,0.49539801478385925,-0.2899506986141205,-0.465620219707489
1.2055284976959229,-0.8723105192184448,-1.0153696537017822,1.4353891611099243,0.49251285195350647,-0.25488269329071045,-0.46887069940567017
1.2255947589874268,-0.8540011644363403,-1.0088199377059937,1.4538226127624512,0.5025224089622498,-0.26022544503211975,-0.47187361121177673
1.245743989944458,-0.8061906099319458,-1.0249278545379639,1.4612469673156738,0.5114951133728027,-0.2320968508720398,-0.48010706901550293
1.2657725811004639,-0.7969186305999756,-1.0196812152862549,1.4479477405548096,0.5142742395401001,-0.24225527048110962,-0.4837472438812256
1.2858386039733887,-0.7718191146850586,-1.020303726196289,1.457270622253418,0.5178900361061096,-0.22506490349769592,-0.48588353395462036
1.3058910369873047,-0.7627041339874268,-1.025871992111206,1.4144929647445679,0.5121976137161255,-0.22164344787597656,-0.49064603447914124
1.3260266780853271,-0.7807070016860962,-1.019183874130249,1.3910666704177856,0.4993966519832611,-0.24880337715148926,-0.4856593608856201
1.3460867404937744,-0.7355383634567261,-1.0319597721099854,1.3600687980651855,0.5018429756164551,-0.2466222047805786,-0.4882735013961792
1.3661868572235107,-0.752445638179779,-1.0123412609100342,1.3522436618804932,0.49870428442955017,-0.2519821524620056,-0.48514795303344727
1.386204481124878,-0.8115736842155457,-0.9800943732261658,1.345442771911621,0.49841567873954773,-0.282117635011673,-0.4787176251411438
1.406322956085205,-0.7154357433319092,-1.008450984954834,1.3940868377685547,0.5380234122276306,-0.20198509097099304,-0.5034627914428711
1.4263978004455566,-0.6471262574195862,-1.0259507894515991,1.3997935056686401,0.543063759803772,-0.18146580457687378,-0.5156552195549011
1.4464259147644043,-0.6191102862358093,-1.022672176361084,1.398876667022705,0.5361524820327759,-0.15667682886123657,-0.5215890407562256
1.466672420501709,-0.7123761773109436,-0.9886302351951599,1.3222572803497314,0.49372807145118713,-0.23244376480579376,-0.503026008605957
1.486753225326538,-0.6621755957603455,-0.9969876408576965,1.3423593044281006,0.5208156108856201,-0.20533868670463562,-0.5078492164611816
1.5068321228027344,-0.579765796661377,-1.0164705514907837,1.2912261486053467,0.5165320634841919,-0.18941447138786316,-0.516098141670227
1.5269181728363037,-0.5478099584579468,-1.0170996189117432,1.2602367401123047,0.5137075781822205,-0.16929596662521362,-0.5243456363677979
1.547011137008667,-0.5506168603897095,-0.9911862015724182,1.3233760595321655,0.5380395650863647,-0.14992676675319672,-0.529589056968689
1.5671584606170654,-0.5401133298873901,-0.97527015209198,1.3462612628936768,0.5524312257766724,-0.12685588002204895,-0.5451911687850952
1.5872485637664795,-0.4956616759300232,-0.9782930016517639,1.304917335510254,0.5703291893005371,-0.11909699440002441,-0.5540990829467773
1.6073002815246582,-0.516761064529419,-0.943457841873169,1.2904655933380127,0.5856287479400635,-0.14219307899475098,-0.5536246299743652
1.6273126602172852,-0.4823794662952423,-0.9469268321990967,1.2294459342956543,0.5496826171875,-0.1290443390607834,-0.5602625608444214
1.6473987102508545,-0.3719365894794464,-0.9752599000930786,1.2395305633544922,0.5450849533081055,-0.07049994170665741,-0.5743560791015625
1.6674926280975342,-0.33478808403015137,-0.969748854637146,1.163941740989685,0.5515739917755127,-0.048832766711711884,-0.5905166864395142
1.6875567436218262,-0.2541908919811249,-0.9549124240875244,1.0949897766113281,0.5600966215133667,0.013611163012683392,-0.6226327419281006
1.7076168060302734,-0.18229326605796814,-0.9002957940101624,1.0677201747894287,0.6113810539245605,0.0753166526556015,-0.6656737327575684
1.7277238368988037,-0.09954444319009781,-0.9044435620307922,0.995851993560791,0.5743151307106018,0.10188518464565277,-0.6740086078643799
1.7478139400482178,-0.07601160556077957,-0.8486797213554382,0.8285291194915771,0.5378145575523376,0.13486069440841675,-0.7012050151824951
1.7678840160369873,-0.07904708385467529,-0.7547563314437866,0.7017961740493774,0.4531131982803345,0.20696920156478882,-0.7333558201789856
1.7879366874694824,-0.02313351072371006,-0.6347815990447998,0.6446306705474854,0.46374690532684326,0.25105002522468567,-0.7623369097709656
1.8082776069641113,-0.053470924496650696,-0.5321720838546753,0.5779711008071899,0.5517117977142334,0.1968824863433838,-0.7512180805206299
1.828355073928833,-0.0621098056435585,-0.47421783208847046,0.571108341217041,0.5444839000701904,0.19001740217208862,-0.7528660297393799
1.8484234809875488,-0.048160336911678314,-0.37204062938690186,0.4636322557926178,0.42726820707321167,0.2612496018409729,-0.7783951163291931
1.868499994277954,-0.05523932725191116,-0.28696468472480774,0.3364603519439697,0.5365051031112671,0.17616677284240723,-0.7709757685661316
1.8885471820831299,-0.13438014686107635,-0.23216402530670166,0.2868180274963379,0.5091978907585144,0.13251571357250214,-0.7678631544113159
1.908653736114502,-0.1855032742023468,-0.17232757806777954,0.22936132550239563,0.49813905358314514,0.016406003385782242,-0.7523525953292847
1.9287431240081787,-0.15229757130146027,-0.22293871641159058,0.22052517533302307,0.43495050072669983,-0.13227114081382751,-0.7226690053939819
1.9487838745117188,-0.3096819818019867,-0.2584168314933777,0.40139156579971313,0.46472620964050293,-0.18347591161727905,-0.70832759141922
1.968867540359497,-0.30041617155075073,-0.3400382995605469,0.4768276512622833,0.5551483631134033,-0.19025269150733948,-0.7029574513435364
1.9889299869537354,-0.0848466157913208,-0.420693039894104,0.5361301898956299,0.584796667098999,-0.09099076688289642,-0.708892285823822
2.00901198387146,-0.08368191123008728,-0.34271228313446045,0.2749871611595154,0.16632115840911865,0.0030522672459483147,-0.7273807525634766
2.029064416885376,-0.2451450228691101,-0.42814287543296814,0.5489341020584106,0.4423850476741791,-0.032197255641222,-0.7563562393188477
2.0491812229156494,-0.16732196509838104,-0.4639036953449249,0.4414910078048706,0.386922150850296,0.02574985846877098,-0.7547769546508789
2.069267988204956,0.11336269229650497,-0.44181180000305176,0.6322347521781921,0.5162546634674072,0.08900358527898788,-0.796806812286377
2.0893442630767822,-0.22029119729995728,-0.48028212785720825,0.5292471051216125,0.7171928286552429,-0.04540807381272316,-0.7629502415657043
2.109402656555176,0.005157312378287315,-0.5078520774841309,0.7305804491043091,0.6463624238967896,0.0913829505443573,-0.8168344497680664
2.129894733428955,0.1298055648803711,-0.4674046039581299,0.6902374029159546,0.6835416555404663,0.13599814474582672,-0.8353582620620728
2.149977445602417,-0.07194970548152924,-0.44357091188430786,0.6993647217750549,0.6881935000419617,0.06448238343000412,-0.825248122215271
2.1700375080108643,-0.22864395380020142,-0.4605388641357422,0.5338445901870728,0.7174183130264282,8.541159331798553e-06,-0.8031187057495117
2.1900997161865234,0.5175418257713318,-0.48044145107269287,0.29726189374923706,0.36619043350219727,0.15792202949523926,-0.8705965876579285
2.210216522216797,0.3158322870731354,-0.41912224888801575,0.4279610514640808,0.4888862371444702,0.008632848970592022,-0.8805310726165771
2.2303006649017334,-0.11716315895318985,-0.49803197383880615,0.44402530789375305,0.739666223526001,-0.05841553956270218,-0.8358458876609802
2.250359296798706,-0.19287854433059692,-0.5135499238967896,0.8226664066314697,0.812406063079834,0.0629427507519722,-0.8565571308135986
2.2705729007720947,-0.1196788027882576,-0.4755568206310272,1.112095594406128,0.6940249800682068,0.19713641703128815,-0.900695264339447
2.2905619144439697,-0.0558156818151474,-0.47805196046829224,0.894902765750885,0.7873511910438538,0.1610812544822693,-0.8796184062957764
2.310655117034912,-0.08229634910821915,-0.44654470682144165,0.9087638854980469,0.8782769441604614,0.12191914021968842,-0.8765708208084106
2.330716848373413,-0.1193990707397461,-0.4755682647228241,0.7069591283798218,0.8897106647491455,0.04609749838709831,-0.859646737575531
2.3509464263916016,-0.06465812027454376,-0.556399405002594,0.13930168747901917,0.7401962280273438,-0.0804341733455658,-0.8470700979232788
2.3710227012634277,-0.16948777437210083,-0.5156100988388062,0.2865944504737854,0.7399211525917053,-0.09126904606819153,-0.8592326045036316
2.3911561965942383,-0.18035882711410522,-0.534170389175415,0.4071117043495178,0.8550190925598145,-0.10154228657484055,-0.8570170998573303
2.411162853240967,-0.1557653248310089,-0.5550271272659302,0.5627443790435791,0.7859162092208862,-0.003221978433430195,-0.8702753782272339
2.4312570095062256,-0.1341443657875061,-0.4960753917694092,0.9761933088302612,0.6811900734901428,0.16097621619701385,-0.9289295673370361
2.451340913772583,-0.04115480184555054,-0.4653741717338562,1.0725853443145752,0.5059428215026855,0.2682865560054779,-0.9584872722625732
2.471423864364624,-0.06500531733036041,-0.37743914127349854,1.1806964874267578,0.8598595261573792,0.21864943206310272,-0.9275099039077759
2.4915027618408203,-0.059174031019210815,-0.45118841528892517,1.0522863864898682,0.8442776203155518,0.2692912220954895,-0.9226013422012329
2.51157808303833,-0.05525760352611542,-0.4831090271472931,0.8919498324394226,0.8351180553436279,0.20575103163719177,-0.9146955013275146
2.5317015647888184,-0.08964991569519043,-0.5160826444625854,0.5146710276603699,0.8650175333023071,-0.0009157033637166023,-0.8951554298400879
2.551711082458496,-0.27931830286979675,-0.5019346475601196,0.42303699254989624,0.7335589528083801,-0.0481659471988678,-0.8992079496383667
2.57175612449646,-0.1278788149356842,-0.5107164978981018,0.6368617415428162,0.7937935590744019,-0.0030844705179333687,-0.9219598174095154
2.591843605041504,0.185596764087677,-0.5452395677566528,0.7210434675216675,0.6204981803894043,0.20758658647537231,-0.9630029201507568
2.6119234561920166,0.12083340436220169,-0.5073789954185486,0.4077441692352295,0.6284531950950623,0.19297459721565247,-0.9614678621292114
2.6320302486419678,-0.23814883828163147,-0.43016517162323,0.8132913708686829,0.8749462366104126,0.038508590310811996,-0.9516737461090088
2.6520802974700928,-0.03539084270596504,-0.5073069334030151,0.47355008125305176,0.6952836513519287,0.08817476034164429,-0.966273307800293
2.672177791595459,-0.0872533842921257,-0.5011917948722839,0.5492871999740601,0.8107393980026245,0.08746261149644852,-0.9653631448745728
2.692331552505493,-0.3421172499656677,-0.5262653827667236,0.5030747652053833,0.6985021829605103,-0.02127288654446602,-0.9469501376152039
2.712364912033081,0.20039859414100647,-0.5292279720306396,0.5366429090499878,0.7157755494117737,0.05108734220266342,-1.0017143487930298
2.7323551177978516,-0.05725064501166344,-0.5142782926559448,0.6745816469192505,0.9001577496528625,0.046153198927640915,-0.9884557127952576
2.7524349689483643,-0.1216111108660698,-0.5173230767250061,0.664548397064209,0.9184420108795166,0.04658588394522667,-0.9756354689598083
2.7724995613098145,-0.09133908152580261,-0.5702171325683594,0.322659969329834,0.7000160217285156,0.09611291438341141,-0.9768058061599731
2.792609214782715,-0.1201518103480339,-0.5124358534812927,0.6736854314804077,0.9139887094497681,0.044270891696214676,-0.997600257396698
2.8126542568206787,-0.07533810287714005,-0.5709730386734009,0.3419407904148102,0.6818779706954956,0.011014360003173351,-0.9921355247497559
2.8327598571777344,-0.018642352893948555,-0.5723066926002502,0.1710314154624939,0.7028047442436218,-0.0229283906519413,-0.9974826574325562
2.85286283493042,-0.1872452348470688,-0.519202709197998,0.5022212266921997,0.9957066178321838,-0.11778111755847931,-0.9994925260543823
2.872986316680908,-0.22780326008796692,-0.5364187359809875,0.6809895038604736,0.8658390641212463,0.014784271828830242,-1.0037769079208374
2.893052816390991,0.4745599031448364,-0.5987255573272705,0.34436342120170593,0.6430665254592896,0.22942021489143372,-1.0559906959533691
2.9131245613098145,0.24815517663955688,-0.5333771705627441,0.560083270072937,0.8158175945281982,0.1990501582622528,-1.0648711919784546
2.933206558227539,-0.11814256757497787,-0.5101509094238281,0.7161985635757446,0.9504531621932983,0.02426787093281746,-1.031926155090332
2.953274726867676,-0.07739432156085968,-0.6018239259719849,0.2888096272945404,0.7282428741455078,0.032878655940294266,-1.0229449272155762
2.9733948707580566,-0.21238377690315247,-0.5634031295776367,0.4272860884666443,0.9044984579086304,-0.02742234244942665,-1.0298103094100952
2.9935972690582275,-0.20853593945503235,-0.5392652153968811,0.5638987421989441,0.981980562210083,-0.11452184617519379,-1.0330450534820557
3.0136609077453613,-0.1420723795890808,-0.5442468523979187,0.6996042728424072,0.868995189666748,-0.0006437497213482857,-1.0430294275283813
3.0336802005767822,-0.026811813935637474,-0.623687744140625,-0.0473402738571167,0.6783676147460938,-0.07988785207271576,-1.025554895401001
3.0537476539611816,-0.22610777616500854,-0.4745086133480072,0.7256104946136475,1.0357667207717896,-0.06163414567708969,-1.0529788732528687
3.0738439559936523,-0.07841801643371582,-0.5701519250869751,0.5105533599853516,0.8583683967590332,-0.08045125007629395,-1.0458741188049316
3.093904733657837,-0.14429214596748352,-0.5641354322433472,0.6094141006469727,0.8595906496047974,0.04373478516936302,-1.066763997077942
3.113975763320923,-0.09067389369010925,-0.5504807233810425,0.8513875007629395,0.8519449234008789,0.15164445340633392,-1.0871474742889404
3.134018659591675,0.02841358445584774,-0.5732790231704712,0.35797542333602905,0.8257895708084106,0.0739474967122078,-1.0810102224349976
3.1541271209716797,-0.1162385568022728,-0.47878772020339966,0.5593605041503906,0.9740694761276245,0.06485067307949066,-1.0873336791992188
3.1742289066314697,-0.32509538531303406,-0.5455853343009949,0.629311203956604,0.8642910718917847,-0.01584118977189064,-1.0672881603240967
3.1943039894104004,0.15649083256721497,-0.6054211854934692,0.6254639029502869,0.8603072762489319,0.1725025773048401,-1.1009633541107178
3.2143425941467285,0.10077405720949173,-0.567935049533844,0.7211158275604248,0.9586261510848999,0.1871572583913803,-1.1118316650390625
3.2344422340393066,-0.20489399135112762,-0.5420939922332764,0.6937119364738464,0.944810152053833,0.012212513945996761,-1.0910381078720093
3.254503011703491,0.10430113971233368,-0.6267662048339844,0.2471218854188919,0.7934372425079346,0.07132603973150253,-1.0926419496536255
3.2745771408081055,0.1797705590724945,-0.5631147623062134,0.39327943325042725,1.0061184167861938,0.04826950281858444,-1.1143981218338013
3.294617176055908,-0.10622696578502655,-0.5815627574920654,0.4569810628890991,1.0330443382263184,-0.043119166046381,-1.0937702655792236
3.314696788787842,-0.19932670891284943,-0.5735679864883423,0.6388139724731445,1.0531189441680908,-0.03642730042338371,-1.0929040908813477
3.334798812866211,0.10376521199941635,-0.6055989265441895,0.7726125717163086,0.8138074278831482,0.19932769238948822,-1.1339465379714966
3.3548617362976074,0.03212673217058182,-0.5583256483078003,0.7437119483947754,0.9469786882400513,0.14655791223049164,-1.1352150440216064
3.374932050704956,-0.2342575192451477,-0.5100797414779663,0.7201335430145264,1.0202792882919312,-0.005769898183643818,-1.1014978885650635
3.395054817199707,-0.19248470664024353,-0.5677742958068848,0.4443500339984894,0.9493865966796875,-0.07395806908607483,-1.0941414833068848
3.415106773376465,-0.05150087922811508,-0.5881242156028748,0.3362290859222412,1.001162052154541,-0.029252570122480392,-1.11012601852417
3.4351541996002197,-0.14399640262126923,-0.5962135791778564,0.40503084659576416,1.0527453422546387,-0.1411161571741104,-1.102554440498352
3.4552066326141357,-0.1428697109222412,-0.6000131368637085,0.5416669845581055,1.01679527759552,-0.04123891517519951,-1.107996940612793
3.47528338432312,-0.15113063156604767,-0.5650147199630737,0.7719221115112305,1.0563597679138184,0.029762007296085358,-1.1176059246063232
3.495349645614624,-0.04402556270360947,-0.5922601222991943,0.6378408670425415,0.8490570187568665,0.0714322105050087,-1.1227281093597412
3.5154213905334473,-0.37790635228157043,-0.4984911382198334,0.8056588768959045,1.0286736488342285,0.02723611518740654,-1.122808575630188
3.5354881286621094,-0.30454951524734497,-0.5139296650886536,0.6207171678543091,1.013105869293213,-0.056086063385009766,-1.1057143211364746
3.5556211471557617,-0.18616044521331787,-0.5589181780815125,0.4449225664138794,1.00740647315979,-0.08355894684791565,-1.1093378067016602
3.5756723880767822,-0.058577246963977814,-0.5631542205810547,0.4464680850505829,1.0609736442565918,-0.07934754341840744,-1.1265418529510498
3.5957555770874023,-0.24923944473266602,-0.5405830144882202,0.6933774948120117,1.0816195011138916,-0.05573388934135437,-1.1191043853759766
3.615809917449951,0.17978733777999878,-0.6217405796051025,0.6801683902740479,0.9246967434883118,0.09049256891012192,-1.139487624168396
3.6359057426452637,0.12428715080022812,-0.5930476784706116,0.6188422441482544,0.9225521087646484,0.13527482748031616,-1.1504417657852173
3.6559629440307617,-0.20501911640167236,-0.5323754549026489,0.7714084386825562,1.0064712762832642,0.024849988520145416,-1.1379106044769287
3.676008701324463,-0.12392190098762512,-0.5888660550117493,0.47943735122680664,0.8834508657455444,0.005410823039710522,-1.1299101114273071
3.696091890335083,-0.052125632762908936,-0.606716513633728,0.27908018231391907,0.9135541915893555,0.002529124729335308,-1.1302562952041626
3.7161712646484375,-0.18793563544750214,-0.567375659942627,0.527204155921936,1.0905601978302002,-0.1428428590297699,-1.1283156871795654
3.7363314628601074,-0.2685454785823822,-0.5630902647972107,0.7288503646850586,1.0216195583343506,-0.0730217695236206,-1.120288610458374
3.75632905960083,0.1367352306842804,-0.6108291149139404,0.553612232208252,0.9394141435623169,0.12967798113822937,-1.1503962278366089
3.7764458656311035,-0.33789846301078796,-0.5974141955375671,0.48884308338165283,0.8339685201644897,0.02456444501876831,-1.1295251846313477
3.796492576599121,-0.21634367108345032,-0.542212963104248,0.6996099948883057,1.0034675598144531,0.050189293920993805,-1.1446943283081055
3.816563129425049,0.20897692441940308,-0.60491943359375,0.6305928826332092,0.850204586982727,0.2138614058494568,-1.1792702674865723
3.8368608951568604,0.018044499680399895,-0.5556691288948059,0.740682065486908,1.020290493965149,0.1519622802734375,-1.1759896278381348
3.856943130493164,-0.03848816454410553,-0.560731053352356,0.7455943822860718,1.0096216201782227,0.12586787343025208,-1.1689915657043457
3.877023458480835,-0.15415889024734497,-0.5866308212280273,0.498735249042511,0.9827538728713989,0.004485460929572582,-1.1470710039138794
3.8971123695373535,-0.09384385496377945,-0.552126407623291,0.7869742512702942,1.100511074066162,0.07743195444345474,-1.1696209907531738
3.9171507358551025,-0.19604305922985077,-0.5503120422363281,0.7133288979530334,1.0623379945755005,-0.046310391277074814,-1.145442008972168
3.937239646911621,-0.17069196701049805,-0.5829626321792603,0.5458060503005981,0.9949520826339722,-0.0020399736240506172,-1.1464014053344727
3.9573192596435547,-0.03939045965671539,-0.5417994260787964,0.7740266919136047,1.078739047050476,0.13389062881469727,-1.1809109449386597
3.9773988723754883,-0.13064584136009216,-0.5565248727798462,0.731196403503418,1.0347822904586792,0.03197721019387245,-1.1615649461746216
3.9974870681762695,-0.015600314363837242,-0.6330753564834595,0.24252301454544067,0.8778508901596069,-0.008481119759380817,-1.1549431085586548
4.0175697803497314,-0.29458147287368774,-0.5854032039642334,0.42543527483940125,1.0368342399597168,-0.05341894179582596,-1.152587890625
4.037633419036865,-0.2909786105155945,-0.5742868185043335,0.5602355599403381,1.0882691144943237,-0.1345975399017334,-1.1490564346313477
4.057738304138184,-0.05985764414072037,-0.5657588243484497,0.7875015735626221,1.075913667678833,0.06950084865093231,-1.1752957105636597
4.077808380126953,-0.14121799170970917,-0.5952031016349792,0.4080037474632263,1.000086784362793,-0.03349088504910469,-1.1591848134994507
4.097901105880737,-0.2593984007835388,-0.5323548316955566,0.8896456360816956,1.1070752143859863,0.07658844441175461,-1.1758977174758911
4.117964744567871,-0.15620894730091095,-0.5386538505554199,0.8549185395240784,1.0450408458709717,0.05675431340932846,-1.167945384979248
4.138035297393799,-0.08606886118650436,-0.5752397775650024,0.6524167060852051,0.9878478050231934,0.08871108293533325,-1.1775243282318115
4.158095359802246,-0.2975613474845886,-0.5677201151847839,0.48077747225761414,1.0667403936386108,-0.08871055394411087,-1.1606206893920898
4.178241014480591,-0.34934133291244507,-0.5686099529266357,0.5810786485671997,1.1074024438858032,-0.11762315779924393,-1.1552339792251587
4.198329210281372,-0.14300128817558289,-0.6014025211334229,0.5691002011299133,1.0675545930862427,-0.03208509460091591,-1.163878083229065
4.218361854553223,-0.08308858424425125,-0.5420162677764893,0.986429750919342,1.1191504001617432,0.12153604626655579,-1.1890406608581543
4.238439083099365,-0.5286589860916138,-0.5463871955871582,0.7454609274864197,0.9518300294876099,-0.13925300538539886,-1.1433568000793457
4.258527040481567,-0.3644147217273712,-0.5641928911209106,0.6752150654792786,1.0156883001327515,0.01081585418432951,-1.1599982976913452
4.2785866260528564,0.16224679350852966,-0.5693813562393188,0.7584578990936279,1.0720183849334717,0.19634436070919037,-1.2053102254867554
4.298654317855835,-0.09512496739625931,-0.5444796681404114,0.6554696559906006,1.0833969116210938,0.03299548849463463,-1.1846399307250977
4.318787336349487,-0.3019939959049225,-0.633419930934906,0.2489326447248459,0.9692362546920776,-0.16006159782409668,-1.1522177457809448
4.3388800621032715,-0.21793535351753235,-0.6274517774581909,0.317300409078598,1.05702805519104,-0.13669249415397644,-1.158968448638916
4.359009027481079,-0.1515057384967804,-0.6184450387954712,0.406665176153183,1.084294319152832,-0.09177131205797195,-1.1669445037841797
4.379016160964966,-0.21415217220783234,-0.5815006494522095,0.6428045034408569,1.1130964756011963,-0.027757752686738968,-1.1746920347213745
4.399068355560303,0.15601474046707153,-0.6114550828933716,0.8796653151512146,1.0307543277740479,0.23135113716125488,-1.2084026336669922
4.419146776199341,0.017748819664120674,-0.569683849811554,0.8581688404083252,1.0255763530731201,0.15648502111434937,-1.207014799118042
4.439233064651489,-0.049204349517822266,-0.5311610102653503,0.8840583562850952,1.049608588218689,0.13336484134197235,-1.202589750289917
4.45929741859436,-0.033938176929950714,-0.5688652992248535,0.7524188160896301,1.023024082183838,0.15027187764644623,-1.2031351327896118
4.479344606399536,0.04405753314495087,-0.5901645421981812,0.5686322450637817,1.0256248712539673,0.10325031727552414,-1.1999510526657104
4.499518156051636,-0.2819344997406006,-0.607843279838562,0.3669097423553467,1.0721795558929443,-0.15352289378643036,-1.1720048189163208
4.519579887390137,-0.3208198547363281,-0.6280421018600464,0.3558949828147888,1.0922318696975708,-0.221186101436615,-1.159800410270691
4.539612531661987,-0.18813501298427582,-0.6141427159309387,0.4772338271141052,1.1114420890808105,-0.08827628195285797,-1.171594262123108
4.559685945510864,-0.2053392380475998,-0.5569432973861694,0.8324671983718872,1.1185201406478882,0.047647375613451004,-1.187380075454712
4.579770565032959,0.08183441311120987,-0.5945761203765869,0.8677139282226562,1.058985948562622,0.18507468700408936,-1.2081398963928223
4.599844455718994,-0.01613360457122326,-0.5478265285491943,0.9222018718719482,1.0482661724090576,0.22028848528862,-1.2175137996673584
4.6199235916137695,-0.07186327129602432,-0.5562597513198853,0.8019708395004272,1.0288739204406738,0.14700888097286224,-1.2090823650360107
4.639980316162109,0.0033846739679574966,-0.6106810569763184,0.3884596824645996,0.993831217288971,0.026535142213106155,-1.1972852945327759
4.66006326675415,-0.3787498474121094,-0.5794321298599243,0.562942624092102,1.110011339187622,-0.13991469144821167,-1.181320309638977
4.6801745891571045,-0.32117220759391785,-0.6092201471328735,0.47885662317276,1.0947048664093018,-0.17471209168434143,-1.1672601699829102
4.700268268585205,-0.09750804305076599,-0.5811138153076172,0.6757209897041321,1.1199579238891602,0.016041245311498642,-1.192582368850708
4.720400810241699,-0.33442530035972595,-0.5512778162956238,0.7950781583786011,0.9753901362419128,-0.04737449437379837,-1.1764352321624756
4.740505218505859,-0.29487842321395874,-0.5695603489875793,0.735085129737854,0.9993079900741577,0.0031373156234622,-1.181371808052063
4.760573863983154,0.1657608300447464,-0.585140585899353,0.7678993940353394,1.0162127017974854,0.2998746633529663,-1.229250192642212
4.780611515045166,-0.05000664293766022,-0.5613322257995605,0.6753922700881958,1.0576939582824707,0.08304169774055481,-1.2145665884017944
4.800682067871094,-0.04498600214719772,-0.5924103856086731,0.47314387559890747,1.038227915763855,0.01303050946444273,-1.202051043510437
4.820767402648926,-0.3114188015460968,-0.6281887292861938,0.34833502769470215,1.1058170795440674,-0.1907792091369629,-1.1744508743286133
4.840818881988525,-0.22715678811073303,-0.6291970610618591,0.41851741075515747,1.0780129432678223,-0.0962749645113945,-1.1809427738189697
4.8608949184417725,-0.1742142140865326,-0.6001462340354919,0.5577750205993652,1.1106388568878174,-0.028888706117868423,-1.1929795742034912
4.880994081497192,-0.21315152943134308,-0.5364394187927246,1.0786168575286865,1.1424758434295654,0.13989897072315216,-1.2094569206237793
4.901074171066284,0.04663470387458801,-0.5841529369354248,0.5608737468719482,1.0229849815368652,0.13609065115451813,-1.2195791006088257
4.921114206314087,-0.2187928557395935,-0.5267866849899292,0.7421331405639648,1.1343567371368408,-0.014697988517582417,-1.2047386169433594
4.9411985874176025,-0.2029791623353958,-0.5762962102890015,0.6393700838088989,1.0316412448883057,0.06449584662914276,-1.2047131061553955
4.961266279220581,0.2613426744937897,-0.6237668991088867,0.2960061728954315,1.0737913846969604,0.03522561118006706,-1.2088611125946045
4.981346130371094,-0.051370128989219666,-0.6016943454742432,0.379102885723114,1.131986141204834,-0.11219027638435364,-1.2017191648483276
5.0014026165008545,-0.1776745766401291,-0.5901815891265869,0.722510814666748,1.1023907661437988,0.0006444705650210381,-1.202977180480957
5.021490812301636,-0.14467889070510864,-0.5716193914413452,1.0038518905639648,1.122631311416626,0.12982895970344543,-1.213269829750061
5.041568040847778,0.10956443846225739,-0.6023024320602417,0.7208216190338135,1.0005745887756348,0.25365957617759705,-1.236299753189087
5.061721086502075,-0.20294153690338135,-0.5272149443626404,0.7666171789169312,1.1370835304260254,-0.0408405065536499,-1.211398959159851
5.081725835800171,-0.16290798783302307,-0.6019523739814758,0.4258727431297302,1.0295636653900146,-0.03792877867817879,-1.1982667446136475
5.101841926574707,0.2348448932170868,-0.6369668245315552,0.24713534116744995,1.0343862771987915,0.10123474895954132,-1.2125840187072754
5.121884107589722,0.03964677453041077,-0.6015059351921082,0.438612699508667,1.1555110216140747,-0.018800582736730576,-1.2155660390853882
5.141967535018921,-0.15460677444934845,-0.5971729755401611,0.6516834497451782,1.1398463249206543,-0.0025653736665844917,-1.2095041275024414
5.162006139755249,-0.10106369107961655,-0.6024894714355469,0.8763779401779175,0.9676070213317871,0.1564573347568512,-1.2299168109893799
5.182095050811768,0.03326554596424103,-0.6125051379203796,0.7733442783355713,0.9637489914894104,0.18108507990837097,-1.2362518310546875
5.202221155166626,-0.06123515963554382,-0.5671007633209229,0.8401802778244019,1.0563136339187622,0.15500730276107788,-1.239004135131836
5.222344160079956,-0.13765835762023926,-0.5581378936767578,0.7684295177459717,1.087533950805664,0.09447658807039261,-1.224783182144165
5.24237585067749,-0.08900024741888046,-0.6187160015106201,0.3127291798591614,1.0441306829452515,-0.03304490074515343,-1.2109014987945557
5.262602806091309,-0.2153337597846985,-0.6005399227142334,0.5345739722251892,1.1574225425720215,-0.10528180003166199,-1.207260251045227
5.2826902866363525,-0.24182040989398956,-0.5901999473571777,0.7046058773994446,1.1799019575119019,-0.09425680339336395,-1.2064177989959717
5.30287766456604,0.214377760887146,-0.648600697517395,0.6330448389053345,1.0323150157928467,0.11272267252206802,-1.228675127029419
5.322865724563599,0.22293928265571594,-0.5941359996795654,0.5002609491348267,1.0214755535125732,0.21515688300132751,-1.2437831163406372
5.34296441078186,-0.05933140963315964,-0.5490822792053223,0.8206039667129517,1.143237829208374,0.08884524554014206,-1.2356451749801636
5.36306095123291,-0.39208316802978516,-0.5584906339645386,0.7999776005744934,1.0556343793869019,-0.005698473192751408,-1.2099270820617676
5.3832104206085205,-0.17607641220092773,-0.5997339487075806,0.6105793118476868,1.039953589439392,0.027407698333263397,-1.2188012599945068
5.403254747390747,0.0804484635591507,-0.6109533309936523,0.3969249129295349,1.149888277053833,-0.08713661134243011,-1.2248284816741943
5.423444986343384,-0.030319707468152046,-0.5840860605239868,0.5604954957962036,1.1683611869812012,0.009801934473216534,-1.2294219732284546
5.443533182144165,-0.33371442556381226,-0.578653872013092,0.7504876255989075,1.1465427875518799,-0.02423849329352379,-1.2082380056381226
5.463543176651001,-0.05422940105199814,-0.5953983068466187,0.807709813117981,1.1188139915466309,0.09770120680332184,-1.222287654876709
5.483586549758911,0.06356034427881241,-0.58714359998703,0.6543956398963928,1.0750181674957275,0.14468668401241302,-1.241821050643921
5.503697872161865,-0.04701435565948486,-0.5598325729370117,0.7842137217521667,1.1188493967056274,0.12129644304513931,-1.239917516708374
5.523741006851196,-0.16258706152439117,-0.594634473323822,0.603154182434082,1.035386562347412,0.02999286726117134,-1.217937707901001
5.543804883956909,-0.006363267078995705,-0.5840950012207031,0.7717300057411194,1.1460387706756592,0.17552345991134644,-1.2409762144088745
5.563883543014526,-0.06625687330961227,-0.5706973671913147,0.8334819078445435,1.138758659362793,0.09129264950752258,-1.2354053258895874
5.583961486816406,-0.0946146547794342,-0.6242697238922119,0.4359266459941864,1.0363075733184814,-0.0049601392820477486,-1.2149267196655273
5.6040356159210205,-0.0977090522646904,-0.5974118709564209,0.5424692630767822,1.121394395828247,0.0030854595825076103,-1.2266736030578613
5.6241044998168945,-0.29718559980392456,-0.5512006282806396,1.0576670169830322,1.1391632556915283,0.11571706831455231,-1.2284786701202393
5.644190788269043,0.01409977488219738,-0.6185253858566284,0.7304174304008484,1.0069133043289185,0.1319851577281952,-1.2340173721313477
5.664266586303711,-0.03528910130262375,-0.5772989988327026,0.8467226028442383,1.0689239501953125,0.2375924438238144,-1.254030466079712
5.684324741363525,-0.09294364601373672,-0.586475133895874,0.674412190914154,1.0628013610839844,0.11774922162294388,-1.2397716045379639
5.704386472702026,-0.24574726819992065,-0.6143312454223633,0.41017818450927734,1.07421875,-0.05736958980560303,-1.2212693691253662
5.724485158920288,-0.32303303480148315,-0.5956140756607056,0.5719912052154541,1.1762478351593018,-0.09281974285840988,-1.2181535959243774
5.744666576385498,-0.23724724352359772,-0.6081163883209229,0.6082143783569336,1.169107437133789,-0.07940089702606201,-1.215282678604126
5.764643669128418,0.013940306380391121,-0.5757226943969727,0.9470953345298767,1.1805758476257324,0.14398589730262756,-1.242467999458313
5.784778118133545,0.0031649786978960037,-0.5864592790603638,0.7508663535118103,1.0714045763015747,0.14843152463436127,-1.2456011772155762
5.804857969284058,-0.0874478667974472,-0.5655778646469116,0.776282548904419,1.0962769985198975,0.1149892657995224,-1.2433580160140991
5.824932813644409,-0.08486159145832062,-0.5849730968475342,0.6250578165054321,1.0679492950439453,0.08227667212486267,-1.23741614818573
5.845005750656128,-0.31645694375038147,-0.5930380821228027,0.5161119103431702,1.1422996520996094,-0.11085712909698486,-1.219590425491333
5.8650524616241455,-0.22252491116523743,-0.6097233295440674,0.5728417634963989,1.1483287811279297,-0.08602914959192276,-1.2151553630828857
5.885228157043457,-0.09171769767999649,-0.5939930081367493,0.7180080413818359,1.174340009689331,0.05223674699664116,-1.2308599948883057
5.905277490615845,-0.285651832818985,-0.5908949375152588,0.6214039325714111,1.002111792564392,-0.030928626656532288,-1.216625690460205
5.925311088562012,0.06759612262248993,-0.6011253595352173,0.6416897773742676,1.1045687198638916,0.1419895887374878,-1.2446784973144531
5.945939779281616,-0.197866290807724,-0.5039477348327637,1.14565110206604,1.130676507949829,0.11614617705345154,-1.2318819761276245
5.966041564941406,-0.14944423735141754,-0.5418494939804077,1.0633299350738525,1.0928006172180176,0.19417572021484375,-1.2368055582046509
5.986116647720337,-0.03112420253455639,-0.5666933655738831,1.004697322845459,1.0716207027435303,0.25029611587524414,-1.253584623336792
6.006301164627075,-0.045373059809207916,-0.5629515051841736,0.7719399333000183,1.1031765937805176,0.10390303283929825,-1.2430200576782227
6.026272296905518,-0.08420749753713608,-0.6007305383682251,0.5003639459609985,1.0887216329574585,0.014149616472423077,-1.2303297519683838
6.046369314193726,-0.38823696970939636,-0.6183677911758423,0.34410011768341064,1.0981239080429077,-0.21135157346725464,-1.202113151550293
6.066444158554077,-0.3939756751060486,-0.603227972984314,0.613663911819458,1.1394613981246948,-0.14150047302246094,-1.2036018371582031
6.086505174636841,-0.18368789553642273,-0.5796287655830383,0.7921891808509827,1.142771601676941,0.046899206936359406,-1.2263370752334595
6.106558322906494,0.14912450313568115,-0.603722095489502,0.527475893497467,1.0636216402053833,0.11652043461799622,-1.2462396621704102
6.126651048660278,0.08150961995124817,-0.5842995643615723,0.6337894797325134,1.0949699878692627,0.1694309115409851,-1.2535231113433838
6.146728038787842,-0.2909388840198517,-0.5481404662132263,0.7918644547462463,1.1156806945800781,0.009909491054713726,-1.2282581329345703
6.166817665100098,-0.0428885743021965,-0.6237204074859619,0.4936937689781189,1.014067530632019,0.08254607021808624,-1.237789273262024
6.186920404434204,-0.02652597986161709,-0.5530592799186707,0.8114685416221619,1.1762330532073975,0.0497535802423954,-1.25168776512146
6.206950664520264,0.1699887216091156,-0.5904691219329834,0.7746614813804626,1.1686797142028809,0.14755049347877502,-1.2535121440887451
6.227048635482788,-0.1823742538690567,-0.5928524136543274,0.6168864965438843,1.1171116828918457,-0.024961862713098526,-1.2261091470718384
6.2471277713775635,0.02769356779754162,-0.584504246711731,0.8137083053588867,1.1753411293029785,0.10616929829120636,-1.244706153869629
6.267230987548828,-0.3522641062736511,-0.5838184952735901,0.7352967858314514,1.0958642959594727,0.02665581926703453,-1.2112398147583008
6.287282228469849,-0.4676471948623657,-0.5798600912094116,0.7138991951942444,1.0824286937713623,-0.05371348187327385,-1.2056130170822144
6.307357311248779,0.03152631223201752,-0.5839811563491821,0.6995574235916138,1.1294386386871338,0.09652633219957352,-1.2480577230453491
6.327427625656128,-0.23500806093215942,-0.5662559270858765,0.6310254335403442,1.1357910633087158,-0.058908093720674515,-1.2287002801895142
6.347483158111572,0.07137589156627655,-0.6274312734603882,0.5193566083908081,1.144192099571228,0.04446649178862572,-1.2340312004089355
6.367624998092651,-0.00992731936275959,-0.600675106048584,0.5763329267501831,1.1363027095794678,0.013912330381572247,-1.2403464317321777
6.38772177696228,-0.4250789284706116,-0.5519420504570007,0.9185339212417603,1.1558986902236938,-0.009149079211056232,-1.225106954574585
6.407756567001343,-0.3615338206291199,-0.6073763370513916,0.7087231874465942,1.0560859441757202,-0.02886338159441948,-1.2102723121643066
6.428176641464233,0.15710899233818054,-0.5987825989723206,0.8498517274856567,1.1483144760131836,0.25393781065940857,-1.2564748525619507
6.4482526779174805,0.1627945899963379,-0.5812755823135376,0.7537306547164917,1.1212053298950195,0.1964217722415924,-1.2639822959899902
6.468339443206787,-0.09690271317958832,-0.5587821006774902,0.7273935079574585,1.1321613788604736,0.04336324334144592,-1.2448387145996094
6.4883952140808105,-0.1431691199541092,-0.6363615989685059,0.26433074474334717,1.057188630104065,-0.10951656103134155,-1.2187414169311523
6.508472442626953,-0.2200922667980194,-0.578951358795166,0.7471131682395935,1.221501111984253,-0.00298136193305254,-1.2334353923797607
6.528544902801514,0.04658246785402298,-0.6523668169975281,0.5174751877784729,1.0564297437667847,-0.013801013119518757,-1.227913498878479
6.548631906509399,0.03402235358953476,-0.5974966287612915,0.5087288618087769,1.1243436336517334,0.05605582147836685,-1.2466583251953125
6.568791151046753,-0.3509443998336792,-0.5384495258331299,0.8901477456092834,1.179013967514038,-0.05953141674399376,-1.228590726852417
6.588970184326172,-0.30956289172172546,-0.5912009477615356,0.6492714881896973,1.032508373260498,-0.014183797873556614,-1.2192931175231934
6.608996629714966,0.0862901583313942,-0.6019436120986938,0.7069300413131714,1.1149060726165771,0.21370017528533936,-1.255678415298462
6.629351377487183,-0.03726582229137421,-0.5537819862365723,0.9668265581130981,1.1394665241241455,0.12655210494995117,-1.2515372037887573
6.649432897567749,-0.09571869671344757,-0.5718682408332825,0.8054975867271423,1.0798442363739014,0.07519865036010742,-1.2417457103729248
6.6695520877838135,-0.01798570342361927,-0.5968860387802124,0.7005329728126526,1.058574914932251,0.16315490007400513,-1.251285433769226
6.689578533172607,-0.20603661239147186,-0.5966905951499939,0.5540022253990173,1.0761489868164062,0.008807393722236156,-1.2362343072891235
6.709681272506714,-0.5336306095123291,-0.5775399208068848,0.758652925491333,1.1449763774871826,-0.09901340305805206,-1.2157161235809326
6.7297539710998535,-0.23541498184204102,-0.5666884183883667,0.9062520861625671,1.0688992738723755,0.012087981216609478,-1.2287609577178955
6.749826669692993,-0.06640665233135223,-0.5909155607223511,0.8228044509887695,1.0781912803649902,0.18079325556755066,-1.2547246217727661
6.77050256729126,-0.1634485423564911,-0.5637632012367249,0.7189373970031738,1.1206438541412354,0.036368176341056824,-1.2394418716430664
6.790618419647217,-0.12216556817293167,-0.589623749256134,0.5733540058135986,1.0875953435897827,0.04174664244055748,-1.2392473220825195
6.810673713684082,-0.2065393030643463,-0.549125611782074,0.9234093427658081,1.2619290351867676,0.011039371602237225,-1.2448867559432983
6.830748796463013,-0.17422738671302795,-0.6046151518821716,0.7505590915679932,1.1149109601974487,-0.0338437519967556,-1.219275951385498
6.850852012634277,-0.09242089092731476,-0.6112085580825806,0.6963062286376953,1.0682320594787598,0.1226148009300232,-1.241694450378418
6.870932102203369,-0.10519719868898392,-0.6280696392059326,0.14232775568962097,1.0926443338394165,-0.09500393271446228,-1.2259011268615723
6.890960216522217,-0.3059269189834595,-0.5896893739700317,0.5141228437423706,1.221315860748291,-0.23123645782470703,-1.2188618183135986
6.911085844039917,-0.1874496191740036,-0.5921974182128906,0.6379367113113403,1.1760178804397583,-0.03585826978087425,-1.2292907238006592
6.931186199188232,-0.0538288876414299,-0.5829702615737915,0.8547828197479248,1.1867146492004395,0.11048644781112671,-1.2470667362213135
6.95128059387207,-0.0033565666526556015,-0.5755771994590759,0.8795626759529114,1.0858021974563599,0.16770556569099426,-1.2598204612731934
6.971303939819336,-0.06236317753791809,-0.5651176571846008,0.885707437992096,1.0977208614349365,0.14835622906684875,-1.2566510438919067
6.991551160812378,-0.042451195418834686,-0.5873298645019531,0.7585147619247437,1.050720453262329,0.15021786093711853,-1.2557039260864258
7.011561870574951,-0.05715207755565643,-0.6078827381134033,0.5037974119186401,1.052234172821045,0.03849801793694496,-1.2463847398757935
7.031617879867554,-0.37439924478530884,-0.6167666912078857,0.4991798996925354,1.1737679243087769,-0.16545847058296204,-1.2137513160705566
7.051733016967773,-0.22970129549503326,-0.6225276589393616,0.5301666855812073,1.1587092876434326,-0.07767342031002045,-1.2207387685775757
7.071925163269043,-0.20021755993366241,-0.5988414883613586,0.6019179821014404,1.1677770614624023,-0.044183891266584396,-1.2291730642318726
7.092013597488403,-0.0013487320393323898,-0.5701818466186523,1.0383895635604858,1.1997807025909424,0.19065779447555542,-1.2553807497024536
7.1120312213897705,-0.014088766649365425,-0.5618808269500732,0.9274182319641113,1.0958421230316162,0.21737787127494812,-1.2629199028015137
7.132150888442993,-0.04846525192260742,-0.5580494403839111,0.9386960864067078,1.1033880710601807,0.19429129362106323,-1.2618415355682373
7.152297496795654,-0.049551792442798615,-0.5746380090713501,0.7934397459030151,1.072777271270752,0.12282702326774597,-1.2537943124771118
7.172327518463135,0.02448609285056591,-0.6084985733032227,0.4996384084224701,1.0769243240356445,0.06278186291456223,-1.250008463859558
7.192402601242065,-0.3339678645133972,-0.6206471920013428,0.4256310760974884,1.1652538776397705,-0.15777587890625,-1.2162871360778809
7.212474346160889,-0.4046410322189331,-0.6380677223205566,0.3707538843154907,1.1477797031402588,-0.26295745372772217,-1.2037370204925537
7.232546806335449,-0.1862894594669342,-0.6065886616706848,0.567001461982727,1.1737172603607178,-0.04946344345808029,-1.2283220291137695
7.25261926651001,-0.20356827974319458,-0.5480906367301941,1.0262846946716309,1.201955795288086,0.10748963057994843,-1.2422058582305908
7.272663116455078,-0.054942622780799866,-0.5644986629486084,0.8508628606796265,1.1172033548355103,0.14145836234092712,-1.2540667057037354
7.292843580245972,-0.08921249210834503,-0.5663868188858032,0.876510500907898,1.0837960243225098,0.20495012402534485,-1.2596380710601807
7.312916994094849,-0.07451843470335007,-0.5811679363250732,0.7060227990150452,1.0781433582305908,0.11246366053819656,-1.2542896270751953
7.332937717437744,-0.12471259385347366,-0.6058343648910522,0.44128841161727905,1.0844570398330688,-0.0179932601749897,-1.2413885593414307
7.352997303009033,-0.38271644711494446,-0.6262853145599365,0.4658130705356598,1.1693508625030518,-0.2089833915233612,-1.2104291915893555
7.373090744018555,-0.3506491482257843,-0.6363650560379028,0.4237346649169922,1.1458582878112793,-0.18990254402160645,-1.211038589477539
7.393200874328613,-0.20611000061035156,-0.5914959907531738,0.6191370487213135,1.190324068069458,-0.015382510609924793,-1.2315618991851807
7.413311004638672,0.024292269721627235,-0.5785301923751831,0.9671936631202698,1.1935546398162842,0.1928868293762207,-1.258056879043579
7.433396100997925,-0.0008075740188360214,-0.5650983452796936,0.9139607548713684,1.1099125146865845,0.2168673872947693,-1.2690600156784058
7.4534807205200195,-0.05482925474643707,-0.5521610975265503,0.9500628709793091,1.1132842302322388,0.19729581475257874,-1.2659099102020264
7.473575115203857,-0.0701906755566597,-0.5705716609954834,0.8654519319534302,1.0842593908309937,0.16912519931793213,-1.261662244796753
7.493634939193726,0.017557723447680473,-0.6059433817863464,0.511174201965332,1.0934789180755615,0.03536515310406685,-1.250313401222229
7.513923645019531,-0.3676247000694275,-0.6192477941513062,0.39148280024528503,1.091740608215332,-0.18430101871490479,-1.2217700481414795
7.534018516540527,-0.4305843114852905,-0.6229439377784729,0.48411825299263,1.1438217163085938,-0.20396263897418976,-1.210648775100708
7.554089784622192,-0.2066524475812912,-0.5937944650650024,0.6767080426216125,1.176873803138733,-0.016594868153333664,-1.2338364124298096
7.574140548706055,0.1785368025302887,-0.600306510925293,0.9259888529777527,1.1322953701019287,0.22822511196136475,-1.2684235572814941
7.594350814819336,0.05647283047437668,-0.5767715573310852,0.8866297602653503,1.0981273651123047,0.19145417213439941,-1.2689930200576782
7.61443567276001,-0.022946851328015327,-0.5581455826759338,0.9441044926643372,1.1063017845153809,0.20058754086494446,-1.266675353050232
7.634554624557495,-0.033824458718299866,-0.5804960131645203,0.8452233076095581,1.0727546215057373,0.17914970219135284,-1.2641551494598389
7.654627561569214,0.011710507795214653,-0.6075372695922852,0.5402500033378601,1.08391535282135,0.03638901934027672,-1.252701759338379
7.6748340129852295,-0.32100653648376465,-0.6281349658966064,0.3696082830429077,1.1497802734375,-0.19390809535980225,-1.2211464643478394
7.694956541061401,-0.2615404427051544,-0.633222222328186,0.4356558322906494,1.1748113632202148,-0.16137781739234924,-1.2225290536880493
7.715012550354004,-0.19374442100524902,-0.6024660468101501,0.627452552318573,1.1873985528945923,-0.029904548078775406,-1.2349131107330322
7.735179901123047,-0.01627861149609089,-0.5778247117996216,0.9249720573425293,1.1876239776611328,0.11565341055393219,-1.253368616104126
7.755205869674683,-0.023716354742646217,-0.5859622955322266,0.7515997886657715,1.093893051147461,0.06921158730983734,-1.2510418891906738
7.775262117385864,-0.15583334863185883,-0.577966570854187,0.6932739615440369,1.0833617448806763,0.07260866463184357,-1.2501174211502075
7.795338869094849,-0.11757735908031464,-0.6015228033065796,0.5429225564002991,1.1119661331176758,0.014770391397178173,-1.2468316555023193
7.815410852432251,-0.2880668044090271,-0.5722225904464722,0.8780661821365356,1.2042908668518066,-0.1381010115146637,-1.2256245613098145
7.835475206375122,-0.24292251467704773,-0.6229745149612427,0.6234990358352661,1.124737024307251,-0.17253319919109344,-1.2140121459960938
7.855556964874268,0.008728696033358574,-0.6077082753181458,0.6718060374259949,1.1462984085083008,0.048367973417043686,-1.2488560676574707
7.875645875930786,-0.55428546667099,-0.5668587684631348,0.7422561645507812,1.0966376066207886,-0.2021183967590332,-1.2061035633087158
7.895724534988403,-0.4881402850151062,-0.578447163105011,0.697197437286377,1.1028000116348267,-0.12005980312824249,-1.209136962890625
7.915771722793579,0.03738177567720413,-0.6170641183853149,0.7268769145011902,1.130784511566162,0.13520561158657074,-1.2451515197753906
7.935875415802002,-0.027307553216814995,-0.5692664384841919,0.6853071451187134,1.1403045654296875,0.06661335378885269,-1.2514584064483643
7.955941915512085,-0.5558121204376221,-0.6305528283119202,0.34906843304634094,1.0758966207504272,-0.27383166551589966,-1.1967146396636963
7.976023435592651,-0.2922520041465759,-0.6386805772781372,0.4118809103965759,1.136871337890625,-0.1936911940574646,-1.2139817476272583
7.996205568313599,-0.19695276021957397,-0.6054152250289917,0.5515820384025574,1.140067219734192,-0.0657917931675911,-1.230168104171753
8.016316175460815,-0.2311384379863739,-0.5828781127929688,0.6790499091148376,1.1674751043319702,-0.05680552124977112,-1.2315340042114258
8.036373376846313,0.17006686329841614,-0.5999689102172852,1.02415132522583,1.1185810565948486,0.2907106280326843,-1.2716350555419922
8.05643892288208,0.04784335941076279,-0.5591833591461182,1.0693886280059814,1.1122236251831055,0.31604206562042236,-1.2777281999588013
8.076525688171387,-0.03140676021575928,-0.5554705262184143,1.017501711845398,1.0741850137710571,0.21671903133392334,-1.2686809301376343
8.096650838851929,-0.026806974783539772,-0.5748571157455444,0.8037779331207275,1.0699081420898438,0.11940361559391022,-1.2570396661758423
8.11669373512268,-0.08069556206464767,-0.5989258289337158,0.5326761603355408,1.0948129892349243,-0.011854064650833607,-1.245397925376892
8.136739492416382,-0.4991239309310913,-0.5966721177101135,0.6939319372177124,1.2251899242401123,-0.1794249713420868,-1.2095649242401123
8.15683627128601,-0.5150641202926636,-0.609958291053772,0.6068567037582397,1.1483829021453857,-0.2818119525909424,-1.1945512294769287
8.176884412765503,-0.21626564860343933,-0.5864372253417969,0.7948036193847656,1.1390082836151123,0.04809235408902168,-1.2351611852645874
8.196953058242798,0.07531986385583878,-0.5905200242996216,0.6524240970611572,1.0978529453277588,0.0706363096833229,-1.2545640468597412
8.217004776000977,-0.24063435196876526,-0.5463383197784424,0.8157202005386353,1.1195658445358276,0.033550817519426346,-1.2478489875793457
8.237099885940552,-0.231272354722023,-0.5600150227546692,0.7580235600471497,1.1057065725326538,0.02437349408864975,-1.2387583255767822
8.257175207138062,0.03993595391511917,-0.6338464021682739,0.3515913784503937,1.0282255411148071,0.06294076144695282,-1.2451846599578857
8.277292251586914,-0.09981295466423035,-0.580007791519165,0.7070722579956055,1.1769676208496094,-0.03760905936360359,-1.2466437816619873
8.297359466552734,-0.3340336084365845,-0.6636821627616882,0.3035452365875244,0.9842945337295532,-0.07910627871751785,-1.2124780416488647
8.31744909286499,-0.2875904142856598,-0.6486342549324036,0.34315401315689087,1.0939021110534668,-0.1595269739627838,-1.217214822769165
8.3375244140625,-0.21137070655822754,-0.5995329022407532,0.602861762046814,1.1690070629119873,-0.07223157584667206,-1.233329176902771
8.357593536376953,-0.08588146418333054,-0.5731334686279297,0.990861177444458,1.1737968921661377,0.13877715170383453,-1.2537816762924194
8.37765383720398,-0.029614845290780067,-0.5742915868759155,0.9215147495269775,1.0983359813690186,0.22329825162887573,-1.2671860456466675
8.397719383239746,-0.06553927809000015,-0.5630884170532227,0.9155040979385376,1.0846364498138428,0.17887231707572937,-1.2665387392044067
8.417826890945435,-0.07743194699287415,-0.583296000957489,0.6967389583587646,1.0744562149047852,0.06918202340602875,-1.2547625303268433
8.437902212142944,-0.29124557971954346,-0.6097922325134277,0.4394795000553131,1.0939041376113892,-0.10197772085666656,-1.2342251539230347
8.45798659324646,-0.32801124453544617,-0.6166607141494751,0.5235863924026489,1.1593154668807983,-0.17036063969135284,-1.223105549812317
8.47828483581543,-0.21645981073379517,-0.6001975536346436,0.6402037143707275,1.169860601425171,-0.03783595189452171,-1.2339558601379395
8.498374462127686,-0.2226821333169937,-0.5769611597061157,0.8033485412597656,1.163938283920288,0.006989124231040478,-1.2396825551986694
8.518439054489136,0.08449912071228027,-0.5914625525474548,0.7463319897651672,1.0956374406814575,0.12525233626365662,-1.26200532913208
8.538496494293213,-0.08892834186553955,-0.5635255575180054,0.7876811027526855,1.11348557472229,0.09061367064714432,-1.2588366270065308
8.558611631393433,-0.08857162296772003,-0.5777343511581421,0.753687858581543,1.0772855281829834,0.1234688088297844,-1.2592861652374268
8.578701496124268,-0.05171659588813782,-0.6233963370323181,0.354121595621109,1.0556495189666748,8.212309330701828e-05,-1.2461750507354736
8.598775625228882,-0.2846626341342926,-0.618929386138916,0.5065177083015442,1.1757690906524658,-0.16079279780387878,-1.2267975807189941
8.618832349777222,-0.1725672483444214,-0.6130820512771606,0.6237813234329224,1.1637014150619507,-0.032495517283678055,-1.2368786334991455
8.639097452163696,-0.11970019340515137,-0.5970494747161865,0.7362813353538513,1.1775331497192383,0.019193533807992935,-1.2444803714752197
8.659208059310913,-0.0754384770989418,-0.6221553087234497,0.4593797028064728,1.027024507522583,-0.009799224324524403,-1.2394483089447021
8.679298639297485,-0.19992010295391083,-0.571169376373291,0.6299505233764648,1.1615886688232422,-0.021940309554338455,-1.2491545677185059
8.69935131072998,0.13035772740840912,-0.6166682839393616,0.7872651815414429,1.1744555234909058,0.13389404118061066,-1.2597339153289795
8.719446897506714,0.10166531056165695,-0.6315378546714783,0.6609328985214233,1.0220673084259033,0.1897817850112915,-1.2699623107910156
8.739490032196045,-0.02653619460761547,-0.6111886501312256,0.5858564376831055,1.107729196548462,0.044792916625738144,-1.2599244117736816
8.75955581665039,-0.5557168126106262,-0.5881257653236389,0.7481604218482971,1.148667812347412,-0.14014357328414917,-1.2194690704345703
8.77962851524353,-0.24771761894226074,-0.6074923276901245,0.696500301361084,1.0934410095214844,-0.025722291320562363,-1.2367329597473145
8.799717903137207,0.1787828505039215,-0.6281100511550903,0.700284481048584,1.122728943824768,0.18979531526565552,-1.2652802467346191
8.819820165634155,0.15258339047431946,-0.5683244466781616,0.8330193758010864,1.1646342277526855,0.1788666546344757,-1.2833478450775146
8.83988070487976,-0.09623093158006668,-0.5654158592224121,0.8297590017318726,1.1248894929885864,0.0771930143237114,-1.259364128112793
8.859952449798584,-0.003331689164042473,-0.6109098196029663,0.5553783178329468,1.083104133605957,0.05018891394138336,-1.254903793334961
8.880129098892212,-0.44340837001800537,-0.6159558296203613,0.5049704313278198,1.164185643196106,-0.20547398924827576,-1.2239365577697754
8.900265455245972,-0.29336288571357727,-0.6311389207839966,0.5344069004058838,1.161202311515808,-0.12111885845661163,-1.227285623550415
8.920295715332031,-0.11609219759702682,-0.6144813299179077,0.6852440237998962,1.1593948602676392,0.02329793944954872,-1.2458558082580566
8.940363645553589,-0.13730773329734802,-0.5770903825759888,0.8771039247512817,1.116554617881775,0.12732180953025818,-1.2602126598358154
8.960411310195923,-0.17802664637565613,-0.5845386981964111,0.6262319087982178,1.1021480560302734,0.027355149388313293,-1.2493716478347778
8.980504035949707,-0.23676368594169617,-0.5419150590896606,0.9011402130126953,1.2021149396896362,0.06642300635576248,-1.2531434297561646
9.000571966171265,-0.049731671810150146,-0.5727916955947876,0.8873827457427979,1.130547285079956,0.09179803729057312,-1.2553044557571411
9.020644903182983,-0.07180862873792648,-0.5932119488716125,0.7114266157150269,1.098989725112915,0.06471867859363556,-1.2553445100784302
9.04069447517395,-0.2859271764755249,-0.6194892525672913,0.36362430453300476,1.0804986953735352,-0.13282039761543274,-1.2308712005615234
9.060789823532104,-0.299323171377182,-0.6037807464599609,0.5780691504478455,1.1802036762237549,-0.08423557877540588,-1.2353159189224243
9.080910205841064,-0.1660986840724945,-0.6126021146774292,0.6177876591682434,1.1822950839996338,-0.07496655732393265,-1.2355287075042725
9.10093092918396,-0.12814122438430786,-0.5698784589767456,0.875868022441864,1.1833176612854004,0.03867746889591217,-1.2496094703674316
9.12098240852356,-0.12546324729919434,-0.5996670722961426,0.5849462151527405,1.0633333921432495,0.02207789197564125,-1.2466659545898438
9.141108989715576,-0.1419459879398346,-0.5836732387542725,0.6355899572372437,1.116263508796692,0.04955343157052994,-1.2507965564727783
9.161153554916382,-0.18713168799877167,-0.5580824613571167,0.9349864721298218,1.1594113111495972,0.02784137800335884,-1.243295669555664
9.18123173713684,-0.06478211283683777,-0.602200448513031,0.759607195854187,1.0599827766418457,0.14825914800167084,-1.257657527923584
9.201306104660034,-0.07378983497619629,-0.606179416179657,0.4702793061733246,1.0955393314361572,-0.038879040628671646,-1.243891954421997
9.22140622138977,-0.6877058744430542,-0.5859782695770264,0.6168109178543091,1.1712429523468018,-0.2676513195037842,-1.2039600610733032
9.241473913192749,-0.5633249282836914,-0.6078155636787415,0.5746543407440186,1.1223808526992798,-0.23583728075027466,-1.1980093717575073
9.26155400276184,-0.250543475151062,-0.5850518345832825,0.635332465171814,1.1724584102630615,-0.06560900062322617,-1.2291887998580933
9.281612634658813,0.13946355879306793,-0.5773942470550537,0.8935909867286682,1.2066057920455933,0.17287585139274597,-1.2612074613571167
9.301664113998413,-0.002719687297940254,-0.5664645433425903,0.7952191829681396,1.1194523572921753,0.09479650855064392,-1.2570751905441284
9.32174563407898,-0.10457910597324371,-0.5839310884475708,0.6625945568084717,1.0807952880859375,0.05876631662249565,-1.2477686405181885
9.34181833267212,-0.16035814583301544,-0.5969638824462891,0.5224347114562988,1.1234402656555176,-0.047271519899368286,-1.2386829853057861
9.361877202987671,-0.25006136298179626,-0.5660269260406494,0.8979458212852478,1.1882164478302002,-0.04948535934090614,-1.2298258543014526
9.382676839828491,-0.019211651757359505,-0.6095980405807495,0.6638172268867493,1.1001708507537842,0.07792076468467712,-1.2453107833862305
9.402877569198608,0.08197969943284988,-0.6483453512191772,0.17533579468727112,0.986437976360321,-0.00559814739972353,-1.2323989868164062
9.422940492630005,-0.46279752254486084,-0.615376889705658,0.41744834184646606,1.2213757038116455,-0.21987950801849365,-1.2029756307601929
9.442950010299683,-0.3107583522796631,-0.6318339109420776,0.46307098865509033,1.1638579368591309,-0.12672503292560577,-1.2115979194641113
9.462998151779175,-0.2671867609024048,-0.6066263318061829,0.5191137790679932,1.1702648401260376,-0.10496704280376434,-1.2211754322052002
9.483124494552612,-0.19048458337783813,-0.5790322422981262,0.7373160719871521,1.1958034038543701,-0.010000457055866718,-1.233210563659668
9.503173112869263,0.21372240781784058,-0.6302334070205688,0.487639844417572,1.0755581855773926,0.08826436847448349,-1.248357892036438
9.52324652671814,-0.053827859461307526,-0.5816255807876587,0.6389981508255005,1.1234803199768066,0.05663221701979637,-1.2546799182891846
9.543303489685059,-0.6110813021659851,-0.5922898650169373,0.6582214832305908,1.0888450145721436,-0.1768849492073059,-1.20506751537323
9.563429355621338,0.09267821907997131,-0.6582891941070557,0.6173962950706482,1.1200238466262817,0.0999031662940979,-1.240473985671997
9.583494663238525,-0.03215969353914261,-0.6018690466880798,0.663535475730896,1.1431185007095337,0.03906387463212013,-1.2487776279449463
9.603583097457886,-0.5975832939147949,-0.5602197051048279,0.7571627497673035,1.1030691862106323,-0.19460763037204742,-1.2025820016860962
9.623653173446655,-0.386215478181839,-0.5713452100753784,0.727469265460968,1.132527470588684,-0.06358063220977783,-1.2218949794769287
9.643728256225586,-0.021406928077340126,-0.5947703123092651,0.7706174254417419,1.1656467914581299,0.10550189763307571,-1.2462120056152344
9.663787603378296,-0.142439067363739,-0.553213357925415,0.7448553442955017,1.1351935863494873,0.0352046899497509,-1.247727394104004
9.68386197090149,-0.15435278415679932,-0.6286344528198242,0.2986646294593811,1.0587421655654907,-0.10267147421836853,-1.2249021530151367
9.703944206237793,-0.08266685903072357,-0.5816431045532227,0.7223369479179382,1.182011365890503,-0.08629296720027924,-1.238506555557251
9.724029302597046,0.002398291602730751,-0.6076551079750061,0.657915472984314,1.1549904346466064,0.01795094460248947,-1.2424674034118652
9.744158506393433,-0.4638850688934326,-0.6484464406967163,0.3797922134399414,1.0344288349151611,-0.13693740963935852,-1.2116096019744873
9.764210224151611,-0.2992223799228668,-0.597018837928772,0.6475551128387451,1.1350502967834473,-0.08417093753814697,-1.2310729026794434
9.785244941711426,0.08037193864583969,-0.5885863304138184,0.8424798846244812,1.1487042903900146,0.17188578844070435,-1.266926884651184
9.805344820022583,-0.04082922637462616,-0.5714171528816223,0.7644753456115723,1.119028091430664,0.07706108689308167,-1.2594319581985474
9.825400590896606,-0.28258568048477173,-0.5782762169837952,0.589622437953949,1.105473279953003,-0.08266592025756836,-1.2346504926681519
9.845467567443848,-0.11125952750444412,-0.6154875755310059,0.45675891637802124,1.1390607357025146,-0.0339931957423687,-1.2394311428070068
9.865552425384521,-0.11481618136167526,-0.5959881544113159,0.6461942195892334,1.1807234287261963,-0.006356564350426197,-1.2459352016448975
9.88564682006836,-0.14170905947685242,-0.590261697769165,0.7225191593170166,1.1711217164993286,-0.011467044241726398,-1.2444490194320679
9.905694246292114,-0.0522535964846611,-0.6474169492721558,0.5025156140327454,0.9402056932449341,0.10572284460067749,-1.252060890197754
9.925789833068848,-0.16135141253471375,-0.5659191608428955,0.6873711347579956,1.177222490310669,0.0012984378263354301,-1.2584863901138306
9.945822954177856,-0.0689999908208847,-0.615468442440033,0.6810219287872314,1.0672892332077026,0.05299608036875725,-1.253096103668213
9.96611213684082,-0.0418519526720047,-0.6194985508918762,0.6338905096054077,1.0392062664031982,0.15394379198551178,-1.2644612789154053
9.986121416091919,-0.4139300286769867,-0.6061511635780334,0.5896365642547607,1.1304442882537842,-0.13021674752235413,-1.2236082553863525
10.006174087524414,-0.28279080986976624,-0.6231861114501953,0.5042887926101685,1.144653558731079,-0.11725229024887085,-1.228355884552002
10.026235580444336,-0.1631775200366974,-0.5925258994102478,0.6806206107139587,1.1776776313781738,0.0037997765466570854,-1.2459255456924438
10.046318769454956,-0.11275767534971237,-0.5778005719184875,0.8264557123184204,1.1738574504852295,0.07610251754522324,-1.255323886871338
10.066385984420776,-0.04017122834920883,-0.5902070999145508,0.7225635051727295,1.088653802871704,0.09902076423168182,-1.2615430355072021
10.086458683013916,-0.15451550483703613,-0.5946290493011475,0.6043944954872131,1.059801697731018,0.05582811310887337,-1.2546467781066895
10.106688737869263,-0.12257585674524307,-0.5774036645889282,0.7669424414634705,1.2045838832855225,0.028613664209842682,-1.2568706274032593
10.126914024353027,-0.15806728601455688,-0.5749706625938416,0.7871096134185791,1.1726570129394531,-0.0015285881236195564,-1.2502988576889038
10.146992921829224,0.012901408597826958,-0.6525437235832214,0.1504426896572113,1.0202521085739136,-0.015668008476495743,-1.2369999885559082
10.167361736297607,-0.20433032512664795,-0.6146590113639832,0.4415090084075928,1.1737098693847656,-0.1359277069568634,-1.2359797954559326
10.18747067451477,-0.21432167291641235,-0.5989260077476501,0.6249935626983643,1.1877983808517456,-0.06811574846506119,-1.2384463548660278
10.207606554031372,-0.018004635348916054,-0.5874111652374268,0.8970174193382263,1.1852128505706787,0.10073427110910416,-1.255811333656311
10.227699995040894,0.16659387946128845,-0.6038681268692017,0.5986611843109131,1.070261001586914,0.1711767464876175,-1.2732157707214355
10.247872829437256,0.01036754809319973,-0.5804938673973083,0.7383448481559753,1.104081153869629,0.1604900062084198,-1.2742382287979126
10.267899751663208,-0.2758118808269501,-0.5919389724731445,0.6013310551643372,1.0841964483261108,-0.04684052988886833,-1.2388205528259277
10.287927627563477,-0.030393322929739952,-0.6404803991317749,0.26559439301490784,1.1339380741119385,-0.07835137099027634,-1.2398719787597656
10.308025360107422,-0.08849348872900009,-0.626470148563385,0.3593981862068176,1.1676524877548218,-0.08650694042444229,-1.2427427768707275
10.328075885772705,-0.19594962894916534,-0.6168805360794067,0.5613390207290649,1.1625614166259766,-0.06313048303127289,-1.2415924072265625
10.348142623901367,-0.21395999193191528,-0.573216438293457,0.9704191088676453,1.2003374099731445,0.07710626721382141,-1.2494878768920898
10.368261337280273,-0.014963088557124138,-0.5820305943489075,0.9530085325241089,1.1027271747589111,0.18842363357543945,-1.270958423614502
10.388346910476685,-0.036117248237133026,-0.5792841911315918,1.0151547193527222,1.0714563131332397,0.2776745557785034,-1.279373049736023
10.408438444137573,-0.02559431456029415,-0.5665029287338257,0.964449942111969,1.0852930545806885,0.20975306630134583,-1.2749794721603394
10.428555727005005,0.049942828714847565,-0.6014018058776855,0.691702127456665,1.075364112854004,0.1320117563009262,-1.2693603038787842
10.448580265045166,-0.2651383876800537,-0.6245625019073486,0.40057727694511414,1.0952880382537842,-0.13627135753631592,-1.2380605936050415
10.468700170516968,-0.39413031935691833,-0.6237292289733887,0.46661996841430664,1.1855944395065308,-0.21132834255695343,-1.2246454954147339
10.488733291625977,-0.3015500605106354,-0.6303964853286743,0.5112043619155884,1.1703929901123047,-0.15077120065689087,-1.2264951467514038
10.50880765914917,-0.20237325131893158,-0.5829013586044312,0.8088983297348022,1.1821563243865967,0.01220147218555212,-1.2454495429992676
10.528852462768555,0.01294291578233242,-0.5857635140419006,0.8322764039039612,1.097357988357544,0.12285642325878143,-1.2646629810333252
10.548993825912476,0.02646464668214321,-0.5823986530303955,0.8536285758018494,1.099369764328003,0.202435702085495,-1.2740585803985596
10.569028377532959,-0.061863601207733154,-0.5665806531906128,0.8766305446624756,1.0950255393981934,0.18758580088615417,-1.2722727060317993
10.589133739471436,-0.005303928628563881,-0.5955581665039062,0.6432669162750244,1.0984292030334473,0.09719650447368622,-1.265533447265625
10.609174013137817,-0.4256622791290283,-0.6322729587554932,0.3660958409309387,1.1262743473052979,-0.23570452630519867,-1.2217949628829956
10.629258632659912,-0.3192073106765747,-0.6509641408920288,0.35011327266693115,1.175032377243042,-0.22963038086891174,-1.2193855047225952
10.649321556091309,-0.19734585285186768,-0.6470824480056763,0.419885516166687,1.1628845930099487,-0.09670349210500717,-1.2298626899719238
10.669384241104126,-0.24400129914283752,-0.5844876766204834,0.7254289984703064,1.1828327178955078,-0.010765713639557362,-1.2444210052490234
10.689430236816406,0.20748643577098846,-0.6232360005378723,0.8320375680923462,1.1163508892059326,0.247763991355896,-1.2718396186828613
10.70954179763794,0.0808412954211235,-0.5846798419952393,0.7882006168365479,1.1065696477890015,0.16094660758972168,-1.27516770362854
10.729618310928345,-0.0007626805454492569,-0.572158932685852,0.8761106729507446,1.0985840559005737,0.21042048931121826,-1.2777374982833862
10.749776601791382,-0.014479933306574821,-0.5987287759780884,0.6662490963935852,1.0854847431182861,0.09622576832771301,-1.2651033401489258
10.76978850364685,-0.0021948013454675674,-0.6096243858337402,0.5257513523101807,1.1011011600494385,0.038972679525613785,-1.2604682445526123
10.789853572845459,-0.43527930974960327,-0.6266356110572815,0.4561007022857666,1.1869722604751587,-0.23607474565505981,-1.2178916931152344
10.809948682785034,-0.24413157999515533,-0.6412065029144287,0.45108354091644287,1.162685751914978,-0.10477551072835922,-1.2276666164398193
10.829978942871094,-0.21208545565605164,-0.5840291976928711,0.721693754196167,1.1915204524993896,0.0017824983224272728,-1.2460215091705322
10.850066661834717,-0.20888583362102509,-0.5531510710716248,1.0213139057159424,1.211575984954834,0.1059054359793663,-1.254817008972168
10.870131015777588,0.01688935048878193,-0.5833299160003662,0.7759939432144165,1.1089136600494385,0.16388344764709473,-1.2745764255523682
10.890308856964111,-0.023947807028889656,-0.5773236155509949,0.7002831697463989,1.1107711791992188,0.05703407898545265,-1.262439489364624
10.910389423370361,-0.43199121952056885,-0.6130161285400391,0.4773515462875366,1.094799280166626,-0.16418595612049103,-1.2277833223342896
10.930447578430176,-0.569930911064148,-0.5891591310501099,0.7348830699920654,1.2302818298339844,-0.19225694239139557,-1.2169091701507568
10.950579166412354,-0.28693804144859314,-0.637249231338501,0.5741185545921326,1.1313064098358154,-0.12802842259407043,-1.2231965065002441
10.97064208984375,-0.11200828850269318,-0.5818304419517517,0.8225686550140381,1.1916017532348633,0.06525477766990662,-1.252162218093872
10.990680694580078,-0.027977367863059044,-0.5619460344314575,0.9351167678833008,1.1251991987228394,0.1175759956240654,-1.2622544765472412
11.011014223098755,-0.08821286261081696,-0.5581216812133789,0.950756311416626,1.1076266765594482,0.18662092089653015,-1.266386866569519
11.03110647201538,-0.08829709887504578,-0.5507575273513794,0.9196442365646362,1.1139347553253174,0.15628570318222046,-1.2634705305099487
11.051210880279541,-0.027824783697724342,-0.5838499069213867,0.769109308719635,1.0947579145431519,0.15015707910060883,-1.2665588855743408
11.07127046585083,-0.07957681268453598,-0.6275774240493774,0.2953990399837494,1.0945227146148682,-0.09695501625537872,-1.240116000175476
11.091397285461426,-0.2686794102191925,-0.6084631085395813,0.4754347801208496,1.183489441871643,-0.14158010482788086,-1.2369558811187744
11.111459493637085,-0.22187647223472595,-0.6114856600761414,0.5884093046188354,1.187960147857666,-0.10834432393312454,-1.233466625213623
11.131510496139526,-0.1762107014656067,-0.5821388959884644,0.8610498905181885,1.1672210693359375,0.023899000138044357,-1.244446873664856
11.151552438735962,-0.10260238498449326,-0.6116958856582642,0.5746243596076965,1.084684133529663,0.010721373371779919,-1.2431385517120361
11.171645164489746,-0.030974535271525383,-0.6310469508171082,0.2909485697746277,1.0371779203414917,-0.008716260083019733,-1.2404389381408691
11.191708087921143,-0.1529662013053894,-0.559748649597168,0.8801321983337402,1.1490187644958496,0.08493460714817047,-1.2559821605682373
11.211788415908813,-0.08936543017625809,-0.6108889579772949,0.5383948087692261,1.0823328495025635,0.026457268744707108,-1.2486960887908936
11.231986999511719,-0.16747978329658508,-0.5947588682174683,0.5975840091705322,1.2018096446990967,-0.07085385918617249,-1.2467517852783203
11.252074718475342,-0.19449713826179504,-0.5927043557167053,0.6677681803703308,1.1953433752059937,-0.08030134439468384,-1.241832971572876
11.272145748138428,0.06542453914880753,-0.6095128059387207,0.8923237323760986,1.1326236724853516,0.2034488022327423,-1.2663969993591309
11.29222059249878,0.07347164303064346,-0.6002464294433594,0.8235722780227661,1.0953803062438965,0.228743314743042,-1.2766836881637573
11.312371015548706,-0.10909822583198547,-0.564741849899292,0.9021710157394409,1.1149992942810059,0.13553336262702942,-1.2632865905761719
11.332465171813965,-0.11857567727565765,-0.5798239707946777,0.7558497190475464,1.0910086631774902,0.0857844352722168,-1.2568600177764893
11.35256052017212,-0.06927450001239777,-0.6246278285980225,0.3725375831127167,1.0813119411468506,-0.041412610560655594,-1.245534896850586
11.372654438018799,-0.34943410754203796,-0.6077398657798767,0.6236617565155029,1.1758630275726318,-0.14399808645248413,-1.2257047891616821
11.392710447311401,-0.0808795839548111,-0.6198568344116211,0.5679768919944763,1.154292106628418,0.0005975095555186272,-1.2450181245803833
11.412773132324219,-0.1504933387041092,-0.5882273316383362,0.7108668088912964,1.1703088283538818,-0.0026088478043675423,-1.2482519149780273
11.43284010887146,-0.15695780515670776,-0.5701923370361328,0.9546359777450562,1.0958013534545898,0.1462588608264923,-1.255037546157837
11.45291543006897,-0.10773081332445145,-0.5746105313301086,0.8845213651657104,1.0898675918579102,0.17911025881767273,-1.2648770809173584
11.472965478897095,-0.06747069209814072,-0.586273729801178,0.787368655204773,1.0641672611236572,0.14423376321792603,-1.2661004066467285
11.493045091629028,-0.07182171940803528,-0.5878498554229736,0.6964603662490845,1.0972790718078613,0.08737489581108093,-1.2623358964920044
11.513145208358765,-0.2643451690673828,-0.6299691796302795,0.29082897305488586,1.1038182973861694,-0.1640968769788742,-1.233047366142273
11.533205509185791,-0.2506282329559326,-0.641344428062439,0.3516843616962433,1.1886794567108154,-0.22702434659004211,-1.226785659790039
11.553297758102417,-0.20259016752243042,-0.6267511248588562,0.4310629963874817,1.1649644374847412,-0.1168871819972992,-1.2332127094268799
11.573508262634277,-0.2000940442085266,-0.6012521386146545,0.6253423690795898,1.176887035369873,-0.03261728957295418,-1.2422300577163696
11.593586683273315,0.6830770373344421,-1.8103351593017578,2.035609722137451,1.63450026512146,0.337466299533844,-1.3643550872802734
11.61365795135498,0.5399397015571594,-2.259669780731201,2.4277467727661133,1.3702192306518555,0.5320566296577454,-1.3297998905181885
11.633708715438843,0.5461561679840088,-2.27333927154541,2.4002633094787598,1.3104387521743774,0.47551023960113525,-1.3058457374572754
11.653810024261475,0.5532668828964233,-2.284224033355713,2.3163366317749023,1.3101654052734375,0.43905359506607056,-1.3049108982086182
11.67389988899231,0.5411187410354614,-2.2544281482696533,2.1677615642547607,1.335370659828186,0.2879922688007355,-1.2946040630340576
11.693946123123169,0.5293601751327515,-2.2562203407287598,2.089815616607666,1.3561190366744995,0.23781540989875793,-1.2968785762786865
11.714030504226685,0.5023255944252014,-2.2554054260253906,2.092654228210449,1.3443773984909058,0.24106967449188232,-1.3004403114318848
11.734185695648193,0.48144373297691345,-2.2428011894226074,2.1802563667297363,1.3334883451461792,0.29445016384124756,-1.3037629127502441
11.75435471534729,0.47131943702697754,-2.2275123596191406,2.1820878982543945,1.3304367065429688,0.28955772519111633,-1.3012341260910034
11.774441480636597,0.4971393048763275,-2.225635528564453,2.298422336578369,1.3338170051574707,0.39340418577194214,-1.311084508895874
11.794514656066895,0.5221180319786072,-2.204134702682495,2.2912445068359375,1.3254995346069336,0.3870653808116913,-1.3094009160995483
11.814575672149658,0.5126882791519165,-2.199042797088623,2.3220198154449463,1.327846884727478,0.41554445028305054,-1.3155879974365234
11.834683895111084,0.49688202142715454,-2.186530351638794,2.2924962043762207,1.3255393505096436,0.40868568420410156,-1.3182694911956787
11.85474443435669,0.49078282713890076,-2.1699600219726562,2.180631160736084,1.3248248100280762,0.3172912299633026,-1.312028408050537
11.8748140335083,0.5027973651885986,-2.1700401306152344,2.123012065887451,1.3392574787139893,0.28997233510017395,-1.3153506517410278
11.895023584365845,0.4942161440849304,-2.156937599182129,2.1032724380493164,1.340997338294983,0.24273034930229187,-1.3083468675613403
11.915116548538208,0.46578603982925415,-2.125959634780884,2.084467887878418,1.339699625968933,0.20037290453910828,-1.3045263290405273
11.935236930847168,0.47086572647094727,-2.152414083480835,2.168259859085083,1.3312499523162842,0.3169199526309967,-1.3222178220748901
11.955253601074219,0.4415587782859802,-2.1101136207580566,2.124743938446045,1.332556128501892,0.23931880295276642,-1.31072998046875
11.975639343261719,0.46873342990875244,-2.1140975952148438,2.1152732372283936,1.3394825458526611,0.25738540291786194,-1.3180029392242432
11.995729207992554,0.46430546045303345,-2.102257251739502,2.131114959716797,1.3390073776245117,0.2570343613624573,-1.3171275854110718
12.015795946121216,0.48749178647994995,-2.093932867050171,2.155726909637451,1.3420116901397705,0.287251740694046,-1.3214889764785767
12.035880327224731,0.4826809763908386,-2.0744857788085938,2.1570653915405273,1.3490328788757324,0.2811715602874756,-1.3222956657409668
12.055965185165405,0.4534103572368622,-2.057982921600342,2.1190860271453857,1.339465618133545,0.2595728635787964,-1.3247244358062744
12.076066732406616,0.4389321804046631,-2.032285690307617,2.067147731781006,1.3297486305236816,0.18443357944488525,-1.3161906003952026
12.096176624298096,0.424810528755188,-2.02378249168396,2.075141668319702,1.3223402500152588,0.21014530956745148,-1.3221099376678467
12.116244077682495,0.39165621995925903,-1.9845768213272095,2.021272659301758,1.313010334968567,0.13282214105129242,-1.3155970573425293
12.136365413665771,0.4373356103897095,-2.0106818675994873,2.161386013031006,1.342695951461792,0.31221702694892883,-1.3421694040298462
12.156575441360474,0.43497249484062195,-1.9679070711135864,2.118433952331543,1.3371187448501587,0.23738336563110352,-1.3326913118362427
12.176546335220337,0.4380309581756592,-1.9712097644805908,2.1451621055603027,1.3360378742218018,0.2894112169742584,-1.3417158126831055
12.19684886932373,0.4410397410392761,-1.936939001083374,2.0768237113952637,1.354464054107666,0.220877543091774,-1.3377633094787598
12.216946601867676,0.4074072241783142,-1.9182676076889038,1.9547607898712158,1.3321611881256104,0.11018338054418564,-1.3260537385940552
12.236997365951538,0.40371984243392944,-1.9037139415740967,1.9298491477966309,1.3447455167770386,0.09362488985061646,-1.32904052734375
12.257062911987305,0.36441007256507874,-1.8627465963363647,1.9150922298431396,1.3518879413604736,0.03946883603930473,-1.3250608444213867
12.277665853500366,0.3430888056755066,-1.8538241386413574,1.9025806188583374,1.350217342376709,0.04437942057847977,-1.331766963005066
12.297775268554688,0.36084800958633423,-1.8553630113601685,1.888767957687378,1.3500317335128784,0.06699847429990768,-1.3381428718566895
12.31788945198059,0.3593180775642395,-1.8279014825820923,1.8751912117004395,1.3563048839569092,0.03873426467180252,-1.3373377323150635
12.337915182113647,0.3522813618183136,-1.8299758434295654,1.9213192462921143,1.3563655614852905,0.10949009656906128,-1.3506017923355103
12.35799241065979,0.3442966938018799,-1.7747554779052734,1.9710999727249146,1.3712413311004639,0.09463003277778625,-1.3481042385101318
12.37807321548462,0.3237779140472412,-1.765045166015625,1.8983900547027588,1.3371920585632324,0.06141892075538635,-1.3461179733276367
12.398138761520386,0.3241507112979889,-1.743293285369873,1.892845630645752,1.3325304985046387,0.05420973524451256,-1.3486948013305664
12.418195962905884,0.2977079749107361,-1.720975399017334,1.8059957027435303,1.347647786140442,0.022825300693511963,-1.354069709777832
12.438391208648682,0.263881653547287,-1.6656086444854736,1.7901358604431152,1.3646385669708252,-0.01885642483830452,-1.3553866147994995
12.458495140075684,0.1341918408870697,-1.5761529207229614,1.830747365951538,1.3977775573730469,-0.13337048888206482,-1.344822645187378
12.4785795211792,0.028220711275935173,-1.5636988878250122,1.6311509609222412,1.3546569347381592,-0.23443672060966492,-1.339345097541809
12.498688459396362,-0.04167490452528,-1.5663217306137085,1.744598627090454,1.3226629495620728,-0.0633455216884613,-1.3651244640350342
12.518800497055054,-0.15786351263523102,-1.4875051975250244,1.6433082818984985,1.3393044471740723,-0.2028818428516388,-1.3555315732955933
12.538958549499512,0.024044444784522057,-1.481930136680603,1.5343000888824463,1.330881118774414,-0.1964539885520935,-1.3646409511566162
12.55900502204895,-0.07152979075908661,-1.4404075145721436,1.3745274543762207,1.3350245952606201,-0.3225858509540558,-1.3610742092132568
12.579028367996216,-0.07372128963470459,-1.389045000076294,1.3983991146087646,1.3480830192565918,-0.27955999970436096,-1.3822746276855469
12.599122762680054,-0.011058362200856209,-1.3242533206939697,1.4190274477005005,1.3671351671218872,-0.3581656813621521,-1.386291742324829
12.619184255599976,0.019109493121504784,-1.3265668153762817,1.4279881715774536,1.3037092685699463,-0.06839405000209808,-1.4209136962890625
12.639275074005127,-0.03620149940252304,-1.251556396484375,1.4574849605560303,1.251334547996521,-0.04037882015109062,-1.432495355606079
12.660123348236084,-0.05502521991729736,-1.2245726585388184,1.258683443069458,1.232661247253418,-0.24403777718544006,-1.4257011413574219
12.680214881896973,0.012903174385428429,-1.227416753768921,1.2821335792541504,1.2828357219696045,-0.14069589972496033,-1.4389350414276123
12.7003014087677,0.03938480466604233,-1.2021068334579468,1.3796935081481934,1.2206707000732422,0.10857461392879486,-1.4637824296951294
12.72034740447998,-0.15077997744083405,-1.1971560716629028,1.3348668813705444,1.2209769487380981,-0.18373510241508484,-1.4496896266937256
12.740593671798706,-0.15413016080856323,-1.2104122638702393,1.2522271871566772,1.2669137716293335,-0.13635554909706116,-1.451371431350708
12.76070785522461,-0.015372918918728828,-1.1859198808670044,1.2528557777404785,1.3116517066955566,-0.16408589482307434,-1.4548594951629639
12.780800104141235,-0.22311842441558838,-1.2538084983825684,1.1568902730941772,1.332308292388916,-0.26723384857177734,-1.439630389213562
12.800828456878662,-0.1534326821565628,-1.247766137123108,1.277632236480713,1.3553214073181152,-0.17107196152210236,-1.4359939098358154
12.820875883102417,0.07505275309085846,-1.1879193782806396,1.591227650642395,1.2749850749969482,0.0545198991894722,-1.449417233467102
12.840967178344727,0.1404566913843155,-1.188742756843567,1.5667937994003296,1.175998330116272,0.15756963193416595,-1.45706307888031
12.861031770706177,0.02207484282553196,-1.1906757354736328,1.578212857246399,1.224372386932373,0.07029104232788086,-1.4620364904403687
12.88109540939331,0.08853767812252045,-1.213645577430725,1.430233359336853,1.2499555349349976,0.006872073747217655,-1.458076000213623
12.901216983795166,-0.14562973380088806,-1.270953893661499,1.0982439517974854,1.3071988821029663,-0.22559139132499695,-1.451157808303833
12.921306133270264,-0.1334083080291748,-1.2573418617248535,1.2601094245910645,1.3353780508041382,-0.12645748257637024,-1.4571278095245361
12.94139575958252,-0.09908100217580795,-1.262312889099121,1.2995274066925049,1.3337748050689697,-0.1650608628988266,-1.4511313438415527
12.961462020874023,-0.07144657522439957,-1.2306219339370728,1.5063953399658203,1.3004462718963623,-0.060035012662410736,-1.4589660167694092
12.981500387191772,0.12736116349697113,-1.263346552848816,1.3157501220703125,1.1751519441604614,-0.023673314601182938,-1.4664243459701538
13.00158166885376,0.005958868190646172,-1.2544351816177368,1.3018745183944702,1.2431628704071045,-0.06218099221587181,-1.4753217697143555
13.021651983261108,-0.05437670648097992,-1.21544349193573,1.588407278060913,1.3323493003845215,-0.01685250550508499,-1.4780364036560059
13.041727304458618,0.056910090148448944,-1.2184466123580933,1.6499183177947998,1.2466151714324951,0.10321303457021713,-1.480939507484436
13.061817646026611,0.018575621768832207,-1.2379556894302368,1.4866650104522705,1.2673389911651611,-0.012558759190142155,-1.481213092803955
13.0819411277771,0.005144549533724785,-1.2591946125030518,1.3586483001708984,1.291290044784546,-0.0907786637544632,-1.4782696962356567
13.101963996887207,-0.1293238401412964,-1.2730578184127808,1.3199925422668457,1.3547296524047852,-0.13471105694770813,-1.478318214416504
13.122043132781982,-0.058454468846321106,-1.2693134546279907,1.3690913915634155,1.3511161804199219,-0.14856892824172974,-1.4736876487731934
13.142090320587158,-0.036492541432380676,-1.2315748929977417,1.6108678579330444,1.294389009475708,-0.012401615269482136,-1.4884748458862305
13.162169694900513,-0.035208478569984436,-1.2647583484649658,1.4322104454040527,1.2359813451766968,-0.05682847648859024,-1.4882757663726807
13.182235479354858,-0.06375013291835785,-1.269566535949707,1.349466323852539,1.3443067073822021,-0.11397043615579605,-1.4898756742477417
13.202318668365479,0.013416191563010216,-1.2166683673858643,1.6916451454162598,1.3513116836547852,0.054170284420251846,-1.4948710203170776
13.222502946853638,0.026359906420111656,-1.2505757808685303,1.4451273679733276,1.2832363843917847,0.030302181839942932,-1.500680923461914
13.242557287216187,-0.16497895121574402,-1.2413923740386963,1.505753755569458,1.302386999130249,-0.0059720249846577644,-1.5053985118865967
13.262644529342651,0.012152066454291344,-1.2663547992706299,1.4392684698104858,1.2861300706863403,0.011948137544095516,-1.49827241897583
13.282713651657104,-0.19647882878780365,-1.2799632549285889,1.303897738456726,1.3540208339691162,-0.15733465552330017,-1.4959944486618042
13.302846193313599,-0.1206541657447815,-1.2763762474060059,1.3818477392196655,1.4032262563705444,-0.13885729014873505,-1.4912352561950684
13.322928667068481,-0.13039982318878174,-1.2594897747039795,1.4905211925506592,1.3972128629684448,-0.10856185108423233,-1.4934250116348267
13.343101263046265,0.2020486295223236,-1.2385307550430298,1.6657934188842773,1.306174874305725,0.11299028992652893,-1.4978811740875244
13.363100528717041,0.062344878911972046,-1.224096655845642,1.6450631618499756,1.3249752521514893,0.0817456841468811,-1.508495807647705
13.383313655853271,0.04402625560760498,-1.2406048774719238,1.5371739864349365,1.270660161972046,0.056724127382040024,-1.5106253623962402
13.403433799743652,0.06564833223819733,-1.2589807510375977,1.353538155555725,1.3158286809921265,0.0013643642887473106,-1.510694980621338
13.423539161682129,-0.25845620036125183,-1.3249539136886597,1.171999216079712,1.4037261009216309,-0.2781843841075897,-1.4834766387939453
13.443860530853271,-0.29014909267425537,-1.3135769367218018,1.2049647569656372,1.4043726921081543,-0.21342217922210693,-1.4911925792694092
13.464019536972046,-0.17587366700172424,-1.3022098541259766,1.2690702676773071,1.417262315750122,-0.18083031475543976,-1.4937973022460938
13.484183073043823,-0.17179597914218903,-1.2759822607040405,1.404719591140747,1.4209191799163818,-0.14270491898059845,-1.499218463897705
13.504180431365967,-0.05562972277402878,-1.234881043434143,1.6536744832992554,1.3773082494735718,0.017685797065496445,-1.505933403968811
13.52441954612732,0.13439133763313293,-1.2154425382614136,1.7722517251968384,1.3225632905960083,0.1839091181755066,-1.510864496231079
13.544581890106201,0.01971420831978321,-1.2144520282745361,1.7253549098968506,1.3220765590667725,0.09915753453969955,-1.5141582489013672
13.56471872329712,0.003956073895096779,-1.2320293188095093,1.5961593389511108,1.3205187320709229,0.05619606748223305,-1.5132826566696167
13.584733009338379,0.05220881104469299,-1.2920864820480347,1.1785640716552734,1.3358744382858276,-0.1149752140045166,-1.5033619403839111
13.604835748672485,-0.24643808603286743,-1.2561838626861572,1.43845534324646,1.4443333148956299,-0.13215577602386475,-1.5063703060150146
13.624963283538818,0.006300514563918114,-1.2801458835601807,1.3791606426239014,1.3820134401321411,-0.0954342782497406,-1.5001862049102783
13.645052433013916,-0.035737209022045135,-1.221524953842163,1.7356481552124023,1.3505264520645142,0.052185237407684326,-1.513798475265503
13.665127277374268,-0.014919111505150795,-1.2458806037902832,1.5673651695251465,1.319725751876831,0.014834261499345303,-1.5159319639205933
13.685198307037354,0.01684677042067051,-1.2526774406433105,1.4316117763519287,1.2987099885940552,0.03277059644460678,-1.52193021774292
13.705309391021729,-0.3015546202659607,-1.2811291217803955,1.2825149297714233,1.4483636617660522,-0.22488370537757874,-1.5080881118774414
13.725346326828003,-0.1619638204574585,-1.2745475769042969,1.385284662246704,1.4177985191345215,-0.1516851931810379,-1.5072965621948242
13.745438575744629,0.01952829770743847,-1.2537060976028442,1.4907877445220947,1.389826774597168,-0.03701801225543022,-1.5121110677719116
13.76547384262085,-0.22836634516716003,-1.31867516040802,1.2276514768600464,1.290173053741455,-0.18713398277759552,-1.5085870027542114
13.78556513786316,-0.17510327696800232,-1.3139886856079102,1.2371785640716553,1.3655719757080078,-0.20334090292453766,-1.5070884227752686
13.80566143989563,-0.07256624102592468,-1.2753983736038208,1.411590337753296,1.376914143562317,-0.08422540128231049,-1.5156540870666504
13.825703620910645,0.03453409671783447,-1.2216005325317383,1.7563495635986328,1.334177851676941,0.10247104614973068,-1.5238913297653198
13.845757484436035,0.009137464687228203,-1.2275621891021729,1.7068793773651123,1.303265929222107,0.09049826860427856,-1.526242733001709
13.86592721939087,-0.004157474264502525,-1.2198266983032227,1.7249904870986938,1.3182755708694458,0.09930974990129471,-1.5283958911895752
13.88596487045288,0.007430093362927437,-1.232128381729126,1.6127722263336182,1.3305675983428955,0.06403199583292007,-1.5278401374816895
13.906023263931274,-0.009965529665350914,-1.2592973709106445,1.4163811206817627,1.3375815153121948,-0.01712973415851593,-1.526076078414917
13.926071405410767,-0.20349019765853882,-1.3010544776916504,1.2043975591659546,1.450913429260254,-0.30417701601982117,-1.5071766376495361
13.946158170700073,-0.12822434306144714,-1.3107686042785645,1.236485242843628,1.4170706272125244,-0.1676780879497528,-1.5117148160934448
13.966228485107422,-0.13020877540111542,-1.3051984310150146,1.2670152187347412,1.4279242753982544,-0.15435448288917542,-1.5127954483032227
13.986302137374878,-0.10208165645599365,-1.277172327041626,1.4439352750778198,1.4054871797561646,-0.085039421916008,-1.5190916061401367
14.006381273269653,0.1649664342403412,-1.2455438375473022,1.6477594375610352,1.341315746307373,0.09487463533878326,-1.521618366241455
14.026570558547974,0.13911423087120056,-1.2574220895767212,1.4535496234893799,1.2629971504211426,0.06772778928279877,-1.5301454067230225
14.046605348587036,-0.023249929770827293,-1.2263729572296143,1.6191461086273193,1.3118607997894287,0.08758210390806198,-1.5429600477218628
14.066744565963745,0.011477066203951836,-1.2698726654052734,1.3626476526260376,1.3459769487380981,-0.04357853904366493,-1.5313570499420166
14.08674931526184,-0.19004738330841064,-1.2743510007858276,1.3906059265136719,1.4578832387924194,-0.15890449285507202,-1.52425217628479
14.107001543045044,-0.17136281728744507,-1.295392632484436,1.3243786096572876,1.4663140773773193,-0.23705324530601501,-1.510610818862915
14.127076864242554,-0.038340091705322266,-1.2569612264633179,1.5770745277404785,1.374894380569458,0.024684373289346695,-1.5288960933685303
14.147151708602905,0.0030265431851148605,-1.2639732360839844,1.5335365533828735,1.2985272407531738,0.010717886500060558,-1.5318678617477417
14.167228937149048,-0.06380651891231537,-1.2486445903778076,1.5043258666992188,1.3496428728103638,0.04852624610066414,-1.5442659854888916
14.187506914138794,0.0017462018877267838,-1.2379884719848633,1.647607684135437,1.3441052436828613,0.08094435185194016,-1.5395060777664185
14.207621335983276,-0.010887416079640388,-1.2575175762176514,1.4958209991455078,1.3606657981872559,-0.0505957156419754,-1.531677484512329
14.22773003578186,-0.01441037468612194,-1.2533679008483887,1.497564673423767,1.3467035293579102,0.036274153739213943,-1.5418514013290405
14.247772216796875,-0.044328704476356506,-1.2833688259124756,1.3821020126342773,1.3597153425216675,-0.06692145764827728,-1.5331711769104004
14.267865896224976,-0.0025950539857149124,-1.2843210697174072,1.3882997035980225,1.41808021068573,-0.12025320529937744,-1.5264569520950317
14.287971258163452,-0.08859574794769287,-1.2472631931304932,1.6641011238098145,1.386791706085205,-0.035637982189655304,-1.5306997299194336
14.308034181594849,0.012461995705962181,-1.271721363067627,1.4810256958007812,1.3470337390899658,-0.06031649932265282,-1.5337082147598267
14.328087329864502,-0.19004152715206146,-1.290884017944336,1.297861099243164,1.4302160739898682,-0.17879259586334229,-1.5348474979400635
14.348410367965698,-0.050949983298778534,-1.2547194957733154,1.5296025276184082,1.433363914489746,-0.07460222393274307,-1.5354270935058594
14.36849308013916,-0.05193325877189636,-1.2576515674591064,1.5725244283676147,1.3271732330322266,0.015962019562721252,-1.5437896251678467
14.388566493988037,0.002688707783818245,-1.2835561037063599,1.298262357711792,1.2924206256866455,-0.07080842554569244,-1.5443062782287598
14.408696174621582,-0.09747999161481857,-1.299534797668457,1.3017911911010742,1.4262253046035767,-0.17307564616203308,-1.5358260869979858
14.428858280181885,-0.09240102022886276,-1.2970659732818604,1.3446940183639526,1.4371086359024048,-0.155716210603714,-1.5334687232971191
14.448988914489746,-0.05349709838628769,-1.2623027563095093,1.5587342977523804,1.4063405990600586,-0.033344391733407974,-1.5409843921661377
14.469126224517822,0.11697164922952652,-1.271582007408142,1.4923698902130127,1.2953300476074219,0.02349857985973358,-1.5441980361938477
14.489104986190796,-0.01575029455125332,-1.2547739744186401,1.466809630393982,1.344810962677002,0.03174358978867531,-1.5588557720184326
14.509611129760742,-0.09717243164777756,-1.2404580116271973,1.7056832313537598,1.3887227773666382,0.05877462029457092,-1.5478062629699707
14.529710292816162,-0.07793307304382324,-1.241287350654602,1.6632168292999268,1.3550636768341064,0.023042771965265274,-1.5470924377441406
14.549781799316406,-0.017505744472146034,-1.2570741176605225,1.510284185409546,1.3575712442398071,-0.022790782153606415,-1.5470545291900635
14.569846630096436,-0.1198020949959755,-1.3031684160232544,1.2137757539749146,1.3984521627426147,-0.15871447324752808,-1.5430669784545898
14.589983701705933,-0.15861129760742188,-1.2994343042373657,1.3169522285461426,1.4456934928894043,-0.15197396278381348,-1.538038730621338
