liuyurong129/humanoid-gym/humanoid/data/target_q_20250523-001924.csv
timestamp,joint_1,joint_2,joint_3,joint_4,joint_5,joint_6
5.555152893066406e-05,0.0,0.0,0.0,0.0,0.0,0.0
0.020262479782104492,0.0,0.0,0.0,0.0,0.0,0.0
0.04035329818725586,0.0,0.0,0.0,0.0,0.0,0.0
0.06044316291809082,0.0,0.0,0.0,0.0,0.0,0.0
0.08053898811340332,-0.10948853939771652,-0.1389053910970688,0.17635595798492432,-0.09951254725456238,-0.06590107083320618,0.38476115465164185
0.10059094429016113,-0.14816376566886902,-0.17483603954315186,0.25109782814979553,-0.06145372614264488,-0.051609404385089874,0.47529375553131104
0.12068533897399902,-0.25945374369621277,-0.2709786891937256,0.3583627939224243,0.1107330247759819,0.024937056005001068,0.6453281044960022
0.14081335067749023,-0.2412284016609192,-0.27539676427841187,0.327705979347229,0.07546799629926682,0.026435337960720062,0.6294011473655701
0.16085195541381836,-0.23643091320991516,-0.3072875142097473,0.3005369305610657,0.05723438411951065,0.043297313153743744,0.6287425756454468
0.18096256256103516,-0.17103272676467896,-0.19387662410736084,0.320300817489624,-0.0021659843623638153,-0.03764926642179489,0.549895167350769
0.20102190971374512,-0.16376180946826935,-0.18618836998939514,0.3290289342403412,0.002247348427772522,-0.039774127304553986,0.5534035563468933
0.22113990783691406,-0.1547597348690033,-0.18826176226139069,0.3496321439743042,0.002085454761981964,-0.04406941682100296,0.5568864941596985
0.24118328094482422,-0.24098661541938782,-0.38863635063171387,0.31259018182754517,0.0328902006149292,0.06010179966688156,0.6411203145980835
0.2612648010253906,-0.24644029140472412,-0.42834198474884033,0.3189036548137665,0.031206905841827393,0.07044989615678787,0.6510839462280273
0.28132128715515137,-0.2560177147388458,-0.440776526927948,0.350724995136261,0.027351446449756622,0.06492102146148682,0.6530978083610535
0.30137181282043457,-0.2600657641887665,-0.4810776114463806,0.34973424673080444,0.025018885731697083,0.08290296047925949,0.6631575226783752
0.3215196132659912,-0.10463105887174606,-0.18913334608078003,0.40118294954299927,-0.009134888648986816,-0.05877531319856644,0.5576063394546509
0.3415567874908447,-0.09274867177009583,-0.18877367675304413,0.41651058197021484,-0.014935284852981567,-0.06636485457420349,0.5575944781303406
0.3616604804992676,-0.09026017040014267,-0.18706057965755463,0.4334797263145447,-0.0193379707634449,-0.07408194988965988,0.5538784861564636
0.38172221183776855,-0.27183687686920166,-0.5667845010757446,0.3980019688606262,0.019568175077438354,0.10290353745222092,0.6830039620399475
0.4018573760986328,-0.25477033853530884,-0.5492183566093445,0.4291951060295105,0.01635707914829254,0.08820261806249619,0.677528440952301
0.4219369888305664,-0.23896154761314392,-0.5518545508384705,0.4332656264305115,0.014016807079315186,0.08863986283540726,0.6768031716346741
0.44200849533081055,-0.22177433967590332,-0.5506857633590698,0.4505109190940857,0.011948637664318085,0.08096415549516678,0.6735818982124329
0.462083101272583,-0.1308230608701706,-0.3437182903289795,0.4629480838775635,-0.028127800673246384,-0.02259828895330429,0.5938632488250732
0.4821639060974121,-0.14378419518470764,-0.42589807510375977,0.4741879105567932,-0.026580702513456345,0.010475531220436096,0.6098858118057251
0.5022487640380859,-0.1687476634979248,-0.49873071908950806,0.47469836473464966,-0.025242455303668976,0.03799716383218765,0.6309024691581726
0.522350549697876,-0.14408385753631592,-0.45483458042144775,0.5195755362510681,-0.0076756551861763,0.018179990351200104,0.6422632336616516
0.5424718856811523,-0.12300393730401993,-0.4473799467086792,0.5458770394325256,-0.022241953760385513,0.001597672700881958,0.6344240307807922
0.5626084804534912,-0.11312180012464523,-0.4797745943069458,0.5457689762115479,-0.032509054988622665,0.008430354297161102,0.6341128945350647
0.5827538967132568,-0.11867620795965195,-0.49909359216690063,0.5673887133598328,-0.04107912629842758,-0.00287599116563797,0.6370519399642944
0.6028459072113037,-0.18697167932987213,-0.645150899887085,0.544600248336792,-0.02070731669664383,0.06455852836370468,0.6836065053939819
0.6230440139770508,-0.17329585552215576,-0.6371464729309082,0.5781364440917969,-0.026189543306827545,0.04688502848148346,0.6874839067459106
0.6430296897888184,-0.15787361562252045,-0.6379500031471252,0.610313892364502,-0.033014148473739624,0.02864031493663788,0.6846842169761658
0.663306474685669,-0.1459861695766449,-0.6446322202682495,0.5937385559082031,-0.05416807532310486,0.023528747260570526,0.6705124378204346
0.6834592819213867,-0.14442698657512665,-0.6755710244178772,0.6058610081672668,-0.05650349706411362,0.022141046822071075,0.6783384084701538
0.7035672664642334,-0.1447148621082306,-0.6915249824523926,0.6236972808837891,-0.060388825833797455,0.012559764087200165,0.684863269329071
0.7235972881317139,-0.13621999323368073,-0.6895149350166321,0.6514729261398315,-0.06777885556221008,-0.004667118191719055,0.6858987808227539
0.7436861991882324,-0.15275631844997406,-0.7771111130714417,0.6938211917877197,-0.05792473256587982,0.02409488707780838,0.7134358882904053
0.763746976852417,-0.15228904783725739,-0.7966384291648865,0.7124837040901184,-0.06167083978652954,0.016490742564201355,0.718768298625946
0.7838859558105469,-0.1429334580898285,-0.7920095920562744,0.7378506660461426,-0.06854130327701569,-0.0014600679278373718,0.7202891111373901
0.8042051792144775,-0.13164669275283813,-0.7962616086006165,0.760820746421814,-0.07961135357618332,-0.01649971306324005,0.7244657874107361
0.8243019580841064,-0.13906045258045197,-0.8084507584571838,0.7668617367744446,-0.09207561612129211,-0.0170137882232666,0.7275162935256958
0.8444123268127441,-0.13675527274608612,-0.816733181476593,0.8004131317138672,-0.09888189285993576,-0.029466897249221802,0.7363214492797852
0.8644359111785889,-0.1285499632358551,-0.8328192830085754,0.830654501914978,-0.10683659464120865,-0.039557673037052155,0.7439258098602295
0.8845124244689941,-0.12480718642473221,-0.8441455960273743,0.8203915357589722,-0.10676778852939606,-0.029902197420597076,0.7555310130119324
0.9045939445495605,-0.12724816799163818,-0.8689044117927551,0.8401428461074829,-0.11549573391675949,-0.031002633273601532,0.7711427211761475
0.9246654510498047,-0.13091880083084106,-0.8834786415100098,0.8674969673156738,-0.12442180514335632,-0.03944481909275055,0.7872892022132874
0.9447362422943115,-0.12961317598819733,-0.8860848546028137,0.908517062664032,-0.13519734144210815,-0.05707532912492752,0.8000761270523071
0.9648373126983643,-0.11443354934453964,-0.915696382522583,0.9140194058418274,-0.15301138162612915,-0.059873417019844055,0.7983195185661316
0.9850151538848877,-0.13581538200378418,-0.8973167538642883,0.9692540764808655,-0.16736379265785217,-0.08995527774095535,0.8197367191314697
1.0050177574157715,-0.12745048105716705,-0.9263733625411987,0.9807361364364624,-0.1837337613105774,-0.09984251856803894,0.8369635343551636
1.0250914096832275,-0.11840613931417465,-0.9633806347846985,0.9391809701919556,-0.17616799473762512,-0.06801401823759079,0.8578313589096069
1.0451545715332031,-0.12699243426322937,-0.9192902445793152,0.9921538829803467,-0.19928866624832153,-0.10770256072282791,0.8797030448913574
1.0652203559875488,-0.11656325310468674,-0.9364585280418396,0.9855098724365234,-0.22581568360328674,-0.1185208112001419,0.902722954750061
1.085353136062622,-0.12447216361761093,-1.0019389390945435,0.9634274244308472,-0.2470616102218628,-0.1027323380112648,0.9421845078468323
1.1054651737213135,-0.10206642001867294,-0.9665634036064148,0.9856175184249878,-0.2581041753292084,-0.10709469020366669,0.9500423073768616
1.1255488395690918,-0.09430215507745743,-1.0194823741912842,0.952834963798523,-0.28070059418678284,-0.09215392172336578,0.985814094543457
1.1456334590911865,-0.11370065063238144,-1.0296791791915894,0.9522762298583984,-0.30605965852737427,-0.10391706228256226,1.0244587659835815
1.1657888889312744,-0.10977908223867416,-1.0292749404907227,0.9424360394477844,-0.3180406093597412,-0.10331757366657257,1.0381280183792114
1.1859276294708252,-0.10653116554021835,-1.0169973373413086,0.9504505395889282,-0.3500174880027771,-0.11443012952804565,1.0733586549758911
1.205976963043213,-0.09993471950292587,-1.045296549797058,0.9369392395019531,-0.3799573481082916,-0.10971024632453918,1.1123124361038208
1.2261691093444824,-0.09721814841032028,-1.0180269479751587,0.957831621170044,-0.4137558043003082,-0.12490326911211014,1.1485596895217896
1.246325969696045,-0.11010541766881943,-1.0345501899719238,0.9317643642425537,-0.42894992232322693,-0.1326458752155304,1.1697651147842407
1.266422986984253,-0.10501658171415329,-1.013730525970459,0.9391621351242065,-0.4644377529621124,-0.14606133103370667,1.2048684358596802
1.2866766452789307,-0.08727619796991348,-1.0561286211013794,0.9052248597145081,-0.49551400542259216,-0.12400579452514648,1.2458772659301758
1.3067293167114258,-0.09334462136030197,-1.0483543872833252,0.9090471267700195,-0.5117825269699097,-0.14260265231132507,1.2645102739334106
1.326857566833496,-0.08774372190237045,-1.0615168809890747,0.8936277627944946,-0.5459700226783752,-0.13483986258506775,1.306406021118164
1.3469469547271729,-0.09796411544084549,-1.0367631912231445,0.9122130870819092,-0.5802801847457886,-0.16658815741539001,1.3363820314407349
1.3669886589050293,-0.09249142557382584,-1.0314579010009766,0.9044321775436401,-0.613154411315918,-0.17375251650810242,1.366387963294983
1.387080192565918,-0.09248431771993637,-1.0545381307601929,0.888813853263855,-0.6286293864250183,-0.1650019884109497,1.3812912702560425
1.4071509838104248,-0.08835210651159286,-1.0518076419830322,0.8852660059928894,-0.6627817749977112,-0.16897442936897278,1.4115115404129028
1.427191972732544,-0.09140022844076157,-1.0430634021759033,0.8849853277206421,-0.6897594332695007,-0.18538033962249756,1.439132571220398
1.4472956657409668,-0.08795655518770218,-1.0513323545455933,0.8632495403289795,-0.6974069476127625,-0.18143296241760254,1.4546335935592651
1.4674124717712402,-0.08371170610189438,-1.041329264640808,0.8646426200866699,-0.7271893620491028,-0.18922021985054016,1.4781239032745361
1.4874744415283203,-0.08494778722524643,-1.0389316082000732,0.8582239747047424,-0.7517582178115845,-0.2011421024799347,1.503430724143982
1.5076696872711182,-0.08396495133638382,-1.0286074876785278,0.8565862774848938,-0.776365339756012,-0.2101822793483734,1.5256483554840088
1.5277838706970215,-0.08241324871778488,-1.04622483253479,0.8407349586486816,-0.7897836565971375,-0.20099163055419922,1.5348204374313354
1.547837495803833,-0.08067791908979416,-1.0407148599624634,0.8355934619903564,-0.8127474188804626,-0.20456337928771973,1.5535739660263062
1.5678884983062744,-0.08326763659715652,-1.0279195308685303,0.8364681005477905,-0.8337189555168152,-0.22018539905548096,1.572446584701538
1.5879650115966797,-0.07485534995794296,-1.0291105508804321,0.825535237789154,-0.8433495163917542,-0.2169598639011383,1.5830210447311401
1.608069896697998,-0.07074608653783798,-1.0297367572784424,0.8133314847946167,-0.8659798502922058,-0.21595019102096558,1.6000781059265137
1.6281366348266602,-0.07215691357851028,-1.0367271900177002,0.7959246635437012,-0.8834391236305237,-0.21854829788208008,1.6172629594802856
1.648181438446045,-0.07570656388998032,-1.0238317251205444,0.797425389289856,-0.8991762399673462,-0.2288256585597992,1.631606936454773
1.6683506965637207,-0.0706043466925621,-1.017712950706482,0.7983431816101074,-0.9088628888130188,-0.23415949940681458,1.6394633054733276
1.6885266304016113,-0.06947194784879684,-1.0154883861541748,0.7903257608413696,-0.9255571961402893,-0.23787111043930054,1.6528319120407104
1.7085790634155273,-0.0685858353972435,-1.0123109817504883,0.7836658954620361,-0.9424167275428772,-0.24189776182174683,1.66457200050354
1.7287514209747314,-0.06825494021177292,-1.0074613094329834,0.7780879735946655,-0.9505175948143005,-0.24202629923820496,1.671559453010559
1.7487969398498535,-0.06572996824979782,-1.0024125576019287,0.7697445154190063,-0.9625702500343323,-0.24417787790298462,1.6829464435577393
1.7689738273620605,-0.06497516483068466,-1.0005383491516113,0.7620930671691895,-0.975654661655426,-0.24461054801940918,1.6927372217178345
1.78895902633667,-0.06286906450986862,-0.9927669763565063,0.7592816352844238,-0.9900341629981995,-0.2511593997478485,1.7009536027908325
1.8090693950653076,-0.06315293163061142,-0.9937986731529236,0.7562141418457031,-0.9928815960884094,-0.25147560238838196,1.7060714960098267
1.8291280269622803,-0.0618031844496727,-0.9910160899162292,0.7473204135894775,-1.00383460521698,-0.2521575689315796,1.7148536443710327
1.8492004871368408,-0.06096144765615463,-0.9839159846305847,0.7409337759017944,-1.014236330986023,-0.25356531143188477,1.7202372550964355
1.86991548538208,-0.06233077496290207,-0.9879145622253418,0.7349120378494263,-1.0218822956085205,-0.25836724042892456,1.7289115190505981
1.890110731124878,-0.05975406616926193,-0.9867568612098694,0.729977548122406,-1.0266907215118408,-0.25615423917770386,1.732228398323059
1.9102516174316406,-0.05914851278066635,-0.9832070469856262,0.7242578268051147,-1.0352137088775635,-0.2580539882183075,1.7385960817337036
1.9302895069122314,-0.05810510367155075,-0.9755082726478577,0.7221051454544067,-1.043264627456665,-0.2599385976791382,1.7434931993484497
1.9504494667053223,-0.060073427855968475,-0.9718882441520691,0.7274245023727417,-1.0451961755752563,-0.26852625608444214,1.745746374130249
1.9705491065979004,-0.05856778472661972,-0.9707944989204407,0.7206406593322754,-1.0531927347183228,-0.2669314444065094,1.750827670097351
1.9906063079833984,-0.058668605983257294,-0.9688291549682617,0.7160096168518066,-1.060761570930481,-0.26703840494155884,1.7556911706924438
2.010654926300049,-0.05700387805700302,-0.9642654061317444,0.7071883678436279,-1.0669158697128296,-0.2654077708721161,1.7610608339309692
2.030733585357666,-0.056372277438640594,-0.9618777632713318,0.7024499177932739,-1.070770025253296,-0.26703014969825745,1.763814091682434
2.0508856773376465,-0.05524381250143051,-0.9600380659103394,0.6988637447357178,-1.0757182836532593,-0.2690519690513611,1.7675161361694336
2.070922374725342,-0.05518098920583725,-0.9577399492263794,0.6989322900772095,-1.082282543182373,-0.2698768675327301,1.7703050374984741
2.0913500785827637,-0.05603428930044174,-0.9564458727836609,0.6986806392669678,-1.0859986543655396,-0.27491679787635803,1.7745084762573242
2.111621856689453,-0.054504357278347015,-0.9490514397621155,0.6935276389122009,-1.0885579586029053,-0.27547022700309753,1.7754391431808472
2.131725788116455,-0.05396857112646103,-0.9505866169929504,0.6861386299133301,-1.0924326181411743,-0.2719327211380005,1.7779539823532104
2.1517717838287354,-0.05396571010351181,-0.9480839371681213,0.6841433048248291,-1.09735107421875,-0.27287182211875916,1.7801282405853271
2.1720223426818848,-0.05555828660726547,-0.9486985802650452,0.6858078241348267,-1.0987706184387207,-0.27497148513793945,1.7826080322265625
2.1921157836914062,-0.05370413511991501,-0.9418215155601501,0.6840917468070984,-1.1016355752944946,-0.2741992175579071,1.7835767269134521
2.2123069763183594,-0.05552472919225693,-0.9407013058662415,0.6837095022201538,-1.1033422946929932,-0.27756229043006897,1.7854801416397095
2.232316255569458,-0.05414634197950363,-0.941132664680481,0.6811319589614868,-1.1084517240524292,-0.2764166295528412,1.7877908945083618
2.2524654865264893,-0.05272962898015976,-0.9315782189369202,0.6730164289474487,-1.1107746362686157,-0.27426183223724365,1.7891004085540771
2.2725305557250977,-0.05338766425848007,-0.9299938082695007,0.6738628149032593,-1.1097275018692017,-0.27687621116638184,1.7905877828598022
2.292597770690918,-0.0521087571978569,-0.9288437962532043,0.6730859875679016,-1.1125093698501587,-0.27615055441856384,1.7920634746551514
2.3126485347747803,-0.053029172122478485,-0.9296243786811829,0.6750481128692627,-1.1134331226348877,-0.27821511030197144,1.7929818630218506
2.3327457904815674,-0.053716592490673065,-0.9361734390258789,0.6682403683662415,-1.1158119440078735,-0.2753124535083771,1.7930952310562134
2.352909564971924,-0.0536242350935936,-0.935544490814209,0.6675321459770203,-1.1163711547851562,-0.2752044200897217,1.7941981554031372
2.372927188873291,-0.05372079461812973,-0.9344066977500916,0.6689707040786743,-1.1183706521987915,-0.27740854024887085,1.7954705953598022
2.393319606781006,-0.053067646920681,-0.9332191348075867,0.6675511598587036,-1.1212259531021118,-0.27690401673316956,1.7961779832839966
2.4134199619293213,-0.05178006738424301,-0.9255424737930298,0.663584291934967,-1.1200884580612183,-0.27601364254951477,1.7972596883773804
2.433485984802246,-0.051508210599422455,-0.9232096076011658,0.6652144193649292,-1.1228114366531372,-0.27908605337142944,1.7982935905456543
2.4535884857177734,-0.050864480435848236,-0.9231405854225159,0.6594918966293335,-1.1244508028030396,-0.275948703289032,1.799411654472351
2.473642587661743,-0.05315785855054855,-0.9244744777679443,0.6663284301757812,-1.1239298582077026,-0.2813660800457001,1.7990071773529053
2.493725538253784,-0.052163563668727875,-0.9254993200302124,0.6605315208435059,-1.1263295412063599,-0.27975574135780334,1.8002831935882568
2.5138235092163086,-0.05274011939764023,-0.9231539368629456,0.6581864356994629,-1.1252115964889526,-0.2800539433956146,1.8004940748214722
2.53387451171875,-0.05200483649969101,-0.9199674129486084,0.6565244197845459,-1.1270334720611572,-0.2777528762817383,1.800838589668274
2.5539488792419434,-0.0519193634390831,-0.9170417189598083,0.6582446694374084,-1.1280819177627563,-0.28027626872062683,1.8015156984329224
2.5740201473236084,-0.05175044387578964,-0.9201580882072449,0.6562783122062683,-1.1288779973983765,-0.27789998054504395,1.80195152759552
2.594087600708008,-0.05180608481168747,-0.918994665145874,0.6534977555274963,-1.1305807828903198,-0.27670377492904663,1.8027371168136597
2.6141514778137207,-0.052047841250896454,-0.9186772704124451,0.6554911136627197,-1.1310235261917114,-0.2785550653934479,1.8035966157913208
2.6342287063598633,-0.05231302231550217,-0.9159919619560242,0.6556739807128906,-1.1326321363449097,-0.2796815037727356,1.8039464950561523
2.654306173324585,-0.05231364816427231,-0.9171789288520813,0.6529380679130554,-1.1343408823013306,-0.27918028831481934,1.8050661087036133
2.6744017601013184,-0.05242355912923813,-0.9141574501991272,0.6533222198486328,-1.1357308626174927,-0.27980566024780273,1.8051493167877197
2.694472312927246,-0.052255116403102875,-0.912192165851593,0.6534819602966309,-1.1351354122161865,-0.2801980972290039,1.8056741952896118
2.714555263519287,-0.052751295268535614,-0.9124779105186462,0.6510504484176636,-1.1355968713760376,-0.27884814143180847,1.8055912256240845
2.734684944152832,-0.052084796130657196,-0.9113362431526184,0.6494616866111755,-1.1366995573043823,-0.27864745259284973,1.8064125776290894
2.754697561264038,-0.05288141220808029,-0.9140588641166687,0.649721622467041,-1.1370768547058105,-0.2784985601902008,1.8063557147979736
2.7748122215270996,-0.052800022065639496,-0.9132943749427795,0.6491221189498901,-1.137961745262146,-0.27822166681289673,1.8065303564071655
2.7948644161224365,-0.0528729185461998,-0.912265956401825,0.6485387086868286,-1.138127088546753,-0.2782137095928192,1.8070080280303955
2.8149802684783936,-0.053124718368053436,-0.9130263328552246,0.6486632227897644,-1.1391233205795288,-0.27906620502471924,1.807024359703064
2.835089683532715,-0.05245640128850937,-0.9092246890068054,0.6487324237823486,-1.1380424499511719,-0.278536856174469,1.8072372674942017
2.855257034301758,-0.052858226001262665,-0.9096204042434692,0.6488047242164612,-1.1397802829742432,-0.27884387969970703,1.8068524599075317
2.875269651412964,-0.05316203087568283,-0.9107444286346436,0.6478323340415955,-1.1397961378097534,-0.2784072458744049,1.807003140449524
2.895455837249756,-0.0529356524348259,-0.9115996956825256,0.6476148962974548,-1.1399121284484863,-0.2777756452560425,1.8071860074996948
2.91560959815979,-0.05299221724271774,-0.9101964831352234,0.6476861834526062,-1.140465259552002,-0.27853089570999146,1.8072487115859985
2.9357242584228516,-0.05299603193998337,-0.9100067019462585,0.646663248538971,-1.141076683998108,-0.2781723141670227,1.8076057434082031
2.955731153488159,-0.0529957041144371,-0.9093392491340637,0.6463403701782227,-1.1410670280456543,-0.2780420780181885,1.8074431419372559
2.9758005142211914,-0.05285476893186569,-0.9092487692832947,0.6472768187522888,-1.1409261226654053,-0.27820292115211487,1.8079315423965454
2.9958972930908203,-0.052997492253780365,-0.9092227220535278,0.6477014422416687,-1.1412160396575928,-0.2787836194038391,1.8082305192947388
3.0159754753112793,-0.05314939469099045,-0.9093948006629944,0.6474926471710205,-1.1410908699035645,-0.27853164076805115,1.8082609176635742
3.0360493659973145,-0.05321996659040451,-0.9096663594245911,0.6469786167144775,-1.141323208808899,-0.2782476246356964,1.80827796459198
3.056152105331421,-0.0534624382853508,-0.9124348759651184,0.6448956727981567,-1.141877293586731,-0.2769957184791565,1.8082096576690674
3.0762782096862793,-0.05362176150083542,-0.9094575047492981,0.6461745500564575,-1.1416244506835938,-0.2780221104621887,1.8084354400634766
3.0963525772094727,-0.05286561697721481,-0.9072852730751038,0.6453297138214111,-1.1421161890029907,-0.27816739678382874,1.8090546131134033
3.1164350509643555,-0.053215496242046356,-0.9079832434654236,0.646222710609436,-1.141889214515686,-0.27825167775154114,1.8086528778076172
3.136577606201172,-0.053660862147808075,-0.9097580313682556,0.6456836462020874,-1.1417914628982544,-0.2779105603694916,1.808112621307373
3.156599521636963,-0.05404236167669296,-0.9090925455093384,0.6454452276229858,-1.1420248746871948,-0.27763256430625916,1.8079757690429688
3.176661968231201,-0.054058246314525604,-0.9089635610580444,0.6456700563430786,-1.142921805381775,-0.27776607871055603,1.8081008195877075
3.1967124938964844,-0.05379205197095871,-0.9105978012084961,0.6432873010635376,-1.143152117729187,-0.2763212025165558,1.8084732294082642
3.2168641090393066,-0.053528688848018646,-0.9096318483352661,0.6440654993057251,-1.1430386304855347,-0.2765190005302429,1.8088476657867432
3.2369019985198975,-0.05366908758878708,-0.9078447222709656,0.6460443735122681,-1.1432386636734009,-0.2781105935573578,1.8088055849075317
3.256981372833252,-0.0532243475317955,-0.9081808924674988,0.6452022790908813,-1.1425830125808716,-0.27743813395500183,1.8089704513549805
3.2772858142852783,-0.05359183996915817,-0.9077373743057251,0.6456658244132996,-1.1425609588623047,-0.2778732478618622,1.8084434270858765
3.297405481338501,-0.054206691682338715,-0.9085543751716614,0.6454670429229736,-1.1425014734268188,-0.2779211699962616,1.808220386505127
3.3174681663513184,-0.05393566936254501,-0.9084652662277222,0.644410252571106,-1.1427075862884521,-0.2771710753440857,1.8084194660186768
3.3375556468963623,-0.05396711081266403,-0.9079576134681702,0.6449083089828491,-1.143105387687683,-0.2774217128753662,1.8083969354629517
3.3576083183288574,-0.05374818295240402,-0.9079883694648743,0.6444335579872131,-1.1431375741958618,-0.27730223536491394,1.808665156364441
3.3776748180389404,-0.05384274572134018,-0.9074518084526062,0.6449020504951477,-1.143377423286438,-0.27776461839675903,1.808550238609314
3.3977203369140625,-0.05381103605031967,-0.9076482653617859,0.6449689865112305,-1.1431461572647095,-0.27770552039146423,1.8083442449569702
3.4178144931793213,-0.054164521396160126,-0.9075161814689636,0.6457798480987549,-1.1429426670074463,-0.27801936864852905,1.808184266090393
3.437905788421631,-0.05402528494596481,-0.907560408115387,0.6450234651565552,-1.143126130104065,-0.2774604558944702,1.80833101272583
3.4579522609710693,-0.05378168076276779,-0.907443106174469,0.6445160508155823,-1.1433981657028198,-0.27736181020736694,1.8085505962371826
3.4780385494232178,-0.0540914461016655,-0.9075415730476379,0.6448665857315063,-1.1436198949813843,-0.2777138352394104,1.808436393737793
3.4981861114501953,-0.053981952369213104,-0.9074916243553162,0.6448012590408325,-1.1437073945999146,-0.27765777707099915,1.808588981628418
3.5182647705078125,-0.05418010801076889,-0.9077110886573792,0.6448878049850464,-1.143515944480896,-0.277629554271698,1.808310627937317
3.538339853286743,-0.0539030060172081,-0.9078227281570435,0.6445798873901367,-1.1433829069137573,-0.2773948013782501,1.8085492849349976
3.5584962368011475,-0.05391519516706467,-0.9071897864341736,0.6447237730026245,-1.143540382385254,-0.2773967683315277,1.8084461688995361
3.57858943939209,-0.05390774458646774,-0.9081775546073914,0.6444637775421143,-1.1438442468643188,-0.27693867683410645,1.8085265159606934
3.5986714363098145,-0.05396943539381027,-0.9078840017318726,0.6442835330963135,-1.1435964107513428,-0.2771565914154053,1.8086764812469482
3.6187312602996826,-0.05384089797735214,-0.9090202450752258,0.6435017585754395,-1.1437121629714966,-0.27643805742263794,1.80866539478302
3.6388020515441895,-0.05403336137533188,-0.9076586365699768,0.6440337896347046,-1.143681287765503,-0.276848167181015,1.808495044708252
3.65885853767395,-0.05406399816274643,-0.9073593616485596,0.6441560983657837,-1.1439552307128906,-0.277047336101532,1.808581829071045
3.6790425777435303,-0.05411284416913986,-0.9074717164039612,0.6445086598396301,-1.1438502073287964,-0.27686604857444763,1.8085159063339233
3.6990535259246826,-0.05396582931280136,-0.9071674942970276,0.6445382833480835,-1.1442432403564453,-0.2765877842903137,1.8084851503372192
3.719087600708008,-0.05420722812414169,-0.907490611076355,0.6443209648132324,-1.143703579902649,-0.27676454186439514,1.808572769165039
3.7392072677612305,-0.05417903512716293,-0.9073755145072937,0.6445791125297546,-1.1437331438064575,-0.27659398317337036,1.8084336519241333
3.7593016624450684,-0.05415519326925278,-0.9072621464729309,0.6443651914596558,-1.1439458131790161,-0.2766106128692627,1.8085397481918335
3.7793350219726562,-0.054172150790691376,-0.9072413444519043,0.6445314884185791,-1.1439104080200195,-0.27662914991378784,1.8084391355514526
3.799470901489258,-0.0543111190199852,-0.9075058102607727,0.644728422164917,-1.143734097480774,-0.2765713036060333,1.80838942527771
3.8196306228637695,-0.0542864128947258,-0.9074376225471497,0.6448075771331787,-1.1437547206878662,-0.27658578753471375,1.8084474802017212
3.8396735191345215,-0.05420156568288803,-0.9074936509132385,0.6445463299751282,-1.1438089609146118,-0.2765760123729706,1.8086283206939697
3.8597207069396973,-0.054177425801754,-0.9074776768684387,0.6443214416503906,-1.1439238786697388,-0.2765589654445648,1.8087009191513062
3.8798835277557373,-0.054342322051525116,-0.9073984026908875,0.6444798707962036,-1.143868327140808,-0.2766127288341522,1.8084982633590698
3.899862051010132,-0.0543128177523613,-0.9073658585548401,0.6442794799804688,-1.1438363790512085,-0.2764648199081421,1.8084672689437866
3.919917583465576,-0.054303281009197235,-0.9073171615600586,0.6448073387145996,-1.1440354585647583,-0.2767826020717621,1.8085204362869263
3.940281629562378,-0.05428784340620041,-0.9068818688392639,0.6447439193725586,-1.144011378288269,-0.2769252359867096,1.8085052967071533
3.960362434387207,-0.05441045016050339,-0.907892644405365,0.6444159746170044,-1.1438449621200562,-0.2764081060886383,1.8086117506027222
3.9804351329803467,-0.054509393870830536,-0.9077646136283875,0.6446080207824707,-1.1439284086227417,-0.2764091193675995,1.8085249662399292
4.000530481338501,-0.054351113736629486,-0.9072538614273071,0.6446387767791748,-1.1440688371658325,-0.27647608518600464,1.8085277080535889
4.0206215381622314,-0.05435817688703537,-0.9070716500282288,0.6446227431297302,-1.1441618204116821,-0.2767218053340912,1.8084450960159302
4.04068922996521,-0.054386816918849945,-0.9072551131248474,0.6444321870803833,-1.1440261602401733,-0.2766766846179962,1.808534026145935
4.060846567153931,-0.05435600131750107,-0.9071213603019714,0.6447465419769287,-1.1441582441329956,-0.2767032980918884,1.8084585666656494
4.080826282501221,-0.05437987297773361,-0.9072479009628296,0.6448311805725098,-1.1439863443374634,-0.27672064304351807,1.808451771736145
4.100907802581787,-0.05437564104795456,-0.9070882201194763,0.6443144083023071,-1.1442312002182007,-0.27662670612335205,1.8085001707077026
4.121007680892944,-0.05440237373113632,-0.9071905016899109,0.6445263624191284,-1.1441000699996948,-0.2766730487346649,1.808532476425171
4.1411051750183105,-0.054388366639614105,-0.9072476029396057,0.6444664001464844,-1.1440339088439941,-0.2766669988632202,1.808537244796753
4.161144495010376,-0.054311446845531464,-0.9071529507637024,0.6445176005363464,-1.1440612077713013,-0.2765096426010132,1.8085229396820068
4.1812543869018555,-0.05440293997526169,-0.9073603749275208,0.6448318958282471,-1.1438292264938354,-0.2767351269721985,1.8084125518798828
4.2013115882873535,-0.05432882159948349,-0.9072034955024719,0.644290030002594,-1.1439934968948364,-0.2764607071876526,1.808508276939392
4.22141170501709,-0.054353438317775726,-0.9072144031524658,0.6444675326347351,-1.1440507173538208,-0.2766280472278595,1.808508276939392
4.241686105728149,-0.054372988641262054,-0.9071639776229858,0.6446266770362854,-1.1441007852554321,-0.27666351199150085,1.8084946870803833
4.2618408203125,-0.054364465177059174,-0.9072061777114868,0.6445505619049072,-1.1440622806549072,-0.2766565978527069,1.808508038520813
4.281914234161377,-0.054348431527614594,-0.907197892665863,0.6440755128860474,-1.1439893245697021,-0.2763800621032715,1.8085039854049683
4.301986932754517,-0.05435820668935776,-0.9071741104125977,0.6448348760604858,-1.1441229581832886,-0.27674582600593567,1.8085010051727295
4.322076082229614,-0.054368190467357635,-0.9070802330970764,0.6444602608680725,-1.1442447900772095,-0.276650607585907,1.8085055351257324
4.34216833114624,-0.054392896592617035,-0.9070848822593689,0.6444001793861389,-1.1442512273788452,-0.27666065096855164,1.8085176944732666
4.362269878387451,-0.05441471189260483,-0.9071640968322754,0.6445998549461365,-1.1441371440887451,-0.2767273485660553,1.8084734678268433
4.382380485534668,-0.0543513223528862,-0.9073198437690735,0.6443839073181152,-1.1439651250839233,-0.2766265273094177,1.808590054512024
4.402494430541992,-0.05436878651380539,-0.9073075652122498,0.6445043087005615,-1.1440157890319824,-0.276699960231781,1.8085753917694092
4.422542095184326,-0.05440085381269455,-0.9071819186210632,0.6445633172988892,-1.1441484689712524,-0.27653664350509644,1.8084014654159546
4.442715406417847,-0.05447044223546982,-0.9072781205177307,0.644508421421051,-1.144029140472412,-0.27648502588272095,1.8084925413131714
4.462873935699463,-0.054567985236644745,-0.9073626399040222,0.6446576118469238,-1.1440460681915283,-0.27658721804618835,1.8085285425186157
4.482951879501343,-0.05446638911962509,-0.9071949124336243,0.6443822383880615,-1.1440805196762085,-0.27640968561172485,1.8084211349487305
4.50300145149231,-0.05446716398000717,-0.9071584343910217,0.6449528336524963,-1.1442075967788696,-0.2767143249511719,1.8084256649017334
4.523055076599121,-0.05447506159543991,-0.9073455929756165,0.6444181203842163,-1.1440314054489136,-0.2765653729438782,1.8085020780563354
4.54317307472229,-0.054440878331661224,-0.9073939323425293,0.6447603106498718,-1.1439266204833984,-0.27660390734672546,1.8084684610366821
4.563214540481567,-0.05439784377813339,-0.9073123335838318,0.6444763541221619,-1.1441808938980103,-0.27667462825775146,1.8085525035858154
4.583280801773071,-0.054437749087810516,-0.9071409702301025,0.6448184847831726,-1.144164800643921,-0.276324599981308,1.808453917503357
4.603378534317017,-0.05447741597890854,-0.9071659445762634,0.6446638703346252,-1.1441404819488525,-0.27643251419067383,1.8084238767623901
4.623485565185547,-0.05450250953435898,-0.907082736492157,0.6446828842163086,-1.144321084022522,-0.27654018998146057,1.8084113597869873
4.643566131591797,-0.05450638383626938,-0.9071891903877258,0.6446359157562256,-1.144140601158142,-0.27644044160842896,1.8084129095077515
4.663594007492065,-0.05446936935186386,-0.9071772694587708,0.6448692083358765,-1.1441491842269897,-0.276461660861969,1.8084534406661987
4.683680057525635,-0.054490827023983,-0.9072234630584717,0.6449622511863708,-1.1440564393997192,-0.2765266001224518,1.808361530303955
4.703745365142822,-0.05442168563604355,-0.9072030782699585,0.6446923017501831,-1.1439615488052368,-0.2762233316898346,1.8083837032318115
4.723849773406982,-0.054431550204753876,-0.9071907997131348,0.6446953415870667,-1.1440852880477905,-0.27636104822158813,1.8084492683410645
4.743890285491943,-0.054427020251750946,-0.9071817994117737,0.6445149779319763,-1.1440715789794922,-0.2762461006641388,1.8084551095962524
4.763966083526611,-0.05449243634939194,-0.9071367383003235,0.6446062326431274,-1.1442497968673706,-0.27645343542099,1.8084951639175415
4.784081935882568,-0.05454003065824509,-0.907616376876831,0.6445668935775757,-1.144171953201294,-0.2762647569179535,1.8083992004394531
4.8041911125183105,-0.05454998463392258,-0.907798171043396,0.6446175575256348,-1.1441386938095093,-0.2762468159198761,1.8084375858306885
4.824680805206299,-0.05448450893163681,-0.9072183966636658,0.6450411677360535,-1.1438993215560913,-0.2764699459075928,1.8083369731903076
4.844746112823486,-0.054543636739254,-0.9075928330421448,0.6445067524909973,-1.1444886922836304,-0.2762216627597809,1.808382511138916
4.86481237411499,-0.054593466222286224,-0.9075198769569397,0.6444603204727173,-1.1442087888717651,-0.2762807309627533,1.8083635568618774
4.884875297546387,-0.05454208701848984,-0.9076072573661804,0.6443923711776733,-1.1439281702041626,-0.27615052461624146,1.8084357976913452
4.904980421066284,-0.05443107336759567,-0.907461941242218,0.6448591947555542,-1.1441539525985718,-0.2763218283653259,1.8084629774093628
4.925058364868164,-0.05444996803998947,-0.9074030518531799,0.6446307897567749,-1.1442654132843018,-0.27627503871917725,1.8085225820541382
4.9451258182525635,-0.054493747651576996,-0.9074510931968689,0.6444149017333984,-1.1441243886947632,-0.2761581242084503,1.8084468841552734
4.965260028839111,-0.054533474147319794,-0.9074388146400452,0.6445125341415405,-1.1443259716033936,-0.27615562081336975,1.8084018230438232
4.985405206680298,-0.05433841794729233,-0.9074304103851318,0.6447346210479736,-1.1440436840057373,-0.27616086602211,1.8085367679595947
5.005566835403442,-0.054422877728939056,-0.9075928926467896,0.6447957754135132,-1.1439381837844849,-0.27625513076782227,1.808494210243225
5.025661945343018,-0.05459653586149216,-0.9075928330421448,0.6453040242195129,-1.144104242324829,-0.2763407528400421,1.808359980583191
5.045893669128418,-0.054496847093105316,-0.9075315594673157,0.644835352897644,-1.1440839767456055,-0.2762956917285919,1.8085037469863892
5.066091299057007,-0.054458700120449066,-0.9073924422264099,0.6445093750953674,-1.144277572631836,-0.27627798914909363,1.8085042238235474
5.0860679149627686,-0.05436500161886215,-0.907406747341156,0.6446323990821838,-1.144156575202942,-0.2762955129146576,1.808447003364563
5.10611891746521,-0.05445142835378647,-0.9073674082756042,0.6450174450874329,-1.1442720890045166,-0.27641385793685913,1.8084050416946411
5.126234531402588,-0.054461024701595306,-0.9075407385826111,0.644568681716919,-1.1440478563308716,-0.2762383818626404,1.808509111404419
5.146356582641602,-0.054446153342723846,-0.9073922634124756,0.644493579864502,-1.1442450284957886,-0.2761799991130829,1.8085333108901978
5.166391372680664,-0.05450793355703354,-0.907433271408081,0.6448765397071838,-1.1442152261734009,-0.27642035484313965,1.8084418773651123
5.186673402786255,-0.05449073761701584,-0.9074783325195312,0.6447321772575378,-1.1441352367401123,-0.2763136625289917,1.8084756135940552
5.2068190574646,-0.05445241183042526,-0.9074957966804504,0.6446940898895264,-1.1441142559051514,-0.27627304196357727,1.8084882497787476
5.226897954940796,-0.0544775053858757,-0.9074841141700745,0.6445229649543762,-1.144110083580017,-0.27623504400253296,1.808451771736145
5.246995449066162,-0.05445118993520737,-0.9074355959892273,0.6448148488998413,-1.1441614627838135,-0.27628180384635925,1.8084731101989746
5.267045974731445,-0.054473213851451874,-0.9075133800506592,0.6446518898010254,-1.1441060304641724,-0.2762916088104248,1.8084872961044312
5.287129878997803,-0.05446308106184006,-0.9075013995170593,0.6445866823196411,-1.144094467163086,-0.27623841166496277,1.8084876537322998
5.307233810424805,-0.05433889478445053,-0.9073683023452759,0.6447988748550415,-1.1442829370498657,-0.2764042317867279,1.8085492849349976
5.327324628829956,-0.05428796261548996,-0.907404363155365,0.6443120837211609,-1.1441878080368042,-0.2761399745941162,1.8085601329803467
5.347458124160767,-0.054559431970119476,-0.9074795842170715,0.6446980237960815,-1.1442095041275024,-0.2763516306877136,1.8085869550704956
5.367509365081787,-0.05446460098028183,-0.9073482155799866,0.6444705128669739,-1.1442509889602661,-0.27615442872047424,1.8085073232650757
5.387568235397339,-0.054408930242061615,-0.9073271155357361,0.6449688076972961,-1.1441571712493896,-0.27642539143562317,1.8084415197372437
5.407693862915039,-0.05461954325437546,-0.9074788689613342,0.6452562808990479,-1.1442750692367554,-0.2764182984828949,1.8083821535110474
5.427790641784668,-0.05454143136739731,-0.9076692461967468,0.6446735858917236,-1.143955945968628,-0.27617138624191284,1.8084150552749634
5.447856187820435,-0.05426948517560959,-0.9074758887290955,0.6447359323501587,-1.1439868211746216,-0.2762461006641388,1.8085991144180298
5.467933654785156,-0.054343871772289276,-0.907376229763031,0.6452134251594543,-1.144189476966858,-0.27636492252349854,1.8084094524383545
5.48799467086792,-0.05472021549940109,-0.9076359868049622,0.6445590257644653,-1.1441038846969604,-0.27622339129447937,1.8084214925765991
5.508202791213989,-0.0546569749712944,-0.9077263474464417,0.6447411179542542,-1.1439549922943115,-0.2762050926685333,1.8084255456924438
5.528209447860718,-0.054637931287288666,-0.9074777960777283,0.6450434923171997,-1.1442238092422485,-0.2764788568019867,1.8085023164749146
5.548267602920532,-0.05461927503347397,-0.9075616002082825,0.6447293758392334,-1.1441407203674316,-0.27620357275009155,1.8084348440170288
5.568338871002197,-0.054496340453624725,-0.9074928164482117,0.6450493931770325,-1.1441396474838257,-0.27643707394599915,1.8084462881088257
5.588459730148315,-0.05452676862478256,-0.9074665904045105,0.6452438831329346,-1.1442116498947144,-0.2765125632286072,1.8083864450454712
5.608534812927246,-0.05455755442380905,-0.9075469374656677,0.6451098918914795,-1.1440455913543701,-0.2764038145542145,1.8083246946334839
5.628575563430786,-0.054535768926143646,-0.9074507355690002,0.6450810432434082,-1.1441782712936401,-0.2763770520687103,1.8083945512771606
5.648725986480713,-0.0545472726225853,-0.9074861407279968,0.6449660062789917,-1.144155740737915,-0.2763846516609192,1.8083972930908203
5.668843984603882,-0.05441685765981674,-0.9072424173355103,0.6451528072357178,-1.1444147825241089,-0.2763223350048065,1.8083428144454956
5.6888275146484375,-0.05441390722990036,-0.9074719548225403,0.6448967456817627,-1.1441141366958618,-0.27608126401901245,1.808781385421753
5.708876371383667,-0.0544050857424736,-0.9074442982673645,0.6451848745346069,-1.1441047191619873,-0.2758900821208954,1.8083654642105103
5.728962182998657,-0.05469014495611191,-0.9072152972221375,0.6449458003044128,-1.1445256471633911,-0.27603796124458313,1.8083029985427856
5.749159097671509,-0.05473723262548447,-0.9073509573936462,0.6448162198066711,-1.144410252571106,-0.27600494027137756,1.8082195520401
5.769219160079956,-0.05469744652509689,-0.9073894023895264,0.645111083984375,-1.1443620920181274,-0.2761770486831665,1.8083142042160034
5.789383172988892,-0.0545877143740654,-0.9071624875068665,0.6450279355049133,-1.1445343494415283,-0.27596160769462585,1.8083181381225586
5.809496164321899,-0.05451693385839462,-0.907371461391449,0.6454380750656128,-1.1443440914154053,-0.2761043310165405,1.8083703517913818
5.829582929611206,-0.05447637289762497,-0.9072747826576233,0.6454004645347595,-1.1443644762039185,-0.2760354280471802,1.8083566427230835
5.849632978439331,-0.05447762459516525,-0.9070765376091003,0.6453509330749512,-1.1442255973815918,-0.2759806513786316,1.8082972764968872
5.870019912719727,-0.05451279133558273,-0.9071462750434875,0.6452966928482056,-1.1445060968399048,-0.2760818302631378,1.8083693981170654
5.890109539031982,-0.05458488315343857,-0.9079912304878235,0.6451882123947144,-1.144134521484375,-0.2757987976074219,1.8083884716033936
5.91020655632019,-0.054585449397563934,-0.9081208109855652,0.6452127695083618,-1.144128680229187,-0.2757948637008667,1.8083770275115967
5.930240869522095,-0.05452384799718857,-0.9077565670013428,0.6453103423118591,-1.1443125009536743,-0.2758386433124542,1.808436632156372
5.95055890083313,-0.05455391854047775,-0.9077045321464539,0.645081102848053,-1.1443005800247192,-0.2758505344390869,1.8083769083023071
5.970661401748657,-0.05456813424825668,-0.9076350331306458,0.6451345682144165,-1.1443148851394653,-0.27587372064590454,1.80838942527771
5.990676164627075,-0.05457799881696701,-0.907831609249115,0.645103394985199,-1.1440984010696411,-0.27588459849357605,1.808401346206665
6.010727405548096,-0.05449949949979782,-0.9076449275016785,0.6450751423835754,-1.1443860530853271,-0.2758438289165497,1.8084946870803833
6.030880928039551,-0.05458303540945053,-0.9076522588729858,0.644916832447052,-1.1442853212356567,-0.2757515013217926,1.808418869972229
6.0509192943573,-0.054574839770793915,-0.9076520204544067,0.645063042640686,-1.144309639930725,-0.2758581340312958,1.808390736579895
6.070963144302368,-0.054575733840465546,-0.9076046347618103,0.645082414150238,-1.144358515739441,-0.27586835622787476,1.8083224296569824
6.091216564178467,-0.05456420034170151,-0.9076666235923767,0.6447713375091553,-1.144251823425293,-0.2756909728050232,1.808402180671692
6.111324071884155,-0.05457039922475815,-0.9078065752983093,0.6453168988227844,-1.14415442943573,-0.2759406864643097,1.8083934783935547
6.131437301635742,-0.05450787395238876,-0.9077228903770447,0.645322322845459,-1.1443562507629395,-0.2762153446674347,1.808386206626892
6.151453495025635,-0.05444961041212082,-0.9076750874519348,0.6451395750045776,-1.144270658493042,-0.27585458755493164,1.8084481954574585
6.171550750732422,-0.054531000554561615,-0.9073740839958191,0.6460015773773193,-1.1443177461624146,-0.276562362909317,1.8083503246307373
6.191643953323364,-0.05465727299451828,-0.9067681431770325,0.645511269569397,-1.1440025568008423,-0.2766008675098419,1.808355689048767
6.21170449256897,-0.05456175655126572,-0.9071483016014099,0.6454451084136963,-1.1441307067871094,-0.27642112970352173,1.8083873987197876
6.231775999069214,-0.054566435515880585,-0.907540500164032,0.6449810266494751,-1.144242286682129,-0.27603423595428467,1.8083220720291138
6.2521562576293945,-0.054634325206279755,-0.9076299667358398,0.6450955867767334,-1.1443464756011963,-0.2760602831840515,1.8082994222640991
6.272270917892456,-0.054642073810100555,-0.9079174399375916,0.6455274820327759,-1.1441432237625122,-0.2762063145637512,1.8083528280258179
6.292386770248413,-0.05475129932165146,-0.9081620573997498,0.6451318860054016,-1.143827199935913,-0.2765776216983795,1.8084406852722168
6.312653303146362,-0.0548705980181694,-0.9081653356552124,0.6451206207275391,-1.1437687873840332,-0.2774617373943329,1.808562994003296
6.332725763320923,-0.05462013930082321,-0.908019483089447,0.6450777649879456,-1.1441489458084106,-0.27677226066589355,1.808475375175476
6.352830410003662,-0.05459859222173691,-0.9079771637916565,0.6450199484825134,-1.1442174911499023,-0.27653512358665466,1.80845046043396
6.372911214828491,-0.05461498349905014,-0.9079764485359192,0.6452791690826416,-1.1442638635635376,-0.27664420008659363,1.8084594011306763
6.392995834350586,-0.05471055954694748,-0.9078792929649353,0.6452914476394653,-1.1443432569503784,-0.27669602632522583,1.8083912134170532
6.413069248199463,-0.05460762232542038,-0.9078565239906311,0.6451324820518494,-1.1442577838897705,-0.27665773034095764,1.808436632156372
6.433136940002441,-0.05452915281057358,-0.9077239632606506,0.6450381278991699,-1.1444010734558105,-0.2765696048736572,1.8085063695907593
6.453229665756226,-0.05454086512327194,-0.9077364802360535,0.6453076601028442,-1.1444809436798096,-0.27676820755004883,1.808479905128479
6.473315715789795,-0.05452211946249008,-0.9079398512840271,0.6451914310455322,-1.1441949605941772,-0.2766471207141876,1.808548927307129
6.493412733078003,-0.05449949949979782,-0.9078424572944641,0.6451979279518127,-1.1442590951919556,-0.27660518884658813,1.8084582090377808
6.5134687423706055,-0.05436500161886215,-0.9076475501060486,0.6448954343795776,-1.1443995237350464,-0.2764522433280945,1.808475136756897
6.533540964126587,-0.05462678521871567,-0.9077664017677307,0.6453859806060791,-1.1444569826126099,-0.2768266201019287,1.8084834814071655
6.55367112159729,-0.05457635968923569,-0.9077191948890686,0.6451857089996338,-1.1444591283798218,-0.2767016887664795,1.8084650039672852
6.5737059116363525,-0.054544053971767426,-0.9081278443336487,0.6447336673736572,-1.1443477869033813,-0.27628275752067566,1.8085485696792603
6.593751907348633,-0.05459248274564743,-0.9087129831314087,0.6444375514984131,-1.1442031860351562,-0.27623191475868225,1.8084527254104614
6.61384391784668,-0.05450787395238876,-0.908078134059906,0.6446926593780518,-1.1443166732788086,-0.2763109505176544,1.8085451126098633
6.633909702301025,-0.05454453080892563,-0.9079769253730774,0.6449512839317322,-1.1442662477493286,-0.2764488458633423,1.8085113763809204
6.654022693634033,-0.05467068403959274,-0.9080743193626404,0.6453604698181152,-1.1441558599472046,-0.27661246061325073,1.8084596395492554
6.674352645874023,-0.054684244096279144,-0.908061683177948,0.6448864340782166,-1.14415442943573,-0.27644068002700806,1.808542251586914
6.694585084915161,-0.05452399700880051,-0.9079058766365051,0.645038366317749,-1.1441929340362549,-0.2764895260334015,1.8084148168563843
6.714599370956421,-0.054530493915081024,-0.9080039858818054,0.6449066400527954,-1.1441730260849,-0.27646857500076294,1.8085683584213257
6.734750270843506,-0.05444207042455673,-0.9077500700950623,0.6447896957397461,-1.1442797183990479,-0.2765507996082306,1.808498501777649
6.754851341247559,-0.054447077214717865,-0.9078289866447449,0.6448922157287598,-1.1442358493804932,-0.27653178572654724,1.8085500001907349
6.7748401165008545,-0.05454041808843613,-0.9079322814941406,0.6447607278823853,-1.1442289352416992,-0.2764677405357361,1.8084908723831177
6.795007705688477,-0.05462273210287094,-0.9076532125473022,0.6451088786125183,-1.1442228555679321,-0.276634156703949,1.8084092140197754
6.8151867389678955,-0.05457412451505661,-0.9067748188972473,0.6461012363433838,-1.1441069841384888,-0.27722620964050293,1.8083882331848145
6.83525538444519,-0.05466955155134201,-0.9073413014411926,0.6456651091575623,-1.1441922187805176,-0.276846319437027,1.8084057569503784
6.855311632156372,-0.054557524621486664,-0.9075422883033752,0.6455072164535522,-1.144357442855835,-0.2767780125141144,1.808367371559143
6.875474691390991,-0.05434747785329819,-0.907661497592926,0.6451824903488159,-1.144227385520935,-0.2766966223716736,1.8085225820541382
6.895625352859497,-0.05450066179037094,-0.9077377319335938,0.6450879573822021,-1.144324541091919,-0.2766839861869812,1.8084166049957275
6.915679454803467,-0.054491810500621796,-0.9077175259590149,0.6451908349990845,-1.1443177461624146,-0.2767435908317566,1.8084490299224854
6.935806751251221,-0.05448230355978012,-0.9078968167304993,0.6451072096824646,-1.1440681219100952,-0.2767089307308197,1.8084715604782104
6.9558305740356445,-0.05454804748296738,-0.9078401923179626,0.6451776027679443,-1.1443403959274292,-0.276630699634552,1.8083972930908203
6.9759202003479,-0.054338447749614716,-0.9076406359672546,0.6451219320297241,-1.1442595720291138,-0.27666613459587097,1.808462142944336
6.995990514755249,-0.054390959441661835,-0.9076778292655945,0.6452149748802185,-1.1444085836410522,-0.2767869830131531,1.808540940284729
7.016181945800781,-0.05443059653043747,-0.907720685005188,0.6451384425163269,-1.1442965269088745,-0.2766835391521454,1.8084661960601807
7.036367177963257,-0.05444701761007309,-0.9078348278999329,0.6451966166496277,-1.144119143486023,-0.27668631076812744,1.8084362745285034
7.056453227996826,-0.054461024701595306,-0.9077441096305847,0.6449818015098572,-1.144266128540039,-0.2766784727573395,1.8084391355514526
7.076555490493774,-0.054435573518276215,-0.9076525568962097,0.6450286507606506,-1.144410490989685,-0.27667269110679626,1.80853271484375
7.096700191497803,-0.0544218048453331,-0.9078015685081482,0.6453417539596558,-1.1439799070358276,-0.2768208682537079,1.8084577322006226
7.116734504699707,-0.054215602576732635,-0.9085653424263,0.6442690491676331,-1.1444262266159058,-0.27597078680992126,1.8087648153305054
7.151249408721924,-0.054473839700222015,-0.908502459526062,0.6443722248077393,-1.1443582773208618,-0.27614814043045044,1.808529257774353
7.1713526248931885,-0.054423294961452484,-0.9075604677200317,0.6448816657066345,-1.1440917253494263,-0.27666014432907104,1.8086533546447754
7.191416501998901,-0.05438181012868881,-0.9079433083534241,0.6448671817779541,-1.143835186958313,-0.2764005661010742,1.8085081577301025
7.211487770080566,-0.05438714474439621,-0.907975971698761,0.6449346542358398,-1.1439918279647827,-0.27648380398750305,1.8085612058639526
7.232273578643799,-0.05437871068716049,-0.9079009890556335,0.6449432969093323,-1.1441622972488403,-0.27648651599884033,1.808620810508728
7.252366065979004,-0.054492346942424774,-0.9076701998710632,0.6450799703598022,-1.1442221403121948,-0.2766907215118408,1.8084640502929688
7.272424221038818,-0.05442493408918381,-0.9077209830284119,0.6450713872909546,-1.1442726850509644,-0.2765379846096039,1.808524250984192
7.2925379276275635,-0.05442153662443161,-0.9078211188316345,0.6445940136909485,-1.1441571712493896,-0.2763282060623169,1.8085546493530273
7.31258487701416,-0.05449458211660385,-0.9077573418617249,0.6452738642692566,-1.1443854570388794,-0.27673837542533875,1.808449625968933
7.332659006118774,-0.054489098489284515,-0.907465398311615,0.6454285979270935,-1.1443289518356323,-0.276998907327652,1.8085134029388428
7.35274863243103,-0.05447005480527878,-0.908289909362793,0.644775927066803,-1.144469141960144,-0.2765448987483978,1.8084617853164673
7.373779058456421,-0.054518572986125946,-0.9083240628242493,0.6451507806777954,-1.1441004276275635,-0.2767489552497864,1.808367371559143
7.3938515186309814,-0.05441173166036606,-0.9074886441230774,0.6449912786483765,-1.1442228555679321,-0.276639848947525,1.808449387550354
7.41396951675415,-0.05440627783536911,-0.9075729250907898,0.6450268030166626,-1.1443941593170166,-0.27665650844573975,1.8085423707962036
7.434004783630371,-0.05441635102033615,-0.9076598286628723,0.6453145742416382,-1.1443239450454712,-0.2767179608345032,1.8084664344787598
7.454396486282349,-0.05444040149450302,-0.9076970219612122,0.6452704071998596,-1.1443092823028564,-0.2767235040664673,1.8084661960601807
7.47455358505249,-0.054444633424282074,-0.907867431640625,0.6450809240341187,-1.144096851348877,-0.2766713500022888,1.808440089225769
7.494582176208496,-0.054412953555583954,-0.9077188372612,0.6449373364448547,-1.1443480253219604,-0.27665814757347107,1.8085328340530396
7.514665842056274,-0.05441608279943466,-0.9075841307640076,0.6448618769645691,-1.1443530321121216,-0.2762511670589447,1.8085370063781738
7.534767389297485,-0.05443745106458664,-0.9075983166694641,0.6453695297241211,-1.144490361213684,-0.27668297290802,1.808488368988037
7.554834365844727,-0.054504893720149994,-0.9075971245765686,0.6448485255241394,-1.144269347190857,-0.2762724757194519,1.8083871603012085
7.574944496154785,-0.054545216262340546,-0.9083107113838196,0.6440564393997192,-1.1444557905197144,-0.27603304386138916,1.8085154294967651
7.5949647426605225,-0.05448486655950546,-0.9083456993103027,0.6443110704421997,-1.144301176071167,-0.2764075696468353,1.8085721731185913
7.61505389213562,-0.05445616692304611,-0.907371461391449,0.6451970934867859,-1.1443893909454346,-0.27641162276268005,1.8085947036743164
7.635116100311279,-0.05424299091100693,-0.9075877070426941,0.6451506018638611,-1.144099473953247,-0.27638575434684753,1.8085185289382935
7.655186653137207,-0.05444731563329697,-0.9077774286270142,0.6449168920516968,-1.1441962718963623,-0.27623450756073,1.8085229396820068
7.675265312194824,-0.05447687953710556,-0.9077633023262024,0.6451022028923035,-1.1441997289657593,-0.27637189626693726,1.8083950281143188
7.695326566696167,-0.05447652190923691,-0.9078719615936279,0.6448935270309448,-1.1441751718521118,-0.2763875424861908,1.8085442781448364
7.715420722961426,-0.054494135081768036,-0.9078418612480164,0.6449715495109558,-1.1442862749099731,-0.2763465642929077,1.8084907531738281
7.735475063323975,-0.054562412202358246,-0.9078105092048645,0.6452698707580566,-1.1442958116531372,-0.2763788104057312,1.8085391521453857
7.755628824234009,-0.054422251880168915,-0.9076428413391113,0.6450170278549194,-1.1443829536437988,-0.2764394283294678,1.8084182739257812
7.775632381439209,-0.05447899550199509,-0.9078061580657959,0.6451018452644348,-1.1442748308181763,-0.27648645639419556,1.8085289001464844
7.795745134353638,-0.054479412734508514,-0.9081313014030457,0.64510178565979,-1.144214153289795,-0.27641811966896057,1.8085405826568604
7.816319942474365,-0.054395340383052826,-0.9078195691108704,0.644964873790741,-1.14423668384552,-0.27617862820625305,1.8085249662399292
7.8365349769592285,-0.054508231580257416,-0.9077128767967224,0.6448617577552795,-1.144271969795227,-0.27639585733413696,1.808475375175476
7.856651306152344,-0.05451028794050217,-0.9078238606452942,0.644961416721344,-1.1442370414733887,-0.2764900326728821,1.8085113763809204
7.8766584396362305,-0.054424308240413666,-0.9076984524726868,0.6453524827957153,-1.144231915473938,-0.2763426601886749,1.8084083795547485
7.896726608276367,-0.054490767419338226,-0.9078988432884216,0.6445831060409546,-1.1440328359603882,-0.2762063443660736,1.808444619178772
7.916833400726318,-0.054463617503643036,-0.9077742695808411,0.6448352932929993,-1.14423668384552,-0.27631330490112305,1.8084930181503296
7.936901330947876,-0.0544426366686821,-0.90706866979599,0.6455725431442261,-1.1441704034805298,-0.2767636179924011,1.8084428310394287
7.956959009170532,-0.05443920940160751,-0.9072823524475098,0.6453877091407776,-1.144126057624817,-0.27665263414382935,1.8084272146224976
7.977080583572388,-0.054500363767147064,-0.9079163670539856,0.6452123522758484,-1.144364595413208,-0.2765575051307678,1.8083767890930176
7.99715256690979,-0.0545169934630394,-0.9078419804573059,0.6449313163757324,-1.1442350149154663,-0.2765122652053833,1.808437466621399
8.017223596572876,-0.054485760629177094,-0.9077372550964355,0.6452479362487793,-1.1443010568618774,-0.2766348719596863,1.8084253072738647
8.037272691726685,-0.05444329231977463,-0.907760739326477,0.6451011300086975,-1.1441103219985962,-0.2763717472553253,1.8084163665771484
8.05736756324768,-0.05445041507482529,-0.9077439308166504,0.6448203325271606,-1.144188404083252,-0.27638304233551025,1.8084696531295776
8.077431917190552,-0.05444972962141037,-0.9077757000923157,0.6451661586761475,-1.1441216468811035,-0.27647772431373596,1.8084063529968262
8.097538948059082,-0.05438219755887985,-0.9075486063957214,0.6449797749519348,-1.1442304849624634,-0.27644801139831543,1.8084965944290161
8.117578506469727,-0.05441506952047348,-0.9076657891273499,0.645156979560852,-1.1442574262619019,-0.2765142023563385,1.8084566593170166
8.137661695480347,-0.0544605478644371,-0.9076851010322571,0.6451108455657959,-1.1442724466323853,-0.27646419405937195,1.8084410429000854
8.157728433609009,-0.054422251880168915,-0.9073310494422913,0.6450015306472778,-1.144178867340088,-0.2764202952384949,1.8084779977798462
8.17780089378357,-0.05450459569692612,-0.9076565504074097,0.6448927521705627,-1.1442720890045166,-0.27640435099601746,1.8084384202957153
8.197907209396362,-0.054562292993068695,-0.9082990288734436,0.6441537141799927,-1.14455246925354,-0.27600863575935364,1.808465600013733
8.217995643615723,-0.054214559495449066,-0.9079108834266663,0.6449894905090332,-1.144112229347229,-0.27613794803619385,1.8086646795272827
8.238089084625244,-0.05425678938627243,-0.9078556299209595,0.6445944905281067,-1.144577980041504,-0.2760580778121948,1.8086668252944946
8.258167505264282,-0.05443321913480759,-0.9079747796058655,0.6449760794639587,-1.1441234350204468,-0.27629354596138,1.8084808588027954
8.278239965438843,-0.05447762459516525,-0.9076027274131775,0.6447296738624573,-1.1442703008651733,-0.2762068510055542,1.8084371089935303
8.298305988311768,-0.05458541959524155,-0.907747209072113,0.6447238922119141,-1.1443334817886353,-0.2763509750366211,1.8083912134170532
8.31844425201416,-0.05452411621809006,-0.9076838493347168,0.6444908380508423,-1.1443629264831543,-0.2762196958065033,1.8085204362869263
8.338539600372314,-0.05441658943891525,-0.9078968167304993,0.6449602842330933,-1.1441503763198853,-0.2763514220714569,1.8086186647415161
8.358583927154541,-0.05438568443059921,-0.9077154397964478,0.6446438431739807,-1.1443158388137817,-0.2761554718017578,1.8085767030715942
8.37871241569519,-0.0544595941901207,-0.9078424572944641,0.6449531316757202,-1.1441223621368408,-0.2763107717037201,1.8084503412246704
8.39872670173645,-0.054484836757183075,-0.9079987406730652,0.6450151801109314,-1.143795132637024,-0.2762288749217987,1.808364987373352
8.418813467025757,-0.05444683879613876,-0.9077437520027161,0.645128607749939,-1.144271969795227,-0.27642613649368286,1.8084653615951538
8.438888788223267,-0.05443485826253891,-0.9078179001808167,0.6452020406723022,-1.1441335678100586,-0.27633610367774963,1.808485746383667
8.458938121795654,-0.05441340059041977,-0.9078486561775208,0.6450310349464417,-1.1440647840499878,-0.27622464299201965,1.8084934949874878
8.479064226150513,-0.054524265229701996,-0.9076508283615112,0.6446974277496338,-1.1444398164749146,-0.2763744294643402,1.8084707260131836
8.499104022979736,-0.054527901113033295,-0.9078317284584045,0.6448183059692383,-1.1441243886947632,-0.2763238549232483,1.808428168296814
8.519168376922607,-0.054557882249355316,-0.9079129695892334,0.6450496912002563,-1.1441582441329956,-0.2765561640262604,1.8084110021591187
8.539257764816284,-0.054513923823833466,-0.9081587195396423,0.6447772979736328,-1.1441322565078735,-0.27629539370536804,1.8083394765853882
8.559342384338379,-0.054575614631175995,-0.9077672362327576,0.6455527544021606,-1.143959879875183,-0.2764832079410553,1.8083596229553223
8.579451084136963,-0.05448060482740402,-0.907667338848114,0.6453888416290283,-1.1442676782608032,-0.2763950526714325,1.8084375858306885
8.599517345428467,-0.05443289130926132,-0.9075985550880432,0.6453039646148682,-1.144307017326355,-0.27645260095596313,1.8084204196929932
8.61962890625,-0.0544390007853508,-0.9077193737030029,0.6450454592704773,-1.144253134727478,-0.2764844298362732,1.8084458112716675
8.639734268188477,-0.05446263402700424,-0.9076759815216064,0.6450297236442566,-1.1442866325378418,-0.2764805555343628,1.8084059953689575
8.659885883331299,-0.05469494313001633,-0.9077491760253906,0.6457407474517822,-1.1442404985427856,-0.2767220139503479,1.808219075202942
8.679891109466553,-0.054421983659267426,-0.9076135158538818,0.6451500654220581,-1.1442698240280151,-0.27653083205223083,1.8084174394607544
8.70009994506836,-0.05443315953016281,-0.907563328742981,0.6451076865196228,-1.1444460153579712,-0.27643799781799316,1.8084473609924316
8.720104455947876,-0.05447535961866379,-0.9077489376068115,0.6452112197875977,-1.144153118133545,-0.276492178440094,1.8083925247192383
8.740189552307129,-0.0543946847319603,-0.9075523018836975,0.6452990770339966,-1.1441714763641357,-0.27650943398475647,1.8084132671356201
8.760228633880615,-0.054606132209300995,-0.9077829718589783,0.6454414129257202,-1.14419686794281,-0.2764655649662018,1.8083306550979614
8.780340194702148,-0.0543472096323967,-0.9076604247093201,0.6449710130691528,-1.1442536115646362,-0.27645882964134216,1.808424711227417
8.800407409667969,-0.05427848547697067,-0.9085139036178589,0.6447778940200806,-1.1442354917526245,-0.2760581970214844,1.8085025548934937
8.820459842681885,-0.05433746427297592,-0.9082890152931213,0.6445542573928833,-1.1442673206329346,-0.2759675979614258,1.8086316585540771
8.840603590011597,-0.054539941251277924,-0.9074767231941223,0.6447329521179199,-1.1443217992782593,-0.27647829055786133,1.8086110353469849
8.86069631576538,-0.054445259273052216,-0.9074987173080444,0.6449372172355652,-1.1444482803344727,-0.2763403356075287,1.8085206747055054
8.88084864616394,-0.05452670902013779,-0.9078176617622375,0.6450309157371521,-1.14402174949646,-0.276449054479599,1.808445692062378
8.900864362716675,-0.05437099188566208,-0.9077373147010803,0.6449587345123291,-1.144229769706726,-0.2764740288257599,1.80850350856781
8.920926570892334,-0.05454643815755844,-0.9077455401420593,0.6446639895439148,-1.144339919090271,-0.2762829065322876,1.8085557222366333
8.941005229949951,-0.05450805276632309,-0.9076706767082214,0.644712507724762,-1.144399642944336,-0.2763330936431885,1.8085187673568726
8.961266040802002,-0.05448215454816818,-0.907683789730072,0.6451027989387512,-1.1443372964859009,-0.27639147639274597,1.8084677457809448
8.981250047683716,-0.05445008724927902,-0.9078320860862732,0.6447198390960693,-1.1441420316696167,-0.276201456785202,1.8085854053497314
9.001417398452759,-0.05444511026144028,-0.9078821539878845,0.6448084712028503,-1.1441380977630615,-0.2763051390647888,1.8086127042770386
9.02156400680542,-0.05447285622358322,-0.9075537323951721,0.6446928977966309,-1.1444664001464844,-0.2761959433555603,1.8084781169891357
9.04160451889038,-0.05450465530157089,-0.9075679183006287,0.6447840332984924,-1.1444758176803589,-0.27632054686546326,1.808463215827942
9.061681032180786,-0.05451633781194687,-0.9076429009437561,0.6446060538291931,-1.1444026231765747,-0.27629464864730835,1.8085049390792847
9.081986904144287,-0.05439647287130356,-0.9077816605567932,0.6450983881950378,-1.1442372798919678,-0.2763144075870514,1.8085466623306274
9.102118492126465,-0.054436616599559784,-0.9078548550605774,0.6449567079544067,-1.1441929340362549,-0.27635878324508667,1.8085519075393677
9.122240781784058,-0.05438830703496933,-0.9070910811424255,0.6453917026519775,-1.1442055702209473,-0.27669528126716614,1.808576226234436
9.142308950424194,-0.05447839945554733,-0.907301127910614,0.6455330848693848,-1.1441922187805176,-0.2768314778804779,1.80840003490448
9.162404298782349,-0.05459897965192795,-0.9076290726661682,0.6455813050270081,-1.1442431211471558,-0.2765076160430908,1.8082960844039917
9.18251371383667,-0.054461441934108734,-0.9078882336616516,0.6453717947006226,-1.1438724994659424,-0.27638718485832214,1.8083056211471558
9.202677011489868,-0.054434917867183685,-0.9076719880104065,0.6451723575592041,-1.1444013118743896,-0.27644675970077515,1.8085025548934937
9.222763538360596,-0.054473601281642914,-0.9077749252319336,0.6451498866081238,-1.1442822217941284,-0.27644026279449463,1.8084726333618164
9.242794513702393,-0.054400794208049774,-0.9076358675956726,0.6448993682861328,-1.1442220211029053,-0.27634650468826294,1.808467984199524
9.262860536575317,-0.05443837493658066,-0.9076790809631348,0.6449439525604248,-1.1441181898117065,-0.27641725540161133,1.8084408044815063
9.28303074836731,-0.05443742126226425,-0.9076800346374512,0.6452630162239075,-1.1442776918411255,-0.2766018509864807,1.808441162109375
9.30301809310913,-0.054450325667858124,-0.9076791405677795,0.6450583934783936,-1.1442594528198242,-0.2764298617839813,1.8084427118301392
9.32319688796997,-0.05442904680967331,-0.907575786113739,0.6448186635971069,-1.1443780660629272,-0.27632343769073486,1.808493971824646
9.34335207939148,-0.05448763817548752,-0.9081960916519165,0.6444717645645142,-1.1439779996871948,-0.2761383652687073,1.8085283041000366
9.363438844680786,-0.054491423070430756,-0.9080928564071655,0.644773006439209,-1.1439898014068604,-0.27624887228012085,1.8085322380065918
9.383538007736206,-0.05448954552412033,-0.9076117277145386,0.6449299454689026,-1.1443308591842651,-0.2763623595237732,1.8084324598312378
9.403630495071411,-0.05437897890806198,-0.9078883528709412,0.6448187828063965,-1.1441915035247803,-0.2762194275856018,1.8085728883743286
9.423709869384766,-0.05446173995733261,-0.9079166054725647,0.6450594663619995,-1.1439881324768066,-0.2763689160346985,1.8084818124771118
9.443798542022705,-0.05453794449567795,-0.907869279384613,0.64481121301651,-1.1441197395324707,-0.2763420343399048,1.8084183931350708
9.463932514190674,-0.05457141250371933,-0.9078853130340576,0.6444686651229858,-1.1442126035690308,-0.2762315571308136,1.8084604740142822
9.483998775482178,-0.054553113877773285,-0.9078020453453064,0.6446095705032349,-1.1442264318466187,-0.27640482783317566,1.8085424900054932
9.504079103469849,-0.05442758649587631,-0.9077951312065125,0.6449692845344543,-1.1442369222640991,-0.27628517150878906,1.808542251586914
9.524134159088135,-0.05446057766675949,-0.9077253937721252,0.6451416015625,-1.1443676948547363,-0.2763179838657379,1.8084224462509155
9.544214010238647,-0.054469190537929535,-0.9078853130340576,0.6448244452476501,-1.1440538167953491,-0.27620163559913635,1.8084744215011597
9.564260482788086,-0.054432861506938934,-0.9076715111732483,0.6450479030609131,-1.1443085670471191,-0.27629196643829346,1.808458685874939
9.58434271812439,-0.05447524040937424,-0.9077911972999573,0.6448467373847961,-1.1442327499389648,-0.2763422131538391,1.8084957599639893
9.604410171508789,-0.05450316518545151,-0.9077838063240051,0.6447592973709106,-1.144246220588684,-0.2763369679450989,1.8084825277328491
9.624524593353271,-0.05455591529607773,-0.9078101515769958,0.6448278427124023,-1.1443177461624146,-0.2763623297214508,1.808434009552002
9.64467477798462,-0.05452030152082443,-0.907771646976471,0.6448643207550049,-1.144273281097412,-0.2763552963733673,1.808472990989685
9.664814710617065,-0.05441495031118393,-0.9074587225914001,0.6449717879295349,-1.1443933248519897,-0.2763982117176056,1.8084518909454346
9.68485689163208,-0.05446328967809677,-0.9078489542007446,0.6449868679046631,-1.1440703868865967,-0.2763519585132599,1.808516025543213
9.7048819065094,-0.054435037076473236,-0.9074921011924744,0.6458240747451782,-1.1440908908843994,-0.2766565978527069,1.8083951473236084
9.724961757659912,-0.05453818291425705,-0.9073499441146851,0.6452203989028931,-1.1440322399139404,-0.2766844630241394,1.8083174228668213
9.74514889717102,-0.054618023335933685,-0.9076953530311584,0.6451557874679565,-1.1442238092422485,-0.27645090222358704,1.808445930480957
9.765231370925903,-0.05462916940450668,-0.9077103734016418,0.6449940800666809,-1.1444478034973145,-0.27644625306129456,1.8084319829940796
9.785266637802124,-0.054534368216991425,-0.9077011942863464,0.6452337503433228,-1.14429771900177,-0.2765633165836334,1.8084543943405151
9.805339336395264,-0.05440127104520798,-0.9076538681983948,0.645289421081543,-1.1443268060684204,-0.27656811475753784,1.8084303140640259
9.825494766235352,-0.054408006370067596,-0.9076080918312073,0.6453180909156799,-1.1441750526428223,-0.2766094505786896,1.8084263801574707
9.845588445663452,-0.05463816970586777,-0.9078648686408997,0.6449669599533081,-1.1442489624023438,-0.2763075828552246,1.8084193468093872
9.865598201751709,-0.05450662225484848,-0.9077233672142029,0.6450842022895813,-1.144335389137268,-0.2765950858592987,1.808404803276062
9.885682106018066,-0.05438622087240219,-0.9076481461524963,0.6451699137687683,-1.1442344188690186,-0.27641135454177856,1.8084744215011597
9.905746936798096,-0.054554007947444916,-0.9077873826026917,0.6455559730529785,-1.1441996097564697,-0.2763940989971161,1.8083686828613281
9.925849914550781,-0.05448784679174423,-0.9077878594398499,0.6452625393867493,-1.1440962553024292,-0.27647504210472107,1.8083961009979248
9.946032762527466,-0.05443888157606125,-0.9076600074768066,0.6450420022010803,-1.1442917585372925,-0.2764751613140106,1.808402180671692
9.966089487075806,-0.05459725111722946,-0.9077771306037903,0.644858717918396,-1.1443392038345337,-0.27627941966056824,1.8085193634033203
9.986165761947632,-0.05446036905050278,-0.9078781604766846,0.6445418000221252,-1.1443688869476318,-0.2760390341281891,1.8084795475006104
10.006711721420288,-0.054285190999507904,-0.9080397486686707,0.6444326043128967,-1.1443618535995483,-0.2761268615722656,1.8086589574813843
10.026816368103027,-0.05454453080892563,-0.9075384736061096,0.6451263427734375,-1.1442738771438599,-0.27641773223876953,1.8085256814956665
10.046874761581421,-0.05448164790868759,-0.907712459564209,0.6451919078826904,-1.1442515850067139,-0.27647697925567627,1.8085508346557617
10.066942691802979,-0.05462207645177841,-0.9079889059066772,0.6453514099121094,-1.1440073251724243,-0.27629247307777405,1.8083842992782593
10.087016105651855,-0.05440127104520798,-0.9076310992240906,0.6447468996047974,-1.1443365812301636,-0.2763294279575348,1.8083781003952026
10.107093811035156,-0.054414890706539154,-0.9078070521354675,0.6448087692260742,-1.1441988945007324,-0.27627500891685486,1.8085135221481323
10.127187728881836,-0.05443071573972702,-0.907669723033905,0.6450289487838745,-1.1443312168121338,-0.27630335092544556,1.8084484338760376
10.147277355194092,-0.05444996803998947,-0.9078369736671448,0.6451209783554077,-1.1441148519515991,-0.2763286828994751,1.8084852695465088
10.167394399642944,-0.05452340096235275,-0.9078888297080994,0.6447935700416565,-1.1440938711166382,-0.2763550877571106,1.808443546295166
10.187459230422974,-0.05451550334692001,-0.9078488945960999,0.6449712514877319,-1.1440874338150024,-0.2764075994491577,1.808485984802246
10.207607984542847,-0.05431070178747177,-0.9076236486434937,0.644932746887207,-1.1442726850509644,-0.2762674391269684,1.8084772825241089
10.22759222984314,-0.05448596924543381,-0.9077805876731873,0.6448816061019897,-1.1443235874176025,-0.27632245421409607,1.8084419965744019
10.247684001922607,-0.05443307012319565,-0.9077301621437073,0.6449392437934875,-1.1442203521728516,-0.2763161063194275,1.8085147142410278
10.267761468887329,-0.054580800235271454,-0.9077782034873962,0.645214319229126,-1.144327998161316,-0.2762470543384552,1.808449625968933
10.287802934646606,-0.054473958909511566,-0.9075875282287598,0.6450953483581543,-1.144110918045044,-0.27654361724853516,1.8084901571273804
10.30791687965393,-0.054461948573589325,-0.9071183800697327,0.6451599597930908,-1.144291877746582,-0.2765466272830963,1.8084577322006226
10.32805871963501,-0.05452203005552292,-0.9078853726387024,0.6450142860412598,-1.1443681716918945,-0.27642759680747986,1.8083804845809937
10.348087787628174,-0.05454271286725998,-0.9079235196113586,0.6450653672218323,-1.1439464092254639,-0.27644187211990356,1.808396577835083
10.368269443511963,-0.05440082401037216,-0.907619059085846,0.644877016544342,-1.1444252729415894,-0.2764791250228882,1.8084288835525513
10.388356685638428,-0.05455728620290756,-0.9077052474021912,0.6456289291381836,-1.1441402435302734,-0.27652695775032043,1.8084713220596313
10.408421039581299,-0.05435039848089218,-0.9074867963790894,0.6452582478523254,-1.144210696220398,-0.27643856406211853,1.8085319995880127
10.428502559661865,-0.05456509441137314,-0.9078870415687561,0.6452824473381042,-1.1440669298171997,-0.2763986885547638,1.8084317445755005
10.448730945587158,-0.05449631065130234,-0.9075067639350891,0.6451289653778076,-1.144378662109375,-0.276413232088089,1.808382272720337
10.468785762786865,-0.054616861045360565,-0.9076436161994934,0.6451151371002197,-1.144532561302185,-0.2764895558357239,1.8083767890930176
10.48885464668274,-0.05463113635778427,-0.9077481627464294,0.6450737714767456,-1.1444629430770874,-0.27668142318725586,1.8084625005722046
10.508930206298828,-0.05452766269445419,-0.9082116484642029,0.6447666883468628,-1.1444661617279053,-0.2764441967010498,1.8084465265274048
10.529006242752075,-0.05451589077711105,-0.9082199931144714,0.6446598768234253,-1.1441359519958496,-0.2758280336856842,1.8085039854049683
10.549167156219482,-0.054496072232723236,-0.9079179167747498,0.6449235677719116,-1.1440640687942505,-0.2761925458908081,1.8085092306137085
10.569139242172241,-0.05441560596227646,-0.9074690341949463,0.6455849409103394,-1.1439664363861084,-0.27644211053848267,1.808478593826294
10.589229106903076,-0.054393522441387177,-0.9074174165725708,0.6454722881317139,-1.143910527229309,-0.2763230800628662,1.8085154294967651
10.609317302703857,-0.054765574634075165,-0.9081768989562988,0.6443831324577332,-1.1443008184432983,-0.27618178725242615,1.8083726167678833
10.629435062408447,-0.054782621562480927,-0.9078941941261292,0.6444122195243835,-1.1443841457366943,-0.2761245369911194,1.8084584474563599
10.649446964263916,-0.054722629487514496,-0.9079119563102722,0.6446758508682251,-1.1441272497177124,-0.2763291597366333,1.8084453344345093
10.669560194015503,-0.054432712495326996,-0.9077515006065369,0.6451643705368042,-1.1441564559936523,-0.27621373534202576,1.8084795475006104
10.689605951309204,-0.05443369597196579,-0.90774005651474,0.6451888084411621,-1.1441105604171753,-0.27626559138298035,1.8085123300552368
10.70972228050232,-0.05441676825284958,-0.9077298045158386,0.6452059745788574,-1.1440998315811157,-0.2762657105922699,1.8085212707519531
10.72977900505066,-0.05442654341459274,-0.9078161716461182,0.6448380947113037,-1.1440341472625732,-0.27604296803474426,1.8085412979125977
10.749959707260132,-0.05453594774007797,-0.9076386094093323,0.6450273990631104,-1.144445538520813,-0.2762001156806946,1.8083769083023071
10.770016431808472,-0.054543279111385345,-0.9078307747840881,0.6453658938407898,-1.1440225839614868,-0.2759671211242676,1.8084478378295898
10.790115594863892,-0.05449008196592331,-0.9078437685966492,0.6453537940979004,-1.1441230773925781,-0.27580806612968445,1.8083882331848145
10.810124397277832,-0.0544331893324852,-0.9077168703079224,0.6454504728317261,-1.1441441774368286,-0.27581721544265747,1.808475375175476
10.830207109451294,-0.0547100231051445,-0.9078000783920288,0.644910991191864,-1.1441937685012817,-0.2759455144405365,1.8083142042160034
10.850364446640015,-0.05451878160238266,-0.9078478217124939,0.6448876857757568,-1.1438370943069458,-0.27575740218162537,1.8084503412246704
10.870368003845215,-0.05448438972234726,-0.9078618884086609,0.6452981233596802,-1.144100308418274,-0.27583426237106323,1.8083930015563965
10.890460968017578,-0.05445446819067001,-0.9077258706092834,0.6455602049827576,-1.1440309286117554,-0.27596351504325867,1.8084005117416382
10.910555124282837,-0.05470394343137741,-0.9076769948005676,0.6448333263397217,-1.144378423690796,-0.2758755385875702,1.8082886934280396
10.930670976638794,-0.0546511635184288,-0.9075490236282349,0.6449199914932251,-1.1445064544677734,-0.27590125799179077,1.8083871603012085
10.950720310211182,-0.054678551852703094,-0.9077330827713013,0.6451038122177124,-1.1443824768066406,-0.27600646018981934,1.8083055019378662
10.970794916152954,-0.054413191974163055,-0.9075745344161987,0.6447409391403198,-1.1441243886947632,-0.2756362855434418,1.8085581064224243
10.990875959396362,-0.05455123633146286,-0.9077641367912292,0.6447478532791138,-1.1441305875778198,-0.2756524682044983,1.8083187341690063
11.010945796966553,-0.05453180521726608,-0.9076091647148132,0.6446456909179688,-1.1442071199417114,-0.2757803797721863,1.8084684610366821
11.031045913696289,-0.054529838263988495,-0.9076512455940247,0.6447838544845581,-1.1442471742630005,-0.2757192850112915,1.8084131479263306
11.051179885864258,-0.05463062971830368,-0.9070485234260559,0.6454628705978394,-1.1441563367843628,-0.2760123312473297,1.8082566261291504
11.071216583251953,-0.05464860051870346,-0.9070907235145569,0.6453536748886108,-1.1442838907241821,-0.27616259455680847,1.8082349300384521
11.091306924819946,-0.05460026115179062,-0.9074847102165222,0.6455943584442139,-1.1443883180618286,-0.2762009799480438,1.8083058595657349
11.111441850662231,-0.05462520569562912,-0.9076030850410461,0.6456559896469116,-1.1442779302597046,-0.2760021984577179,1.8082829713821411
11.131474256515503,-0.054624609649181366,-0.9076201915740967,0.6453971862792969,-1.1443719863891602,-0.2760365903377533,1.8083072900772095
11.151606559753418,-0.05448757857084274,-0.9074937105178833,0.6455278396606445,-1.1441959142684937,-0.2760133147239685,1.8083783388137817
11.171634674072266,-0.05465846508741379,-0.9077503681182861,0.6454218029975891,-1.1440595388412476,-0.27578163146972656,1.8081990480422974
11.191739082336426,-0.054430924355983734,-0.9074357748031616,0.6456021070480347,-1.1442824602127075,-0.27621036767959595,1.8082683086395264
11.211784839630127,-0.05466752499341965,-0.907802164554596,0.6452955007553101,-1.1441426277160645,-0.2759379744529724,1.8081622123718262
11.231929540634155,-0.05487491935491562,-0.9077689051628113,0.6452320218086243,-1.1442261934280396,-0.27585485577583313,1.8081554174423218
11.25204849243164,-0.054494522511959076,-0.9079545736312866,0.6449397802352905,-1.1440136432647705,-0.27603626251220703,1.808487057685852
11.272064685821533,-0.05447214096784592,-0.9081553816795349,0.6448993682861328,-1.1441279649734497,-0.27587980031967163,1.8083575963974
11.29211950302124,-0.05464573949575424,-0.9079951643943787,0.6449334025382996,-1.144230842590332,-0.2760481536388397,1.8083404302597046
11.312170505523682,-0.05460622161626816,-0.9076589941978455,0.6446964144706726,-1.1443407535552979,-0.2759459614753723,1.8083816766738892
11.332327365875244,-0.05478959530591965,-0.9079623222351074,0.645553469657898,-1.1439048051834106,-0.2763310968875885,1.8083635568618774
11.35241150856018,-0.05458395928144455,-0.9080039858818054,0.645411491394043,-1.144018292427063,-0.2760820686817169,1.808443546295166
11.37245798110962,-0.054664842784404755,-0.9081971645355225,0.6452380418777466,-1.1438692808151245,-0.27657514810562134,1.8084781169891357
11.39249062538147,-0.05500447005033493,-0.9082048535346985,0.6449580192565918,-1.1435216665267944,-0.2766403257846832,1.8084617853164673
11.412607669830322,-0.05473693460226059,-0.9079279899597168,0.6451134085655212,-1.144184947013855,-0.27622950077056885,1.8083302974700928
11.432713270187378,-0.0545252189040184,-0.9071674942970276,0.6455334424972534,-1.144047498703003,-0.2768670916557312,1.8084139823913574
11.452778339385986,-0.05467578023672104,-0.9074929356575012,0.6452732682228088,-1.1441813707351685,-0.276588499546051,1.8082013130187988
11.472890853881836,-0.054642580449581146,-0.9068543314933777,0.6460648775100708,-1.1440503597259521,-0.27714601159095764,1.8084138631820679
11.493004322052002,-0.05461489409208298,-0.9072039723396301,0.6459673643112183,-1.1438543796539307,-0.27683648467063904,1.8084853887557983
11.513018131256104,-0.05448894947767258,-0.9074496030807495,0.6452692747116089,-1.1442519426345825,-0.27647721767425537,1.808442234992981
11.533081531524658,-0.054522208869457245,-0.9077728986740112,0.6450785398483276,-1.1440833806991577,-0.27660226821899414,1.8084590435028076
11.553245544433594,-0.054584942758083344,-0.9078371524810791,0.6451112627983093,-1.144101858139038,-0.2766214907169342,1.808321237564087
11.573292255401611,-0.05460842698812485,-0.9078458547592163,0.6450172662734985,-1.144057035446167,-0.2766304612159729,1.80832839012146
11.593332052230835,-0.054488711059093475,-0.9078000783920288,0.6452771425247192,-1.1441270112991333,-0.2766208350658417,1.8084348440170288
11.613418579101562,-0.05457427352666855,-0.9077799916267395,0.6450706720352173,-1.1442813873291016,-0.27676308155059814,1.8084818124771118
11.633538484573364,-0.0544947013258934,-0.9077579379081726,0.6451138257980347,-1.1442598104476929,-0.27663204073905945,1.8085004091262817
11.653614521026611,-0.05452313274145126,-0.9078293442726135,0.644798755645752,-1.1443630456924438,-0.2764771282672882,1.808461308479309
11.6736741065979,-0.05464189499616623,-0.9079352021217346,0.6450691819190979,-1.1439762115478516,-0.27663305401802063,1.8082627058029175
11.693809747695923,-0.054480455815792084,-0.907738447189331,0.6450191736221313,-1.1440459489822388,-0.27643927931785583,1.8083003759384155
11.71384596824646,-0.05461253970861435,-0.9076627492904663,0.6450105905532837,-1.1441879272460938,-0.27659082412719727,1.8081996440887451
11.733942031860352,-0.054635219275951385,-0.9078031778335571,0.644983172416687,-1.1439640522003174,-0.2765156924724579,1.808237910270691
11.753982543945312,0.04281184822320938,-1.565914511680603,0.8424279689788818,-1.2587565183639526,-0.20683294534683228,1.6957634687423706
11.774141311645508,0.010529672726988792,-1.1878403425216675,0.7191477417945862,-1.137035846710205,-0.2490251362323761,1.7074030637741089
11.794161319732666,0.021609818562865257,-1.2601906061172485,0.7541310787200928,-1.161234974861145,-0.2423701286315918,1.7017168998718262
11.814265251159668,0.024452989920973778,-1.2552136182785034,0.7810532450675964,-1.159853458404541,-0.2528550326824188,1.6988446712493896
11.834310054779053,0.02866647206246853,-1.2213796377182007,0.8118209838867188,-1.1469537019729614,-0.27018046379089355,1.6943000555038452
11.854444742202759,0.012120908126235008,-1.3803915977478027,0.7680590152740479,-1.1841555833816528,-0.2403084933757782,1.6931818723678589
11.874495267868042,0.00887024961411953,-1.4080547094345093,0.7710790634155273,-1.1857883930206299,-0.24672824144363403,1.6869181394577026
11.894650936126709,0.008146708831191063,-1.41290283203125,0.7974534034729004,-1.1823382377624512,-0.2636544108390808,1.6760810613632202
11.91485595703125,0.006187593564391136,-1.4096993207931519,0.8209179639816284,-1.1704250574111938,-0.27122947573661804,1.6699515581130981
11.934929370880127,0.02205524407327175,-1.262743592262268,0.85655677318573,-1.1232048273086548,-0.2805196940898895,1.6750357151031494
11.954989910125732,0.025410121306777,-1.2990015745162964,0.8596505522727966,-1.1354402303695679,-0.2803640067577362,1.673866868019104
11.975060224533081,0.02723405323922634,-1.3023722171783447,0.8809599280357361,-1.13455069065094,-0.303956538438797,1.6700457334518433
11.995182037353516,0.03087923489511013,-1.3957599401474,0.8580107688903809,-1.159080982208252,-0.2867681384086609,1.669326663017273
12.01528286933899,0.03360820561647415,-1.41154146194458,0.8751216530799866,-1.1546937227249146,-0.2995817959308624,1.661476969718933
12.035383462905884,0.03212467581033707,-1.3697072267532349,0.9261888265609741,-1.144287109375,-0.3391023874282837,1.6565715074539185
12.055414199829102,0.031787313520908356,-1.3705884218215942,0.943750262260437,-1.1460820436477661,-0.3481356203556061,1.6595150232315063
12.075471878051758,0.020994758233428,-1.4097026586532593,0.9783204793930054,-1.1485908031463623,-0.35890480875968933,1.6546448469161987
12.095638036727905,0.030444210395216942,-1.4081535339355469,0.9783274531364441,-1.1575627326965332,-0.3548341989517212,1.657269835472107
12.115676403045654,0.03366786986589432,-1.440576195716858,0.965306282043457,-1.1593097448349,-0.34454673528671265,1.653898000717163
12.13576602935791,0.03349921852350235,-1.4432963132858276,0.9795684814453125,-1.1626276969909668,-0.36144280433654785,1.6524379253387451
12.155839443206787,0.03361893445253372,-1.4588302373886108,0.979072093963623,-1.1645137071609497,-0.369556188583374,1.6535853147506714
12.175899982452393,0.02887479029595852,-1.4575395584106445,0.9961529970169067,-1.1585360765457153,-0.38043898344039917,1.6466139554977417
12.195984125137329,0.02864215336740017,-1.459696888923645,1.0051460266113281,-1.1556627750396729,-0.3812748193740845,1.6420880556106567
12.216171026229858,0.034748829901218414,-1.4819318056106567,1.0001872777938843,-1.1613011360168457,-0.3760611414909363,1.6409512758255005
12.23623275756836,0.03180796653032303,-1.4849454164505005,1.0072144269943237,-1.1566908359527588,-0.37936654686927795,1.6391783952713013
12.256405115127563,0.03151050955057144,-1.480556607246399,1.0246976613998413,-1.15947425365448,-0.3934784531593323,1.6354986429214478
12.27640962600708,0.03474078327417374,-1.4935784339904785,1.019052505493164,-1.157344937324524,-0.39043861627578735,1.6350257396697998
12.296614170074463,0.03824768215417862,-1.5035514831542969,1.0217053890228271,-1.1574026346206665,-0.3918510377407074,1.6309125423431396
12.316774845123291,0.0365162268280983,-1.4907680749893188,1.0351060628890991,-1.1535933017730713,-0.4006398618221283,1.6293561458587646
12.336809635162354,0.03844035416841507,-1.5067976713180542,1.0341999530792236,-1.1570388078689575,-0.40427595376968384,1.6287599802017212
12.356873512268066,0.034682102501392365,-1.5250786542892456,1.0372661352157593,-1.1521282196044922,-0.40580716729164124,1.6248034238815308
12.377073764801025,0.03807014971971512,-1.515908122062683,1.0483371019363403,-1.1537033319473267,-0.4113397002220154,1.622749924659729
12.39713740348816,0.0410793200135231,-1.526819109916687,1.038333773612976,-1.154187798500061,-0.40491989254951477,1.6242305040359497
12.417267799377441,0.04096955806016922,-1.5323213338851929,1.0446577072143555,-1.1524630784988403,-0.411356657743454,1.6201201677322388
12.437335729598999,0.04226980358362198,-1.5318434238433838,1.0494492053985596,-1.1495264768600464,-0.41452932357788086,1.6188653707504272
12.457756996154785,0.04114527255296707,-1.5283342599868774,1.0564063787460327,-1.148891806602478,-0.4201616644859314,1.6183472871780396
12.477860689163208,0.042422808706760406,-1.527305245399475,1.0639194250106812,-1.1490695476531982,-0.4270232319831848,1.6162059307098389
12.497949123382568,0.04193345457315445,-1.5272847414016724,1.0670467615127563,-1.1446532011032104,-0.42830175161361694,1.6140397787094116
12.517998933792114,0.04237935692071915,-1.540725827217102,1.067956566810608,-1.1439288854599,-0.4267062544822693,1.6123840808868408
12.538124561309814,0.04250822216272354,-1.5424846410751343,1.0693857669830322,-1.1446655988693237,-0.43017613887786865,1.611416220664978
12.55823040008545,0.043237484991550446,-1.5386183261871338,1.0740002393722534,-1.142943263053894,-0.4327417016029358,1.6110644340515137
12.578287124633789,0.044905729591846466,-1.5417636632919312,1.074561595916748,-1.1415551900863647,-0.43378081917762756,1.6099739074707031
12.598356485366821,0.046154238283634186,-1.544169545173645,1.0772050619125366,-1.1399768590927124,-0.43674778938293457,1.6081739664077759
12.618415832519531,0.04805658012628555,-1.5436879396438599,1.0798733234405518,-1.1393789052963257,-0.44036000967025757,1.607725739479065
12.638499021530151,0.046864695847034454,-1.5595601797103882,1.0806281566619873,-1.1391984224319458,-0.4420870244503021,1.6073704957962036
12.658589363098145,0.04810623079538345,-1.5606399774551392,1.0822361707687378,-1.1374038457870483,-0.44402721524238586,1.6060055494308472
12.678709268569946,0.04943207651376724,-1.566442847251892,1.0815978050231934,-1.1360336542129517,-0.4413738548755646,1.6042677164077759
12.698746919631958,0.046510763466358185,-1.5481624603271484,1.0928388833999634,-1.1343169212341309,-0.4533836245536804,1.6031924486160278
12.718828916549683,0.046009279787540436,-1.549796223640442,1.093553900718689,-1.1335124969482422,-0.45461276173591614,1.602850079536438
12.738900899887085,0.0457632914185524,-1.5460273027420044,1.0969401597976685,-1.1330186128616333,-0.4571242332458496,1.602229118347168
12.75905966758728,0.04898012429475784,-1.5563451051712036,1.0917060375213623,-1.1322146654129028,-0.4532460868358612,1.6017612218856812
12.77906346321106,0.05436751991510391,-1.578741431236267,1.0838327407836914,-1.1327556371688843,-0.4449840188026428,1.601711630821228
12.79912519454956,0.052270419895648956,-1.5755980014801025,1.0883278846740723,-1.1318069696426392,-0.45030632615089417,1.6015652418136597
12.819182395935059,0.05352924019098282,-1.5722345113754272,1.0893633365631104,-1.131222128868103,-0.45208224654197693,1.6006656885147095
12.839243650436401,0.051097430288791656,-1.5696011781692505,1.0928618907928467,-1.128902554512024,-0.45754584670066833,1.6001346111297607
12.85933542251587,0.05196935683488846,-1.5662357807159424,1.0945589542388916,-1.1279433965682983,-0.46008482575416565,1.5999997854232788
12.879422903060913,0.05306897312402725,-1.5674800872802734,1.095339298248291,-1.1277846097946167,-0.458109974861145,1.598964810371399
12.899475574493408,0.0479852631688118,-1.5645487308502197,1.0998386144638062,-1.1252355575561523,-0.4654741883277893,1.5981546640396118
12.919523000717163,0.05090589076280594,-1.5663789510726929,1.099031686782837,-1.1251074075698853,-0.463042289018631,1.5977282524108887
12.9396071434021,0.05619708448648453,-1.5818320512771606,1.0923762321472168,-1.1271899938583374,-0.45565691590309143,1.597909927368164
12.95967435836792,0.05490875989198685,-1.5837730169296265,1.0929505825042725,-1.124968409538269,-0.456219345331192,1.5971914529800415
12.979733943939209,0.055306531488895416,-1.5792418718338013,1.09566330909729,-1.1244981288909912,-0.45838600397109985,1.596603274345398
12.999781131744385,0.05675555020570755,-1.578646183013916,1.0946706533432007,-1.1237486600875854,-0.4597325921058655,1.5967003107070923
13.019865036010742,0.0554303303360939,-1.57441246509552,1.0988340377807617,-1.1231160163879395,-0.4633901119232178,1.5958850383758545
13.03992748260498,0.0558859184384346,-1.5741852521896362,1.0979413986206055,-1.12212073802948,-0.4641333520412445,1.595481038093567
13.060023546218872,0.056294120848178864,-1.5760396718978882,1.0987533330917358,-1.1222172975540161,-0.4647640287876129,1.5950087308883667
13.080045700073242,0.056161172688007355,-1.5778411626815796,1.0986502170562744,-1.1210253238677979,-0.46488431096076965,1.5945097208023071
13.100220918655396,0.05415249615907669,-1.5731455087661743,1.1011998653411865,-1.1203774213790894,-0.4679790437221527,1.5947054624557495
13.120279312133789,0.05639085918664932,-1.5792255401611328,1.0977692604064941,-1.1203192472457886,-0.4648039937019348,1.5945242643356323
13.14034104347229,0.058151908218860626,-1.5861459970474243,1.0949509143829346,-1.1204030513763428,-0.4640543460845947,1.5949403047561646
13.160401821136475,0.057811714708805084,-1.583621859550476,1.0979020595550537,-1.1204160451889038,-0.46570783853530884,1.5943588018417358
13.180481672286987,0.057109035551548004,-1.578321933746338,1.0979470014572144,-1.1195648908615112,-0.4671199917793274,1.5945404767990112
13.20063304901123,0.05673808604478836,-1.577466368675232,1.0989878177642822,-1.1186057329177856,-0.4688516855239868,1.5945285558700562
13.22064208984375,0.05785135179758072,-1.574316143989563,1.1003649234771729,-1.1191099882125854,-0.47082632780075073,1.5941747426986694
13.24070930480957,0.05954102426767349,-1.5765687227249146,1.0983318090438843,-1.1190803050994873,-0.4702187478542328,1.5939589738845825
13.260829210281372,0.059080757200717926,-1.577670931816101,1.0999997854232788,-1.1188344955444336,-0.4713282287120819,1.5938664674758911
13.280915975570679,0.05765727907419205,-1.5746879577636719,1.1017537117004395,-1.1182647943496704,-0.47353389859199524,1.5934154987335205
13.301231145858765,0.056543417274951935,-1.5768400430679321,1.100957989692688,-1.1173498630523682,-0.4741610288619995,1.5933465957641602
13.321363925933838,0.06046939641237259,-1.580300211906433,1.0987932682037354,-1.1189974546432495,-0.4705963432788849,1.5931071043014526
13.341501951217651,0.05918998271226883,-1.5805093050003052,1.0995784997940063,-1.1184945106506348,-0.47139111161231995,1.5929254293441772
13.361533403396606,0.05913243442773819,-1.580056071281433,1.0995572805404663,-1.11835515499115,-0.47179552912712097,1.5929726362228394
13.381603956222534,0.059085048735141754,-1.5795124769210815,1.099350929260254,-1.1181520223617554,-0.47173357009887695,1.5931944847106934
13.401688814163208,0.0592479482293129,-1.5801410675048828,1.0988010168075562,-1.1179524660110474,-0.4712078273296356,1.5930291414260864
13.42173981666565,0.059239305555820465,-1.5800572633743286,1.0989515781402588,-1.1179872751235962,-0.47147396206855774,1.5931340456008911
13.441810846328735,0.05763290077447891,-1.5800912380218506,1.0997575521469116,-1.1167954206466675,-0.4737127125263214,1.5934137105941772
13.461901903152466,0.05882281810045242,-1.5802899599075317,1.0991535186767578,-1.1172890663146973,-0.4724712669849396,1.5932276248931885
13.481964826583862,0.059201039373874664,-1.5801444053649902,1.099510669708252,-1.1171424388885498,-0.47190195322036743,1.592987298965454
13.502038478851318,0.05909896641969681,-1.5805832147598267,1.0993274450302124,-1.1167328357696533,-0.472319632768631,1.5930968523025513
13.522123336791992,0.05950496345758438,-1.5813905000686646,1.0983844995498657,-1.1163908243179321,-0.47156476974487305,1.5931187868118286
13.542204856872559,0.05933929234743118,-1.5821548700332642,1.0986090898513794,-1.1158888339996338,-0.4710524380207062,1.5929726362228394
13.562308549880981,0.05921468883752823,-1.5812740325927734,1.0995255708694458,-1.116267204284668,-0.4720798134803772,1.5930858850479126
13.582415580749512,0.05929345637559891,-1.5805608034133911,1.0998047590255737,-1.1159884929656982,-0.47314971685409546,1.5932592153549194
13.602499961853027,0.05942106992006302,-1.5805749893188477,1.099511742591858,-1.115559697151184,-0.4724065065383911,1.5932457447052002
13.622607946395874,0.059563763439655304,-1.580955982208252,1.0995957851409912,-1.1154118776321411,-0.47266700863838196,1.5932568311691284
13.642670631408691,0.05951765924692154,-1.5814496278762817,1.0997254848480225,-1.1151413917541504,-0.4723854064941406,1.5932036638259888
13.662851572036743,0.05948943644762039,-1.581028699874878,1.099571943283081,-1.115057349205017,-0.47239530086517334,1.593166708946228
13.68284296989441,0.05986706167459488,-1.5817726850509644,1.099077582359314,-1.1148394346237183,-0.4718753695487976,1.5932539701461792
13.702933311462402,0.0597824826836586,-1.5813111066818237,1.099541187286377,-1.1148098707199097,-0.4722430408000946,1.5932661294937134
13.722996950149536,0.059799470007419586,-1.5801581144332886,1.100297212600708,-1.114806890487671,-0.47292473912239075,1.5931622982025146
13.743102550506592,0.058977968990802765,-1.5809489488601685,1.0999000072479248,-1.1143134832382202,-0.4734554886817932,1.5932284593582153
13.763141393661499,0.05963582545518875,-1.5807899236679077,1.1003446578979492,-1.1144936084747314,-0.47323304414749146,1.593135952949524
13.783270359039307,0.05928001552820206,-1.5821207761764526,1.1000388860702515,-1.1142354011535645,-0.4727897047996521,1.5930196046829224
13.803574323654175,0.05937937647104263,-1.5821014642715454,1.0997695922851562,-1.1137079000473022,-0.47319719195365906,1.59317147731781
13.823663711547852,0.05979178100824356,-1.5813336372375488,1.0998220443725586,-1.1139147281646729,-0.47284355759620667,1.5930575132369995
13.843743324279785,0.05994746834039688,-1.5817171335220337,1.0997835397720337,-1.114078402519226,-0.47274482250213623,1.593084454536438
13.863800764083862,0.05966237932443619,-1.581621766090393,1.1000394821166992,-1.113752841949463,-0.4733145534992218,1.5930451154708862
13.883942127227783,0.05982188135385513,-1.5817006826400757,1.1000553369522095,-1.1135356426239014,-0.47332555055618286,1.5931735038757324
13.904090166091919,0.05956441909074783,-1.5816947221755981,1.100409984588623,-1.113400936126709,-0.4732401371002197,1.5931349992752075
13.924174785614014,0.05983028560876846,-1.5817569494247437,1.1002280712127686,-1.1132618188858032,-0.4730531573295593,1.5931929349899292
13.944239377975464,0.05974308401346207,-1.581774115562439,1.1003453731536865,-1.1133759021759033,-0.47322994470596313,1.5931428670883179
13.964754104614258,0.059558965265750885,-1.5813177824020386,1.1003906726837158,-1.1133259534835815,-0.4733576774597168,1.5931768417358398
13.984821319580078,0.05997864156961441,-1.5818352699279785,1.099953532218933,-1.1134034395217896,-0.4729713797569275,1.5933018922805786
14.004896640777588,0.059613145887851715,-1.5817002058029175,1.1002870798110962,-1.1132680177688599,-0.47358468174934387,1.5932379961013794
14.024967670440674,0.05970258265733719,-1.58180570602417,1.1000827550888062,-1.1132737398147583,-0.4733106791973114,1.5932763814926147
14.045334577560425,0.059647150337696075,-1.5818532705307007,1.100170373916626,-1.1131337881088257,-0.473332941532135,1.5932782888412476
14.065441608428955,0.059871383011341095,-1.5816344022750854,1.0999493598937988,-1.113197684288025,-0.4733453691005707,1.593326449394226
14.085501670837402,0.059550292789936066,-1.581628680229187,1.100399136543274,-1.1130744218826294,-0.4737046957015991,1.5932625532150269
14.105560779571533,0.059854842722415924,-1.5816041231155396,1.0999587774276733,-1.113159418106079,-0.4734015464782715,1.5933445692062378
14.125651359558105,0.0597158744931221,-1.5815651416778564,1.1002517938613892,-1.1128368377685547,-0.4735785126686096,1.5932772159576416
14.145725965499878,0.05969313532114029,-1.5818285942077637,1.1002590656280518,-1.1128696203231812,-0.47351962327957153,1.5932283401489258
14.165863037109375,0.05941314250230789,-1.5818958282470703,1.0999524593353271,-1.1127289533615112,-0.47371748089790344,1.5933972597122192
14.185940742492676,0.05892548710107803,-1.5816230773925781,1.1003230810165405,-1.1123262643814087,-0.4745592772960663,1.5934646129608154
14.205960273742676,0.05979395657777786,-1.5820521116256714,1.100294589996338,-1.1126023530960083,-0.4741182327270508,1.5934752225875854
14.226041316986084,0.05982241779565811,-1.5821902751922607,1.0997830629348755,-1.1126458644866943,-0.474068284034729,1.593377709388733
14.24610686302185,0.059883393347263336,-1.5823084115982056,1.0999141931533813,-1.1125781536102295,-0.4740770161151886,1.5933583974838257
14.266258478164673,0.05973333865404129,-1.5820870399475098,1.1001390218734741,-1.1124988794326782,-0.474112331867218,1.5933072566986084
14.286312818527222,0.06002045422792435,-1.5820015668869019,1.1001094579696655,-1.112581729888916,-0.474132776260376,1.5934776067733765
14.306574821472168,0.05969006568193436,-1.5818713903427124,1.1004761457443237,-1.1122444868087769,-0.4744237959384918,1.5933541059494019
14.326598882675171,0.05992100387811661,-1.5810128450393677,1.1005523204803467,-1.112047791481018,-0.4746277332305908,1.5935577154159546
14.346673250198364,0.06021089106798172,-1.5816651582717896,1.1001931428909302,-1.1118448972702026,-0.4739464223384857,1.5934641361236572
14.366806983947754,0.0603146031498909,-1.5821391344070435,1.0998283624649048,-1.1119943857192993,-0.47386351227760315,1.5934739112854004
14.38689923286438,0.06020209938287735,-1.5823951959609985,1.1001040935516357,-1.1119874715805054,-0.47426193952560425,1.5936003923416138
14.406996726989746,0.06044379621744156,-1.5821512937545776,1.0998257398605347,-1.1119624376296997,-0.4743225574493408,1.593627691268921
14.427027463912964,0.06018517166376114,-1.581161618232727,1.1004273891448975,-1.1119431257247925,-0.4747067987918854,1.5935519933700562
14.447233200073242,0.060446806252002716,-1.5825798511505127,1.1001261472702026,-1.112003207206726,-0.47454124689102173,1.5935558080673218
14.467320442199707,0.06034300476312637,-1.5819642543792725,1.1004729270935059,-1.1119728088378906,-0.4747467041015625,1.5935622453689575
14.487549781799316,0.06044981628656387,-1.5822221040725708,1.100233793258667,-1.1118056774139404,-0.474316269159317,1.593616247177124
14.507514476776123,0.06042800098657608,-1.5824352502822876,1.1000388860702515,-1.111754059791565,-0.47430679202079773,1.593565821647644
14.527576923370361,0.06014624983072281,-1.581797480583191,1.1002774238586426,-1.1118234395980835,-0.47439780831336975,1.5934511423110962
14.547669410705566,0.06009358912706375,-1.5817556381225586,1.1002814769744873,-1.1117461919784546,-0.4745108485221863,1.5933953523635864
14.56779408454895,0.06018797308206558,-1.5819147825241089,1.1001806259155273,-1.1117992401123047,-0.4744909703731537,1.5934747457504272
