liuyurong129/humanoid-gym/humanoid/data/target_q_20250521-003100.csv
timestamp,joint_1,joint_2,joint_3,joint_4,joint_5,joint_6
3.218650817871094e-05,0.0,0.0,0.0,0.0,0.0,0.0
0.020112276077270508,0.0,0.0,0.0,0.0,0.0,0.0
0.04019474983215332,0.0,0.0,0.0,0.0,0.0,0.0
0.060243844985961914,1.2637633085250854,-1.9025827646255493,1.00247061252594,1.7469608783721924,-0.18114233016967773,0.935335636138916
0.08033013343811035,0.8968600630760193,-2.4937713146209717,2.158858299255371,1.567383050918579,0.19296425580978394,1.0244317054748535
0.10039091110229492,0.7722263932228088,-2.616523504257202,2.5189368724823,1.337803602218628,0.3768279552459717,1.0411397218704224
0.12050509452819824,0.7785824537277222,-2.62937593460083,2.461972713470459,1.3010814189910889,0.3474976718425751,1.04209303855896
0.14061188697814941,0.7766480445861816,-2.639098644256592,2.532119035720825,1.3134604692459106,0.36881208419799805,1.0375059843063354
0.16070342063903809,0.7846207618713379,-2.643101930618286,2.56826114654541,1.3265209197998047,0.3834879398345947,1.0323486328125
0.18073821067810059,0.7843226194381714,-2.6363015174865723,2.59427809715271,1.3419667482376099,0.39886191487312317,1.030225157737732
0.20081210136413574,0.7824139595031738,-2.6261587142944336,2.596859931945801,1.3313443660736084,0.4012700915336609,1.0320724248886108
0.22088265419006348,0.7706589698791504,-2.6217384338378906,2.609057903289795,1.3431007862091064,0.3976459801197052,1.0305583477020264
0.24091792106628418,0.7630341053009033,-2.6096394062042236,2.5292627811431885,1.3142244815826416,0.3772009313106537,1.039151906967163
0.26098084449768066,0.783135175704956,-2.6241908073425293,2.5174646377563477,1.318953037261963,0.37049517035484314,1.0359162092208862
0.28105592727661133,0.7841585874557495,-2.6313722133636475,2.5400145053863525,1.3335628509521484,0.3779906630516052,1.0317083597183228
0.30112242698669434,0.7742366790771484,-2.6213741302490234,2.5420820713043213,1.3245394229888916,0.37900805473327637,1.0345345735549927
0.32125115394592285,0.7831676602363586,-2.6217405796051025,2.5358023643493652,1.3321428298950195,0.38431745767593384,1.0327078104019165
0.3413124084472656,0.7915517091751099,-2.620732307434082,2.5421245098114014,1.3238575458526611,0.3912472128868103,1.0329750776290894
0.36135053634643555,0.7951955795288086,-2.6218717098236084,2.537452220916748,1.3235667943954468,0.3900507092475891,1.0319677591323853
0.38138914108276367,0.7924402952194214,-2.6277318000793457,2.564640998840332,1.3310418128967285,0.39034444093704224,1.0282920598983765
0.40146613121032715,0.7917260527610779,-2.623854637145996,2.549391984939575,1.3284261226654053,0.3855445981025696,1.0296106338500977
0.4215281009674072,0.7855483889579773,-2.6221418380737305,2.5637896060943604,1.3240580558776855,0.3826620876789093,1.0285307168960571
0.44161081314086914,0.7973941564559937,-2.6284618377685547,2.5839738845825195,1.3421096801757812,0.3940291106700897,1.0230909585952759
0.4616985321044922,0.7933893799781799,-2.615314245223999,2.5370423793792725,1.3180315494537354,0.3841213583946228,1.0293370485305786
0.48178982734680176,0.7838435769081116,-2.6161584854125977,2.5433902740478516,1.3230769634246826,0.37389880418777466,1.027397871017456
0.5018465518951416,0.7813036441802979,-2.6149630546569824,2.535921573638916,1.3358162641525269,0.3737751841545105,1.0267128944396973
0.5219161510467529,0.7817746996879578,-2.6141316890716553,2.5125629901885986,1.31210196018219,0.3640587031841278,1.0301048755645752
0.5419764518737793,0.7818589210510254,-2.6135826110839844,2.525501251220703,1.325578212738037,0.37442299723625183,1.0274639129638672
0.5620484352111816,0.7936290502548218,-2.619452714920044,2.568305492401123,1.3458867073059082,0.39268121123313904,1.0219331979751587
0.5821127891540527,0.7976324558258057,-2.6185336112976074,2.542768955230713,1.3325355052947998,0.38387784361839294,1.0232617855072021
0.6022067070007324,0.798922061920166,-2.618546962738037,2.570237636566162,1.343178391456604,0.39324313402175903,1.0203485488891602
0.6224884986877441,0.8029108047485352,-2.6186628341674805,2.558166027069092,1.3352727890014648,0.3865455687046051,1.0205049514770508
0.6425971984863281,0.801386833190918,-2.613102674484253,2.5178182125091553,1.3259028196334839,0.37940195202827454,1.024290919303894
0.6626675128936768,0.8014885187149048,-2.614121675491333,2.536135196685791,1.3335946798324585,0.38400590419769287,1.022131085395813
0.6828022003173828,0.7975512742996216,-2.613440990447998,2.549412727355957,1.327744960784912,0.38124266266822815,1.0219075679779053
0.7030124664306641,0.7965339422225952,-2.6110568046569824,2.543186902999878,1.3360049724578857,0.37783074378967285,1.0205957889556885
0.7231340408325195,0.7868172526359558,-2.6037564277648926,2.5573010444641113,1.338179588317871,0.386028528213501,1.0213855504989624
0.7432243824005127,0.7758466601371765,-2.5947699546813965,2.5131752490997314,1.330887794494629,0.37094759941101074,1.023824691772461
0.7632548809051514,0.8127374053001404,-2.612311363220215,2.523895263671875,1.321812629699707,0.38192689418792725,1.0200872421264648
0.7835476398468018,0.8096508979797363,-2.6175460815429688,2.532878875732422,1.3240277767181396,0.37460047006607056,1.0170233249664307
0.8036909103393555,0.8029934763908386,-2.61305570602417,2.5052342414855957,1.312730312347412,0.36557862162590027,1.0201408863067627
0.8237936496734619,0.8007822632789612,-2.610212802886963,2.505216121673584,1.321152687072754,0.36728495359420776,1.0193809270858765
0.8438401222229004,0.8047512173652649,-2.6130733489990234,2.547950267791748,1.3374018669128418,0.3813648819923401,1.0142912864685059
0.8639247417449951,0.8043649196624756,-2.609217882156372,2.515773296356201,1.3215417861938477,0.370821088552475,1.0176634788513184
0.883997917175293,0.8095402121543884,-2.6110754013061523,2.505399703979492,1.3263123035430908,0.3708823025226593,1.0160317420959473
0.904069185256958,0.8038972616195679,-2.6081597805023193,2.5412027835845947,1.3385742902755737,0.3769173324108124,1.0132148265838623
0.9241776466369629,0.797033429145813,-2.6035640239715576,2.5293965339660645,1.342002511024475,0.37322112917900085,1.0134800672531128
0.9442687034606934,0.8009330034255981,-2.6031596660614014,2.49092960357666,1.3194628953933716,0.36202263832092285,1.0172125101089478
0.9643385410308838,0.8100222945213318,-2.6096644401550293,2.515554904937744,1.33174467086792,0.37145963311195374,1.0124900341033936
0.984400749206543,0.8127186298370361,-2.6019997596740723,2.489185094833374,1.323829174041748,0.37089669704437256,1.0148251056671143
1.004457712173462,0.8098027110099792,-2.6043782234191895,2.5223612785339355,1.3343323469161987,0.3749609589576721,1.0114660263061523
1.0245544910430908,0.7949289083480835,-2.599097728729248,2.505479335784912,1.328185796737671,0.3607562780380249,1.0135910511016846
1.0446875095367432,0.8132327198982239,-2.604689598083496,2.5188040733337402,1.3366276025772095,0.37057414650917053,1.0096442699432373
1.0647408962249756,0.8172703385353088,-2.6045570373535156,2.4918031692504883,1.31436026096344,0.36483529210090637,1.0123182535171509
1.0848779678344727,0.81735759973526,-2.6048073768615723,2.497574806213379,1.3266284465789795,0.3658986985683441,1.0098967552185059
1.1049723625183105,0.8196675181388855,-2.6062169075012207,2.5109057426452637,1.3299109935760498,0.3725607693195343,1.0082693099975586
1.1252422332763672,0.8160290122032166,-2.5995962619781494,2.5069494247436523,1.3285540342330933,0.37462151050567627,1.008617877960205
1.1453099250793457,0.804916262626648,-2.5912301540374756,2.49245285987854,1.3309482336044312,0.37136760354042053,1.0101052522659302
1.1654198169708252,0.8098116517066956,-2.6000254154205322,2.5237326622009277,1.337984323501587,0.3668338656425476,1.0055603981018066
1.1854979991912842,0.8222014904022217,-2.6044602394104004,2.49387264251709,1.3277287483215332,0.3618827164173126,1.005735158920288
1.2056081295013428,0.8180481791496277,-2.6008968353271484,2.488283634185791,1.3310705423355103,0.36342865228652954,1.0064111948013306
1.2256498336791992,0.8227083683013916,-2.6010990142822266,2.502394199371338,1.3344602584838867,0.3703724443912506,1.004521131515503
1.2459449768066406,0.8202928304672241,-2.59893798828125,2.4755544662475586,1.3179720640182495,0.35819151997566223,1.00779128074646
1.266026496887207,0.8170484304428101,-2.5957391262054443,2.484346866607666,1.3330024480819702,0.3679959177970886,1.006022572517395
1.286109447479248,0.8074902892112732,-2.590301036834717,2.4552574157714844,1.317223072052002,0.3504280745983124,1.0091817378997803
1.3061604499816895,0.8265783786773682,-2.597994327545166,2.4946296215057373,1.3328543901443481,0.3757392168045044,1.0036022663116455
1.3262453079223633,0.8249198198318481,-2.599557399749756,2.511700391769409,1.332984447479248,0.3705691993236542,1.002208948135376
1.3463306427001953,0.801836371421814,-2.5882606506347656,2.4592483043670654,1.3101555109024048,0.34374406933784485,1.0086290836334229
1.3664016723632812,0.8155406713485718,-2.593627452850342,2.4916324615478516,1.338611125946045,0.36350706219673157,1.0024664402008057
1.3864893913269043,0.8326848149299622,-2.604156494140625,2.5114808082580566,1.3399698734283447,0.36933448910713196,0.996968686580658
1.4065725803375244,0.8324452042579651,-2.598440170288086,2.476107358932495,1.3201613426208496,0.3652663826942444,1.0017249584197998
1.4266183376312256,0.8277368545532227,-2.5957493782043457,2.4663984775543213,1.3267804384231567,0.3612818121910095,1.0011816024780273
1.4467055797576904,0.8225985765457153,-2.5926852226257324,2.48651123046875,1.3387831449508667,0.36643826961517334,0.9991534948348999
1.466731071472168,0.8101537227630615,-2.5819151401519775,2.459221601486206,1.3234026432037354,0.35673946142196655,1.0034511089324951
1.486868143081665,0.8205560445785522,-2.5871357917785645,2.477820634841919,1.3320374488830566,0.3628067970275879,1.000258207321167
1.5069186687469482,0.8220053315162659,-2.5907974243164062,2.4758388996124268,1.3317959308624268,0.3571045994758606,0.998866081237793
1.5269749164581299,0.8150832653045654,-2.589446544647217,2.478579521179199,1.3334035873413086,0.35556885600090027,0.9988347887992859
1.5471365451812744,0.811436653137207,-2.5813791751861572,2.4640681743621826,1.3273602724075317,0.35450056195259094,1.0010623931884766
1.5672175884246826,0.8291147947311401,-2.588306427001953,2.441171407699585,1.3268755674362183,0.35086044669151306,0.999991774559021
1.5872933864593506,0.8230188488960266,-2.5892133712768555,2.4531233310699463,1.3254220485687256,0.3527558743953705,0.9991743564605713
1.607398271560669,0.8277368545532227,-2.5883350372314453,2.448437213897705,1.3235549926757812,0.3533190190792084,0.9989033937454224
1.6274759769439697,0.8282804489135742,-2.594740867614746,2.502365827560425,1.3429059982299805,0.360054075717926,0.9921221137046814
1.6475372314453125,0.8334222435951233,-2.5956296920776367,2.5180559158325195,1.3419146537780762,0.3640071749687195,0.990024983882904
1.667586326599121,0.8401631712913513,-2.588782787322998,2.4550559520721436,1.3259934186935425,0.3563867509365082,0.9940268397331238
1.6876428127288818,0.8249350190162659,-2.585176944732666,2.426826238632202,1.3067538738250732,0.33470162749290466,0.9978089332580566
1.7077314853668213,0.8257414698600769,-2.5909199714660645,2.44175124168396,1.3215506076812744,0.3359726071357727,0.9937843680381775
1.7277908325195312,0.8335343599319458,-2.5950746536254883,2.4649581909179688,1.3283323049545288,0.3482694923877716,0.9909040331840515
1.7480120658874512,0.8312743306159973,-2.5913920402526855,2.46636700630188,1.3329172134399414,0.346321702003479,0.9903407692909241
1.7681009769439697,0.8360449075698853,-2.5858047008514404,2.4333083629608154,1.324986219406128,0.3502393960952759,0.9933105111122131
1.7882039546966553,0.8341475129127502,-2.5841848850250244,2.4608311653137207,1.330666422843933,0.35944777727127075,0.9910020232200623
1.8082902431488037,0.8334431648254395,-2.583871841430664,2.463345527648926,1.332348108291626,0.3562488853931427,0.9900326728820801
1.8284006118774414,0.825661301612854,-2.5746240615844727,2.4427740573883057,1.3234694004058838,0.34958475828170776,0.9928199052810669
1.8486621379852295,0.8328510522842407,-2.577991485595703,2.403510570526123,1.317368984222412,0.3355253338813782,0.9939825534820557
1.868755578994751,0.8318543434143066,-2.585042715072632,2.4347290992736816,1.3177812099456787,0.3406175374984741,0.9913254976272583
1.8888163566589355,0.8280977010726929,-2.5831756591796875,2.442444086074829,1.3279774188995361,0.3421528935432434,0.9901653528213501
1.9090542793273926,0.830019474029541,-2.578035354614258,2.4280600547790527,1.3234179019927979,0.3417844772338867,0.990775465965271
1.9291419982910156,0.8410634994506836,-2.5853700637817383,2.447150468826294,1.328989028930664,0.3447611331939697,0.9871314167976379
1.949195384979248,0.8422502875328064,-2.585212230682373,2.4701108932495117,1.3342468738555908,0.355521559715271,0.9849899411201477
1.9693012237548828,0.8485806584358215,-2.584791898727417,2.4250824451446533,1.3135426044464111,0.34316202998161316,0.9876420497894287
1.9894790649414062,0.8498824834823608,-2.5919694900512695,2.474790096282959,1.3326168060302734,0.35105299949645996,0.9810190200805664
2.0096077919006348,0.8378040790557861,-2.5907082557678223,2.454428195953369,1.3260548114776611,0.33581018447875977,0.9814199209213257
2.029693603515625,0.8146651983261108,-2.5732219219207764,2.446826457977295,1.3231769800186157,0.33526214957237244,0.986007571220398
2.049764633178711,0.8100855946540833,-2.566409111022949,2.425297975540161,1.32621169090271,0.3284367024898529,0.9864944815635681
2.06984543800354,0.8332644701004028,-2.5726876258850098,2.429945230484009,1.3343894481658936,0.3459439277648926,0.9839774966239929
2.089949607849121,0.8379876613616943,-2.5790038108825684,2.4320645332336426,1.3307005167007446,0.3414766192436218,0.9826282262802124
2.110051155090332,0.8415701389312744,-2.578444480895996,2.428318977355957,1.3210461139678955,0.34027108550071716,0.983268678188324
2.1300737857818604,0.8486915230751038,-2.5812759399414062,2.434418201446533,1.3273656368255615,0.3414359390735626,0.9803547263145447
2.1501922607421875,0.8471701741218567,-2.5809597969055176,2.454226016998291,1.335167646408081,0.34830573201179504,0.9784185290336609
2.1702346801757812,0.845989465713501,-2.5738515853881836,2.4100074768066406,1.3210978507995605,0.3347465395927429,0.9825378656387329
2.1903200149536133,0.8462991714477539,-2.5735909938812256,2.4063453674316406,1.3203319311141968,0.3380598723888397,0.9814692735671997
2.2103993892669678,0.8511521816253662,-2.57586669921875,2.441044807434082,1.3262231349945068,0.3483169674873352,0.97840815782547
2.230459213256836,0.8419990539550781,-2.5686542987823486,2.412914752960205,1.3185162544250488,0.3377895951271057,0.9812173247337341
2.2505486011505127,0.8246948719024658,-2.5624098777770996,2.390066146850586,1.3190152645111084,0.325664758682251,0.9831551313400269
2.2706289291381836,0.8424742221832275,-2.5750441551208496,2.3992650508880615,1.3231263160705566,0.3230348229408264,0.9788283705711365
2.2906668186187744,0.8417686223983765,-2.5714778900146484,2.3832125663757324,1.3159233331680298,0.32257843017578125,0.9811286330223083
2.3107662200927734,0.8538131713867188,-2.580291509628296,2.4280338287353516,1.3314653635025024,0.33606234192848206,0.9745877981185913
2.3308298587799072,0.8510148525238037,-2.5800070762634277,2.435669183731079,1.3335061073303223,0.3378695249557495,0.9730508923530579
2.3509089946746826,0.848912239074707,-2.5751030445098877,2.435227155685425,1.3309741020202637,0.33773550391197205,0.9740488529205322
2.3709607124328613,0.8604563474655151,-2.5772593021392822,2.4554643630981445,1.3402886390686035,0.34696441888809204,0.9699870944023132
2.391061782836914,0.8526116609573364,-2.5707554817199707,2.4000890254974365,1.3112707138061523,0.3316539525985718,0.9771063923835754
2.411168098449707,0.8524169921875,-2.570081949234009,2.399336099624634,1.3247188329696655,0.3357665538787842,0.974820613861084
2.4312236309051514,0.8449079990386963,-2.5633726119995117,2.3781449794769287,1.314331293106079,0.3232996463775635,0.9780663251876831
2.4513323307037354,0.8465555906295776,-2.5592424869537354,2.3876514434814453,1.3257324695587158,0.33499547839164734,0.9766581058502197
2.4714207649230957,0.850177526473999,-2.568225383758545,2.438171863555908,1.3408129215240479,0.3337988257408142,0.969989538192749
2.491485357284546,0.8560913801193237,-2.567079544067383,2.4169044494628906,1.3371444940567017,0.33262187242507935,0.970522403717041
2.5115602016448975,0.8562791347503662,-2.5583302974700928,2.3937923908233643,1.324247121810913,0.3394615054130554,0.97432941198349
2.531615734100342,0.8410075306892395,-2.5560572147369385,2.4139444828033447,1.3354549407958984,0.3310154974460602,0.9716800451278687
2.551725387573242,0.8607982397079468,-2.5643436908721924,2.4276928901672363,1.339861273765564,0.3370365500450134,0.967869758605957
2.5717992782592773,0.8592451214790344,-2.566746473312378,2.4205574989318848,1.3334413766860962,0.32900795340538025,0.9675548672676086
2.591871738433838,0.862989068031311,-2.5688066482543945,2.3957486152648926,1.3227499723434448,0.3207205533981323,0.9681979417800903
2.6121065616607666,0.8545244336128235,-2.560011625289917,2.386021137237549,1.317731261253357,0.3244701027870178,0.9706211686134338
2.6322171688079834,0.8453437685966492,-2.55647611618042,2.412635564804077,1.338297724723816,0.33337661623954773,0.9673562049865723
2.6522774696350098,0.8598877191543579,-2.5576910972595215,2.376443386077881,1.3217400312423706,0.32316064834594727,0.9689775109291077
2.6723616123199463,0.8607953786849976,-2.5586657524108887,2.3878700733184814,1.325856328010559,0.33096450567245483,0.9679806232452393
2.6924562454223633,0.8625994920730591,-2.5648958683013916,2.4460973739624023,1.3460328578948975,0.33683449029922485,0.9608904719352722
2.712522029876709,0.8551287651062012,-2.5574746131896973,2.407194137573242,1.3256107568740845,0.32090526819229126,0.9655449986457825
2.7325987815856934,0.8500821590423584,-2.552523612976074,2.3816933631896973,1.3293014764785767,0.3211953639984131,0.9662954807281494
2.752652883529663,0.8576050400733948,-2.5561845302581787,2.3792648315429688,1.3296400308609009,0.3179466724395752,0.9653923511505127
2.7727279663085938,0.8654066920280457,-2.5582756996154785,2.37809419631958,1.324620246887207,0.3258829712867737,0.9652426242828369
2.792797088623047,0.8675154447555542,-2.5571658611297607,2.395740032196045,1.3287506103515625,0.3307953476905823,0.9637901186943054
2.812863826751709,0.8581035733222961,-2.546947717666626,2.3672471046447754,1.3206281661987305,0.3255723714828491,0.9662643671035767
2.8329122066497803,0.8671991229057312,-2.5534186363220215,2.3675475120544434,1.3226161003112793,0.3225873112678528,0.9634425044059753
2.852999448776245,0.8698157072067261,-2.562878131866455,2.399512767791748,1.3274520635604858,0.3173447847366333,0.9587539434432983
2.8730685710906982,0.8662907481193542,-2.558842182159424,2.376311779022217,1.321298360824585,0.31309300661087036,0.960829496383667
2.8931374549865723,0.8646124005317688,-2.556769371032715,2.383983850479126,1.320258378982544,0.3200865387916565,0.9599955081939697
2.913195848464966,0.8735193014144897,-2.557384729385376,2.405427932739258,1.3397071361541748,0.33398714661598206,0.9559918642044067
2.93332839012146,0.8649272918701172,-2.5490965843200684,2.376347541809082,1.3263449668884277,0.3292147219181061,0.9599406719207764
2.953381299972534,0.860186755657196,-2.5431628227233887,2.3721132278442383,1.3284978866577148,0.32594627141952515,0.9601871967315674
2.9734513759613037,0.8591169118881226,-2.5474140644073486,2.390026092529297,1.32627534866333,0.3188503384590149,0.958096981048584
2.993497371673584,0.8356913924217224,-2.53446364402771,2.3692009449005127,1.3267457485198975,0.31050992012023926,0.9612237811088562
3.0135843753814697,0.8575408458709717,-2.538623571395874,2.366962194442749,1.3276466131210327,0.32498133182525635,0.9595159292221069
3.033655881881714,0.8750499486923218,-2.5500221252441406,2.34425687789917,1.3242591619491577,0.31480395793914795,0.9580766558647156
3.053718328475952,0.8675291538238525,-2.550781726837158,2.359111785888672,1.324618935585022,0.3099578619003296,0.9570200443267822
3.0738117694854736,0.8756541609764099,-2.5512073040008545,2.4007692337036133,1.3304396867752075,0.3293095827102661,0.9531027674674988
3.09390926361084,0.8821483254432678,-2.548584461212158,2.388392210006714,1.3286937475204468,0.3338228762149811,0.9532957077026367
3.113987684249878,0.8738579750061035,-2.541292905807495,2.3383896350860596,1.3165698051452637,0.3178217113018036,0.9572462439537048
3.1340277194976807,0.8757367134094238,-2.539991855621338,2.370518445968628,1.327174425125122,0.33442530035972595,0.9542832970619202
3.1541264057159424,0.8778199553489685,-2.5485053062438965,2.3968567848205566,1.328110694885254,0.3159979581832886,0.9497030973434448
3.174205780029297,0.8806582689285278,-2.551412343978882,2.392845630645752,1.339447259902954,0.31925955414772034,0.9468671679496765
3.194270372390747,0.8802462816238403,-2.5495622158050537,2.3865909576416016,1.334173560142517,0.31770259141921997,0.9477481842041016
3.2143287658691406,0.8836126327514648,-2.548628568649292,2.414348602294922,1.3437767028808594,0.3303065598011017,0.9443079829216003
3.234426498413086,0.8755452632904053,-2.5343780517578125,2.358283758163452,1.3225117921829224,0.3290863633155823,0.9519578218460083
3.2544918060302734,0.8609774708747864,-2.5282135009765625,2.3170008659362793,1.3184196949005127,0.3042546808719635,0.9547020792961121
3.2746222019195557,0.8801009058952332,-2.5374021530151367,2.3415911197662354,1.331151008605957,0.31721094250679016,0.9498614072799683
3.2947018146514893,0.867048978805542,-2.5341291427612305,2.3169169425964355,1.3136100769042969,0.298718124628067,0.953630268573761
3.3147451877593994,0.8685816526412964,-2.5378499031066895,2.319645881652832,1.3198589086532593,0.29622507095336914,0.9513521790504456
3.3348240852355957,0.8766770362854004,-2.5423600673675537,2.3454272747039795,1.3295209407806396,0.30739083886146545,0.9479872584342957
3.3549046516418457,0.8865137100219727,-2.544250011444092,2.3908560276031494,1.3412740230560303,0.32892435789108276,0.943443775177002
3.3749654293060303,0.8866585493087769,-2.5385890007019043,2.3362879753112793,1.3250107765197754,0.31177935004234314,0.9471686482429504
3.395026445388794,0.8906012177467346,-2.5396487712860107,2.368577480316162,1.3395599126815796,0.3273317813873291,0.9433695077896118
3.415153741836548,0.8872886896133423,-2.5354816913604736,2.3636488914489746,1.3309454917907715,0.3223499357700348,0.9449011087417603
3.435248613357544,0.8819316625595093,-2.5320332050323486,2.3257603645324707,1.3203880786895752,0.307991623878479,0.9471863508224487
3.455280065536499,0.8647878170013428,-2.519901990890503,2.3267807960510254,1.3208262920379639,0.3126654028892517,0.9485859870910645
3.475369453430176,0.8583439588546753,-2.5209789276123047,2.355102062225342,1.3319145441055298,0.30497312545776367,0.9449876546859741
3.4954307079315186,0.8889856338500977,-2.534724712371826,2.3572568893432617,1.335541009902954,0.31477686762809753,0.9405269622802734
3.5154876708984375,0.8846785426139832,-2.5347113609313965,2.3694820404052734,1.3403524160385132,0.3128170967102051,0.9392078518867493
3.5356764793395996,0.8850871324539185,-2.5294299125671387,2.328824520111084,1.3244322538375854,0.3110252618789673,0.9436889290809631
3.555689811706543,0.8893089294433594,-2.5317416191101074,2.338569164276123,1.332108974456787,0.31309884786605835,0.9409205913543701
3.5757524967193604,0.8899160623550415,-2.5315706729888916,2.338418960571289,1.3319159746170044,0.31295210123062134,0.9402088522911072
3.5958218574523926,0.8913343548774719,-2.5315799713134766,2.370980739593506,1.3440558910369873,0.32215067744255066,0.9369576573371887
3.615945339202881,0.886204719543457,-2.522665023803711,2.324916362762451,1.3257354497909546,0.31180936098098755,0.942104697227478
3.636075019836426,0.8669654130935669,-2.512704849243164,2.327653169631958,1.3319811820983887,0.31221720576286316,0.9428081512451172
3.656099557876587,0.8741692900657654,-2.5126984119415283,2.2938427925109863,1.3271369934082031,0.29998695850372314,0.9438480734825134
3.676156520843506,0.8933554887771606,-2.528888702392578,2.346010208129883,1.3427808284759521,0.3089621663093567,0.9359874129295349
3.6962337493896484,0.8922101855278015,-2.5334177017211914,2.32711124420166,1.3330367803573608,0.3005889654159546,0.9365383386611938
3.7163100242614746,0.897599995136261,-2.5337636470794678,2.323077917098999,1.3179268836975098,0.3014509081840515,0.9367713928222656
3.7363479137420654,0.900633692741394,-2.5355939865112305,2.342106580734253,1.3313838243484497,0.31040725111961365,0.9320375919342041
3.756436586380005,0.9000542163848877,-2.530538558959961,2.322354793548584,1.3211028575897217,0.3075157105922699,0.9350955486297607
3.7765328884124756,0.8991591930389404,-2.5281267166137695,2.3539674282073975,1.3420796394348145,0.31739360094070435,0.9306401014328003
3.796678304672241,0.9004483222961426,-2.519843816757202,2.301487684249878,1.322464942932129,0.30635660886764526,0.9357113242149353
3.8167147636413574,0.8776021003723145,-2.5132813453674316,2.291930675506592,1.3177284002304077,0.29448357224464417,0.9383230805397034
3.8367717266082764,0.8869493007659912,-2.5180516242980957,2.3263144493103027,1.3389312028884888,0.30564606189727783,0.9328925013542175
3.8569793701171875,0.8997003436088562,-2.521235466003418,2.324077606201172,1.3318027257919312,0.30763018131256104,0.9322267770767212
3.8770439624786377,0.8954676389694214,-2.5166139602661133,2.3037796020507812,1.3186235427856445,0.3030768036842346,0.9349929094314575
3.8970582485198975,0.8908753395080566,-2.5148630142211914,2.3202712535858154,1.333620548248291,0.31172648072242737,0.9324043393135071
3.9172558784484863,0.8857778906822205,-2.5119409561157227,2.3026769161224365,1.3267024755477905,0.296979695558548,0.9342169761657715
3.9373929500579834,0.9000978469848633,-2.5187807083129883,2.3235878944396973,1.3364403247833252,0.30708616971969604,0.9298701882362366
3.9574713706970215,0.8990849256515503,-2.5182180404663086,2.321108818054199,1.3302286863327026,0.3031979501247406,0.9299031496047974
3.977567672729492,0.8999916315078735,-2.5192975997924805,2.318612575531006,1.3364286422729492,0.30360931158065796,0.9281244277954102
3.9976375102996826,0.8961964845657349,-2.5182440280914307,2.307680130004883,1.3329384326934814,0.2997779846191406,0.9283931255340576
4.017660617828369,0.8879245519638062,-2.5132133960723877,2.277251958847046,1.3139326572418213,0.2875755727291107,0.9325336217880249
4.037738084793091,0.9060173034667969,-2.5210742950439453,2.2900779247283936,1.3224464654922485,0.29520076513290405,0.92787104845047
4.057863473892212,0.905022919178009,-2.518754243850708,2.3176071643829346,1.334276556968689,0.30796629190444946,0.9254509806632996
4.077897071838379,0.8992611765861511,-2.5130186080932617,2.3172502517700195,1.3344429731369019,0.3063979744911194,0.925739586353302
4.097991466522217,0.9011909365653992,-2.511129856109619,2.2984883785247803,1.3267490863800049,0.3002324402332306,0.9274781942367554
4.118090391159058,0.8887606859207153,-2.501579999923706,2.3166441917419434,1.3325998783111572,0.30725038051605225,0.9268738031387329
4.138121843338013,0.9028769731521606,-2.504897117614746,2.288780689239502,1.3258039951324463,0.2999493479728699,0.9271901249885559
4.158167362213135,0.8989992141723633,-2.503955602645874,2.262699604034424,1.3175952434539795,0.2924569547176361,0.9291565418243408
4.178260087966919,0.9047257304191589,-2.5117239952087402,2.3178014755249023,1.341016173362732,0.3006869852542877,0.9217413663864136
4.198331594467163,0.8952081203460693,-2.498419761657715,2.273810386657715,1.3228133916854858,0.29368460178375244,0.9278683662414551
4.218402862548828,0.9048230648040771,-2.505837917327881,2.2759785652160645,1.324471116065979,0.29812511801719666,0.9256818294525146
4.238481283187866,0.9037902355194092,-2.506312847137451,2.2792282104492188,1.3303923606872559,0.2953699827194214,0.9246066808700562
4.258557319641113,0.9060966968536377,-2.509918451309204,2.3338100910186768,1.3416619300842285,0.3050951063632965,0.9192137718200684
4.278615236282349,0.9046188592910767,-2.5038607120513916,2.2752268314361572,1.3242934942245483,0.28871554136276245,0.9227535724639893
4.298685312271118,0.9043434262275696,-2.5033717155456543,2.250321388244629,1.3185635805130005,0.28583604097366333,0.9241890907287598
4.318729639053345,0.9107314348220825,-2.509586811065674,2.2713236808776855,1.3251047134399414,0.29501283168792725,0.9209945797920227
4.338824987411499,0.8894122838973999,-2.5040478706359863,2.2921979427337646,1.3302924633026123,0.2842378616333008,0.9201037287712097
4.358926773071289,0.8972437977790833,-2.4999241828918457,2.2450385093688965,1.322245717048645,0.27598533034324646,0.9232322573661804
4.3789873123168945,0.9095557928085327,-2.507093667984009,2.260465383529663,1.3268113136291504,0.2912222445011139,0.9210235476493835
4.399116039276123,0.9112803339958191,-2.5084140300750732,2.3015365600585938,1.335773229598999,0.30299562215805054,0.916801393032074
4.419214725494385,0.9088563323020935,-2.5067005157470703,2.307974338531494,1.3299205303192139,0.2948836088180542,0.9166708588600159
4.439314842224121,0.9087672233581543,-2.506392240524292,2.3023898601531982,1.3368247747421265,0.2883836030960083,0.9153136014938354
4.459356307983398,0.9110796451568604,-2.500655174255371,2.280797004699707,1.326686143875122,0.290253609418869,0.9172548055648804
4.479427814483643,0.9013416767120361,-2.496687650680542,2.2826924324035645,1.3308405876159668,0.2907831370830536,0.9174397587776184
4.499510288238525,0.9092972874641418,-2.495469570159912,2.2606561183929443,1.3233436346054077,0.2897120714187622,0.9184289574623108
4.519584655761719,0.9045388698577881,-2.4934773445129395,2.2460155487060547,1.3151124715805054,0.28113049268722534,0.9203190207481384
4.539655685424805,0.9100307822227478,-2.498851776123047,2.2758984565734863,1.326636552810669,0.28856155276298523,0.9152880907058716
4.559696435928345,0.9116417169570923,-2.498782157897949,2.278473377227783,1.331399917602539,0.2865009903907776,0.9134150743484497
4.579782009124756,0.9117109179496765,-2.4933977127075195,2.2454919815063477,1.3246543407440186,0.2889925241470337,0.9161853790283203
4.599853754043579,0.9073126316070557,-2.491837739944458,2.2387497425079346,1.3200315237045288,0.28313177824020386,0.915984034538269
4.619953632354736,0.9172577857971191,-2.4997379779815674,2.2686009407043457,1.3354893922805786,0.2935205399990082,0.9109455347061157
4.640024423599243,0.9041150808334351,-2.490797281265259,2.2625348567962646,1.326791763305664,0.28607630729675293,0.9138391613960266
4.660110235214233,0.9062234163284302,-2.490609645843506,2.252919912338257,1.3278205394744873,0.28273046016693115,0.9131048917770386
4.68019437789917,0.9115188121795654,-2.4935028553009033,2.286787986755371,1.3397042751312256,0.29325056076049805,0.9092951416969299
4.700250148773193,0.915842592716217,-2.495738983154297,2.2698798179626465,1.3302385807037354,0.2815946042537689,0.9093995094299316
4.720304727554321,0.9222596883773804,-2.4937191009521484,2.2427773475646973,1.3231791257858276,0.2805193066596985,0.9105688333511353
4.740407466888428,0.9258182644844055,-2.4967293739318848,2.26096773147583,1.3355144262313843,0.2881861925125122,0.9076105356216431
4.760485410690308,0.912537693977356,-2.4900834560394287,2.2445836067199707,1.319887399673462,0.27734270691871643,0.9115145802497864
4.7806556224823,0.903122067451477,-2.4887795448303223,2.2804934978485107,1.3374311923980713,0.2847428619861603,0.9072637557983398
4.800661325454712,0.8854062557220459,-2.4750871658325195,2.1906700134277344,1.3093881607055664,0.24749703705310822,0.915768563747406
4.820746660232544,0.9155132174491882,-2.4897685050964355,2.2696826457977295,1.3455729484558105,0.2920777201652527,0.9050830006599426
4.840843915939331,0.9183242321014404,-2.4971041679382324,2.2725989818573,1.338141918182373,0.27408352494239807,0.9030855894088745
4.860881090164185,0.9198119640350342,-2.4985599517822266,2.2963032722473145,1.3426984548568726,0.2828293740749359,0.9001273512840271
4.880926847457886,0.9187601804733276,-2.4930648803710938,2.2881128787994385,1.3424408435821533,0.2821944057941437,0.9010447263717651
4.901009798049927,0.9278038144111633,-2.4858558177948,2.24696946144104,1.3285622596740723,0.29460322856903076,0.9055995941162109
4.921078205108643,0.931710958480835,-2.486959457397461,2.2495265007019043,1.327746033668518,0.2967793345451355,0.903750479221344
4.94111967086792,0.9230669736862183,-2.4904940128326416,2.261077642440796,1.344069004058838,0.28807345032691956,0.9003006219863892
4.961200952529907,0.9024301171302795,-2.477799892425537,2.2406954765319824,1.3353960514068604,0.2789379358291626,0.9041063189506531
4.981366395950317,0.8888166546821594,-2.467928886413574,2.2072315216064453,1.323354721069336,0.2704997658729553,0.9089961051940918
5.00150465965271,0.9181740283966064,-2.48732852935791,2.2571544647216797,1.3399481773376465,0.27600038051605225,0.90025395154953
5.021520137786865,0.915773868560791,-2.4908535480499268,2.283576011657715,1.347354531288147,0.27277299761772156,0.8971570730209351
5.041745185852051,0.9300252199172974,-2.4900407791137695,2.2853901386260986,1.3463597297668457,0.29113513231277466,0.8960722088813782
5.0618462562561035,0.9312186241149902,-2.4839365482330322,2.271183490753174,1.3351627588272095,0.293790340423584,0.8989256620407104
5.0819010734558105,0.9390383362770081,-2.486034393310547,2.269775390625,1.3348723649978638,0.2936554551124573,0.8962170481681824
5.101959228515625,0.9333577752113342,-2.479816436767578,2.231523036956787,1.3205533027648926,0.2763075828552246,0.8989925980567932
5.1221067905426025,0.9125556945800781,-2.4758565425872803,2.20540189743042,1.3136980533599854,0.2562094032764435,0.9010135531425476
5.142209053039551,0.9221266508102417,-2.4788124561309814,2.2357959747314453,1.33351731300354,0.27636128664016724,0.8967381119728088
5.162294864654541,0.9164400100708008,-2.476869821548462,2.1970677375793457,1.3289196491241455,0.25929805636405945,0.8993580937385559
5.1823670864105225,0.9166744351387024,-2.4717392921447754,2.221933364868164,1.3286232948303223,0.2769888937473297,0.8991434574127197
5.202439785003662,0.9185870885848999,-2.4751317501068115,2.235313892364502,1.336526870727539,0.2668822407722473,0.8955602645874023
5.222513198852539,0.9235866665840149,-2.4789469242095947,2.246762752532959,1.3367866277694702,0.2683981657028198,0.8939148187637329
5.242568016052246,0.9353047013282776,-2.4806976318359375,2.2620229721069336,1.348902940750122,0.28306904435157776,0.8900508284568787
5.2626824378967285,0.9353029131889343,-2.471014976501465,2.2230892181396484,1.3282811641693115,0.27823370695114136,0.8951810002326965
5.28277325630188,0.9293828010559082,-2.4728457927703857,2.211400032043457,1.3292210102081299,0.26583635807037354,0.8945064544677734
5.302854299545288,0.9241894483566284,-2.4698915481567383,2.228809356689453,1.333461046218872,0.2772403061389923,0.8939570188522339
5.322912931442261,0.9345822334289551,-2.478147029876709,2.2492222785949707,1.3427128791809082,0.275136798620224,0.8886861801147461
5.343158006668091,0.9345272183418274,-2.480804443359375,2.2390494346618652,1.3368127346038818,0.265452116727829,0.8887062072753906
5.363117456436157,0.9360271096229553,-2.4763641357421875,2.2102041244506836,1.3244013786315918,0.2669590413570404,0.8922064304351807
5.38325047492981,0.934785783290863,-2.4691553115844727,2.2102081775665283,1.3269550800323486,0.2756449580192566,0.8915694952011108
5.403305768966675,0.9276028871536255,-2.4621927738189697,2.227079391479492,1.3322869539260864,0.28218942880630493,0.8908388614654541
5.423346996307373,0.9344487190246582,-2.4689571857452393,2.1918821334838867,1.32996666431427,0.2643817067146301,0.8899623155593872
5.44346809387207,0.9389069080352783,-2.4724175930023193,2.2451705932617188,1.3437652587890625,0.2798161506652832,0.8852505683898926
5.463545083999634,0.9222298264503479,-2.459304094314575,2.1814751625061035,1.3309650421142578,0.2626783549785614,0.8911362290382385
5.4836037158966064,0.938278079032898,-2.472365379333496,2.227097988128662,1.3440223932266235,0.27751728892326355,0.8852213621139526
5.503657341003418,0.9266082644462585,-2.466906785964966,2.1802189350128174,1.3312538862228394,0.2531285285949707,0.8889790773391724
5.523750066757202,0.922059953212738,-2.4689064025878906,2.210963487625122,1.3285865783691406,0.25224366784095764,0.8878613710403442
5.543838262557983,0.9196865558624268,-2.459477663040161,2.183037281036377,1.324146032333374,0.25523483753204346,0.8897843956947327
5.5639379024505615,0.9314507246017456,-2.464608669281006,2.202749490737915,1.3327234983444214,0.2669803202152252,0.886343240737915
5.583990573883057,0.9267688393592834,-2.462484359741211,2.16892147064209,1.3204830884933472,0.25239187479019165,0.8885813355445862
5.604158401489258,0.9358246326446533,-2.4729433059692383,2.219691038131714,1.3371851444244385,0.257607102394104,0.8814806938171387
5.624203205108643,0.9289106726646423,-2.4723880290985107,2.2256901264190674,1.3383396863937378,0.2535099387168884,0.8804305791854858
5.644271612167358,0.9383329153060913,-2.466974973678589,2.187039852142334,1.3283183574676514,0.26108914613723755,0.8837641477584839
5.6643335819244385,0.9392992258071899,-2.469428539276123,2.2192392349243164,1.337848424911499,0.26137006282806396,0.8797332048416138
5.684479713439941,0.9440140724182129,-2.465425968170166,2.215233325958252,1.3329538106918335,0.275034099817276,0.8809100389480591
5.704636573791504,0.9434922337532043,-2.4635777473449707,2.1753218173980713,1.32418692111969,0.25564703345298767,0.8825551271438599
5.724620342254639,0.9239363670349121,-2.450368642807007,2.1612184047698975,1.3154301643371582,0.2537628710269928,0.8868016004562378
5.744674444198608,0.9296232461929321,-2.456489086151123,2.1858038902282715,1.3288755416870117,0.25433608889579773,0.8816336989402771
5.764761447906494,0.9362442493438721,-2.458120107650757,2.176375389099121,1.333899974822998,0.25718554854393005,0.8805980086326599
5.784825086593628,0.9390901923179626,-2.461871862411499,2.205327033996582,1.3447827100753784,0.2631416618824005,0.8774528503417969
5.804890394210815,0.9388770461082458,-2.4530816078186035,2.1807994842529297,1.3253979682922363,0.259576678276062,0.8809449672698975
5.824946403503418,0.9199738502502441,-2.4457316398620605,2.185288429260254,1.3292672634124756,0.2586185336112976,0.8811519742012024
5.84514307975769,0.9340120553970337,-2.4503049850463867,2.15326189994812,1.3192862272262573,0.24808049201965332,0.881630539894104
5.865232229232788,0.9433490037918091,-2.460222005844116,2.1356186866760254,1.3150320053100586,0.23938333988189697,0.8802589774131775
5.885302543640137,0.9345059394836426,-2.454517364501953,2.17687726020813,1.327730417251587,0.2576903998851776,0.8776468634605408
5.905346632003784,0.941135823726654,-2.458512544631958,2.149923801422119,1.32560133934021,0.24008125066757202,0.8771651983261108
5.925662040710449,0.945144772529602,-2.4626760482788086,2.1647188663482666,1.3346775770187378,0.24811458587646484,0.8747328519821167
5.945768594741821,0.9467328786849976,-2.460183620452881,2.1730518341064453,1.328887939453125,0.2553751766681671,0.8758376240730286
5.965888023376465,0.9390186667442322,-2.453658103942871,2.1880178451538086,1.3314735889434814,0.2550675570964813,0.8738794326782227
5.985912561416626,0.9286532402038574,-2.4501819610595703,2.1941728591918945,1.3365052938461304,0.25399646162986755,0.8732830882072449
6.0061047077178955,0.916333794593811,-2.442403793334961,2.15523099899292,1.3306652307510376,0.23720881342887878,0.8760607242584229
6.026203870773315,0.9314725399017334,-2.4450747966766357,2.168022632598877,1.3399658203125,0.2562255859375,0.8740010261535645
6.04626989364624,0.9384933710098267,-2.45084547996521,2.1281626224517822,1.326993703842163,0.23625683784484863,0.8758508563041687
6.066347360610962,0.9395189881324768,-2.452427864074707,2.1870861053466797,1.3380519151687622,0.25460880994796753,0.8711932897567749
6.086533546447754,0.9490337371826172,-2.456116199493408,2.2051942348480225,1.3391883373260498,0.25763222575187683,0.8674246072769165
6.106703996658325,0.9539315700531006,-2.4515984058380127,2.208951950073242,1.3362281322479248,0.27447834610939026,0.8680441379547119
6.126734495162964,0.9559105634689331,-2.4500904083251953,2.143258810043335,1.3165228366851807,0.24969574809074402,0.870891273021698
6.146808385848999,0.9221744537353516,-2.448193073272705,2.169581890106201,1.330209493637085,0.23870053887367249,0.8684776425361633
6.166884899139404,0.904924213886261,-2.430054187774658,2.125464916229248,1.3240057229995728,0.23395025730133057,0.8743250370025635
6.18696928024292,0.9332348108291626,-2.444689989089966,2.1790127754211426,1.345885157585144,0.24787113070487976,0.8659889101982117
6.207050800323486,0.9355698823928833,-2.446554183959961,2.12275767326355,1.3220529556274414,0.22636806964874268,0.8710029125213623
6.2271575927734375,0.9425549507141113,-2.4496917724609375,2.1386332511901855,1.334089756011963,0.23762398958206177,0.8683506846427917
6.247191905975342,0.9461493492126465,-2.4443631172180176,2.1627302169799805,1.3262253999710083,0.2526005506515503,0.8679214715957642
6.2672858238220215,0.9532488584518433,-2.444577217102051,2.136989116668701,1.325715184211731,0.24719315767288208,0.8677496910095215
6.2873616218566895,0.949337363243103,-2.447227716445923,2.184006690979004,1.3430883884429932,0.2559911012649536,0.8628047704696655
6.307424068450928,0.9329419136047363,-2.4372544288635254,2.135673999786377,1.317129373550415,0.2329593002796173,0.8688983917236328
6.3274712562561035,0.9261311292648315,-2.4367146492004395,2.099867105484009,1.3199148178100586,0.21378864347934723,0.8697840571403503
6.347555160522461,0.9426165819168091,-2.4453611373901367,2.147383689880371,1.3433620929718018,0.24066892266273499,0.8637559413909912
6.367625951766968,0.9312345385551453,-2.4402685165405273,2.15545392036438,1.3388500213623047,0.24209660291671753,0.8644922375679016
6.387807130813599,0.9461444020271301,-2.439404010772705,2.1340293884277344,1.3266820907592773,0.2416413426399231,0.8658914566040039
6.4077653884887695,0.946222186088562,-2.4425487518310547,2.103736639022827,1.3126392364501953,0.2267131209373474,0.8670950531959534
6.427865743637085,0.954246461391449,-2.4490694999694824,2.188708782196045,1.3467624187469482,0.25520193576812744,0.8572959899902344
6.448001146316528,0.9407318830490112,-2.4301304817199707,2.1310043334960938,1.3134031295776367,0.24516385793685913,0.8654437065124512
6.46805739402771,0.9399095177650452,-2.439547061920166,2.1026711463928223,1.328333854675293,0.22047016024589539,0.8625611066818237
6.488125324249268,0.9457347393035889,-2.4401636123657227,2.1279067993164062,1.3345755338668823,0.23646339774131775,0.8610713481903076
6.508211374282837,0.954122006893158,-2.446486711502075,2.1689934730529785,1.3461447954177856,0.24963164329528809,0.8563089370727539
6.52831768989563,0.9442548751831055,-2.4375712871551514,2.133028745651245,1.3235713243484497,0.23596158623695374,0.8618093132972717
6.5483667850494385,0.9338513016700745,-2.432393789291382,2.105247735977173,1.3300695419311523,0.2279062569141388,0.8629364967346191
6.568437099456787,0.9513801336288452,-2.4389727115631104,2.1155123710632324,1.3359370231628418,0.23442909121513367,0.8595333695411682
6.5884850025177,0.9508447051048279,-2.436448812484741,2.1066489219665527,1.3229351043701172,0.23234280943870544,0.8615233898162842
6.608577013015747,0.9548850059509277,-2.4416346549987793,2.199371814727783,1.3544745445251465,0.2571341097354889,0.8514341711997986
6.6286633014678955,0.9408245086669922,-2.426734209060669,2.1478915214538574,1.3358538150787354,0.24763956665992737,0.8569905757904053
6.648719072341919,0.9605355262756348,-2.4353537559509277,2.1142256259918213,1.322479486465454,0.23404298722743988,0.8574210405349731
6.66880202293396,0.9553227424621582,-2.4330008029937744,2.1105244159698486,1.3239120244979858,0.23610201478004456,0.8571242094039917
6.688891410827637,0.954791784286499,-2.4368886947631836,2.1744282245635986,1.3464725017547607,0.24867790937423706,0.8495793342590332
6.7089550495147705,0.9382422566413879,-2.4182889461517334,2.114248275756836,1.3236899375915527,0.23686781525611877,0.8573153614997864
6.729020833969116,0.9240962266921997,-2.41721248626709,2.08768367767334,1.324223279953003,0.22005236148834229,0.8585301637649536
6.749076843261719,0.9471339583396912,-2.425358295440674,2.1299920082092285,1.34183669090271,0.24363663792610168,0.8525501489639282
6.769171953201294,0.9577801823616028,-2.4297518730163574,2.0837337970733643,1.3297537565231323,0.22975951433181763,0.8550734519958496
6.78924298286438,0.952089786529541,-2.4332191944122314,2.136101245880127,1.3367841243743896,0.23453053832054138,0.8515292406082153
6.809290885925293,0.958228588104248,-2.4331352710723877,2.075817108154297,1.3279578685760498,0.2194441854953766,0.8541834354400635
6.829379081726074,0.9586055874824524,-2.4348156452178955,2.0924079418182373,1.3296587467193604,0.22435565292835236,0.8528664112091064
6.849443435668945,0.9575679302215576,-2.4296109676361084,2.0974862575531006,1.3298883438110352,0.23369553685188293,0.8532071113586426
6.869517803192139,0.9400454163551331,-2.4237308502197266,2.085488796234131,1.3230550289154053,0.2196839153766632,0.854712188243866
6.889759302139282,0.9565216898918152,-2.422628879547119,2.0973174571990967,1.3264012336730957,0.23820525407791138,0.8532480597496033
6.909841299057007,0.957640528678894,-2.43021821975708,2.1448616981506348,1.3426166772842407,0.23164480924606323,0.8460947275161743
6.930001974105835,0.9430237412452698,-2.4214420318603516,2.0815794467926025,1.3194555044174194,0.21101278066635132,0.8527824878692627
6.9500274658203125,0.9369221925735474,-2.4129397869110107,2.1072702407836914,1.3238096237182617,0.2344091832637787,0.8521566390991211
6.970157623291016,0.9627162218093872,-2.4278066158294678,2.1423494815826416,1.3426809310913086,0.2390085756778717,0.8425621390342712
6.990349769592285,0.9632089734077454,-2.4238762855529785,2.1480512619018555,1.3398566246032715,0.25395384430885315,0.8433861136436462
7.010396718978882,0.9468072652816772,-2.420029640197754,2.0909130573272705,1.3327677249908447,0.2246302217245102,0.8466492891311646
7.0304858684539795,0.9579189419746399,-2.419600486755371,2.091193675994873,1.3316993713378906,0.2306058406829834,0.8470203876495361
7.050573348999023,0.9548424482345581,-2.4247663021087646,2.1117687225341797,1.3380110263824463,0.22070908546447754,0.8433619737625122
7.070701837539673,0.9671412706375122,-2.4193105697631836,2.104132652282715,1.332388162612915,0.23963460326194763,0.8447490334510803
7.090744972229004,0.9613791704177856,-2.4198079109191895,2.0766243934631348,1.3285634517669678,0.2230021357536316,0.845979630947113
7.111119747161865,0.9613147974014282,-2.417954444885254,2.114954948425293,1.3363322019577026,0.2434173822402954,0.8435753583908081
7.131213903427124,0.9429823160171509,-2.40773344039917,2.0827560424804688,1.3265728950500488,0.22942057251930237,0.8470059633255005
7.151284456253052,0.9468942880630493,-2.4077603816986084,2.112940788269043,1.3315905332565308,0.23802325129508972,0.8437594771385193
7.171355485916138,0.9694815874099731,-2.419778347015381,2.136406421661377,1.3403809070587158,0.24281588196754456,0.8372227549552917
7.191455841064453,0.9678246974945068,-2.4169960021972656,2.111630439758301,1.3301013708114624,0.23482254147529602,0.8397955298423767
7.211534023284912,0.965914785861969,-2.4132204055786133,2.094794511795044,1.3290289640426636,0.23115602135658264,0.8410196304321289
7.231768369674683,0.968341588973999,-2.412848711013794,2.119021415710449,1.3311736583709717,0.23886799812316895,0.8380297422409058
7.251741170883179,0.9541448354721069,-2.4070045948028564,2.079601287841797,1.332990288734436,0.22203248739242554,0.8395508527755737
7.271865606307983,0.9447802305221558,-2.3995521068573,2.1050329208374023,1.3408756256103516,0.23987916111946106,0.8394656181335449
7.291968822479248,0.9466372728347778,-2.4005839824676514,2.03579044342041,1.3293941020965576,0.2080521136522293,0.8424874544143677
7.312036991119385,0.9559317827224731,-2.414825439453125,2.0477418899536133,1.3335387706756592,0.20570051670074463,0.8405408263206482
7.332091569900513,0.9547635316848755,-2.408334255218506,2.0573108196258545,1.328977108001709,0.217328280210495,0.8421962857246399
7.352169990539551,0.9637796878814697,-2.4155139923095703,2.1094679832458496,1.3430854082107544,0.222674161195755,0.8346779346466064
7.3722875118255615,0.959421694278717,-2.406252145767212,2.0605106353759766,1.320850133895874,0.2134694755077362,0.8396925330162048
7.392374753952026,0.9726611375808716,-2.4041199684143066,2.079620122909546,1.3258130550384521,0.23678544163703918,0.8377361297607422
7.412428379058838,0.950458288192749,-2.3999481201171875,2.043278694152832,1.319076418876648,0.2097892165184021,0.8393077254295349
7.432520389556885,0.9648849964141846,-2.4084887504577637,2.0609164237976074,1.3251463174819946,0.21561658382415771,0.8353781700134277
7.452600717544556,0.9562307596206665,-2.4139771461486816,2.0852913856506348,1.3395639657974243,0.210752472281456,0.8308619856834412
7.472665786743164,0.9393378496170044,-2.4013078212738037,2.0394842624664307,1.329014778137207,0.20004674792289734,0.8372480869293213
7.4927074909210205,0.9595464468002319,-2.407893419265747,2.08385968208313,1.3350821733474731,0.2163558006286621,0.8327495455741882
7.512829303741455,0.9662416577339172,-2.4048359394073486,2.0691356658935547,1.3335341215133667,0.22865505516529083,0.8332016468048096
7.532907962799072,0.9539310336112976,-2.399057149887085,2.104508638381958,1.3367769718170166,0.23189446330070496,0.8313112258911133
7.552964925765991,0.9609441161155701,-2.399954080581665,2.087526559829712,1.3367575407028198,0.21917980909347534,0.8288596272468567
7.573020935058594,0.9748164415359497,-2.4002981185913086,2.0819311141967773,1.3387919664382935,0.23688140511512756,0.8291612863540649
7.593138694763184,0.9580069184303284,-2.402085781097412,2.0169525146484375,1.3250041007995605,0.19508594274520874,0.8324885368347168
7.6132307052612305,0.9570934772491455,-2.401886463165283,2.069155693054199,1.3358373641967773,0.21827355027198792,0.8287678956985474
7.633277893066406,0.9628100395202637,-2.4071412086486816,2.0182437896728516,1.322324275970459,0.19014102220535278,0.8296701908111572
7.653344392776489,0.9682761430740356,-2.412045478820801,2.0844550132751465,1.338585615158081,0.2144208550453186,0.8240695595741272
7.673414945602417,0.961761474609375,-2.3991341590881348,2.0459225177764893,1.3315871953964233,0.21272605657577515,0.8278155326843262
7.693486928939819,0.9616257548332214,-2.3905014991760254,2.0432889461517334,1.3270585536956787,0.22347626090049744,0.8300608992576599
7.71354079246521,0.973102331161499,-2.3969907760620117,2.0717763900756836,1.3359664678573608,0.22939085960388184,0.8252685070037842
7.733659029006958,0.9681316614151001,-2.3982229232788086,2.0399317741394043,1.3323785066604614,0.20830413699150085,0.8260881900787354
7.75368595123291,0.9583687782287598,-2.395174980163574,2.025176763534546,1.3264026641845703,0.20611895620822906,0.82879239320755
7.773759603500366,0.9578694105148315,-2.3905601501464844,2.0412745475769043,1.3352110385894775,0.21822261810302734,0.8273515701293945
7.793811559677124,0.9628273844718933,-2.394260883331299,2.0689096450805664,1.3388324975967407,0.2198994755744934,0.8236738443374634
7.813907146453857,0.957219123840332,-2.388425827026367,2.0272560119628906,1.325265645980835,0.21082806587219238,0.8277910351753235
7.833974123001099,0.962834358215332,-2.3903701305389404,2.046924114227295,1.3334747552871704,0.219087153673172,0.8250465393066406
7.854044675827026,0.9734405279159546,-2.394679546356201,2.047311305999756,1.3273940086364746,0.2200741320848465,0.8235390186309814
7.874085426330566,0.9799102544784546,-2.4020590782165527,2.045487880706787,1.332162857055664,0.21287161111831665,0.8202000856399536
7.894170522689819,0.9803286194801331,-2.401440382003784,2.0731894969940186,1.335803508758545,0.22052940726280212,0.8174514770507812
7.914239406585693,0.9646165370941162,-2.395392417907715,2.074791669845581,1.337393045425415,0.21084663271903992,0.8170056939125061
7.934334754943848,0.9758037328720093,-2.3891797065734863,2.038034677505493,1.3318753242492676,0.2132837474346161,0.8194166421890259
7.954379320144653,0.9770591855049133,-2.3919191360473633,2.0430424213409424,1.3363640308380127,0.21710941195487976,0.8183541297912598
7.974472761154175,0.9700239300727844,-2.3941445350646973,2.0536882877349854,1.3355929851531982,0.20419767498970032,0.8168070316314697
7.994535684585571,0.972017765045166,-2.3943018913269043,2.069044828414917,1.3519530296325684,0.21316814422607422,0.8141604065895081
8.014604806900024,0.9595379829406738,-2.3828907012939453,2.0447025299072266,1.3399767875671387,0.21238702535629272,0.817931056022644
8.034719228744507,0.972664475440979,-2.388963222503662,2.0261900424957275,1.3362661600112915,0.2089157998561859,0.8177808523178101
8.05482792854309,0.9607425928115845,-2.386033535003662,2.0558817386627197,1.3380708694458008,0.20991188287734985,0.8161321878433228
8.074916362762451,0.96406090259552,-2.380763053894043,2.059959650039673,1.3397108316421509,0.21821564435958862,0.8156799077987671
8.094941854476929,0.9839392900466919,-2.388890504837036,2.0987987518310547,1.354590892791748,0.23100003600120544,0.8089066743850708
8.115059852600098,0.9798029661178589,-2.380992889404297,2.0282227993011475,1.325508713722229,0.21591028571128845,0.8173547387123108
8.135137796401978,0.9866764545440674,-2.38523530960083,2.0730276107788086,1.344850778579712,0.23032864928245544,0.8105697631835938
8.155220746994019,0.9706125259399414,-2.379817247390747,1.9858603477478027,1.320845603942871,0.1889907419681549,0.8176319599151611
8.175276279449463,0.9564880132675171,-2.3786697387695312,2.0219357013702393,1.337062120437622,0.2007955014705658,0.8141396045684814
8.195369243621826,0.9548658728599548,-2.37599515914917,2.0063345432281494,1.3326746225357056,0.1971285045146942,0.8156777620315552
8.215430736541748,0.9512557983398438,-2.372741937637329,2.02062726020813,1.3374985456466675,0.19905498623847961,0.8143311738967896
8.235515832901001,0.9759080410003662,-2.382312774658203,2.048889398574829,1.3447905778884888,0.21253803372383118,0.810102105140686
8.2555513381958,0.9701473116874695,-2.380554437637329,2.0149524211883545,1.337942361831665,0.19171512126922607,0.8114182949066162
8.27563738822937,0.9795026779174805,-2.3798413276672363,2.0230212211608887,1.341995358467102,0.21383711695671082,0.8113040328025818
8.29571008682251,0.9770386219024658,-2.3810415267944336,2.044222831726074,1.3457577228546143,0.21276679635047913,0.8081459999084473
8.315855503082275,0.9469592571258545,-2.3689043521881104,2.0349559783935547,1.3396254777908325,0.20351766049861908,0.8102549314498901
8.335865259170532,0.9620747566223145,-2.3724241256713867,2.020998001098633,1.3429574966430664,0.19508111476898193,0.8086452484130859
8.355966806411743,0.9706531763076782,-2.375157356262207,2.0008842945098877,1.336259126663208,0.19735339283943176,0.8104400634765625
8.376024723052979,0.9641134142875671,-2.371212959289551,2.0088930130004883,1.3313591480255127,0.19419363141059875,0.8109859228134155
8.396101713180542,0.9890393614768982,-2.3773117065429688,2.0521440505981445,1.3447906970977783,0.2237611711025238,0.8046947121620178
8.41614842414856,0.9879840016365051,-2.37365984916687,2.043940544128418,1.3368890285491943,0.21625041961669922,0.8035662174224854
8.436232328414917,0.9850126504898071,-2.3692269325256348,2.014230251312256,1.3268227577209473,0.21454119682312012,0.8063153028488159
8.456323385238647,0.9677520990371704,-2.366288661956787,2.0141971111297607,1.343781590461731,0.21146002411842346,0.8048371076583862
8.476417064666748,0.9800399541854858,-2.3720498085021973,1.9840288162231445,1.334924340248108,0.19589263200759888,0.8052443265914917
8.496512413024902,0.9510565996170044,-2.3681139945983887,1.9533286094665527,1.3263695240020752,0.17063286900520325,0.8094550967216492
8.516574382781982,0.9564324617385864,-2.370208263397217,1.9985175132751465,1.3471463918685913,0.19019421935081482,0.8047653436660767
8.536770343780518,0.9710279703140259,-2.373751640319824,1.9851232767105103,1.3423068523406982,0.1855231523513794,0.8045598864555359
8.556769371032715,0.9803304076194763,-2.3688931465148926,2.0411601066589355,1.3451656103134155,0.22100871801376343,0.8019978404045105
8.576815843582153,0.9773198962211609,-2.3645238876342773,2.022331953048706,1.3365107774734497,0.20992805063724518,0.8024082183837891
8.59695553779602,0.9686903357505798,-2.3650498390197754,2.006122350692749,1.3407679796218872,0.19494077563285828,0.801601231098175
8.617027521133423,0.9877649545669556,-2.3690624237060547,2.0224056243896484,1.3392822742462158,0.21254852414131165,0.7999696731567383
8.63709545135498,0.9784972667694092,-2.369764566421509,2.040778398513794,1.34485924243927,0.2011679708957672,0.7963460683822632
8.65718412399292,0.9579944610595703,-2.3577382564544678,1.9715118408203125,1.3304286003112793,0.18259578943252563,0.8032917380332947
8.677314043045044,0.9657802581787109,-2.3573803901672363,1.9823400974273682,1.3305237293243408,0.19016267359256744,0.8026133179664612
8.697404861450195,0.9767482280731201,-2.362438678741455,1.9978437423706055,1.3405632972717285,0.19832515716552734,0.7990257740020752
8.717496395111084,0.9615436792373657,-2.352847099304199,1.9758493900299072,1.333024024963379,0.1923384666442871,0.8018394708633423
8.737557649612427,0.9826052784919739,-2.3602004051208496,1.976200819015503,1.3338172435760498,0.20056524872779846,0.7999504804611206
8.757612705230713,0.96120285987854,-2.356318473815918,1.9601199626922607,1.3317521810531616,0.17917776107788086,0.8011342287063599
8.777690649032593,0.9523944854736328,-2.3542065620422363,1.9609696865081787,1.3324687480926514,0.17990072071552277,0.8007148504257202
8.797741889953613,0.940021812915802,-2.357494354248047,1.9145861864089966,1.3207666873931885,0.14593663811683655,0.8026267290115356
8.817819356918335,0.9668140411376953,-2.359891653060913,2.0124430656433105,1.3446576595306396,0.195911705493927,0.7948739528656006
8.838240146636963,0.9795103669166565,-2.3648087978363037,2.001720905303955,1.341094732284546,0.19294913113117218,0.7933762073516846
8.858350992202759,0.9825983047485352,-2.364133596420288,2.008406162261963,1.3417247533798218,0.19895660877227783,0.7927635312080383
8.878515005111694,0.9958189129829407,-2.366849422454834,2.0014376640319824,1.3361647129058838,0.2018934190273285,0.790303111076355
8.898661136627197,0.994123101234436,-2.357118606567383,2.019178628921509,1.342727780342102,0.2215900421142578,0.7902499437332153
8.918860912322998,0.9835487604141235,-2.3554418087005615,1.9703847169876099,1.3239048719406128,0.18435364961624146,0.7936466932296753
8.939023971557617,0.9656586647033691,-2.3479204177856445,1.9662554264068604,1.3261231184005737,0.18588784337043762,0.7947810888290405
8.959088802337646,0.9812633991241455,-2.3539884090423584,1.9813501834869385,1.3415155410766602,0.19032637774944305,0.7904003262519836
8.979122400283813,0.9826844930648804,-2.3556158542633057,1.9420033693313599,1.3334295749664307,0.17638397216796875,0.7922120690345764
8.99928092956543,0.9818882942199707,-2.35799503326416,1.9451218843460083,1.336310863494873,0.18067842721939087,0.7921038866043091
9.019371271133423,0.9836227893829346,-2.356884717941284,1.993492841720581,1.349808931350708,0.19912278652191162,0.7878389954566956
9.039462566375732,0.9789556264877319,-2.3501038551330566,1.9991050958633423,1.3467986583709717,0.20326349139213562,0.7874170541763306
9.059536695480347,0.9737985134124756,-2.3506290912628174,1.9398025274276733,1.331377387046814,0.17845062911510468,0.7908309102058411
9.080334663391113,0.9765633344650269,-2.346909523010254,1.9488719701766968,1.3241803646087646,0.18556654453277588,0.7909315824508667
9.100461483001709,0.987708568572998,-2.3569843769073486,1.9493293762207031,1.3328683376312256,0.17203101515769958,0.786704421043396
9.120517253875732,0.9722762703895569,-2.3508124351501465,1.9671292304992676,1.3415539264678955,0.17916670441627502,0.786206066608429
9.14058780670166,0.9804438352584839,-2.3505496978759766,1.9590160846710205,1.3413455486297607,0.18737077713012695,0.7863079309463501
9.161110639572144,0.9539484977722168,-2.340386152267456,1.9175684452056885,1.3225882053375244,0.16680669784545898,0.7920193076133728
9.181198120117188,0.9531586170196533,-2.3436248302459717,1.957709789276123,1.3334832191467285,0.17014062404632568,0.7864221334457397
9.201276302337646,0.9648147821426392,-2.3507890701293945,1.9164190292358398,1.327123761177063,0.15040931105613708,0.7869887351989746
9.221321821212769,0.9809218645095825,-2.346463680267334,1.9576730728149414,1.3356882333755493,0.1944219172000885,0.7863188982009888
9.241410732269287,0.9816209077835083,-2.3495354652404785,1.9480372667312622,1.3366419076919556,0.17468123137950897,0.7844021320343018
9.261499881744385,0.9752277731895447,-2.340575695037842,1.9611356258392334,1.3355779647827148,0.19378748536109924,0.7851730585098267
9.281607389450073,0.9727516174316406,-2.334578275680542,1.9941396713256836,1.3395897150039673,0.2081815004348755,0.7826701998710632
9.301700592041016,0.9589008092880249,-2.328683853149414,1.9226099252700806,1.3168084621429443,0.17069324851036072,0.7858673930168152
9.321862936019897,0.9812822341918945,-2.3428430557250977,1.918501853942871,1.3252363204956055,0.16695323586463928,0.7826945185661316
9.341947555541992,0.980036735534668,-2.3481645584106445,1.9088634252548218,1.3331530094146729,0.16226905584335327,0.7813788652420044
9.362053394317627,0.9738389253616333,-2.3474490642547607,1.924046277999878,1.3371695280075073,0.16697731614112854,0.7816627621650696
9.382068157196045,0.9832901358604431,-2.347999334335327,1.9632021188735962,1.346693754196167,0.18176263570785522,0.7781245708465576
9.40211296081543,0.9942063689231873,-2.347120761871338,1.971107840538025,1.343839168548584,0.1942290961742401,0.7765892744064331
9.422199726104736,0.9955620765686035,-2.344163417816162,1.992415189743042,1.3462252616882324,0.20352651178836823,0.7751535773277283
9.442264080047607,0.9832811951637268,-2.3353123664855957,1.9998836517333984,1.349055290222168,0.20518064498901367,0.7740013003349304
9.462332487106323,0.9841087460517883,-2.3343536853790283,1.9352920055389404,1.3380028009414673,0.18066102266311646,0.7777099609375
9.482400178909302,0.9764193892478943,-2.338418960571289,1.9332478046417236,1.33567476272583,0.1707865595817566,0.7769246101379395
9.502487897872925,0.9429287910461426,-2.3289597034454346,1.9118328094482422,1.3268370628356934,0.15390603244304657,0.7809221148490906
9.522600889205933,0.9655757546424866,-2.335394859313965,1.9088834524154663,1.3259422779083252,0.15132509171962738,0.7787861824035645
9.542664289474487,0.9797124266624451,-2.3331961631774902,1.926454782485962,1.3359276056289673,0.18318375945091248,0.7773295640945435
9.562700510025024,0.9714629650115967,-2.330376625061035,1.9642603397369385,1.3520270586013794,0.19052404165267944,0.7726984620094299
9.582947969436646,0.9760707020759583,-2.3314695358276367,1.95255446434021,1.3361666202545166,0.17932012677192688,0.7738400101661682
9.603038311004639,0.9807344675064087,-2.340338706970215,1.9927250146865845,1.3546050786972046,0.18133845925331116,0.766273021697998
9.623125791549683,0.9660124778747559,-2.3277931213378906,1.9501372575759888,1.3421335220336914,0.16793984174728394,0.7711628079414368
9.643191814422607,0.9731639623641968,-2.3295962810516357,1.919175624847412,1.3355646133422852,0.1606280654668808,0.7725545167922974
9.66329550743103,0.9511798024177551,-2.322324752807617,1.9078946113586426,1.334722638130188,0.1612292379140854,0.7752066850662231
9.683402299880981,0.9730787873268127,-2.3285064697265625,1.9086594581604004,1.3364030122756958,0.15707853436470032,0.7721747159957886
9.70343565940857,0.9836560487747192,-2.3350653648376465,1.8927950859069824,1.3388904333114624,0.1621817648410797,0.7719259858131409
9.723516464233398,0.979530394077301,-2.3327269554138184,1.8821876049041748,1.3308004140853882,0.1583678126335144,0.7740131616592407
9.74358057975769,0.9569647908210754,-2.3264174461364746,1.8733179569244385,1.3206796646118164,0.14515917003154755,0.7752751708030701
9.763636350631714,0.945787787437439,-2.322669267654419,1.8890783786773682,1.3182554244995117,0.14761820435523987,0.7753152251243591
9.783692359924316,0.9623048305511475,-2.330702781677246,1.8873807191848755,1.3281928300857544,0.13712012767791748,0.7697685956954956
9.8037748336792,0.9856347441673279,-2.3372251987457275,1.969114065170288,1.3603917360305786,0.18689510226249695,0.7620069980621338
9.823875188827515,0.9821444749832153,-2.320824146270752,1.957486629486084,1.346355676651001,0.18567907810211182,0.7654191255569458
9.843950748443604,0.9815343618392944,-2.317368984222412,1.9252595901489258,1.33744215965271,0.1843370795249939,0.767221212387085
9.86405348777771,0.9684847593307495,-2.3148865699768066,1.903998613357544,1.3320627212524414,0.16662916541099548,0.7678050398826599
9.884299516677856,0.9873336553573608,-2.320307731628418,1.9122344255447388,1.3381245136260986,0.17585700750350952,0.7647261619567871
9.904412984848022,0.9811182618141174,-2.3295047283172607,1.8843022584915161,1.3382307291030884,0.15042546391487122,0.7635804414749146
9.924509048461914,0.9751447439193726,-2.3310365676879883,1.8607335090637207,1.3317995071411133,0.13910628855228424,0.7655067443847656
9.944554567337036,0.9521758556365967,-2.3195176124572754,1.8508490324020386,1.3235087394714355,0.14184783399105072,0.7687422037124634
9.964653730392456,0.9619990587234497,-2.324808120727539,1.9062118530273438,1.3360309600830078,0.15079839527606964,0.7625502347946167
9.984751462936401,0.9739907383918762,-2.3240060806274414,1.9047584533691406,1.3394670486450195,0.15565702319145203,0.7611883878707886
10.004823684692383,0.9799052476882935,-2.3229589462280273,1.881657600402832,1.3325918912887573,0.1538022756576538,0.7628989219665527
10.024881601333618,0.9839601516723633,-2.3259308338165283,1.865375280380249,1.3346904516220093,0.15473976731300354,0.7633647918701172
10.044961929321289,0.9839971661567688,-2.3284735679626465,1.8688040971755981,1.3348149061203003,0.14900638163089752,0.762331485748291
10.065139532089233,0.9735571146011353,-2.3260436058044434,1.8867441415786743,1.3360556364059448,0.15019385516643524,0.7609411478042603
10.085179567337036,0.948777973651886,-2.313854694366455,1.8855013847351074,1.3303667306900024,0.1501988172531128,0.7635610103607178
10.105227708816528,0.9497723579406738,-2.3061211109161377,1.9275544881820679,1.3446002006530762,0.16587868332862854,0.7598247528076172
10.12531065940857,0.974694013595581,-2.3076531887054443,1.9560871124267578,1.3558850288391113,0.19431482255458832,0.756700336933136
10.145385503768921,0.9932608008384705,-2.312441110610962,1.9320495128631592,1.345565915107727,0.18196961283683777,0.7558298707008362
10.165518045425415,0.9797801971435547,-2.3076772689819336,1.9033284187316895,1.3428350687026978,0.16849049925804138,0.7581275701522827
10.185566186904907,0.9862664937973022,-2.306683301925659,1.8904869556427002,1.334578514099121,0.17056286334991455,0.7587035894393921
10.205743789672852,0.982793390750885,-2.3091390132904053,1.8634954690933228,1.323945164680481,0.14871659874916077,0.7591289281845093
10.225852489471436,0.9729180335998535,-2.3068127632141113,1.8429654836654663,1.3262355327606201,0.14865556359291077,0.7599843740463257
10.245924234390259,0.9581156969070435,-2.309912919998169,1.8249468803405762,1.3382718563079834,0.13311880826950073,0.7593070864677429
10.266029596328735,0.9736744165420532,-2.3208253383636475,1.8294464349746704,1.3361159563064575,0.13418570160865784,0.7589741349220276
10.286380052566528,0.9755972623825073,-2.321265935897827,1.9097617864608765,1.3458079099655151,0.15092158317565918,0.7524160146713257
10.306537389755249,0.9662706851959229,-2.312127113342285,1.869321346282959,1.3339643478393555,0.1485975682735443,0.7575132250785828
10.326586484909058,0.9773457050323486,-2.3067522048950195,1.8925262689590454,1.3335955142974854,0.16911795735359192,0.756242573261261
10.346611976623535,0.9857313632965088,-2.309767007827759,1.8636207580566406,1.3312231302261353,0.15569943189620972,0.7543779611587524
10.36683988571167,0.9908628463745117,-2.3147799968719482,1.9078545570373535,1.3393532037734985,0.16359826922416687,0.748394787311554
10.386924743652344,0.9723138213157654,-2.309990406036377,1.89845871925354,1.3291540145874023,0.14893893897533417,0.7499170303344727
10.407111167907715,0.9654886722564697,-2.3023383617401123,1.889279842376709,1.3414480686187744,0.15613161027431488,0.7501082420349121
10.427218675613403,0.9706305265426636,-2.3056704998016357,1.8620977401733398,1.3333828449249268,0.13929443061351776,0.7509192824363708
10.447226524353027,0.9747821688652039,-2.3030858039855957,1.8592734336853027,1.3418354988098145,0.15581800043582916,0.7509207129478455
10.467337369918823,0.9753745794296265,-2.3008925914764404,1.8927922248840332,1.3477680683135986,0.16487666964530945,0.748343825340271
10.487401008605957,0.984841525554657,-2.3078553676605225,1.8697772026062012,1.3332507610321045,0.14654093980789185,0.7474610805511475
10.507470846176147,0.9787783026695251,-2.3075432777404785,1.8846352100372314,1.3423516750335693,0.14724735915660858,0.7446563243865967
10.527534008026123,0.9846630096435547,-2.3016276359558105,1.8885140419006348,1.3403289318084717,0.171870619058609,0.7467018365859985
10.547603845596313,0.9671237468719482,-2.297913074493408,1.8797099590301514,1.3450186252593994,0.14831450581550598,0.7454207539558411
10.567665815353394,0.9663557410240173,-2.298306941986084,1.820170283317566,1.324386715888977,0.12689337134361267,0.7502903938293457
10.587739944458008,0.9750018119812012,-2.2999229431152344,1.827433705329895,1.32965087890625,0.14201350510120392,0.7493085265159607
10.607864141464233,0.9852454662322998,-2.3057479858398438,1.8492803573608398,1.335176706314087,0.14338940382003784,0.7447932958602905
10.62800669670105,0.9832344055175781,-2.3099350929260254,1.8427670001983643,1.335939884185791,0.1371966153383255,0.74375319480896
10.6480073928833,0.9659514427185059,-2.2938387393951416,1.8512077331542969,1.336025595664978,0.15257135033607483,0.7465690970420837
10.66824984550476,0.9647848606109619,-2.290478229522705,1.8855767250061035,1.3428255319595337,0.1589806079864502,0.7430026531219482
10.688338279724121,0.9762567281723022,-2.2926673889160156,1.8861749172210693,1.3489145040512085,0.16196289658546448,0.740511417388916
10.708400964736938,0.9555292725563049,-2.279130220413208,1.8767012357711792,1.3468129634857178,0.1668139100074768,0.7437483072280884
10.728469371795654,0.9880132675170898,-2.290839195251465,1.8562849760055542,1.3434922695159912,0.15880247950553894,0.7415697574615479
10.748518705368042,0.9837750196456909,-2.293213367462158,1.8147121667861938,1.3328355550765991,0.13285477459430695,0.743344783782959
10.768600940704346,0.9811621904373169,-2.296686887741089,1.8372609615325928,1.337690830230713,0.13675861060619354,0.7411236763000488
10.788671731948853,0.9754705429077148,-2.294241428375244,1.8420699834823608,1.3347477912902832,0.13872718811035156,0.7402762770652771
10.808742046356201,0.9920473098754883,-2.299560546875,1.853776216506958,1.3372535705566406,0.1493178755044937,0.7365619540214539
10.828795194625854,0.9819357395172119,-2.297057867050171,1.8594446182250977,1.3428544998168945,0.14445802569389343,0.7350813150405884
10.848881721496582,0.9709528684616089,-2.29181170463562,1.831610083580017,1.3352272510528564,0.13452887535095215,0.7387536764144897
10.868958711624146,0.961870551109314,-2.2858994007110596,1.8285791873931885,1.336307406425476,0.13546794652938843,0.7394059896469116
10.889038324356079,0.9581640958786011,-2.282599687576294,1.8357436656951904,1.340113639831543,0.1316578984260559,0.7381423115730286
10.909087896347046,0.9743950366973877,-2.287945032119751,1.812330722808838,1.3401520252227783,0.1350565254688263,0.7390009760856628
10.929316282272339,0.9691457748413086,-2.290846824645996,1.778743028640747,1.3263862133026123,0.12124292552471161,0.7414836287498474
10.949416637420654,0.9746428728103638,-2.296363353729248,1.7917511463165283,1.3362958431243896,0.11821137368679047,0.7381699085235596
10.969503402709961,0.984803318977356,-2.294016122817993,1.8827623128890991,1.3481123447418213,0.16070738434791565,0.732825756072998
10.989568710327148,0.9905449151992798,-2.2935924530029297,1.9056529998779297,1.3505005836486816,0.162375345826149,0.7283737063407898
11.009707927703857,0.9860824346542358,-2.28271746635437,1.8788870573043823,1.3480901718139648,0.1619461178779602,0.7304545640945435
11.029791116714478,0.9660539031028748,-2.270653247833252,1.855055332183838,1.3366832733154297,0.16100013256072998,0.734911322593689
11.049892902374268,0.9754645228385925,-2.2718253135681152,1.8550996780395508,1.3523396253585815,0.16298869252204895,0.7317692041397095
11.06993055343628,0.9716087579727173,-2.28086519241333,1.8426294326782227,1.352717399597168,0.13613814115524292,0.7295710444450378
11.089978456497192,0.9634988307952881,-2.2774553298950195,1.822198748588562,1.3452461957931519,0.13137318193912506,0.7322750687599182
11.110055446624756,0.9364011287689209,-2.2722573280334473,1.7621294260025024,1.3206782341003418,0.09960761666297913,0.7388715744018555
11.130132913589478,0.9603431224822998,-2.2771077156066895,1.8237411975860596,1.3473632335662842,0.13251636922359467,0.7313441038131714
11.150213241577148,0.97517991065979,-2.2798264026641846,1.8461390733718872,1.350621223449707,0.14709724485874176,0.7291958928108215
11.170348882675171,0.9693651795387268,-2.2761104106903076,1.838480830192566,1.3545451164245605,0.13963575661182404,0.7290329933166504
11.190459251403809,0.9854958057403564,-2.274834632873535,1.8333356380462646,1.3453776836395264,0.15337584912776947,0.7310328483581543
11.21052622795105,0.9658840298652649,-2.270630359649658,1.8446438312530518,1.3450762033462524,0.14058099687099457,0.7290626764297485
11.230650424957275,0.9704763293266296,-2.2673983573913574,1.827939510345459,1.3370954990386963,0.143932044506073,0.7300915718078613
11.250802040100098,0.9640761613845825,-2.2652270793914795,1.8207499980926514,1.3382973670959473,0.13548654317855835,0.7295628190040588
11.270883083343506,0.989475667476654,-2.2706775665283203,1.79949951171875,1.3375349044799805,0.14054419100284576,0.7293192744255066
11.290959596633911,0.9578706622123718,-2.2668681144714355,1.7873228788375854,1.3305619955062866,0.12024608999490738,0.7303810715675354
11.31101369857788,0.9683465957641602,-2.2689290046691895,1.814550518989563,1.3458445072174072,0.13342641294002533,0.7262774705886841
11.331155061721802,0.9686563014984131,-2.2698779106140137,1.818612813949585,1.3453141450881958,0.12872272729873657,0.725512683391571
11.351252317428589,0.9480103254318237,-2.2632699012756348,1.8067729473114014,1.3452003002166748,0.12234039604663849,0.7267436385154724
11.3713219165802,0.9789884090423584,-2.2672269344329834,1.8175272941589355,1.3508169651031494,0.1379871964454651,0.7239466309547424
11.391426801681519,0.9760792851448059,-2.2672767639160156,1.835618257522583,1.355873942375183,0.14446339011192322,0.721792995929718
11.411744832992554,0.9621904492378235,-2.261275291442871,1.819846272468567,1.346470594406128,0.13589930534362793,0.7236449718475342
11.431915283203125,0.9547766447067261,-2.2562918663024902,1.7843674421310425,1.3387818336486816,0.12893138825893402,0.727352499961853
11.451972246170044,0.9721487760543823,-2.25839900970459,1.82523512840271,1.3455500602722168,0.14747612178325653,0.7234883308410645
11.472003936767578,0.9390720129013062,-2.248833656311035,1.7926506996154785,1.3394728899002075,0.12669147551059723,0.7257490158081055
11.492090702056885,0.9602263569831848,-2.2559409141540527,1.8089425563812256,1.3445067405700684,0.1260407269001007,0.7218816876411438
11.512157917022705,0.9813399910926819,-2.263763666152954,1.8285353183746338,1.3463361263275146,0.1341019868850708,0.7173423171043396
11.532235145568848,0.9536095857620239,-2.2505030632019043,1.8033664226531982,1.3415776491165161,0.12897473573684692,0.7217507362365723
11.552425622940063,0.9749690294265747,-2.2590744495391846,1.807157278060913,1.3438034057617188,0.1294737458229065,0.7185632586479187
11.572530269622803,0.9574515223503113,-2.2537314891815186,1.8007407188415527,1.3441812992095947,0.13048627972602844,0.7202296257019043
11.59260082244873,0.47888171672821045,-0.17888571321964264,0.6954655051231384,0.7844018340110779,0.09102872014045715,-0.0352584533393383
11.612699270248413,0.5577452182769775,-0.02417253702878952,0.2696656584739685,0.9476544857025146,-0.03658619895577431,-0.0469091534614563
11.632771015167236,0.5382154583930969,-0.004349939525127411,0.19578485190868378,0.950793981552124,-0.06909698992967606,-0.04201236739754677
11.652850866317749,0.43459874391555786,0.011053875088691711,-0.02573584020137787,0.8781668543815613,-0.13482564687728882,-0.023625757545232773
11.672906398773193,0.2669728100299835,-0.002899378538131714,-0.087,0.7856897115707397,-0.21428778767585754,-0.004312746226787567
11.692957162857056,0.2769825756549835,-0.04251269996166229,-0.087,0.6927900910377502,-0.31929922103881836,-0.0026685744524002075
11.713038444519043,0.21059313416481018,-0.028505221009254456,-0.087,0.759223461151123,-0.32716014981269836,-0.011803440749645233
11.733118057250977,0.1501225233078003,-0.06701993197202682,-0.0864148736000061,0.806692361831665,-0.34674790501594543,-0.01264297217130661
11.753284215927124,0.22769643366336823,-0.05726297199726105,0.08401863276958466,0.8683457374572754,-0.24323761463165283,-0.014788202941417694
11.773279666900635,0.18562303483486176,-0.10375472903251648,0.19222548604011536,0.854237973690033,-0.19312694668769836,-0.017311424016952515
11.79338788986206,0.19690388441085815,-0.11973915249109268,0.198355570435524,0.8441274762153625,-0.1667095422744751,-0.01851120963692665
11.813475847244263,0.18118274211883545,-0.15929609537124634,0.129543274641037,0.7477827072143555,-0.15080159902572632,-0.005248401314020157
11.833524465560913,0.19807949662208557,-0.22740541398525238,-0.017524883151054382,0.6258422136306763,-0.27078619599342346,0.00025416165590286255
11.853674411773682,0.20162874460220337,-0.24548396468162537,0.0434737354516983,0.6256153583526611,-0.22390612959861755,0.005941025912761688
11.87368369102478,0.17490968108177185,-0.2802291810512543,0.010563299059867859,0.6423147916793823,-0.26374319195747375,0.0070641785860061646
11.893734455108643,0.17081329226493835,-0.30137211084365845,0.14144137501716614,0.6908708810806274,-0.21862182021141052,-0.006563141942024231
11.913792133331299,0.23220857977867126,-0.2857268750667572,0.07381394505500793,0.6507505774497986,-0.22853204607963562,-0.0065528713166713715
11.933890342712402,0.2690918743610382,-0.25909149646759033,0.5193937420845032,0.7834308743476868,-0.0546630397439003,-0.030032359063625336
11.954057216644287,0.27413538098335266,-0.2179584950208664,0.4498460590839386,0.6575665473937988,0.07623282819986343,-0.05031364783644676
11.974039793014526,0.35125845670700073,-0.20355141162872314,0.3062930107116699,0.7531663179397583,-0.08189595490694046,-0.08489912748336792
11.994136095046997,0.1567189246416092,-0.23739561438560486,-0.087,0.6102978587150574,-0.24273431301116943,-0.0590202659368515
12.014187097549438,0.244767427444458,-0.19668260216712952,-0.087,0.5596277713775635,-0.3051818609237671,-0.06556986272335052
12.03429651260376,0.3707095980644226,-0.1891583502292633,-0.087,0.6399387717247009,-0.3708990514278412,-0.0690464973449707
12.054312944412231,0.3365524709224701,-0.16952407360076904,-0.087,0.7387150526046753,-0.30612912774086,-0.07849086821079254
12.074394702911377,0.2293870449066162,-0.15701398253440857,0.0938827246427536,0.7894232273101807,-0.22931736707687378,-0.0776807963848114
12.094478607177734,0.1660182774066925,-0.16992005705833435,0.3970583975315094,0.774029552936554,-0.043461862951517105,-0.08509866893291473
12.114567279815674,0.23197433352470398,-0.1951104700565338,0.3809824585914612,0.6732214093208313,0.00918587576597929,-0.11735591292381287
12.134656429290771,0.35678017139434814,-0.21029803156852722,0.19637328386306763,0.6311335563659668,-0.037623677402734756,-0.14550668001174927
12.15471887588501,0.3065319061279297,-0.23037701845169067,-0.087,0.5498005151748657,-0.1487862765789032,-0.14970986545085907
12.174790620803833,0.09369319677352905,-0.17172837257385254,-0.087,0.6136943101882935,-0.29439428448677063,-0.13774818181991577
12.194890022277832,0.26643434166908264,-0.1631847470998764,-0.087,0.7077975869178772,-0.2918059825897217,-0.13743819296360016
12.214920997619629,0.3443076014518738,-0.15592598915100098,-0.087,0.7164958119392395,-0.29333195090293884,-0.13093751668930054
12.235005855560303,0.27240556478500366,-0.14980483055114746,0.16251517832279205,0.8018823862075806,-0.16672858595848083,-0.1348918080329895
12.255129098892212,0.1835198700428009,-0.15536171197891235,0.3997892141342163,0.8353614807128906,-0.05844768136739731,-0.13421475887298584
12.275204420089722,0.21983586251735687,-0.19163011014461517,0.3195277750492096,0.6195012331008911,0.03788815066218376,-0.15966974198818207
12.295248985290527,0.37458035349845886,-0.20731857419013977,0.09958986192941666,0.5156717300415039,-0.001752127893269062,-0.20133577287197113
12.315297842025757,-0.12659868597984314,-0.1788850873708725,-0.087,0.513774037361145,-0.21972712874412537,-0.17372789978981018
12.335388422012329,0.028882959857583046,-0.16943463683128357,-0.087,0.6706265211105347,-0.25486740469932556,-0.18435829877853394
12.355463027954102,0.27971839904785156,-0.1948174685239792,-0.087,0.6449854373931885,-0.2722185254096985,-0.17869099974632263
12.375514268875122,0.2493986189365387,-0.17290684580802917,-0.087,0.7159430980682373,-0.26455578207969666,-0.1796259582042694
12.395565748214722,0.10715237259864807,-0.17374518513679504,0.31949982047080994,0.8253767490386963,-0.11221864074468613,-0.17784741520881653
12.415650844573975,0.16725733876228333,-0.20423895120620728,0.3046812415122986,0.6897252202033997,-0.04733368009328842,-0.18719126284122467
12.435719013214111,0.36243927478790283,-0.21632932126522064,0.21595247089862823,0.5620335936546326,0.07295284420251846,-0.2203667163848877
12.455796003341675,0.388760507106781,-0.19370752573013306,-0.0415898859500885,0.5154931545257568,-0.030108708888292313,-0.259044349193573
12.475876808166504,0.13355448842048645,-0.18238842487335205,-0.0745144933462143,0.6784563660621643,-0.15816545486450195,-0.22903355956077576
12.495946645736694,0.03549620509147644,-0.161562979221344,-0.029340505599975586,0.7255381345748901,-0.1491853892803192,-0.20739150047302246
12.516051769256592,0.18307414650917053,-0.19462117552757263,-0.06245031952857971,0.6639224290847778,-0.14869096875190735,-0.2090296447277069
12.53614616394043,0.1532592475414276,-0.1806660294532776,0.3605180084705353,0.8015868663787842,-0.03861542418599129,-0.2125023454427719
12.556188344955444,0.22892174124717712,-0.2257205843925476,0.4266672134399414,0.5971285104751587,0.09787029772996902,-0.24930386245250702
12.576440572738647,0.27917760610580444,-0.2571481168270111,0.4033033847808838,0.6196203231811523,0.08400390297174454,-0.28319576382637024
12.596565008163452,0.2788148820400238,-0.26643839478492737,0.34255465865135193,0.6858209371566772,0.018488895148038864,-0.2890773117542267
12.616620540618896,0.31661900877952576,-0.2890908122062683,-0.087,0.5801817774772644,-0.09732254594564438,-0.288324236869812
12.636676549911499,0.2646263837814331,-0.23362594842910767,-0.06081452965736389,0.6790782809257507,-0.1621093451976776,-0.296659380197525
12.656747579574585,-0.04018806666135788,-0.21315130591392517,0.07536104321479797,0.76656174659729,-0.16586166620254517,-0.26136863231658936
12.676901817321777,0.020984826609492302,-0.22651036083698273,0.093417227268219,0.792163610458374,-0.18196511268615723,-0.26135963201522827
12.696968078613281,0.3620121479034424,-0.21508052945137024,0.3097769021987915,0.7894497513771057,0.012564430944621563,-0.2753227949142456
12.717064380645752,0.4745570719242096,-0.24301515519618988,0.229648619890213,0.5611193776130676,0.08531554788351059,-0.31729254126548767
12.737262725830078,0.23351925611495972,-0.2586178183555603,0.36063051223754883,0.7610623240470886,0.0054561300203204155,-0.3089417517185211
12.757420778274536,0.22861459851264954,-0.2602422833442688,0.24734145402908325,0.7364468574523926,0.030148770660161972,-0.29552438855171204
12.777527809143066,0.4964144825935364,-0.2517736256122589,-0.087,0.5458289384841919,-0.02899054065346718,-0.3252326250076294
12.7975914478302,0.3720470368862152,-0.21527498960494995,-0.087,0.7544204592704773,-0.1896626353263855,-0.3301948606967926
12.817649126052856,0.02543525956571102,-0.22886285185813904,0.031104907393455505,0.8246045708656311,-0.18992117047309875,-0.290315717458725
12.837739944458008,0.05943555384874344,-0.23942770063877106,0.10229022055864334,0.831565797328949,-0.1517900824546814,-0.28442299365997314
12.85781741142273,0.34087544679641724,-0.24218782782554626,0.3559671640396118,0.8081318736076355,0.023176413029432297,-0.30206674337387085
12.877893924713135,0.4956930875778198,-0.2697681188583374,0.2787523865699768,0.6092618703842163,0.077184297144413,-0.3496853709220886
12.89800214767456,0.21910136938095093,-0.2615814507007599,0.36572399735450745,0.7553465366363525,0.04584997519850731,-0.32692503929138184
12.918066024780273,0.2504476308822632,-0.27362680435180664,0.22915813326835632,0.7363972663879395,0.031220000237226486,-0.32208096981048584
12.938174962997437,0.4347904622554779,-0.2681361138820648,-0.087,0.5765973329544067,-0.0005508558824658394,-0.3492068648338318
12.958301544189453,0.17281441390514374,-0.2390015870332718,0.0659554973244667,0.8196238279342651,-0.1544570028781891,-0.3474027216434479
12.978331804275513,0.09612489491701126,-0.2557029128074646,0.15810643136501312,0.8230915069580078,-0.13397753238677979,-0.32001444697380066
12.998486757278442,0.28156399726867676,-0.26112425327301025,0.22269098460674286,0.8214513659477234,-0.08298403769731522,-0.32533472776412964
13.018569469451904,0.1739100217819214,-0.3132629990577698,0.010228179395198822,0.5618246793746948,-0.12919393181800842,-0.3530511260032654
13.03862977027893,0.17471295595169067,-0.24160663783550262,0.32053810358047485,0.7881195545196533,-0.05131220072507858,-0.3831072449684143
13.05869460105896,0.3182581663131714,-0.28259193897247314,0.1489158421754837,0.7221463918685913,0.004866312257945538,-0.37108975648880005
13.0787992477417,0.4981909394264221,-0.3088589906692505,-0.087,0.5635451674461365,-0.047102831304073334,-0.3757639527320862
13.09889268875122,0.2295125424861908,-0.2563944160938263,-0.087,0.7495020031929016,-0.20894494652748108,-0.37815365195274353
13.118994235992432,0.1812383383512497,-0.24904441833496094,-0.07813882827758789,0.7917929291725159,-0.1781078279018402,-0.3560463786125183
13.13900876045227,0.2275572121143341,-0.231482595205307,0.010995671153068542,0.808455228805542,-0.11564391106367111,-0.33865565061569214
13.159122943878174,0.19092926383018494,-0.2227165400981903,0.1949528306722641,0.8472565412521362,-0.06196995824575424,-0.33835822343826294
13.179198741912842,0.3483140468597412,-0.32601094245910645,0.18240147829055786,0.6613708734512329,0.03257286176085472,-0.35515010356903076
13.199254751205444,0.28627070784568787,-0.23505744338035583,0.39475080370903015,0.7398440837860107,0.16273027658462524,-0.37843412160873413
13.219302892684937,0.22247099876403809,-0.29733091592788696,0.2260877788066864,0.7372246384620667,0.021309103816747665,-0.37869542837142944
13.239389896392822,0.24160298705101013,-0.3033631145954132,0.05130314826965332,0.7205235958099365,-0.03148794546723366,-0.37557756900787354
13.259472608566284,0.44653281569480896,-0.24172335863113403,0.046774908900260925,0.7664699554443359,-0.052913568913936615,-0.40689370036125183
13.279534339904785,-0.11350806057453156,-0.2843136191368103,0.09831158816814423,0.8573020696640015,-0.23487108945846558,-0.3672049343585968
13.299625873565674,-0.07672491669654846,-0.27070680260658264,0.26112470030784607,0.8855290412902832,-0.10736571997404099,-0.3464380204677582
13.319705724716187,0.20533215999603271,-0.2633947730064392,0.3354533016681671,0.8527474403381348,0.03656434640288353,-0.3555379807949066
13.339770793914795,0.3271891474723816,-0.2796902656555176,0.3445237874984741,0.7884883880615234,0.06362014263868332,-0.38581135869026184
13.35985803604126,0.22407366335391998,-0.29476410150527954,0.27289295196533203,0.7861589193344116,0.011111523024737835,-0.39040517807006836
13.379892826080322,0.3611021637916565,-0.3214467763900757,-0.087,0.6341549158096313,-0.04895936697721481,-0.4036003053188324
13.399980306625366,0.40186285972595215,-0.23617114126682281,-0.087,0.6528050899505615,-0.03640023246407509,-0.41112667322158813
13.420068502426147,0.26024124026298523,-0.27582719922065735,-0.087,0.8140811920166016,-0.22313803434371948,-0.395060658454895
13.440149307250977,0.21636804938316345,-0.25425881147384644,-0.06228514015674591,0.8089206218719482,-0.15217769145965576,-0.3696555495262146
13.46021842956543,0.16183853149414062,-0.22515571117401123,0.3170768916606903,0.8999592065811157,0.0090320510789752,-0.3600235879421234
13.480473756790161,0.1301046907901764,-0.2819233238697052,0.6127273440361023,0.8549643754959106,0.12945321202278137,-0.36389604210853577
13.500572204589844,0.15698546171188354,-0.2678406536579132,0.6032060980796814,0.8452439308166504,0.20811578631401062,-0.3589920401573181
13.520631313323975,0.2187417447566986,-0.28239715099334717,0.6200370788574219,0.8157947659492493,0.20743915438652039,-0.3891036808490753
13.540706157684326,0.20387589931488037,-0.30839622020721436,0.27117282152175903,0.7995103597640991,0.023376058787107468,-0.3816320300102234
13.56080937385559,0.503585696220398,-0.3437584638595581,-0.087,0.6798790097236633,-0.14195924997329712,-0.4038870334625244
13.580902338027954,0.5052477717399597,-0.2385508418083191,-0.087,0.7473328113555908,-0.14219844341278076,-0.40664446353912354
13.601008653640747,0.263409286737442,-0.26549986004829407,-0.087,0.8204063773155212,-0.20007145404815674,-0.39174455404281616
13.621052742004395,0.18184861540794373,-0.24372190237045288,0.09053094685077667,0.8645663261413574,-0.08875834196805954,-0.3713191747665405
13.641117572784424,0.16350463032722473,-0.24713608622550964,0.22433972358703613,0.8728734254837036,-0.017399106174707413,-0.367754191160202
13.661211252212524,0.4308707118034363,-0.30803561210632324,0.5103393793106079,0.7836703062057495,0.1982661783695221,-0.3955683410167694
13.68131947517395,0.36230379343032837,-0.2857697010040283,0.5206015110015869,0.7661361694335938,0.24650076031684875,-0.4044927656650543
13.701375007629395,0.3330504596233368,-0.3140314817428589,0.357455849647522,0.7762748003005981,0.13110759854316711,-0.40740966796875
13.721479654312134,0.3193154036998749,-0.3061653673648834,0.25391608476638794,0.7798935174942017,0.08796664327383041,-0.40517520904541016
13.741559982299805,0.2953864336013794,-0.34749293327331543,-0.087,0.7232853770256042,-0.13493016362190247,-0.4119228422641754
13.761665344238281,0.09724321961402893,-0.3166627287864685,-0.02857433259487152,0.8890062570571899,-0.23228034377098083,-0.40652525424957275
13.781668901443481,0.17277604341506958,-0.314689576625824,0.026977412402629852,0.8699782490730286,-0.18044546246528625,-0.39703184366226196
13.801939964294434,0.21611671149730682,-0.28540635108947754,0.12455548346042633,0.8794833421707153,-0.09892529994249344,-0.39139920473098755
13.822104215621948,0.18675224483013153,-0.2663687467575073,0.3757951855659485,0.8831904530525208,0.02786974236369133,-0.3881854712963104
13.842155933380127,0.5275058746337891,-0.2861587107181549,0.17221254110336304,0.7061547040939331,0.08843433111906052,-0.4368196129798889
13.86222529411316,0.3517398536205292,-0.3047477602958679,0.23054122924804688,0.7713141441345215,0.023329969495534897,-0.43719246983528137
13.8825204372406,0.3098177909851074,-0.2948923408985138,0.13448823988437653,0.7558645606040955,0.054601214826107025,-0.42187851667404175
13.90260934829712,-0.17007598280906677,-0.2987997829914093,0.043430909514427185,0.8329150676727295,-0.15516674518585205,-0.40170639753341675
13.922688484191895,0.09250682592391968,-0.3213387131690979,0.06869365274906158,0.854895830154419,-0.1502225399017334,-0.4140320420265198
13.942734479904175,0.23034833371639252,-0.29761427640914917,0.20081649720668793,0.8864357471466064,-0.08544335514307022,-0.4165494740009308
13.963029623031616,0.07076159864664078,-0.28960689902305603,0.3165864050388336,0.7592300176620483,0.05066628009080887,-0.4162408411502838
13.983133316040039,0.311130553483963,-0.31676942110061646,0.24203214049339294,0.7593302726745605,0.03303370997309685,-0.4300273656845093
14.003202199935913,0.2619311511516571,-0.30480918288230896,0.21349689364433289,0.7348765134811401,0.02179883047938347,-0.4578063189983368
14.023274183273315,0.165307879447937,-0.3032989203929901,0.06930018961429596,0.7451831102371216,-0.023788440972566605,-0.43878549337387085
14.043383836746216,0.27007102966308594,-0.25688326358795166,0.2691572904586792,0.9202777147293091,0.013496453873813152,-0.43339768052101135
14.063525199890137,0.40285724401474,-0.30035799741744995,0.2814938724040985,0.9226411581039429,-0.020225215703248978,-0.4446350634098053
14.083570003509521,0.24804085493087769,-0.27325743436813354,0.023439601063728333,0.7910751700401306,-0.04267941787838936,-0.42101937532424927
14.103622674942017,0.035130977630615234,-0.27286195755004883,0.33963462710380554,0.9596686363220215,-0.059769339859485626,-0.4213995337486267
14.123716115951538,0.205976665019989,-0.25766521692276,0.5532282590866089,0.9825241565704346,0.12144839018583298,-0.4128769040107727
14.143776178359985,0.3163657784461975,-0.2989974021911621,0.4566875696182251,0.8538682460784912,0.15684178471565247,-0.4234659969806671
14.163848161697388,0.23204538226127625,-0.30734512209892273,0.40944555401802063,0.8393853902816772,0.1150488629937172,-0.4279644191265106
14.18390154838562,0.2650677263736725,-0.32446596026420593,0.16061049699783325,0.8140928745269775,0.007041270844638348,-0.43128079175949097
14.204125165939331,0.3684634864330292,-0.36477193236351013,-0.087,0.7310591340065002,-0.10204292088747025,-0.4405052661895752
14.224162817001343,0.14760521054267883,-0.32746797800064087,0.09932968765497208,0.9126724004745483,-0.1898004114627838,-0.45315098762512207
14.244189739227295,0.09382159262895584,-0.31485694646835327,0.20773901045322418,0.9010778665542603,-0.11381750553846359,-0.430864155292511
14.264345645904541,0.5587038993835449,-0.3043035864830017,0.27517735958099365,0.8392025232315063,0.04981579631567001,-0.44594818353652954
14.284431457519531,0.44506746530532837,-0.3321879506111145,0.10327725112438202,0.7027271389961243,0.0037345541641116142,-0.4650712013244629
14.304500341415405,0.19550278782844543,-0.25949826836586,0.4253952205181122,0.949151337146759,0.018517058342695236,-0.47427812218666077
14.324577569961548,0.08552834391593933,-0.2927805483341217,0.34646928310394287,0.8920339345932007,0.0437319241464138,-0.43501991033554077
14.344615936279297,0.4344767928123474,-0.3277472257614136,-0.07869511842727661,0.7322857975959778,-0.0220789797604084,-0.4537383019924164
14.364695072174072,0.6021175980567932,-0.2948361933231354,-0.06947587430477142,0.8157706260681152,-0.10034503787755966,-0.4712057411670685
14.384767532348633,0.26612168550491333,-0.2873331904411316,0.04880192130804062,0.8789433240890503,-0.12374386936426163,-0.45223867893218994
14.404836893081665,0.0027250293642282486,-0.263134241104126,0.49606382846832275,0.9991965293884277,0.02432265505194664,-0.42308905720710754
14.424882411956787,0.21754686534404755,-0.30722349882125854,0.35784226655960083,0.8770042657852173,0.054458387196063995,-0.4231261610984802
14.444972515106201,0.24301928281784058,-0.28574424982070923,0.3551781475543976,0.83133864402771,0.11954527348279953,-0.4279173016548157
14.465054988861084,0.24186377227306366,-0.3070828318595886,0.3134309649467468,0.8579020500183105,0.04162317141890526,-0.44736528396606445
14.485116243362427,0.2918893098831177,-0.34740203619003296,-0.087,0.740395188331604,-0.07711496204137802,-0.44826388359069824
14.505160093307495,0.32032912969589233,-0.30326199531555176,-0.087,0.7992130517959595,-0.2578882575035095,-0.46507617831230164
14.525250673294067,0.27121275663375854,-0.31042373180389404,-0.087,0.8521294593811035,-0.29657644033432007,-0.4607810974121094
14.545315504074097,0.21519814431667328,-0.30670589208602905,-0.087,0.856698751449585,-0.25492244958877563,-0.440626323223114
14.565496444702148,0.22870118916034698,-0.26287442445755005,0.04974205791950226,0.8848285675048828,-0.09726957231760025,-0.4274917244911194
14.586223840713501,0.1715930700302124,-0.23399654030799866,0.678047776222229,0.9998490810394287,0.17527829110622406,-0.4247148334980011
14.606302499771118,0.16467846930027008,-0.3127135932445526,0.46443405747413635,0.8380864262580872,0.12826767563819885,-0.4158356189727783
14.626403093338013,0.24879881739616394,-0.2836257815361023,0.5047533512115479,0.831262469291687,0.23160895705223083,-0.43428388237953186
14.646451711654663,0.2771446704864502,-0.32561221718788147,0.31037822365760803,0.8094245195388794,0.0844254121184349,-0.45366787910461426
14.6665780544281,0.27100372314453125,-0.3394942879676819,-0.053619638085365295,0.7855783700942993,-0.07681576162576675,-0.45466741919517517
14.68666672706604,0.20926150679588318,-0.2680250406265259,0.2667679488658905,0.9282580614089966,-0.014963884837925434,-0.46230509877204895
14.706762313842773,0.18983902037143707,-0.3615446984767914,0.09212058037519455,0.8868053555488586,-0.16594445705413818,-0.44986554980278015
14.726887941360474,0.32109352946281433,-0.27969518303871155,0.2675589919090271,0.8812400102615356,0.0027818335220217705,-0.4576936662197113
14.746956825256348,-0.1123078241944313,-0.3025256097316742,0.3800322413444519,0.8971042633056641,-0.029532212764024734,-0.4252414405345917
14.767073631286621,0.05140644311904907,-0.2813820540904999,0.44817495346069336,0.9170962572097778,0.09679120033979416,-0.43111270666122437
14.787188291549683,0.24049225449562073,-0.30888545513153076,0.3979317545890808,0.8617826700210571,0.07630256563425064,-0.462487131357193
14.807218313217163,0.31219470500946045,-0.34806692600250244,-0.07711762189865112,0.7609966993331909,-0.09343468397855759,-0.4688394069671631
14.827383279800415,0.20000356435775757,-0.32366111874580383,-0.07743684947490692,0.8088454008102417,-0.15865299105644226,-0.4673020839691162
14.847431182861328,0.2178964614868164,-0.3255700469017029,-0.0035648345947265625,0.8922386169433594,-0.18679532408714294,-0.4630262851715088
14.867604494094849,0.16927149891853333,-0.2994026243686676,0.17556260526180267,0.9095916748046875,-0.08373715728521347,-0.44226711988449097
14.887574434280396,0.46563100814819336,-0.2808458209037781,0.408089816570282,0.9118930101394653,0.11708041280508041,-0.4492676854133606
14.907655477523804,0.3840785622596741,-0.29657402634620667,0.38870948553085327,0.8419936895370483,0.1284971535205841,-0.45523157715797424
14.927740573883057,0.25298017263412476,-0.290569007396698,0.5058623552322388,0.8971192836761475,0.12936291098594666,-0.46606698632240295
14.947854995727539,0.269566148519516,-0.3186740577220917,0.32664626836776733,0.8313784003257751,0.0961560532450676,-0.45894575119018555
