liuyurong129/humanoid-gym/humanoid/data/target_q_20250522-223227.csv
timestamp,joint_1,joint_2,joint_3,joint_4,joint_5,joint_6
6.747245788574219e-05,0.0,0.0,0.0,0.0,0.0,0.0
0.02018260955810547,0.0,0.0,0.0,0.0,0.0,0.0
0.040195465087890625,0.0,0.0,0.0,0.0,0.0,0.0
0.06024503707885742,-0.2959681749343872,-0.7021576762199402,0.24299836158752441,0.6827618479728699,-0.30156734585762024,0.15118297934532166
0.08049249649047852,-0.3002653121948242,-0.7078570127487183,0.24620045721530914,0.6837974190711975,-0.30027657747268677,0.1514061987400055
0.10054421424865723,-0.30236703157424927,-0.7107030749320984,0.2478579729795456,0.6842610239982605,-0.2996616065502167,0.15155959129333496
0.12077832221984863,-0.30660805106163025,-0.7163416743278503,0.2508755326271057,0.6850125789642334,-0.29852598905563354,0.15192899107933044
0.14078640937805176,-0.31102922558784485,-0.7218743562698364,0.25312340259552,0.6854763031005859,-0.29758501052856445,0.1523720622062683
0.16087126731872559,-0.31326669454574585,-0.7246032357215881,0.2540822923183441,0.6856469511985779,-0.29713350534439087,0.15260575711727142
0.180938720703125,-0.3176339566707611,-0.7299852967262268,0.2560501992702484,0.6859476566314697,-0.2961427569389343,0.15309414267539978
0.20100736618041992,-0.3217645287513733,-0.7352586984634399,0.25831368565559387,0.6862496733665466,-0.2949673533439636,0.15360435843467712
0.22110843658447266,-0.3237656056880951,-0.737861156463623,0.25951510667800903,0.6863982677459717,-0.2943343222141266,0.153861403465271
0.24115824699401855,-0.3276982009410858,-0.7430203557014465,0.2619710862636566,0.6867015957832336,-0.2930399775505066,0.1543688178062439
0.26123523712158203,-0.3315987288951874,-0.7481107711791992,0.26428547501564026,0.6869530081748962,-0.2917529344558716,0.15486572682857513
0.2813394069671631,-0.3354615569114685,-0.7531324028968811,0.2664576470851898,0.6871450543403625,-0.29047444462776184,0.15535280108451843
0.3014717102050781,-0.33736810088157654,-0.755627453327179,0.2675524353981018,0.687239408493042,-0.2898367941379547,0.15559090673923492
0.32156920433044434,-0.34109312295913696,-0.7605804204940796,0.26981791853904724,0.68744295835495,-0.2885422706604004,0.15606139600276947
0.34183311462402344,-0.34289276599884033,-0.7630303502082825,0.2709867060184479,0.6875594854354858,-0.2878772020339966,0.1562974452972412
0.36191534996032715,-0.34637099504470825,-0.767879068851471,0.27337947487831116,0.6878219246864319,-0.2865222692489624,0.15677329897880554
0.3819897174835205,-0.3497713804244995,-0.772670328617096,0.27576544880867004,0.6880744099617004,-0.2851577699184418,0.15724560618400574
0.4021117687225342,-0.3531363904476166,-0.7774033546447754,0.2780902087688446,0.6882670521736145,-0.2837854325771332,0.1577075570821762
0.42217159271240234,-0.3547942340373993,-0.7797434329986572,0.2792208194732666,0.6883416771888733,-0.2830944359302521,0.1579355001449585
0.4422447681427002,-0.35798904299736023,-0.7843412756919861,0.2813836634159088,0.6884579062461853,-0.28168174624443054,0.15839791297912598
0.46230387687683105,-0.3611077666282654,-0.7888661623001099,0.2834097445011139,0.6885383129119873,-0.28026625514030457,0.15885519981384277
0.48242878913879395,-0.36265483498573303,-0.7911084890365601,0.284388929605484,0.6885746717453003,-0.2795585095882416,0.15907929837703705
0.5025084018707275,-0.36575746536254883,-0.7955861687660217,0.28636935353279114,0.6886643767356873,-0.278163343667984,0.15950945019721985
0.5225718021392822,-0.3688424527645111,-0.8000420928001404,0.2883947491645813,0.6887748837471008,-0.27677983045578003,0.15992237627506256
0.5427901744842529,-0.3718787729740143,-0.8044649958610535,0.29044708609580994,0.6888874769210815,-0.2754012942314148,0.16032493114471436
0.5629773139953613,-0.37336137890815735,-0.8066579103469849,0.2914802134037018,0.6889464855194092,-0.2747077941894531,0.16052548587322235
0.5829777717590332,-0.37623196840286255,-0.8109927773475647,0.2935340404510498,0.6890527606010437,-0.2733049988746643,0.1609298288822174
0.6030182838439941,-0.37900322675704956,-0.8152794241905212,0.2956680953502655,0.6891567707061768,-0.27186936140060425,0.16132770478725433
0.6230795383453369,-0.38038012385368347,-0.8174123167991638,0.2967566251754761,0.6892003417015076,-0.2711482644081116,0.16152039170265198
0.6431641578674316,-0.3831174969673157,-0.8216680884361267,0.2990197241306305,0.6892865300178528,-0.2697012722492218,0.16189083456993103
0.6632323265075684,-0.38582876324653625,-0.8258872628211975,0.3012680113315582,0.6893364787101746,-0.2682618796825409,0.16224925220012665
0.6832892894744873,-0.3884833753108978,-0.8300477862358093,0.303434282541275,0.6893613934516907,-0.26682186126708984,0.16260690987110138
0.7033708095550537,-0.3897855281829834,-0.8321021795272827,0.3044779896736145,0.6893792152404785,-0.2660989761352539,0.16278763115406036
0.7234718799591064,-0.39229586720466614,-0.8361546397209167,0.3065337836742401,0.689450740814209,-0.2646314799785614,0.16315928101539612
0.7435441017150879,-0.39471811056137085,-0.840147852897644,0.30858126282691956,0.6895399689674377,-0.26313725113868713,0.16353093087673187
0.7638025283813477,-0.397070974111557,-0.8440976738929749,0.31070584058761597,0.6896054744720459,-0.26160991191864014,0.1638917475938797
0.7838883399963379,-0.39822807908058167,-0.8460581302642822,0.3117881119251251,0.6896291375160217,-0.260841429233551,0.16406676173210144
0.8039569854736328,-0.40047961473464966,-0.8499456644058228,0.31395968794822693,0.6896528601646423,-0.2593100965023041,0.16440990567207336
0.8240094184875488,-0.40263065695762634,-0.8537671566009521,0.31601396203041077,0.6896281242370605,-0.2578015625476837,0.16475212574005127
0.8441176414489746,-0.4036838412284851,-0.855657160282135,0.3170016407966614,0.6896001696586609,-0.25705334544181824,0.16492179036140442
0.8641786575317383,-0.4057827889919281,-0.8594053387641907,0.3189280331134796,0.6895602345466614,-0.25556063652038574,0.16525517404079437
0.8842430114746094,-0.4078698754310608,-0.8631417155265808,0.3209460973739624,0.6895918250083923,-0.25406432151794434,0.16557274758815765
0.904353141784668,-0.40991145372390747,-0.8668570518493652,0.32305505871772766,0.689661979675293,-0.25256597995758057,0.16587863862514496
0.9244403839111328,-0.41090959310531616,-0.868701696395874,0.32412195205688477,0.689691960811615,-0.25181844830513,0.16602902114391327
0.9445555210113525,-0.4128546118736267,-0.87233966588974,0.32615533471107483,0.6897082328796387,-0.25033271312713623,0.16633327305316925
0.9645979404449463,-0.41471636295318604,-0.8759104013442993,0.32807961106300354,0.6896870136260986,-0.24884755909442902,0.16664086282253265
0.984825611114502,-0.4156268239021301,-0.877679169178009,0.3290233910083771,0.6896691918373108,-0.24810631573200226,0.16679218411445618
1.0049068927764893,-0.4174598157405853,-0.8812025189399719,0.3308972418308258,0.6896123886108398,-0.2466338574886322,0.1670789122581482
1.0249743461608887,-0.41929808259010315,-0.8847193121910095,0.3328341245651245,0.6895504593849182,-0.24517136812210083,0.16734381020069122
1.0450325012207031,-0.4210871160030365,-0.8882107734680176,0.334855854511261,0.6895198822021484,-0.24369999766349792,0.16760054230690002
1.0654215812683105,-0.4219508767127991,-0.8899365663528442,0.33586230874061584,0.6895192265510559,-0.2429613471031189,0.1677309274673462
1.0855071544647217,-0.4235917627811432,-0.8933371305465698,0.3378535807132721,0.6895425915718079,-0.2414727658033371,0.16799993813037872
1.1056416034698486,-0.42514124512672424,-0.896677553653717,0.3397894501686096,0.6895634531974792,-0.2399822622537613,0.16827356815338135
1.1256704330444336,-0.4266468286514282,-0.8999912142753601,0.3417837917804718,0.6895797848701477,-0.2384806126356125,0.16853536665439606
1.1457839012145996,-0.42740803956985474,-0.9016399383544922,0.3427649140357971,0.6895780563354492,-0.23773851990699768,0.16865980625152588
1.1659512519836426,-0.4288496971130371,-0.9049124121665955,0.3448079824447632,0.6895978450775146,-0.23624201118946075,0.1689041703939438
1.1859288215637207,-0.4301665425300598,-0.9081351161003113,0.34687119722366333,0.6896165013313293,-0.2347370833158493,0.16914784908294678
1.2060787677764893,-0.43078264594078064,-0.9097336530685425,0.3479292690753937,0.689620852470398,-0.23397788405418396,0.16926665604114532
1.2261247634887695,-0.4319992661476135,-0.9128941893577576,0.3499634265899658,0.6895843744277954,-0.23245827853679657,0.1694960594177246
1.246154546737671,-0.4332188367843628,-0.9160163998603821,0.3519252836704254,0.6895140409469604,-0.23093749582767487,0.16971266269683838
1.2662699222564697,-0.43381267786026,-0.9175564646720886,0.3528773784637451,0.6894798278808594,-0.23017765581607819,0.16982083022594452
1.2863349914550781,-0.4349430501461029,-0.9206110239028931,0.35479503870010376,0.6894320845603943,-0.22866792976856232,0.17003700137138367
1.3064405918121338,-0.43605542182922363,-0.9236431121826172,0.35668671131134033,0.6893816590309143,-0.22718846797943115,0.17024536430835724
1.3265020847320557,-0.437193900346756,-0.9266583323478699,0.35856693983078003,0.6892983317375183,-0.2257157415151596,0.17043492197990417
1.3466014862060547,-0.4377668499946594,-0.928152859210968,0.3595021665096283,0.689246654510498,-0.22497504949569702,0.17052429914474487
1.3667585849761963,-0.43887007236480713,-0.9311223030090332,0.3614409863948822,0.6891564726829529,-0.22348520159721375,0.1706937849521637
1.38680100440979,-0.43990638852119446,-0.9340597987174988,0.36343520879745483,0.6890805959701538,-0.2219865769147873,0.17085254192352295
1.406944751739502,-0.4403885304927826,-0.9355228543281555,0.3644828796386719,0.6890524625778198,-0.22123625874519348,0.17092663049697876
1.4270563125610352,-0.44127124547958374,-0.9384225010871887,0.3666144013404846,0.6890156865119934,-0.21973559260368347,0.17107585072517395
1.44708251953125,-0.4420454502105713,-0.9412749409675598,0.36871784925460815,0.6890096664428711,-0.218253031373024,0.17123757302761078
1.4672064781188965,-0.44241541624069214,-0.9426853656768799,0.3697429299354553,0.6890139579772949,-0.2175193727016449,0.1713217794895172
1.4873268604278564,-0.4431683421134949,-0.945475697517395,0.3717106878757477,0.6890008449554443,-0.21606512367725372,0.17148827016353607
1.5075526237487793,-0.44390466809272766,-0.9482299089431763,0.37366482615470886,0.68896484375,-0.21460510790348053,0.17164775729179382
1.527536392211914,-0.4445752203464508,-0.9509319067001343,0.3755775988101959,0.6889177560806274,-0.2131413221359253,0.17180639505386353
1.5476250648498535,-0.44488391280174255,-0.9522637724876404,0.37650638818740845,0.6888936758041382,-0.21241357922554016,0.1718847155570984
1.5677399635314941,-0.4454915523529053,-0.9549092054367065,0.37831759452819824,0.6888550519943237,-0.21097947657108307,0.1720324456691742
1.5877685546875,-0.4461019039154053,-0.95753413438797,0.3800655007362366,0.6888107061386108,-0.20957458019256592,0.172166645526886
1.607870101928711,-0.4467141628265381,-0.9601457118988037,0.3818168342113495,0.6887584328651428,-0.2081829458475113,0.17228569090366364
1.6279258728027344,-0.4470149576663971,-0.9614450335502625,0.38269370794296265,0.6887214183807373,-0.20749463140964508,0.1723400354385376
1.647979736328125,-0.44751718640327454,-0.9640265703201294,0.3845721185207367,0.6886737942695618,-0.20610231161117554,0.17244598269462585
1.6680657863616943,-0.4478851556777954,-0.9665784239768982,0.3865801990032196,0.6886493563652039,-0.20469404757022858,0.17255011200904846
1.6884045600891113,-0.4480423629283905,-0.9678501486778259,0.387630432844162,0.6886526346206665,-0.20398758351802826,0.17259865999221802
1.7085096836090088,-0.4483993351459503,-0.9703916907310486,0.38973116874694824,0.6886630654335022,-0.202590212225914,0.17268182337284088
1.7286381721496582,-0.44882211089134216,-0.97292560338974,0.3917931318283081,0.6886776685714722,-0.20122216641902924,0.1727490872144699
1.7486541271209717,-0.44923314452171326,-0.9754254221916199,0.39380699396133423,0.6886749267578125,-0.19987408816814423,0.1728137880563736
1.7688167095184326,-0.44941726326942444,-0.9766567945480347,0.3947744369506836,0.6886559724807739,-0.19921237230300903,0.17284786701202393
1.7889370918273926,-0.4496939480304718,-0.9790823459625244,0.3967188596725464,0.6886035203933716,-0.19788707792758942,0.17292018234729767
1.8090808391571045,-0.44986456632614136,-0.9814590811729431,0.3986588716506958,0.6885251998901367,-0.19655069708824158,0.1729932278394699
1.8291809558868408,-0.45000189542770386,-0.9838147163391113,0.4006660580635071,0.6884791851043701,-0.19519676268100739,0.1730593591928482
1.8493521213531494,-0.45006802678108215,-0.984991729259491,0.40170881152153015,0.6884831786155701,-0.19451791048049927,0.17308811843395233
1.8694584369659424,-0.45015424489974976,-0.9873143434524536,0.4037906527519226,0.6885238885879517,-0.1931498944759369,0.1731480062007904
1.8895187377929688,-0.45015424489974976,-0.9884499311447144,0.40479758381843567,0.6885425448417664,-0.19246190786361694,0.1731814295053482
1.909604787826538,-0.45003044605255127,-0.9906986355781555,0.40691810846328735,0.6886069774627686,-0.1910720020532608,0.17324994504451752
1.9296798706054688,-0.44984349608421326,-0.9929242730140686,0.40905970335006714,0.6886655688285828,-0.18969635665416718,0.17331285774707794
1.9497411251068115,-0.44975119829177856,-0.994037389755249,0.4101508557796478,0.6886904835700989,-0.18901512026786804,0.17333729565143585
1.9698219299316406,-0.4495782256126404,-0.9962376356124878,0.4122474193572998,0.6887055039405823,-0.18766489624977112,0.17337565124034882
1.989938497543335,-0.44941848516464233,-0.998424768447876,0.4143044054508209,0.6886844038963318,-0.18633435666561127,0.1733933687210083
2.010004758834839,-0.4492918848991394,-1.0006097555160522,0.41633176803588867,0.688647449016571,-0.1850380003452301,0.17339269816875458
2.030092239379883,-0.44924619793891907,-1.0017019510269165,0.4173371493816376,0.6886282563209534,-0.18440665304660797,0.17338880896568298
2.0501601696014404,-0.4491691291332245,-1.0038719177246094,0.4193277955055237,0.688607394695282,-0.18316414952278137,0.17337948083877563
2.0702311992645264,-0.4490416944026947,-1.0060147047042847,0.42135122418403625,0.688621997833252,-0.1819344460964203,0.17337585985660553
2.090456008911133,-0.4488229751586914,-1.0081071853637695,0.4233468174934387,0.6886520385742188,-0.18071091175079346,0.17338453233242035
2.1106395721435547,-0.4486863613128662,-1.0091273784637451,0.4242900013923645,0.6886523962020874,-0.1801045686006546,0.17339403927326202
2.1308066844940186,-0.44837328791618347,-1.0111230611801147,0.4261186122894287,0.6886230707168579,-0.17887353897094727,0.17341527342796326
2.1508536338806152,-0.4479958117008209,-1.0130811929702759,0.4279831647872925,0.6885730028152466,-0.1776069849729538,0.17342780530452728
2.1709437370300293,-0.44776204228401184,-1.0140488147735596,0.4289548993110657,0.6885479092597961,-0.1769610196352005,0.17343121767044067
2.1910791397094727,-0.4472319185733795,-1.0159797668457031,0.4309678077697754,0.6885274052619934,-0.17568300664424896,0.1734304577112198
2.211134195327759,-0.44669920206069946,-1.017905592918396,0.432972252368927,0.6885371804237366,-0.174441397190094,0.17341871559619904
2.2311997413635254,-0.4462382197380066,-1.0198397636413574,0.4349735975265503,0.6885626316070557,-0.17323777079582214,0.17338815331459045
2.251277208328247,-0.44602882862091064,-1.0208001136779785,0.43595120310783386,0.6885665655136108,-0.17264287173748016,0.17336773872375488
2.271425247192383,-0.44558483362197876,-1.0226932764053345,0.43790674209594727,0.6885557174682617,-0.17144504189491272,0.17332197725772858
2.29154634475708,-0.4450582265853882,-1.0245252847671509,0.4397750496864319,0.688523530960083,-0.1702476292848587,0.17328044772148132
2.3115484714508057,-0.444478839635849,-1.0263304710388184,0.44162052869796753,0.6885218620300293,-0.16907650232315063,0.17323604226112366
2.331648826599121,-0.4441922903060913,-1.0272324085235596,0.44254955649375916,0.6885342001914978,-0.16850131750106812,0.17320898175239563
2.3517258167266846,-0.44364267587661743,-1.0290544033050537,0.4445144534111023,0.6885985136032104,-0.16735994815826416,0.17313912510871887
2.3717663288116455,-0.4431130290031433,-1.0308877229690552,0.4465632736682892,0.6886734366416931,-0.16624721884727478,0.17305293679237366
2.391819715499878,-0.4428475797176361,-1.031801700592041,0.44758373498916626,0.6887143850326538,-0.16571144759655,0.17300811409950256
2.4119081497192383,-0.44230300188064575,-1.0336018800735474,0.4495394229888916,0.6887778639793396,-0.16467392444610596,0.17292101681232452
2.432096242904663,-0.44166260957717896,-1.0353556871414185,0.45147156715393066,0.6888406276702881,-0.1636325865983963,0.17284132540225983
2.4520986080169678,-0.440938800573349,-1.037084937095642,0.45348456501960754,0.6889118552207947,-0.162563756108284,0.17275701463222504
2.472175121307373,-0.4405621886253357,-1.0379384756088257,0.4544796049594879,0.6889362335205078,-0.16202951967716217,0.17271271347999573
2.492291212081909,-0.4397798180580139,-1.0396164655685425,0.4564555287361145,0.6889752745628357,-0.16095729172229767,0.17262449860572815
2.512329339981079,-0.43892964720726013,-1.0412414073944092,0.4583844840526581,0.6890044808387756,-0.1598801463842392,0.17254507541656494
2.532369613647461,-0.4380214512348175,-1.042843222618103,0.460365891456604,0.689071536064148,-0.15880131721496582,0.17246507108211517
2.552462577819824,-0.43757981061935425,-1.0436506271362305,0.46137335896492004,0.6891171932220459,-0.15827365219593048,0.17241783440113068
2.572538375854492,-0.43672415614128113,-1.045274257659912,0.4634242057800293,0.6892295479774475,-0.15723448991775513,0.17230962216854095
2.5925796031951904,-0.43589815497398376,-1.0468945503234863,0.46545517444610596,0.6893343925476074,-0.15622742474079132,0.1721888929605484
2.6127846240997314,-0.4350348711013794,-1.0484938621520996,0.4674757122993469,0.6894389390945435,-0.1552446335554123,0.17206674814224243
2.6329376697540283,-0.434578537940979,-1.049281358718872,0.4684898853302002,0.6894953846931458,-0.15475310385227203,0.1720075160264969
2.6529603004455566,-0.4336455464363098,-1.0508469343185425,0.47058001160621643,0.6896238923072815,-0.15376067161560059,0.17188669741153717
2.6730198860168457,-0.4327296018600464,-1.052404522895813,0.47271788120269775,0.6897557377815247,-0.1527661383152008,0.1717575192451477
2.693190097808838,-0.43227648735046387,-1.0531774759292603,0.4737945795059204,0.6898191571235657,-0.1522708535194397,0.17168979346752167
2.713195562362671,-0.43133923411369324,-1.0547175407409668,0.4760129153728485,0.6899691820144653,-0.15128713846206665,0.17154785990715027
2.7332499027252197,-0.43031880259513855,-1.056228756904602,0.4782697558403015,0.6901406049728394,-0.15030954778194427,0.17140567302703857
2.7534167766571045,-0.4297780692577362,-1.056972861289978,0.47939783334732056,0.6902287006378174,-0.14982837438583374,0.1713353842496872
2.773536443710327,-0.42867839336395264,-1.0584235191345215,0.4815371632575989,0.6903631687164307,-0.14888405799865723,0.17119772732257843
2.7935783863067627,-0.4275819659233093,-1.0598384141921997,0.4835367798805237,0.6904252767562866,-0.14796599745750427,0.1710558831691742
2.813626527786255,-0.42651477456092834,-1.061228632926941,0.4854046404361725,0.6904592514038086,-0.1470772624015808,0.17090901732444763
2.833709955215454,-0.42597341537475586,-1.0619232654571533,0.48634448647499084,0.6904959082603455,-0.1466435045003891,0.17083421349525452
2.8538894653320312,-0.42487141489982605,-1.0633054971694946,0.48826920986175537,0.6906285881996155,-0.1457795649766922,0.1706870198249817
2.873875379562378,-0.42373308539390564,-1.0647016763687134,0.4903762638568878,0.6908165812492371,-0.1449136883020401,0.17053309082984924
2.8940770626068115,-0.42315474152565,-1.0653964281082153,0.49146580696105957,0.6909066438674927,-0.14447569847106934,0.17045366764068604
2.9141483306884766,-0.42194902896881104,-1.0667849779129028,0.49374836683273315,0.6910779476165771,-0.14359785616397858,0.1702873557806015
2.934211254119873,-0.4207003116607666,-1.068149209022522,0.49602022767066956,0.6912432312965393,-0.1427386999130249,0.17012012004852295
2.9542291164398193,-0.4194883406162262,-1.0694897174835205,0.4981929361820221,0.691403329372406,-0.14191582798957825,0.1699504852294922
2.9743103981018066,-0.41890957951545715,-1.0701556205749512,0.4992524981498718,0.6914874911308289,-0.14151805639266968,0.16986359655857086
2.9943747520446777,-0.4178289771080017,-1.0714668035507202,0.5012313723564148,0.6916248202323914,-0.14075295627117157,0.16968436539173126
3.0144338607788086,-0.4167768359184265,-1.0727760791778564,0.5031968951225281,0.6917732357978821,-0.14001955091953278,0.16949746012687683
3.034583568572998,-0.4162388741970062,-1.0734299421310425,0.5042021870613098,0.6918625831604004,-0.13965754210948944,0.16940270364284515
3.0546696186065674,-0.41507211327552795,-1.0747308731079102,0.5063467621803284,0.69208824634552,-0.13892097771167755,0.16921675205230713
3.074822187423706,-0.4137704372406006,-1.075990915298462,0.508598804473877,0.6923294067382812,-0.13814887404441833,0.16904211044311523
3.0948545932769775,-0.41237854957580566,-1.0772080421447754,0.5108959078788757,0.6925482153892517,-0.1373492181301117,0.16887281835079193
3.114912748336792,-0.4116543233394623,-1.07780921459198,0.5120756030082703,0.6926518082618713,-0.13694335520267487,0.16878585517406464
3.134984254837036,-0.41020992398262024,-1.0789786577224731,0.5143154859542847,0.6928359866142273,-0.13614866137504578,0.16861091554164886
3.15503191947937,-0.4087866544723511,-1.08013916015625,0.5164902210235596,0.693041205406189,-0.13540241122245789,0.16842883825302124
3.1751410961151123,-0.4080931842327118,-1.0807119607925415,0.5175328850746155,0.6931475400924683,-0.13504734635353088,0.16833661496639252
3.19529390335083,-0.4066951274871826,-1.081870198249817,0.519700825214386,0.6933884620666504,-0.1343538612127304,0.16814379394054413
3.215318202972412,-0.4052421450614929,-1.083012580871582,0.5219141840934753,0.6936325430870056,-0.13366056978702545,0.16794949769973755
3.2353639602661133,-0.4037623703479767,-1.0841460227966309,0.5241481065750122,0.6938628554344177,-0.13297823071479797,0.16774903237819672
3.2554571628570557,-0.40302973985671997,-1.084718942642212,0.5252940654754639,0.6939783692359924,-0.13264521956443787,0.1676430106163025
3.275517702102661,-0.40160325169563293,-1.0858432054519653,0.5275216698646545,0.6941763162612915,-0.13197897374629974,0.167426198720932
3.295593738555908,-0.4001670777797699,-1.0869532823562622,0.5298339128494263,0.6944010257720947,-0.13130031526088715,0.1672070026397705
3.3156495094299316,-0.39944395422935486,-1.0874948501586914,0.5309808254241943,0.6945176720619202,-0.13096150755882263,0.16709867119789124
3.335764169692993,-0.39795762300491333,-1.0885676145553589,0.5333157181739807,0.6947831511497498,-0.1302994191646576,0.16688260436058044
3.3558220863342285,-0.3964291512966156,-1.0896037817001343,0.5355494022369385,0.6950409412384033,-0.1296684592962265,0.16667011380195618
3.375913143157959,-0.3948221206665039,-1.0906115770339966,0.5377791523933411,0.6952900290489197,-0.129041388630867,0.16646058857440948
3.395970582962036,-0.3939815163612366,-1.0911144018173218,0.5389612913131714,0.6954286098480225,-0.12871654331684113,0.16635608673095703
3.4160995483398438,-0.3923048973083496,-1.0920954942703247,0.5412961840629578,0.6956865191459656,-0.12805965542793274,0.1661476194858551
3.436126708984375,-0.39062681794166565,-1.0930598974227905,0.5436188578605652,0.6959550976753235,-0.12742094695568085,0.16593694686889648
3.4561755657196045,-0.38981080055236816,-1.0935332775115967,0.5447052717208862,0.6960764527320862,-0.12712737917900085,0.16582834720611572
3.4763572216033936,-0.3882267475128174,-1.0944923162460327,0.5468373894691467,0.6963035464286804,-0.12659040093421936,0.1655968576669693
3.4964053630828857,-0.38667672872543335,-1.0954355001449585,0.5488746762275696,0.6964924931526184,-0.12607941031455994,0.16535484790802002
3.5165650844573975,-0.3850696086883545,-1.0963656902313232,0.5509884357452393,0.696727991104126,-0.12556029856204987,0.16511547565460205
3.536607503890991,-0.3842388689517975,-1.0968316793441772,0.5521153211593628,0.6968770027160645,-0.12529495358467102,0.16499707102775574
3.55667781829834,-0.38260045647621155,-1.097761869430542,0.5544047951698303,0.6971863508224487,-0.12477566301822662,0.1647590547800064
3.5767662525177,-0.38096827268600464,-1.0986788272857666,0.5567715764045715,0.69746994972229,-0.12424260377883911,0.16451656818389893
3.596888780593872,-0.3801511526107788,-1.099134922027588,0.5579742789268494,0.6976040005683899,-0.12397800385951996,0.16439202427864075
3.616950035095215,-0.37845855951309204,-1.1000539064407349,0.5605204105377197,0.6979073882102966,-0.1234472468495369,0.16413614153862
3.6370179653167725,-0.37674808502197266,-1.1009727716445923,0.563066840171814,0.6982573866844177,-0.1229613721370697,0.1638750284910202
3.6571197509765625,-0.37497374415397644,-1.1018480062484741,0.5655570030212402,0.6986262202262878,-0.1224871352314949,0.1636253297328949
3.677194833755493,-0.37406569719314575,-1.1022688150405884,0.5667818784713745,0.6988101601600647,-0.12225165963172913,0.1635049283504486
3.6972858905792236,-0.37219202518463135,-1.1030522584915161,0.5691545605659485,0.6991487741470337,-0.12175276130437851,0.16327594220638275
3.717336416244507,-0.3702954351902008,-1.1037981510162354,0.5714862942695618,0.6994624137878418,-0.12124097347259521,0.16304844617843628
3.737431764602661,-0.36934706568717957,-1.1041687726974487,0.572655439376831,0.6996220350265503,-0.12098951637744904,0.1629321128129959
3.7575347423553467,-0.36749306321144104,-1.1049154996871948,0.5749402046203613,0.699903130531311,-0.12052494287490845,0.1626870334148407
3.7776191234588623,-0.3656551241874695,-1.1056870222091675,0.5772837400436401,0.7001813650131226,-0.12009884417057037,0.1624249964952469
3.7976551055908203,-0.3638259470462799,-1.106493592262268,0.5797766447067261,0.7005138993263245,-0.11969832330942154,0.16214996576309204
3.817798614501953,-0.3629157841205597,-1.106894850730896,0.5810263156890869,0.7006999850273132,-0.11950704455375671,0.16201305389404297
3.8379573822021484,-0.36104199290275574,-1.1077009439468384,0.5836913585662842,0.7011473178863525,-0.1191151812672615,0.16174247860908508
3.858031988143921,-0.359138160943985,-1.1084731817245483,0.5863627195358276,0.7015867233276367,-0.11871849000453949,0.1614755541086197
3.8781070709228516,-0.35817399621009827,-1.1088515520095825,0.5877127051353455,0.7017908096313477,-0.11851916462182999,0.1613401621580124
3.8982365131378174,-0.35626670718193054,-1.1095705032348633,0.5902352929115295,0.702133297920227,-0.1181529313325882,0.16107024252414703
3.918257236480713,-0.3542935252189636,-1.1102677583694458,0.5928137898445129,0.7025130987167358,-0.11778904497623444,0.16080531477928162
3.9384005069732666,-0.3533010184764862,-1.1106071472167969,0.5940954685211182,0.7027220726013184,-0.11761123687028885,0.16067491471767426
3.958536386489868,-0.35122358798980713,-1.1112726926803589,0.5968131422996521,0.703213095664978,-0.11722530424594879,0.1604183167219162
3.9786722660064697,-0.34907767176628113,-1.1119213104248047,0.5996103286743164,0.7037315368652344,-0.11683786660432816,0.16016241908073425
3.9987401962280273,-0.34694811701774597,-1.1125763654708862,0.6024805307388306,0.7042304277420044,-0.11647601425647736,0.15989628434181213
4.018779039382935,-0.3459021747112274,-1.1129097938537598,0.6039438843727112,0.7044661045074463,-0.11630470305681229,0.15975689888000488
4.038876533508301,-0.3439246118068695,-1.1135636568069458,0.6066491007804871,0.7048306465148926,-0.11601532250642776,0.15946219861507416
4.059010028839111,-0.3419807553291321,-1.1141880750656128,0.6091703176498413,0.7051696181297302,-0.11577025800943375,0.15916433930397034
4.078999757766724,-0.34009504318237305,-1.114769458770752,0.6114169955253601,0.7054871916770935,-0.11557740718126297,0.15887106955051422
4.099073171615601,-0.3391735255718231,-1.1150445938110352,0.6124645471572876,0.7056403160095215,-0.11548714339733124,0.15872646868228912
4.119186639785767,-0.33733120560646057,-1.1155900955200195,0.614607572555542,0.7059333324432373,-0.1152934655547142,0.1584322154521942
4.139230489730835,-0.33547332882881165,-1.11613130569458,0.6168346405029297,0.7062065005302429,-0.11508699506521225,0.15812906622886658
4.1593101024627686,-0.33357974886894226,-1.1166660785675049,0.6191191077232361,0.7065021991729736,-0.11489694565534592,0.15782541036605835
4.179419755935669,-0.33259883522987366,-1.1169286966323853,0.6203098893165588,0.7066855430603027,-0.11480066925287247,0.15767863392829895
4.199499607086182,-0.33060333132743835,-1.1174472570419312,0.622749924659729,0.7071008086204529,-0.1146097332239151,0.15739017724990845
4.219584226608276,-0.3285667598247528,-1.1179533004760742,0.6252651214599609,0.7075426578521729,-0.11440753191709518,0.15710316598415375
4.239670276641846,-0.3275468051433563,-1.1181906461715698,0.6264687776565552,0.7077344059944153,-0.11431074142456055,0.15695823729038239
4.259758472442627,-0.32546693086624146,-1.118638038635254,0.628838300704956,0.7081055045127869,-0.11412309110164642,0.1566714644432068
4.279875993728638,-0.3233747184276581,-1.1190640926361084,0.6311661005020142,0.7084581851959229,-0.11395379155874252,0.1563858836889267
4.299876689910889,-0.3223305940628052,-1.1192960739135742,0.6324180364608765,0.7086697220802307,-0.11387717723846436,0.15624107420444489
4.319980621337891,-0.3202821910381317,-1.119777798652649,0.6349557042121887,0.7090874910354614,-0.11374858766794205,0.15594619512557983
4.340045690536499,-0.3182232677936554,-1.120282769203186,0.6376379728317261,0.7095277905464172,-0.11363845318555832,0.15564505755901337
4.3600945472717285,-0.31612926721572876,-1.1207704544067383,0.6403882503509521,0.7099756002426147,-0.11353539675474167,0.15534807741641998
4.380216836929321,-0.31509163975715637,-1.1209995746612549,0.641728937625885,0.7101941108703613,-0.1134851723909378,0.1552017331123352
4.400254726409912,-0.31300240755081177,-1.1214497089385986,0.6444798707962036,0.7106831669807434,-0.11338207870721817,0.15491341054439545
4.420420169830322,-0.31095749139785767,-1.1218723058700562,0.647138774394989,0.711159348487854,-0.11328031867742538,0.15462303161621094
4.44042444229126,-0.30891379714012146,-1.1222496032714844,0.6496431231498718,0.7115735411643982,-0.11318513751029968,0.15433120727539062
4.46052885055542,-0.30788716673851013,-1.1224244832992554,0.6508395075798035,0.7117709517478943,-0.1131492480635643,0.1541869193315506
4.480634927749634,-0.3058115839958191,-1.1227664947509766,0.6531954407691956,0.7121817469596863,-0.11310108751058578,0.1539025902748108
4.500739097595215,-0.30374377965927124,-1.1231149435043335,0.6555747389793396,0.7126337289810181,-0.11307137459516525,0.15362590551376343
4.521273136138916,-0.3016253709793091,-1.1234291791915894,0.6580122113227844,0.7130770087242126,-0.11299782991409302,0.15335960686206818
4.541411876678467,-0.3005315661430359,-1.1235724687576294,0.659274697303772,0.7132964134216309,-0.11294347792863846,0.15322844684123993
4.561472654342651,-0.2983281910419464,-1.1238445043563843,0.6618321537971497,0.7137251496315002,-0.11283542960882187,0.15295976400375366
4.5815370082855225,-0.2961699664592743,-1.1241257190704346,0.6644238829612732,0.7141736745834351,-0.1127622053027153,0.1526794135570526
4.6016035079956055,-0.29513075947761536,-1.124262809753418,0.6656585335731506,0.7143962383270264,-0.11274436861276627,0.1525365263223648
4.621698379516602,-0.2930533289909363,-1.1245195865631104,0.6680746674537659,0.714844286441803,-0.11273140460252762,0.1522524356842041
4.6419196128845215,-0.290985107421875,-1.1247576475143433,0.6703974604606628,0.7152670621871948,-0.11274618655443192,0.15196292102336884
4.661874771118164,-0.28891521692276,-1.1249905824661255,0.6727402806282043,0.7156813144683838,-0.11276359856128693,0.15166567265987396
4.681981563568115,-0.2878775894641876,-1.1251015663146973,0.673945963382721,0.7158938050270081,-0.11276185512542725,0.15151628851890564
4.702014446258545,-0.28579312562942505,-1.1253087520599365,0.6764000058174133,0.7163488864898682,-0.11274221539497375,0.15122002363204956
4.722081661224365,-0.28364452719688416,-1.1254942417144775,0.6789950728416443,0.7168649435043335,-0.11270491033792496,0.15093092620372772
4.742154359817505,-0.2825453579425812,-1.1255884170532227,0.6803441643714905,0.7171494364738464,-0.11269591003656387,0.15078622102737427
4.762218713760376,-0.28031787276268005,-1.1257773637771606,0.6830968856811523,0.7177323698997498,-0.11269865930080414,0.1504908800125122
4.782281398773193,-0.27808213233947754,-1.1259489059448242,0.6858365535736084,0.7182860970497131,-0.11270324885845184,0.15018533170223236
4.80242133140564,-0.2758508026599884,-1.126091718673706,0.6885417103767395,0.7188020944595337,-0.11270055919885635,0.14987322688102722
4.8225085735321045,-0.27473998069763184,-1.1261593103408813,0.6898887753486633,0.7190639972686768,-0.11270958185195923,0.14971604943275452
4.842587471008301,-0.2725367844104767,-1.1263091564178467,0.6925917863845825,0.7195971608161926,-0.11278675496578217,0.14939527213573456
4.862623929977417,-0.2703664302825928,-1.1264475584030151,0.6951916813850403,0.7200875878334045,-0.11290708929300308,0.1490681767463684
4.882687330245972,-0.26928767561912537,-1.1265079975128174,0.6964666247367859,0.7203169465065002,-0.11296924203634262,0.14890334010124207
4.902775526046753,-0.2671204209327698,-1.1266047954559326,0.6989707350730896,0.7207876443862915,-0.11307431012392044,0.14857661724090576
4.922842741012573,-0.26494425535202026,-1.126702904701233,0.70149165391922,0.7213209271430969,-0.11317837238311768,0.14824903011322021
4.942887306213379,-0.2627923786640167,-1.1267918348312378,0.7039220929145813,0.7218700051307678,-0.113301120698452,0.1479216367006302
4.962973594665527,-0.26173415780067444,-1.126837134361267,0.705129861831665,0.7221444845199585,-0.113377146422863,0.14775744080543518
4.983036279678345,-0.25967836380004883,-1.126916527748108,0.7074699997901917,0.7226431369781494,-0.11355936527252197,0.14742441475391388
5.003113031387329,-0.25766319036483765,-1.1269869804382324,0.7098396420478821,0.7231226563453674,-0.11376110464334488,0.14708957076072693
5.023195743560791,-0.25568073987960815,-1.1270431280136108,0.7121967077255249,0.7235969305038452,-0.11397875100374222,0.14675752818584442
5.043282747268677,-0.2547125220298767,-1.1270688772201538,0.7133463621139526,0.7238311171531677,-0.11409784108400345,0.14659084379673004
5.063357830047607,-0.2528097331523895,-1.1271110773086548,0.7155870795249939,0.7242691516876221,-0.11435499042272568,0.14625395834445953
5.083399295806885,-0.2509053647518158,-1.1271401643753052,0.7178089022636414,0.7247063517570496,-0.11461026966571808,0.14591506123542786
5.103460788726807,-0.24992728233337402,-1.1271461248397827,0.718957245349884,0.7249478697776794,-0.1147259995341301,0.14575020968914032
5.123589277267456,-0.247933492064476,-1.1271412372589111,0.7212796211242676,0.7254738211631775,-0.11494304984807968,0.1454293131828308
5.143664598464966,-0.24586525559425354,-1.1270840167999268,0.7236267924308777,0.7260016202926636,-0.11511886119842529,0.1451265513896942
5.163711309432983,-0.24377702176570892,-1.127015471458435,0.7260271906852722,0.726514458656311,-0.11529580503702164,0.1448264867067337
5.183852672576904,-0.24273155629634857,-1.1269989013671875,0.7273007035255432,0.7267853617668152,-0.11540047079324722,0.14467234909534454
5.203934192657471,-0.24064350128173828,-1.1269773244857788,0.7298861145973206,0.7273349761962891,-0.11562976241111755,0.14435924589633942
5.224112510681152,-0.2385375201702118,-1.126935601234436,0.7324420809745789,0.7278852462768555,-0.11586105078458786,0.14404892921447754
5.244133472442627,-0.23644228279590607,-1.126867651939392,0.7349017858505249,0.7284057140350342,-0.11612136662006378,0.143741637468338
5.264218330383301,-0.23539583384990692,-1.1268250942230225,0.736113429069519,0.7286548614501953,-0.11625818908214569,0.143588125705719
5.28434419631958,-0.23331981897354126,-1.1267356872558594,0.7385438680648804,0.7291508913040161,-0.1165502518415451,0.14328020811080933
5.304388046264648,-0.2312551587820053,-1.1265925168991089,0.7409152984619141,0.7296172976493835,-0.11678717285394669,0.1429799646139145
5.324472427368164,-0.23023256659507751,-1.126510739326477,0.7420897483825684,0.7298517227172852,-0.11689668893814087,0.14283037185668945
5.344578266143799,-0.22821347415447235,-1.1263525485992432,0.7444307208061218,0.7303442358970642,-0.11713171005249023,0.14252476394176483
5.364588499069214,-0.22623294591903687,-1.1262397766113281,0.746760368347168,0.7308897972106934,-0.1174461618065834,0.14220023155212402
5.3846423625946045,-0.22426773607730865,-1.1261231899261475,0.7489745616912842,0.7314372062683105,-0.11779091507196426,0.14186856150627136
5.404721975326538,-0.22327831387519836,-1.126054048538208,0.7500690221786499,0.7317067384719849,-0.11795622855424881,0.14170387387275696
5.4248716831207275,-0.22131963074207306,-1.125899076461792,0.7522525787353516,0.7322429418563843,-0.11827167868614197,0.14137515425682068
5.444886207580566,-0.219362273812294,-1.125738263130188,0.7545679807662964,0.7327847480773926,-0.11857731640338898,0.14104272425174713
5.464998006820679,-0.2183830738067627,-1.125647783279419,0.7557458281517029,0.7330492734909058,-0.1187245175242424,0.14087611436843872
5.485085725784302,-0.21639692783355713,-1.1254533529281616,0.7581832408905029,0.7335880398750305,-0.11901069432497025,0.14054280519485474
5.505115985870361,-0.21442435681819916,-1.1252527236938477,0.7606184482574463,0.7341483235359192,-0.11931253969669342,0.14020588994026184
5.5251829624176025,-0.21245688199996948,-1.1250661611557007,0.7630631327629089,0.7347652912139893,-0.11964928358793259,0.13986559212207794
5.5452470779418945,-0.2114756554365158,-1.1249802112579346,0.7642896175384521,0.7351058721542358,-0.11983425915241241,0.13969707489013672
5.5653345584869385,-0.20948398113250732,-1.1247681379318237,0.76667720079422,0.7357499003410339,-0.120188407599926,0.13936743140220642
5.585386037826538,-0.20751211047172546,-1.1245330572128296,0.7690305709838867,0.7363243699073792,-0.12057121843099594,0.13903623819351196
5.605494260787964,-0.20654292404651642,-1.124410629272461,0.7701978087425232,0.7365885376930237,-0.12077624350786209,0.13886946439743042
5.625603437423706,-0.20465320348739624,-1.1241825819015503,0.7725705504417419,0.73712557554245,-0.1212240532040596,0.13853202760219574
5.645676374435425,-0.20277777314186096,-1.1239449977874756,0.7749389410018921,0.737662672996521,-0.12166702002286911,0.13819359242916107
5.665737867355347,-0.20088498294353485,-1.1237074136734009,0.7773358225822449,0.7382236123085022,-0.12211253494024277,0.13785326480865479
5.685827016830444,-0.19993242621421814,-1.1235930919647217,0.778561532497406,0.7385188937187195,-0.12234730273485184,0.13768377900123596
5.706061840057373,-0.19800928235054016,-1.12333345413208,0.7809953689575195,0.7391183376312256,-0.12279859185218811,0.13735844194889069
5.726074457168579,-0.19607111811637878,-1.1230274438858032,0.78338623046875,0.7396804690361023,-0.12322176992893219,0.13704369962215424
5.746102571487427,-0.19414544105529785,-1.122688889503479,0.7857168912887573,0.7401677370071411,-0.12362734228372574,0.13672678172588348
5.766224384307861,-0.1932024359703064,-1.1225192546844482,0.7868719100952148,0.7403826713562012,-0.12384594976902008,0.136565700173378
5.786302089691162,-0.1913820207118988,-1.122194528579712,0.7891456484794617,0.7407980561256409,-0.12432977557182312,0.13624082505702972
5.806427478790283,-0.1896159052848816,-1.1218953132629395,0.7914023399353027,0.7412351965904236,-0.12487228959798813,0.1359141767024994
5.82661247253418,-0.18874019384384155,-1.1217458248138428,0.7925229668617249,0.7414644956588745,-0.12515150010585785,0.13575293123722076
5.8466575145721436,-0.186975359916687,-1.1214320659637451,0.794776201248169,0.7419471740722656,-0.12569895386695862,0.1354392170906067
5.866709470748901,-0.18523994088172913,-1.1210768222808838,0.796932578086853,0.7424226999282837,-0.1262224018573761,0.13513772189617157
5.886816501617432,-0.18439063429832458,-1.1208922863006592,0.7979772090911865,0.7426605224609375,-0.12647873163223267,0.13498805463314056
5.906984806060791,-0.18269483745098114,-1.1205024719238281,0.8000214099884033,0.7431061267852783,-0.12697139382362366,0.13468638062477112
5.9270102977752686,-0.18096908926963806,-1.120116114616394,0.8020973205566406,0.7435616254806519,-0.12746687233448029,0.1343812346458435
5.947082757949829,-0.17925216257572174,-1.119734764099121,0.8041663765907288,0.7440077662467957,-0.12798337638378143,0.1340695172548294
5.967205762863159,-0.17842170596122742,-1.1195380687713623,0.8051502108573914,0.7442158460617065,-0.12824790179729462,0.13391289114952087
5.987276792526245,-0.1768379658460617,-1.1191534996032715,0.8070228099822998,0.7446157932281494,-0.1288047432899475,0.1335919350385666
6.007385015487671,-0.17530487477779388,-1.1187607049942017,0.8087709546089172,0.7450045347213745,-0.12937146425247192,0.13327066600322723
6.027452230453491,-0.17455407977104187,-1.11857008934021,0.8096146583557129,0.7452042698860168,-0.1296645551919937,0.1331082284450531
6.04755425453186,-0.17308402061462402,-1.118180751800537,0.811252772808075,0.745589017868042,-0.13025672733783722,0.13278327882289886
6.067594528198242,-0.17165607213974,-1.1178032159805298,0.8129115700721741,0.7460082769393921,-0.13086293637752533,0.13245825469493866
6.087733030319214,-0.17095136642456055,-1.1176106929779053,0.8137537240982056,0.7462145090103149,-0.13117153942584991,0.13229624927043915
6.10777735710144,-0.16953285038471222,-1.1172086000442505,0.8154680132865906,0.7466164231300354,-0.13178400695323944,0.13197576999664307
6.128403902053833,-0.16811920702457428,-1.116765022277832,0.8171442151069641,0.7469378709793091,-0.1323903501033783,0.1316545456647873
6.148620128631592,-0.16740305721759796,-1.1165359020233154,0.8179975152015686,0.7470970153808594,-0.1326858103275299,0.13149501383304596
6.168602466583252,-0.16597066819667816,-1.1160799264907837,0.8197245001792908,0.7474431991577148,-0.13327418267726898,0.13117791712284088
6.188650369644165,-0.1645430475473404,-1.115635633468628,0.8214884400367737,0.747861921787262,-0.13386699557304382,0.13086764514446259
6.208766937255859,-0.16383874416351318,-1.115412950515747,0.822345495223999,0.7480788826942444,-0.13416604697704315,0.13071319460868835
6.228853225708008,-0.1624143272638321,-1.1149531602859497,0.8240461945533752,0.7484988570213318,-0.1347467452287674,0.13040399551391602
6.248897552490234,-0.16098511219024658,-1.1144640445709229,0.8256748914718628,0.7488393783569336,-0.13531066477298737,0.13008800148963928
6.269105434417725,-0.160261869430542,-1.1142126321792603,0.8264762163162231,0.7489945292472839,-0.13558466732501984,0.12992966175079346
6.289114713668823,-0.1588616669178009,-1.1137170791625977,0.8279862403869629,0.7492913603782654,-0.13615646958351135,0.12960883975028992
6.309237957000732,-0.1574932336807251,-1.1132501363754272,0.8295143842697144,0.7496676445007324,-0.13674446940422058,0.12929758429527283
6.329323768615723,-0.1561453491449356,-1.1127945184707642,0.831120491027832,0.7501094341278076,-0.13733001053333282,0.1289980560541153
6.349400281906128,-0.15547090768814087,-1.1125627756118774,0.8319395780563354,0.750336229801178,-0.1376146376132965,0.1288495659828186
6.369470834732056,-0.15411525964736938,-1.1121093034744263,0.8336299657821655,0.75079745054245,-0.13819313049316406,0.1285509318113327
6.389615058898926,-0.15277494490146637,-1.1116721630096436,0.8353476524353027,0.7512546181678772,-0.13879916071891785,0.12824970483779907
6.409649610519409,-0.1521141082048416,-1.111459732055664,0.8362147808074951,0.7514868378639221,-0.1391150951385498,0.1280995011329651
6.429733991622925,-0.15079741179943085,-1.1110165119171143,0.8379225134849548,0.7519407272338867,-0.1397305428981781,0.12780320644378662
6.449795484542847,-0.1494680643081665,-1.1105581521987915,0.8396268486976624,0.7524071335792542,-0.14033108949661255,0.12750889360904694
6.469937801361084,-0.14811009168624878,-1.1100990772247314,0.8413683772087097,0.7529226541519165,-0.14092972874641418,0.1272195726633072
6.490015983581543,-0.14741060137748718,-1.1098606586456299,0.8422433137893677,0.7531803250312805,-0.14122281968593597,0.12707537412643433
6.510077476501465,-0.14598725736141205,-1.1093981266021729,0.8440216183662415,0.7537449598312378,-0.14182759821414948,0.1267879158258438
6.530146598815918,-0.14455313980579376,-1.1089228391647339,0.8457919955253601,0.7543225288391113,-0.1424231231212616,0.12650209665298462
6.5502097606658936,-0.14385642111301422,-1.1086933612823486,0.8466688990592957,0.7546208500862122,-0.14273183047771454,0.1263565570116043
6.57035493850708,-0.14254000782966614,-1.1082253456115723,0.8483465313911438,0.7551872730255127,-0.14335840940475464,0.12606079876422882
6.590378522872925,-0.1413399577140808,-1.10776686668396,0.8499099612236023,0.7557255029678345,-0.14403831958770752,0.12575523555278778
6.610440969467163,-0.14025935530662537,-1.107276439666748,0.8512723445892334,0.7561718821525574,-0.14474569261074066,0.12544246017932892
6.630613327026367,-0.13975591957569122,-1.1070152521133423,0.8518829941749573,0.756353497505188,-0.14510373771190643,0.12528327107429504
6.650762319564819,-0.13878270983695984,-1.1064759492874146,0.8530340194702148,0.7566592693328857,-0.14582011103630066,0.12495782226324081
6.670755863189697,-0.13829761743545532,-1.106201410293579,0.8535999059677124,0.7567961812019348,-0.1461719274520874,0.12479336559772491
6.6908745765686035,-0.13781477510929108,-1.1059314012527466,0.8541654944419861,0.7569348216056824,-0.14652438461780548,0.12462691217660904
6.710932970046997,-0.1367744356393814,-1.1054136753082275,0.8553901314735413,0.7572636008262634,-0.14716307818889618,0.12429063022136688
6.730987071990967,-0.13574901223182678,-1.104965090751648,0.8566527366638184,0.7576895952224731,-0.14783813059329987,0.12394341826438904
6.751136779785156,-0.13527338206768036,-1.104742407798767,0.8572098612785339,0.7579116821289062,-0.14817136526107788,0.12376795709133148
6.771189212799072,-0.13447408378124237,-1.1043009757995605,0.8581108450889587,0.7583311796188354,-0.148903027176857,0.12340790033340454
6.791255235671997,-0.13373804092407227,-1.1038167476654053,0.8588902354240417,0.7587078213691711,-0.1496170461177826,0.12304884940385818
6.811320066452026,-0.13337157666683197,-1.1035706996917725,0.8593003749847412,0.7588775157928467,-0.1499868631362915,0.1228657066822052
6.8313868045806885,-0.1325940042734146,-1.1030491590499878,0.8602148294448853,0.7591978907585144,-0.15070872008800507,0.12250518798828125
6.8514721393585205,-0.1318134218454361,-1.102500081062317,0.8611592054367065,0.7594884037971497,-0.15142540633678436,0.12214556336402893
6.871527910232544,-0.13103677332401276,-1.1019326448440552,0.8620837330818176,0.7597501277923584,-0.1521252691745758,0.12178150564432144
6.891619920730591,-0.1306529939174652,-1.1016478538513184,0.8625373244285583,0.7598727941513062,-0.15247462689876556,0.12159670889377594
6.911690711975098,-0.12991057336330414,-1.1010849475860596,0.8634167909622192,0.7601224184036255,-0.15318183600902557,0.1212225928902626
6.931747674942017,-0.12918201088905334,-1.1005324125289917,0.8643155097961426,0.7604316473007202,-0.15388742089271545,0.12085682153701782
6.951806306838989,-0.12881822884082794,-1.1002682447433472,0.8647860288619995,0.7606218457221985,-0.15424437820911407,0.12067760527133942
6.971888065338135,-0.12807098031044006,-1.0997275114059448,0.8657352924346924,0.7610135078430176,-0.15491801500320435,0.12032316625118256
6.991976499557495,-0.12726512551307678,-1.0991942882537842,0.8667446970939636,0.7614566087722778,-0.1555635929107666,0.11997395008802414
7.012030601501465,-0.1263989508152008,-1.0986584424972534,0.8677889108657837,0.761932373046875,-0.15619009733200073,0.11962801218032837
7.032103776931763,-0.12595881521701813,-1.0983796119689941,0.8683071732521057,0.7621663212776184,-0.15649005770683289,0.11945607513189316
7.052180051803589,-0.12511718273162842,-1.097827434539795,0.8693247437477112,0.7626301646232605,-0.15711557865142822,0.11910834908485413
7.072251081466675,-0.12432363629341125,-1.0972477197647095,0.870304524898529,0.7630340456962585,-0.15772709250450134,0.11875517666339874
7.092299222946167,-0.12354955077171326,-1.0966479778289795,0.8712779879570007,0.7633863687515259,-0.15833033621311188,0.1183975338935852
7.11237907409668,-0.12317650765180588,-1.0963475704193115,0.8717491030693054,0.7635499238967896,-0.15863387286663055,0.11821674555540085
7.132477760314941,-0.12248153984546661,-1.095737099647522,0.8726031184196472,0.7638288140296936,-0.15924721956253052,0.1178470328450203
7.152500867843628,-0.12185820937156677,-1.0950897932052612,0.8732978701591492,0.7640392780303955,-0.15984252095222473,0.11747031658887863
7.172585725784302,-0.1215723529458046,-1.094748854637146,0.8735787272453308,0.7641127109527588,-0.16012953221797943,0.11727780848741531
7.192653179168701,-0.12103255093097687,-1.0940519571304321,0.8740741014480591,0.7642661929130554,-0.16068215668201447,0.11689604073762894
7.212698459625244,-0.12050385773181915,-1.0933594703674316,0.8745519518852234,0.7644380927085876,-0.1612221598625183,0.11651286482810974
7.23278284072876,-0.12022224813699722,-1.0930172204971313,0.8748226761817932,0.764536440372467,-0.16148324310779572,0.11632240563631058
7.252861499786377,-0.11962214857339859,-1.0923320055007935,0.8754214644432068,0.7647290229797363,-0.16198664903640747,0.11594187468290329
7.27290940284729,-0.11903661489486694,-1.091665267944336,0.8760413527488708,0.7649534940719604,-0.16250915825366974,0.11556784063577652
7.292990684509277,-0.11877492815256119,-1.0913383960723877,0.8763188719749451,0.7650641202926636,-0.1627916693687439,0.11537919193506241
7.31308913230896,-0.11829746514558792,-1.0906962156295776,0.8768290281295776,0.7652995586395264,-0.1633821427822113,0.11500181257724762
7.33315634727478,-0.11785469204187393,-1.0900611877441406,0.8772851824760437,0.7655297517776489,-0.16398251056671143,0.114619180560112
7.3531999588012695,-0.11742500960826874,-1.0894370079040527,0.8777307271957397,0.7657695412635803,-0.16458182036876678,0.1142357885837555
7.373284339904785,-0.11719376593828201,-1.0891228914260864,0.8779764771461487,0.7658961415290833,-0.16486182808876038,0.11404791474342346
7.393346071243286,-0.11672559380531311,-1.0885021686553955,0.8784838914871216,0.7661614418029785,-0.16541233658790588,0.11367407441139221
7.413398265838623,-0.11627251654863358,-1.087912678718567,0.879001796245575,0.7664709687232971,-0.16598515212535858,0.11330243945121765
7.433498382568359,-0.1160723939538002,-1.0876436233520508,0.8792555332183838,0.7666509747505188,-0.16631008684635162,0.11311369389295578
7.453582048416138,-0.11571896821260452,-1.0871180295944214,0.8797217607498169,0.7670037746429443,-0.16699247062206268,0.11272791028022766
7.473679542541504,-0.11538120359182358,-1.0865981578826904,0.880179226398468,0.7673806548118591,-0.16766810417175293,0.11234176158905029
7.493699073791504,-0.11503874510526657,-1.086082100868225,0.8806448578834534,0.7677909731864929,-0.16831891238689423,0.11195901036262512
7.513784646987915,-0.11487230658531189,-1.0858154296875,0.8808669447898865,0.7679965496063232,-0.16862884163856506,0.11176887154579163
7.533855438232422,-0.11454838514328003,-1.085257887840271,0.8812508583068848,0.7683950066566467,-0.16919200122356415,0.11139117181301117
7.553903102874756,-0.11424499750137329,-1.0846930742263794,0.8815987706184387,0.7687971591949463,-0.16972890496253967,0.11101722717285156
7.5739593505859375,-0.11409498006105423,-1.0844249725341797,0.8817884922027588,0.7690271735191345,-0.17000308632850647,0.11083453893661499
7.594170570373535,-0.11382222920656204,-1.0839279890060425,0.8822032809257507,0.7695157527923584,-0.1706111580133438,0.11046619713306427
7.61426305770874,-0.1135968565940857,-1.0834522247314453,0.882563591003418,0.7699812650680542,-0.1712571084499359,0.11008676886558533
7.634285926818848,-0.11343318223953247,-1.082951545715332,0.882777988910675,0.7703637480735779,-0.17187567055225372,0.10969424992799759
7.654370546340942,-0.11335533857345581,-1.082687258720398,0.8828562498092651,0.7705482244491577,-0.17215341329574585,0.10950011759996414
7.674527883529663,-0.113193579018116,-1.082135558128357,0.8830064535140991,0.770926296710968,-0.17265145480632782,0.10911699384450912
7.69461727142334,-0.11300642788410187,-1.0815953016281128,0.8832198977470398,0.7713463306427002,-0.17313188314437866,0.10873164981603622
7.714812755584717,-0.1128615140914917,-1.0811086893081665,0.883447527885437,0.7718149423599243,-0.17369137704372406,0.10833225399255753
7.734981536865234,-0.11281642317771912,-1.0808830261230469,0.8835484981536865,0.7720587253570557,-0.17400412261486053,0.10812578350305557
7.755005836486816,-0.11279858648777008,-1.080459475517273,0.8836802244186401,0.7725517749786377,-0.17469176650047302,0.10769906640052795
7.77509617805481,-0.11285372078418732,-1.0800234079360962,0.8837031722068787,0.7730081081390381,-0.17538028955459595,0.10725609958171844
7.795156717300415,-0.11291921138763428,-1.0797920227050781,0.8836575746536255,0.7732218503952026,-0.1757182776927948,0.10703154653310776
7.815227031707764,-0.113094761967659,-1.0792732238769531,0.8834539651870728,0.7735995054244995,-0.17631906270980835,0.10657989233732224
7.835279941558838,-0.11333384364843369,-1.0786956548690796,0.8831062912940979,0.773883044719696,-0.1768626570701599,0.10611260682344437
7.855328321456909,-0.11358082294464111,-1.0780888795852661,0.8826906681060791,0.7740815877914429,-0.17736297845840454,0.10562256723642349
7.875497102737427,-0.11369214951992035,-1.0777959823608398,0.8824962973594666,0.7741846442222595,-0.17761442065238953,0.10537401586771011
7.895557641983032,-0.11387871950864792,-1.077215552330017,0.8821667432785034,0.7744051218032837,-0.17809608578681946,0.10487592220306396
7.915650367736816,-0.11404797434806824,-1.0766243934631348,0.8818647265434265,0.77463299036026,-0.17853885889053345,0.10437771677970886
7.935703277587891,-0.11421675235033035,-1.0760009288787842,0.8815305829048157,0.7748183012008667,-0.17891961336135864,0.10387185215950012
7.955795526504517,-0.11429222673177719,-1.0756809711456299,0.8813650608062744,0.7749010324478149,-0.17908941209316254,0.10361640155315399
7.9759202003479,-0.11439097672700882,-1.0750194787979126,0.8810876607894897,0.7750561237335205,-0.17936338484287262,0.10310473293066025
7.996119499206543,-0.11444994062185287,-1.0743048191070557,0.8808534145355225,0.7752286791801453,-0.17953568696975708,0.10259967297315598
8.016245365142822,-0.1144673228263855,-1.073935627937317,0.8807525038719177,0.7753208875656128,-0.17959628999233246,0.10234741866588593
8.036275863647461,-0.11449946463108063,-1.0731703042984009,0.8805279731750488,0.775496244430542,-0.1796696037054062,0.10183651000261307
8.056327104568481,-0.11447195708751678,-1.0724033117294312,0.8803843855857849,0.7756766080856323,-0.17970959842205048,0.10131581127643585
8.076422691345215,-0.11443442851305008,-1.07201087474823,0.8803359866142273,0.7757641077041626,-0.1797017902135849,0.10105230659246445
8.096509218215942,-0.11429917067289352,-1.0712144374847412,0.8803158402442932,0.7759451866149902,-0.17963993549346924,0.10052227973937988
8.116586685180664,-0.11412665992975235,-1.0704106092453003,0.8803268074989319,0.7761411666870117,-0.17952850461006165,0.09999089688062668
8.136632919311523,-0.11403374373912811,-1.0700119733810425,0.8803406953811646,0.7762529253959656,-0.17946608364582062,0.09972615540027618
8.156699895858765,-0.11388502269983292,-1.0692453384399414,0.8803585171699524,0.7765259742736816,-0.17939066886901855,0.0991973876953125
8.176792621612549,-0.1138048768043518,-1.0685118436813354,0.8803103566169739,0.776830792427063,-0.1793791651725769,0.09866321086883545
8.196853637695312,-0.11379139870405197,-1.0681451559066772,0.8802406191825867,0.7769715189933777,-0.17938022315502167,0.09839015454053879
8.217070579528809,-0.11377904564142227,-1.067406415939331,0.8800228834152222,0.7772306799888611,-0.17934659123420715,0.09783804416656494
8.237053632736206,-0.11375796049833298,-1.0666621923446655,0.8797646760940552,0.7774602174758911,-0.1792711466550827,0.09727589040994644
8.25722885131836,-0.11373692005872726,-1.0662943124771118,0.8796521425247192,0.7775906324386597,-0.17922846972942352,0.09699588268995285
8.277274131774902,-0.11366324871778488,-1.0655573606491089,0.8794766664505005,0.7778812050819397,-0.17912453413009644,0.09643649309873581
8.297374725341797,-0.11353451758623123,-1.0648359060287476,0.8794185519218445,0.778249979019165,-0.17901378870010376,0.09588487446308136
8.317466974258423,-0.11344471573829651,-1.0644721984863281,0.8794267177581787,0.7784519791603088,-0.17893624305725098,0.09561073035001755
8.337589263916016,-0.11323406547307968,-1.0637389421463013,0.8794836401939392,0.7788761854171753,-0.17874257266521454,0.09506046026945114
8.35773777961731,-0.11298827081918716,-1.062962293624878,0.8795258402824402,0.7792686820030212,-0.17844755947589874,0.0944974422454834
8.377737283706665,-0.11286778002977371,-1.0625611543655396,0.879517674446106,0.7794498801231384,-0.17827291786670685,0.09420947730541229
8.397837400436401,-0.11264687031507492,-1.0617611408233643,0.8794544339179993,0.7798237204551697,-0.1779165267944336,0.09362508356571198
8.417917728424072,-0.11246153712272644,-1.0609914064407349,0.8793481588363647,0.7802667021751404,-0.1775844544172287,0.09303984045982361
8.438024520874023,-0.11227787286043167,-1.0602734088897705,0.8792474865913391,0.7807869911193848,-0.17728711664676666,0.09245581179857254
8.458184003829956,-0.1121777817606926,-1.0599256753921509,0.8791970014572144,0.7810545563697815,-0.1771385371685028,0.09216184914112091
8.478226900100708,-0.111969955265522,-1.059238314628601,0.8790703415870667,0.7815843820571899,-0.17682252824306488,0.09156523644924164
8.498277425765991,-0.11178171634674072,-1.058532476425171,0.8788601160049438,0.7821162343025208,-0.17644278705120087,0.09095863252878189
8.518352746963501,-0.11171294003725052,-1.0581696033477783,0.8787120580673218,0.7823828458786011,-0.17623959481716156,0.09064804762601852
8.538525342941284,-0.11161845177412033,-1.0574012994766235,0.8783264756202698,0.7829005122184753,-0.17577338218688965,0.09001094847917557
8.55858826637268,-0.11156491935253143,-1.0565972328186035,0.8778559565544128,0.7833600044250488,-0.17528952658176422,0.08934088796377182
8.578622579574585,-0.11154159158468246,-1.0561870336532593,0.8775975704193115,0.7835739850997925,-0.17503593862056732,0.08899641782045364
8.598706483840942,-0.11150121688842773,-1.0553553104400635,0.8770530223846436,0.78398197889328,-0.17451992630958557,0.08829068392515182
8.618772983551025,-0.11139970272779465,-1.0544904470443726,0.8765605688095093,0.7844079732894897,-0.17391930520534515,0.08757631480693817
8.638859748840332,-0.11132078617811203,-1.054047703742981,0.8763393759727478,0.7846207618713379,-0.17359532415866852,0.08721346408128738
8.659014225006104,-0.11107604205608368,-1.053185224533081,0.8760198354721069,0.7850711345672607,-0.17295405268669128,0.08647821098566055
8.679025650024414,-0.11093825101852417,-1.052760362625122,0.8758695125579834,0.7852919101715088,-0.1726381927728653,0.08610359579324722
8.69912338256836,-0.11060240119695663,-1.051909327507019,0.8756372928619385,0.785772442817688,-0.1719537079334259,0.08535292744636536
8.71924877166748,-0.11028829962015152,-1.0510462522506714,0.8753846287727356,0.7862797379493713,-0.1712328940629959,0.08459004759788513
8.73938798904419,-0.11015308648347855,-1.0506254434585571,0.8752564787864685,0.7865538597106934,-0.1708945333957672,0.08420170098543167
8.759459733963013,-0.10995817929506302,-1.0498204231262207,0.8749416470527649,0.7871328592300415,-0.1703113168478012,0.08340747654438019
8.779523611068726,-0.10984542965888977,-1.0490587949752808,0.8745638728141785,0.7877601981163025,-0.16983099281787872,0.08259715884923935
8.799593925476074,-0.10981360822916031,-1.0486811399459839,0.8743647933006287,0.7880903482437134,-0.1696000099182129,0.08219003677368164
8.819658279418945,-0.10980173945426941,-1.047927975654602,0.8739619851112366,0.788780689239502,-0.1691514253616333,0.08137177675962448
8.839760541915894,-0.10978205502033234,-1.0471750497817993,0.8736576437950134,0.7894942760467529,-0.16867785155773163,0.08054845780134201
8.859776973724365,-0.1097109466791153,-1.046452283859253,0.8734755516052246,0.7902531027793884,-0.1682126373052597,0.07972190529108047
8.879972219467163,-0.10964170098304749,-1.0460954904556274,0.8734138607978821,0.7906584739685059,-0.1679607629776001,0.0793091431260109
8.900062799453735,-0.10951333492994308,-1.045413613319397,0.8733240365982056,0.7915399074554443,-0.16749386489391327,0.07848692685365677
8.92007327079773,-0.10938402265310287,-1.0447289943695068,0.8732292056083679,0.7924888134002686,-0.16698941588401794,0.07766661792993546
8.94050407409668,-0.10922630876302719,-1.0440093278884888,0.8731504678726196,0.793446958065033,-0.16640008985996246,0.07683881372213364
8.96066427230835,-0.1091366782784462,-1.04362952709198,0.873110830783844,0.79390949010849,-0.16607198119163513,0.07641685009002686
8.980729103088379,-0.10891805589199066,-1.0428380966186523,0.8730460405349731,0.794791579246521,-0.16536229848861694,0.07555155456066132
9.000802040100098,-0.10867433249950409,-1.0420244932174683,0.8729255199432373,0.795653223991394,-0.16462071239948273,0.07466088235378265
9.020888090133667,-0.10854993015527725,-1.0416151285171509,0.8728346824645996,0.7960922718048096,-0.1642446368932724,0.07420901209115982
9.041017293930054,-0.10829456895589828,-1.0408114194869995,0.8726174831390381,0.7970578670501709,-0.16348949074745178,0.07330881804227829
9.061148643493652,-0.108085036277771,-1.0400471687316895,0.8723659515380859,0.7982043623924255,-0.1627606898546219,0.07242678850889206
9.081164836883545,-0.10793204605579376,-1.0393166542053223,0.8721445798873901,0.799552857875824,-0.16204436123371124,0.07157162576913834
9.101281642913818,-0.10787542909383774,-1.0389492511749268,0.8720300793647766,0.800280749797821,-0.16166657209396362,0.07115092873573303
9.121336936950684,-0.1077580600976944,-1.0382001399993896,0.8718113899230957,0.8017816543579102,-0.16086377203464508,0.07031078636646271
9.141397476196289,-0.1076611652970314,-1.0374680757522583,0.8715997338294983,0.8033497333526611,-0.16007287800312042,0.06947454810142517
9.161449670791626,-0.10764805227518082,-1.0367964506149292,0.8713882565498352,0.8050234913825989,-0.1593901365995407,0.06865488737821579
9.181549072265625,-0.10767266899347305,-1.0364841222763062,0.8712801933288574,0.8059032559394836,-0.159089133143425,0.06825374811887741
9.20164942741394,-0.10772418975830078,-1.0358633995056152,0.8710043430328369,0.8076871633529663,-0.15847116708755493,0.06745725870132446
9.221720457077026,-0.10773879289627075,-1.0352230072021484,0.8706679940223694,0.8094586730003357,-0.15778598189353943,0.06665804982185364
9.241777896881104,-0.10774093121290207,-1.0348912477493286,0.8704810738563538,0.8103449940681458,-0.15740866959095,0.06625904887914658
9.261845111846924,-0.10776449739933014,-1.0342302322387695,0.8701053857803345,0.8121640682220459,-0.15663288533687592,0.06546992063522339
9.281897783279419,-0.10787049680948257,-1.0335931777954102,0.869732677936554,0.8140249848365784,-0.15591400861740112,0.06468947976827621
9.301984786987305,-0.10795822739601135,-1.0332773923873901,0.8695194125175476,0.8149388432502747,-0.1555803120136261,0.0642961785197258
9.32204556465149,-0.1081913411617279,-1.0326498746871948,0.869005560874939,0.8166981935501099,-0.15497368574142456,0.06349553912878036
9.342113494873047,-0.10845860093832016,-1.0320597887039185,0.868422269821167,0.8184481859207153,-0.15445354580879211,0.06269357353448868
9.362285137176514,-0.1087329164147377,-1.0315139293670654,0.8678464293479919,0.820268988609314,-0.1539747565984726,0.061913907527923584
9.38235878944397,-0.10885539650917053,-1.0312411785125732,0.8675681948661804,0.8212096095085144,-0.15370342135429382,0.0615352988243103
9.402429580688477,-0.1090763658285141,-1.0306675434112549,0.8669885396957397,0.8231073617935181,-0.15305569767951965,0.06078921630978584
9.42247724533081,-0.10925181955099106,-1.0300740003585815,0.8664168119430542,0.8250185251235962,-0.15231268107891083,0.06004955992102623
9.442561626434326,-0.109341099858284,-1.0297757387161255,0.8661202788352966,0.8259649872779846,-0.1519363671541214,0.05967747047543526
9.462627649307251,-0.1095086932182312,-1.0291833877563477,0.8655374050140381,0.8278467059135437,-0.15118545293807983,0.05892837420105934
9.482680320739746,-0.10968875885009766,-1.0286070108413696,0.8649487495422363,0.8297264575958252,-0.1504637748003006,0.05817527323961258
9.502941131591797,-0.10987994819879532,-1.0280627012252808,0.8643829822540283,0.8316440582275391,-0.14978384971618652,0.05743001028895378
9.523024320602417,-0.10997715592384338,-1.0277986526489258,0.8641084432601929,0.8326152563095093,-0.14944951236248016,0.05706178769469261
9.543138265609741,-0.11014412343502045,-1.0272746086120605,0.8636164665222168,0.8345909118652344,-0.14875458180904388,0.056338436901569366
9.563149213790894,-0.11025918275117874,-1.0267531871795654,0.8632117509841919,0.8365947604179382,-0.1480202078819275,0.055629078298807144
9.583235740661621,-0.11029502749443054,-1.0264908075332642,0.8630353212356567,0.8375927805900574,-0.1476365327835083,0.05527621507644653
9.60334587097168,-0.11035706847906113,-1.0259606838226318,0.862668514251709,0.839538037776947,-0.14686369895935059,0.05456185340881348
9.62341046333313,-0.11045122891664505,-1.0254216194152832,0.8622226119041443,0.8414160013198853,-0.14609932899475098,0.05383318290114403
9.643686294555664,-0.11063465476036072,-1.0248966217041016,0.8616577386856079,0.8432496786117554,-0.14540830254554749,0.05309557914733887
9.663857698440552,-0.110762819647789,-1.0246509313583374,0.861343502998352,0.8441657423973083,-0.1451074779033661,0.052728764712810516
9.683960199356079,-0.11106386035680771,-1.0241767168045044,0.8606672883033752,0.8459784984588623,-0.1445554792881012,0.05199749395251274
9.703979730606079,-0.1113269031047821,-1.0237027406692505,0.8600435853004456,0.8477979898452759,-0.143968865275383,0.05127391591668129
9.724051237106323,-0.1114238053560257,-1.0234586000442505,0.8597657680511475,0.8487053513526917,-0.14364011585712433,0.05091271176934242
9.744133234024048,-0.11152731627225876,-1.0229729413986206,0.8593159914016724,0.8505573868751526,-0.14291708171367645,0.050199322402477264
9.764198303222656,-0.11157301813364029,-1.0225127935409546,0.8589493632316589,0.852445662021637,-0.14218364655971527,0.04949811473488808
9.784258127212524,-0.11160963028669357,-1.0220710039138794,0.858605682849884,0.8543500900268555,-0.14146265387535095,0.04880703613162041
9.804383277893066,-0.11163780838251114,-1.0218559503555298,0.8584228754043579,0.8552998304367065,-0.14111673831939697,0.04846402630209923
9.824524641036987,-0.11170854419469833,-1.0214226245880127,0.8579758405685425,0.8571639060974121,-0.1404280960559845,0.04777544364333153
9.844622373580933,-0.11178745329380035,-1.0209840536117554,0.8574225902557373,0.8589960336685181,-0.1397208720445633,0.04708649218082428
9.86463737487793,-0.11185731738805771,-1.020546317100525,0.8568543195724487,0.8608148097991943,-0.13899675011634827,0.04639995098114014
9.884737014770508,-0.11189128458499908,-1.0203280448913574,0.8565680980682373,0.8617234826087952,-0.13862614333629608,0.0460590198636055
9.904865741729736,-0.11193341761827469,-1.0198935270309448,0.8559958338737488,0.8635213375091553,-0.1378697156906128,0.04537595435976982
9.924885511398315,-0.11192978918552399,-1.0194523334503174,0.8553767800331116,0.8652759790420532,-0.1370725929737091,0.04468691721558571
9.944985628128052,-0.11193022131919861,-1.019240140914917,0.8550731539726257,0.8661551475524902,-0.136688232421875,0.044343750923871994
9.965083837509155,-0.11197308450937271,-1.018839955329895,0.8544930219650269,0.8679323792457581,-0.1359792947769165,0.04366418719291687
9.985151767730713,-0.11205895245075226,-1.0184545516967773,0.8539474606513977,0.8697042465209961,-0.13531111180782318,0.04298713058233261
10.005237102508545,-0.11210718750953674,-1.0180760622024536,0.8534570336341858,0.8714457154273987,-0.13464033603668213,0.042304351925849915
10.025388240814209,-0.11211617290973663,-1.0178982019424438,0.853240966796875,0.8723111748695374,-0.1343226581811905,0.04196182265877724
10.04560136795044,-0.1121274083852768,-1.0175659656524658,0.8528494834899902,0.8740532398223877,-0.13372522592544556,0.04128027707338333
10.065563678741455,-0.11216229945421219,-1.017249345779419,0.8524591326713562,0.8757864236831665,-0.1331695020198822,0.040602702647447586
10.08564043045044,-0.11218676716089249,-1.017090082168579,0.8522567749023438,0.8766463398933411,-0.13289017975330353,0.04026635363698006
10.105701684951782,-0.11226419359445572,-1.0167652368545532,0.8518054485321045,0.8783403635025024,-0.13232547044754028,0.03959837183356285
10.125749588012695,-0.1123584434390068,-1.0164355039596558,0.8513180613517761,0.8800466060638428,-0.13171891868114471,0.03894506022334099
10.146007776260376,-0.11244869977235794,-1.0161106586456299,0.8508458733558655,0.8817875981330872,-0.13108190894126892,0.038307007402181625
10.166093111038208,-0.1124952957034111,-1.015960454940796,0.8506357669830322,0.8826745748519897,-0.1307830661535263,0.03799416869878769
10.186146020889282,-0.11258954554796219,-1.0156621932983398,0.8502340912818909,0.8844313621520996,-0.13019771873950958,0.037370335310697556
10.2062246799469,-0.11266814172267914,-1.0153454542160034,0.8498249053955078,0.8861216306686401,-0.1295837163925171,0.036738086491823196
10.22632360458374,-0.11268660426139832,-1.0151771306991577,0.8496261239051819,0.8869439363479614,-0.12924924492835999,0.03641834482550621
10.24649453163147,-0.11270774155855179,-1.014849305152893,0.8492552042007446,0.8885990381240845,-0.12857644259929657,0.035782232880592346
10.266487121582031,-0.11272051185369492,-1.0147017240524292,0.8490947484970093,0.8894456028938293,-0.12826678156852722,0.03546987846493721
10.286576747894287,-0.11277292668819427,-1.0144251585006714,0.8487758040428162,0.8911580443382263,-0.12768082320690155,0.034856222569942474
10.306632995605469,-0.11283493041992188,-1.014136791229248,0.8484192490577698,0.8928256630897522,-0.12706947326660156,0.03424297645688057
10.326714992523193,-0.11286314576864243,-1.0139793157577515,0.848217785358429,0.8936280012130737,-0.12673847377300262,0.03393295779824257
10.346801519393921,-0.11291906237602234,-1.013647437095642,0.847764253616333,0.8951738476753235,-0.12604890763759613,0.03330378234386444
10.366943359375,-0.113001748919487,-1.0133312940597534,0.8472779989242554,0.8967100381851196,-0.12539388239383698,0.03267674520611763
10.387203454971313,-0.11308672279119492,-1.0130374431610107,0.8468115329742432,0.8982840180397034,-0.12475377321243286,0.03206177055835724
10.407339334487915,-0.11312395334243774,-1.0128964185714722,0.8465976119041443,0.8990906476974487,-0.12443080544471741,0.03176041692495346
10.427526712417603,-0.11317117512226105,-1.0126159191131592,0.8462200164794922,0.9007245898246765,-0.12376262247562408,0.031165068969130516
10.447620391845703,-0.11319882422685623,-1.012326955795288,0.84586501121521,0.9023385047912598,-0.12307308614253998,0.03056744858622551
10.467625617980957,-0.11322026699781418,-1.0121729373931885,0.8456628918647766,0.9031209349632263,-0.12271881103515625,0.030263427644968033
10.487690210342407,-0.11329057067632675,-1.0118441581726074,0.8451815247535706,0.9046236276626587,-0.12199673056602478,0.029640646651387215
10.507866859436035,-0.1134173795580864,-1.011522650718689,0.8446342945098877,0.9061120748519897,-0.12131205201148987,0.02901405468583107
10.527890920639038,-0.11349386721849442,-1.0113781690597534,0.8443683385848999,0.9068740010261536,-0.12100062519311905,0.028704585507512093
10.547981262207031,-0.11365535855293274,-1.0111310482025146,0.8438876867294312,0.9084432721138,-0.12044648826122284,0.028098855167627335
10.568052530288696,-0.11377143859863281,-1.0109020471572876,0.8434774279594421,0.9100160598754883,-0.11989445984363556,0.02749873511493206
10.588411808013916,-0.11381245404481888,-1.0106611251831055,0.8431382775306702,0.9115488529205322,-0.11929211765527725,0.0268961600959301
10.608448266983032,-0.11381467431783676,-1.0105301141738892,0.8429796099662781,0.9122929573059082,-0.11896909773349762,0.026592539623379707
10.628536701202393,-0.11384811252355576,-1.0102670192718506,0.8426217436790466,0.9137469530105591,-0.11834771186113358,0.025985294952988625
10.648802757263184,-0.11390484124422073,-1.0099958181381226,0.8421934247016907,0.915191650390625,-0.11770608276128769,0.025385603308677673
10.668860912322998,-0.11393529176712036,-1.0098676681518555,0.8419668078422546,0.9159256219863892,-0.11738809943199158,0.02509140782058239
10.688925743103027,-0.11398240923881531,-1.0096317529678345,0.8415431976318359,0.9174274206161499,-0.11675887554883957,0.024515148252248764
10.709073543548584,-0.11402667313814163,-1.009429931640625,0.8411841988563538,0.9189485311508179,-0.11618833243846893,0.023950351402163506
10.729193449020386,-0.11404962837696075,-1.009333848953247,0.8410273790359497,0.9197084903717041,-0.11591417342424393,0.023671220988035202
10.749241590499878,-0.11408495903015137,-1.0091437101364136,0.8407548666000366,0.9212232232093811,-0.1153685599565506,0.02311854064464569
10.769302368164062,-0.11409620195627213,-1.008941411972046,0.8404985070228577,0.9227027297019958,-0.11478809267282486,0.02256510779261589
10.789424657821655,-0.1140868067741394,-1.008834719657898,0.8403701782226562,0.9234201908111572,-0.11448259651660919,0.02228458784520626
10.80955171585083,-0.11406377702951431,-1.0086102485656738,0.8400760293006897,0.9248104691505432,-0.1138506755232811,0.02171463519334793
10.829796075820923,-0.11409753561019897,-1.0083783864974976,0.8396801352500916,0.9261592626571655,-0.11323243379592896,0.02113562822341919
10.849875450134277,-0.11414659023284912,-1.0082608461380005,0.8394375443458557,0.9268239140510559,-0.11293494701385498,0.020843837410211563
10.869930982589722,-0.11427108198404312,-1.008026361465454,0.838918924331665,0.9281660914421082,-0.11233863979578018,0.020262423902750015
10.88998794555664,-0.11438119411468506,-1.0078235864639282,0.8384627103805542,0.9295414686203003,-0.11178401112556458,0.019690213724970818
10.91016674041748,-0.11441634595394135,-1.0077307224273682,0.8382750749588013,0.9302467703819275,-0.11150433868169785,0.01941009610891342
10.930259227752686,-0.11446255445480347,-1.0075539350509644,0.8379586338996887,0.9316707253456116,-0.11094381660223007,0.018859079107642174
10.95031452178955,-0.11449483036994934,-1.0073751211166382,0.8376766443252563,0.9331040382385254,-0.1103607714176178,0.01831929199397564
10.970474004745483,-0.11451320350170135,-1.007285714149475,0.8375308513641357,0.9338128566741943,-0.11007004231214523,0.018051082268357277
10.990542888641357,-0.11454449594020844,-1.0071059465408325,0.8371846079826355,0.9351964592933655,-0.10948491096496582,0.017511442303657532
11.010670900344849,-0.11455792933702469,-1.0069265365600586,0.8367298245429993,0.9365416169166565,-0.10889078676700592,0.01696747913956642
11.03076720237732,-0.11457213759422302,-1.0068402290344238,0.836473822593689,0.9372038841247559,-0.10860389471054077,0.016695532947778702
11.05085563659668,-0.11462406069040298,-1.0066851377487183,0.8359886407852173,0.9385375380516052,-0.10807032138109207,0.01616174541413784
11.070969581604004,-0.11469533294439316,-1.006550908088684,0.8356084823608398,0.9398924112319946,-0.10757619887590408,0.015645209699869156
11.091031312942505,-0.1147206500172615,-1.006486415863037,0.835456132888794,0.9405802488327026,-0.10732147097587585,0.015393251553177834
11.111168622970581,-0.11474572867155075,-1.0063531398773193,0.8351804614067078,0.9419552087783813,-0.10678023844957352,0.014895493164658546
11.131173610687256,-0.11475325375795364,-1.0062156915664673,0.8349142670631409,0.9433012008666992,-0.10622268915176392,0.014398721978068352
11.151295900344849,-0.11476583033800125,-1.0061566829681396,0.8347797989845276,0.9439612030982971,-0.10597463697195053,0.014151465147733688
11.171391487121582,-0.11479770392179489,-1.0060453414916992,0.8345080018043518,0.9452723860740662,-0.10549378395080566,0.013663029298186302
11.191418886184692,-0.11482647806406021,-1.0059294700622559,0.8342393040657043,0.9465776681900024,-0.10499119758605957,0.013183471746742725
11.211518049240112,-0.11482042074203491,-1.005859613418579,0.8341150879859924,0.9472246170043945,-0.10470205545425415,0.012944155372679234
11.23161506652832,-0.1147984117269516,-1.0057119131088257,0.8338683843612671,0.948492169380188,-0.10410919040441513,0.012461954727768898
11.251640558242798,-0.11480380594730377,-1.005555510520935,0.8335673809051514,0.9497166275978088,-0.10352301597595215,0.011971249245107174
11.271738767623901,-0.11482585966587067,-1.0054782629013062,0.8333932161331177,0.9503268003463745,-0.10323771089315414,0.011725548654794693
11.291847705841064,-0.11488724499940872,-1.0053339004516602,0.8330401182174683,0.9515475034713745,-0.10269507020711899,0.011235427111387253
11.311862230300903,-0.1149292141199112,-1.0052130222320557,0.832758903503418,0.9527896046638489,-0.10218863189220428,0.01075578760355711
11.331936836242676,-0.11493664234876633,-1.0051562786102295,0.8326464295387268,0.9534162878990173,-0.10193493962287903,0.01052012573927641
11.352030038833618,-0.11492029577493668,-1.0050327777862549,0.83246248960495,0.9546835422515869,-0.10137993842363358,0.010057513602077961
11.372072696685791,-0.11486216634511948,-1.0048800706863403,0.8322883248329163,0.9559404850006104,-0.10073272138834,0.009594698436558247
11.39219617843628,-0.11482729017734528,-1.004732608795166,0.832086443901062,0.9571927189826965,-0.10010001063346863,0.009131701663136482
11.412292957305908,-0.1148323193192482,-1.0046662092208862,0.8319664001464844,0.957817792892456,-0.09980753809213638,0.008899875916540623
11.432363510131836,-0.11490067094564438,-1.0045496225357056,0.831686794757843,0.9590722322463989,-0.0992785096168518,0.008438654243946075
11.452437400817871,-0.1149466261267662,-1.004490613937378,0.8315358757972717,0.9596894979476929,-0.09902101010084152,0.00820663571357727
11.472508430480957,-0.11500546336174011,-1.0043561458587646,0.8312469124794006,0.9608863592147827,-0.09846775978803635,0.007735070306807756
11.492576837539673,-0.11501545459032059,-1.0042179822921753,0.8309972286224365,0.9620500206947327,-0.09789619594812393,0.007257766090333462
11.512791633605957,-0.11499250680208206,-1.004080891609192,0.8307723999023438,0.9632025957107544,-0.09731125831604004,0.006776731926947832
11.532875776290894,-0.11498930305242538,-1.0040167570114136,0.8306578397750854,0.963786244392395,-0.09702718257904053,0.0065375748090445995
11.552942752838135,-0.1149975061416626,-1.0038940906524658,0.8304352760314941,0.9649727940559387,-0.09646828472614288,0.006064144894480705
11.573009014129639,-0.11502593010663986,-1.0037778615951538,0.8302202224731445,0.9661794900894165,-0.0959208607673645,0.005598690360784531
11.59309458732605,-0.1150340661406517,-1.0037202835083008,0.830125093460083,0.9667810201644897,-0.09564610570669174,0.0053669787012040615
11.613150596618652,-0.11502985656261444,-1.003600835800171,0.8299484252929688,0.9679628610610962,-0.09508349746465683,0.004900830332189798
11.63338017463684,-0.11501726508140564,-1.0034743547439575,0.8297576904296875,0.9691144227981567,-0.09450522065162659,0.004430094733834267
11.65346622467041,-0.11502957344055176,-1.0034099817276,0.8296324610710144,0.9696789383888245,-0.09422110766172409,0.004193454049527645
11.673652172088623,-0.11509279161691666,-1.0032814741134644,0.8293207287788391,0.9707803130149841,-0.09367331117391586,0.0037151160649955273
11.69416093826294,-0.11520648002624512,-1.0031843185424805,0.8289872407913208,0.9718801379203796,-0.09321685880422592,0.0032393878791481256
11.714322566986084,-0.11525965481996536,-1.0031453371047974,0.8288390636444092,0.9724355340003967,-0.09300507605075836,0.0030041032005101442
11.73431658744812,-0.1153426468372345,-1.0030721426010132,0.8285813331604004,0.9735538959503174,-0.09257347136735916,0.0025386649649590254
11.754895687103271,-0.11538393795490265,-1.0029842853546143,0.8283576965332031,0.9746720790863037,-0.09207937121391296,0.0020774519070982933
11.774983406066895,-0.11539773643016815,-1.002936601638794,0.8282504677772522,0.9752293229103088,-0.09181895852088928,0.0018478702986612916
11.795048236846924,-0.11542188376188278,-1.0028469562530518,0.8280528783798218,0.9763392210006714,-0.09131236374378204,0.001392112229950726
11.81528115272522,-0.11544293165206909,-1.0028092861175537,0.8279565572738647,0.9768938422203064,-0.09107913821935654,0.0011674631386995316
11.835386753082275,-0.11548227816820145,-1.0027364492416382,0.8277730345726013,0.9779908657073975,-0.09061918407678604,0.0007225434528663754
11.855488300323486,-0.11677543818950653,-1.004510521888733,0.8284801840782166,0.9739755988121033,-0.09184812754392624,-0.001731235533952713
11.875534057617188,-0.11803160607814789,-1.006307601928711,0.8292689323425293,0.9694591760635376,-0.09328126162290573,-0.003946107812225819
11.89561653137207,-0.12052512168884277,-1.0098766088485718,0.8308224081993103,0.9605876803398132,-0.09611549228429794,-0.008310490287840366
11.915735244750977,-0.12298930436372757,-1.0134061574935913,0.8323559165000916,0.9519393444061279,-0.09889022260904312,-0.012585435062646866
11.935785293579102,-0.12420067936182022,-1.0151541233062744,0.8331316113471985,0.9476968050003052,-0.10024672746658325,-0.01469067670404911
11.955889225006104,-0.1265438050031662,-1.0186113119125366,0.8346924781799316,0.9393671154975891,-0.10285579413175583,-0.018842212855815887
11.975915908813477,-0.12765251100063324,-1.0203239917755127,0.835479199886322,0.9352923631668091,-0.10409662872552872,-0.02088739164173603
11.99603533744812,-0.12971237301826477,-1.023722529411316,0.837051272392273,0.9273188710212708,-0.10644641518592834,-0.024926243349909782
12.016086339950562,-0.1315675675868988,-1.02707839012146,0.8385902047157288,0.9195905923843384,-0.1086142510175705,-0.028894316405057907
12.036162614822388,-0.13244539499282837,-1.02873957157135,0.8393716216087341,0.9158217310905457,-0.10965985059738159,-0.030850518494844437
12.056297540664673,-0.13419121503829956,-1.0320134162902832,0.8409238457679749,0.9084287285804749,-0.11171017587184906,-0.034710370004177094
12.076313972473145,-0.1359003335237503,-1.035230040550232,0.842432975769043,0.9012046456336975,-0.1136934831738472,-0.03851018473505974
12.096488952636719,-0.13757777214050293,-1.038403034210205,0.8438427448272705,0.8941252827644348,-0.11563661694526672,-0.04225985333323479
12.116623878479004,-0.13839493691921234,-1.0399826765060425,0.8445204496383667,0.8906533718109131,-0.1166040301322937,-0.04411397874355316
12.13666319847107,-0.14001816511154175,-1.0431171655654907,0.8458581566810608,0.8838157653808594,-0.11853915452957153,-0.04778764769434929
12.157087564468384,-0.14157649874687195,-1.0462110042572021,0.8471474051475525,0.8771186470985413,-0.12040361016988754,-0.05141623318195343
12.177202701568604,-0.14232602715492249,-1.0477383136749268,0.8478007316589355,0.8738177418708801,-0.12130571156740189,-0.053216446191072464
12.197365283966064,-0.1437569111585617,-1.0507609844207764,0.8490946292877197,0.8673244714736938,-0.12305227667093277,-0.05678451806306839
12.217372417449951,-0.1450634002685547,-1.0537320375442505,0.850432276725769,0.8609306216239929,-0.12469476461410522,-0.06032462418079376
12.237448453903198,-0.14568229019641876,-1.0551966428756714,0.8510828614234924,0.8577481508255005,-0.1254776269197464,-0.062089767307043076
12.257515668869019,-0.14682485163211823,-1.0580792427062988,0.8523850440979004,0.8514162302017212,-0.12695519626140594,-0.0656103789806366
12.277634620666504,-0.14792975783348083,-1.060908317565918,0.8536537885665894,0.8451551795005798,-0.12839648127555847,-0.06910911202430725
12.297710418701172,-0.14846234023571014,-1.062306523323059,0.8543023467063904,0.842080295085907,-0.12911111116409302,-0.07084391266107559
12.317785024642944,-0.14948871731758118,-1.065084457397461,0.8555745482444763,0.8360441327095032,-0.1305335909128189,-0.07428482919931412
12.337939262390137,-0.15043877065181732,-1.0678446292877197,0.8567826151847839,0.8301376104354858,-0.13193748891353607,-0.07769375294446945
12.357945442199707,-0.15088491141796112,-1.069209337234497,0.8573603630065918,0.8272190690040588,-0.1326126605272293,-0.07938725501298904
12.378050804138184,-0.1517583578824997,-1.0718879699707031,0.8585057854652405,0.8214106559753418,-0.13392068445682526,-0.08276060223579407
12.39812159538269,-0.15253286063671112,-1.0745015144348145,0.8596752285957336,0.8156847953796387,-0.1351267546415329,-0.0861058160662651
12.418200016021729,-0.1532442718744278,-1.0770812034606934,0.8608392477035522,0.8100603222846985,-0.13631145656108856,-0.08942732214927673
12.438479661941528,-0.15359370410442352,-1.0783624649047852,0.8614251613616943,0.8072930574417114,-0.13691824674606323,-0.09107722342014313
12.458557367324829,-0.1543043553829193,-1.080899953842163,0.8625560402870178,0.8017985224723816,-0.1381455659866333,-0.09436409920454025
12.478642225265503,-0.15499845147132874,-1.0833927392959595,0.8636358380317688,0.7963722944259644,-0.13934634625911713,-0.09762533009052277
12.498937129974365,-0.15533128380775452,-1.084623098373413,0.864147961139679,0.7936841249465942,-0.13992740213871002,-0.09924674779176712
12.519042491912842,-0.1559702754020691,-1.0870500802993774,0.8651559948921204,0.7883754372596741,-0.14105923473834991,-0.10246802121400833
12.539137363433838,-0.15653733909130096,-1.089431881904602,0.866165280342102,0.7831483483314514,-0.14211642742156982,-0.10566418617963791
12.560015678405762,-0.1570044457912445,-1.0917704105377197,0.8671949505805969,0.7780191898345947,-0.14308767020702362,-0.10883335769176483
12.58017110824585,-0.15721002221107483,-1.092926025390625,0.8677229881286621,0.7754954099655151,-0.14355452358722687,-0.11040788143873215
12.600210666656494,-0.1576193869113922,-1.0952118635177612,0.8687923550605774,0.7705181837081909,-0.14450682699680328,-0.11353714764118195
12.620254278182983,-0.15806803107261658,-1.0974583625793457,0.8698261380195618,0.7656040191650391,-0.14548295736312866,-0.11664487421512604
12.640339136123657,-0.15831249952316284,-1.0985649824142456,0.8703159093856812,0.7631579637527466,-0.14598298072814941,-0.1181921735405922
12.660433292388916,-0.15878131985664368,-1.1007449626922607,0.8712385892868042,0.7582906484603882,-0.14694882929325104,-0.1212749183177948
12.680513620376587,-0.15918242931365967,-1.102888822555542,0.8721191883087158,0.7534805536270142,-0.14787426590919495,-0.12433745712041855
12.700581789016724,-0.15934988856315613,-1.1039475202560425,0.8725751042366028,0.7511040568351746,-0.1483159065246582,-0.12585996091365814
12.720694780349731,-0.15961414575576782,-1.1060312986373901,0.8735215663909912,0.7464084625244141,-0.14912885427474976,-0.12888513505458832
12.740764856338501,-0.15978938341140747,-1.1080689430236816,0.8745075464248657,0.7417958378791809,-0.14985080063343048,-0.13188576698303223
12.760840892791748,-0.15990260243415833,-1.110058069229126,0.8754515051841736,0.7372252345085144,-0.1504957675933838,-0.13487310707569122
12.780915260314941,-0.15995751321315765,-1.1110320091247559,0.8758969306945801,0.7349430322647095,-0.15080393850803375,-0.13636435568332672
12.800982236862183,-0.16007426381111145,-1.1129335165023804,0.8767750859260559,0.7303937673568726,-0.15139487385749817,-0.1393408477306366
12.821039915084839,-0.16023199260234833,-1.1147938966751099,0.8777024745941162,0.7259479761123657,-0.15204955637454987,-0.14229387044906616
12.841175556182861,-0.16032911837100983,-1.1157160997390747,0.8781944513320923,0.7237806916236877,-0.15241697430610657,-0.14375737309455872
12.861270904541016,-0.1605333387851715,-1.1175446510314941,0.8791968822479248,0.719530463218689,-0.15319333970546722,-0.14665842056274414
12.881362676620483,-0.16069604456424713,-1.1193451881408691,0.8801450729370117,0.7153435945510864,-0.15392376482486725,-0.14953136444091797
12.901463031768799,-0.1608116179704666,-1.1211097240447998,0.8809601068496704,0.7111769318580627,-0.1545548141002655,-0.1523854285478592
12.921553373336792,-0.16086792945861816,-1.1219806671142578,0.8813018798828125,0.7091122269630432,-0.15485042333602905,-0.15380363166332245
12.941630840301514,-0.16099101305007935,-1.123694658279419,0.8818948864936829,0.7050132751464844,-0.15540775656700134,-0.1566256433725357
12.961679220199585,-0.16110441088676453,-1.1253740787506104,0.8825386166572571,0.7009910941123962,-0.15596655011177063,-0.1594245284795761
12.981774091720581,-0.16115763783454895,-1.12619948387146,0.8829047679901123,0.6989949941635132,-0.15625041723251343,-0.16081924736499786
13.001838207244873,-0.16124700009822845,-1.1278228759765625,0.8837665915489197,0.6950541734695435,-0.15684308111667633,-0.16359412670135498
13.021889209747314,-0.16132067143917084,-1.1294113397598267,0.8846883177757263,0.6911571025848389,-0.15745149552822113,-0.16634953022003174
13.041969537734985,-0.16134527325630188,-1.130190134048462,0.8851466178894043,0.6892202496528625,-0.1577361822128296,-0.16771836578845978
13.062057256698608,-0.16139046847820282,-1.1317182779312134,0.8859822154045105,0.6853684782981873,-0.15826697647571564,-0.17043642699718475
13.082135438919067,-0.1614246666431427,-1.1332119703292847,0.8866482973098755,0.6815539598464966,-0.1587303876876831,-0.17312964797019958
13.102187871932983,-0.1614229679107666,-1.134688377380371,0.8871583342552185,0.677805483341217,-0.1591542363166809,-0.17579831182956696
13.122286081314087,-0.16141092777252197,-1.1354210376739502,0.8873732686042786,0.6759592294692993,-0.15935860574245453,-0.17712344229221344
13.142420530319214,-0.16137154400348663,-1.136866807937622,0.8878333568572998,0.6723106503486633,-0.15975408256053925,-0.1797604262828827
13.162473201751709,-0.1612996906042099,-1.1382719278335571,0.8885093927383423,0.6687146425247192,-0.1601443737745285,-0.18238362669944763
13.182510137557983,-0.16124768555164337,-1.1389570236206055,0.888934850692749,0.6669328212738037,-0.1603347361087799,-0.1836906373500824
13.202597618103027,-0.1611180156469345,-1.1402963399887085,0.8898915648460388,0.6634106636047363,-0.16071803867816925,-0.1862906515598297
13.22280502319336,-0.16101089119911194,-1.141602635383606,0.8907956480979919,0.6599421501159668,-0.1611136645078659,-0.18886691331863403
13.242784023284912,-0.16096551716327667,-1.1428881883621216,0.8915368318557739,0.6565233469009399,-0.16153518855571747,-0.1914176493883133
13.262890338897705,-0.16097266972064972,-1.143523097038269,0.8918284177780151,0.6548346281051636,-0.16175274550914764,-0.1926816701889038
13.283119678497314,-0.16102051734924316,-1.1447758674621582,0.8922806978225708,0.6514723300933838,-0.1621818244457245,-0.19519512355327606
13.303102493286133,-0.16107051074504852,-1.146001935005188,0.8926680088043213,0.6481465101242065,-0.16258367896080017,-0.1976873278617859
13.323164701461792,-0.1610807627439499,-1.1466064453125,0.8928834795951843,0.6464922428131104,-0.16277672350406647,-0.19892928004264832
13.343241930007935,-0.161086767911911,-1.1477969884872437,0.8933759331703186,0.643243134021759,-0.16315877437591553,-0.20139357447624207
13.363281011581421,-0.16108283400535583,-1.1489589214324951,0.8939058184623718,0.6400539875030518,-0.16353751718997955,-0.203835591673851
13.383513689041138,-0.16106882691383362,-1.150089144706726,0.8944066166877747,0.6369052529335022,-0.16389459371566772,-0.20625491440296173
13.40359354019165,-0.16105657815933228,-1.1506428718566895,0.8946428894996643,0.6353417634963989,-0.16406691074371338,-0.20745640993118286
13.42376708984375,-0.16103839874267578,-1.1517282724380493,0.8950434327125549,0.6322340965270996,-0.16439400613307953,-0.20984378457069397
13.443788290023804,-0.16103453934192657,-1.1527879238128662,0.8953521847724915,0.629162073135376,-0.16468866169452667,-0.21221277117729187
13.463934659957886,-0.16104036569595337,-1.1533095836639404,0.8954800963401794,0.62764573097229,-0.16482897102832794,-0.21339014172554016
13.48393988609314,-0.16104264557361603,-1.1543375253677368,0.8957319259643555,0.6246476173400879,-0.16510331630706787,-0.21572937071323395
13.504020929336548,-0.16101376712322235,-1.155341386795044,0.89604252576828,0.621707022190094,-0.16537494957447052,-0.21804377436637878
13.524101734161377,-0.1609307825565338,-1.1563212871551514,0.8964934945106506,0.6188081502914429,-0.16562841832637787,-0.22034256160259247
13.54419207572937,-0.1608831286430359,-1.1568028926849365,0.896744430065155,0.6173797249794006,-0.1657530516386032,-0.22148457169532776
13.56425929069519,-0.16077890992164612,-1.1577489376068115,0.8972364068031311,0.6145347356796265,-0.16598336398601532,-0.22375831007957458
13.584311485290527,-0.16069263219833374,-1.1586673259735107,0.8976020812988281,0.61171555519104,-0.16618630290031433,-0.22601142525672913
13.604419469833374,-0.16066062450408936,-1.1591145992279053,0.8977394104003906,0.6103277802467346,-0.1662806123495102,-0.22712871432304382
13.624492883682251,-0.16061533987522125,-1.1599928140640259,0.8979504108428955,0.6075785756111145,-0.1664714217185974,-0.2293555736541748
13.644545555114746,-0.16056673228740692,-1.1608532667160034,0.8981894254684448,0.6048831939697266,-0.16668032109737396,-0.23156769573688507
13.664645910263062,-0.16053250432014465,-1.1612762212753296,0.8983315825462341,0.6035457849502563,-0.1667831540107727,-0.2326698899269104
13.68475079536438,-0.16042637825012207,-1.162102222442627,0.8986998200416565,0.6008976697921753,-0.16697609424591064,-0.2348630279302597
13.704777956008911,-0.16030213236808777,-1.1629019975662231,0.8990955352783203,0.5982824563980103,-0.16715165972709656,-0.237039253115654
13.725176811218262,-0.16021329164505005,-1.163682222366333,0.8994189500808716,0.5956969261169434,-0.16734082996845245,-0.23919247090816498
13.74533724784851,-0.16020163893699646,-1.1640639305114746,0.8995464444160461,0.5944216251373291,-0.1674509346485138,-0.24025799334049225
13.765446424484253,-0.16023920476436615,-1.1648179292678833,0.8997043371200562,0.5919092893600464,-0.1676914244890213,-0.24237005412578583
13.78543758392334,-0.16031606495380402,-1.1655585765838623,0.8997853994369507,0.5894611477851868,-0.1679416000843048,-0.24445703625679016
13.805673599243164,-0.16034412384033203,-1.1659244298934937,0.8997922539710999,0.5882471203804016,-0.16805139183998108,-0.2454928457736969
13.825762271881104,-0.16035066545009613,-1.1666375398635864,0.8998183012008667,0.5858155488967896,-0.16822881996631622,-0.24755479395389557
13.845861911773682,-0.16030842065811157,-1.1673237085342407,0.8999411463737488,0.5833951830863953,-0.16836537420749664,-0.24960558116436005
13.86611557006836,-0.1602553278207779,-1.1679846048355103,0.9001511335372925,0.5810149908065796,-0.1684928834438324,-0.2516421377658844
13.886256456375122,-0.16022463142871857,-1.168306827545166,0.9002623558044434,0.5798356533050537,-0.16855120658874512,-0.2526542544364929
13.906381607055664,-0.16014787554740906,-1.1689376831054688,0.9004502296447754,0.5774950981140137,-0.1686503291130066,-0.2546655237674713
13.926398515701294,-0.16005367040634155,-1.169553279876709,0.9006402492523193,0.575198769569397,-0.1687394082546234,-0.2566588521003723
13.946482419967651,-0.16000774502754211,-1.1698555946350098,0.9007418155670166,0.5740710496902466,-0.16878584027290344,-0.2576490640640259
13.966582298278809,-0.15992283821105957,-1.1704481840133667,0.9009062647819519,0.5718352198600769,-0.16885964572429657,-0.25962042808532715
13.986655235290527,-0.1598549485206604,-1.1710240840911865,0.9009650349617004,0.569625198841095,-0.1689148247241974,-0.26157480478286743
14.006809711456299,-0.1597912311553955,-1.171586513519287,0.9009771943092346,0.5674477815628052,-0.16897517442703247,-0.2635084092617035
14.026922941207886,-0.15976682305335999,-1.1718627214431763,0.9009740948677063,0.5663843750953674,-0.16901591420173645,-0.26446399092674255
14.047041654586792,-0.15971779823303223,-1.1724048852920532,0.9009961485862732,0.5642975568771362,-0.1691061109304428,-0.26635897159576416
14.067088842391968,-0.15965670347213745,-1.1729316711425781,0.9010774493217468,0.5622534155845642,-0.16919833421707153,-0.26823851466178894
14.087164878845215,-0.15961211919784546,-1.1731899976730347,0.9011527895927429,0.5612398386001587,-0.16924095153808594,-0.26917392015457153
14.107282638549805,-0.15951965749263763,-1.17369544506073,0.9012879133224487,0.559226393699646,-0.16931584477424622,-0.27103304862976074
14.127393007278442,-0.15943226218223572,-1.1741845607757568,0.9013512134552002,0.5572314858436584,-0.16936258971691132,-0.2728732228279114
14.147419452667236,-0.15938058495521545,-1.174660563468933,0.9013015031814575,0.555252194404602,-0.1694059669971466,-0.27470090985298157
14.167526006698608,-0.15936699509620667,-1.1748950481414795,0.9012452960014343,0.5542728304862976,-0.16943290829658508,-0.2756090760231018
14.187596321105957,-0.15936259925365448,-1.1753551959991455,0.9010670781135559,0.5523353815078735,-0.16949455440044403,-0.27741342782974243
14.207656860351562,-0.15934856235980988,-1.175802230834961,0.9009093046188354,0.5504451990127563,-0.16955341398715973,-0.27919667959213257
14.22782826423645,-0.15932759642601013,-1.1760202646255493,0.9008620977401733,0.5495112538337708,-0.16957415640354156,-0.28008344769477844
14.247912168502808,-0.15925712883472443,-1.1764447689056396,0.9008538126945496,0.5476797223091125,-0.16959673166275024,-0.2818455100059509
14.26802110671997,-0.15915735065937042,-1.1768522262573242,0.9009041786193848,0.5458781719207764,-0.1695885956287384,-0.28359466791152954
14.288150787353516,-0.1590682715177536,-1.1772469282150269,0.9009000658988953,0.5441046953201294,-0.16957725584506989,-0.28532540798187256
14.3082754611969,-0.15903480350971222,-1.1774413585662842,0.9008515477180481,0.5432183742523193,-0.16957774758338928,-0.28618475794792175
14.32827091217041,-0.1589997112751007,-1.1778254508972168,0.9006616473197937,0.5414599776268005,-0.16959857940673828,-0.2878881096839905
14.348379135131836,-0.15896932780742645,-1.1782008409500122,0.9004859924316406,0.5397419929504395,-0.16962914168834686,-0.28957438468933105
14.368430614471436,-0.15894344449043274,-1.1783841848373413,0.9004406929016113,0.5388999581336975,-0.16964027285575867,-0.2904124855995178
14.388575792312622,-0.1588555872440338,-1.1787405014038086,0.900424063205719,0.5372246503829956,-0.16963587701320648,-0.29208341240882874
14.408689498901367,-0.15871943533420563,-1.1790831089019775,0.9004514813423157,0.5355385541915894,-0.16958382725715637,-0.2937467396259308
14.428719520568848,-0.15859459340572357,-1.1794134378433228,0.9004193544387817,0.5338771939277649,-0.1695278286933899,-0.29539281129837036
14.448813438415527,-0.15855014324188232,-1.1795743703842163,0.9003667831420898,0.5330660939216614,-0.1695089489221573,-0.29620760679244995
14.468967914581299,-0.15850704908370972,-1.1798862218856812,0.900160551071167,0.5314766764640808,-0.16948989033699036,-0.2978236675262451
14.488987445831299,-0.1584927886724472,-1.180188536643982,0.8998736143112183,0.5299155116081238,-0.1694810390472412,-0.29942551255226135
14.509057521820068,-0.1584790050983429,-1.180336833000183,0.8997379541397095,0.5291450619697571,-0.16946963965892792,-0.30022120475769043
