liuyurong129/humanoid-gym/humanoid/data/target_q_20250521-002357.csv
timestamp,joint_1,joint_2,joint_3,joint_4,joint_5,joint_6
0.00021123886108398438,0.0,0.0,0.0,0.0,0.0,0.0
0.020322322845458984,0.0,0.0,0.0,0.0,0.0,0.0
0.04037904739379883,0.0,0.0,0.0,0.0,0.0,0.0
0.060431480407714844,-0.7878957,-0.4524699,0.2158556,0.99399674,-0.36013624,0.30508757
0.08050251007080078,-1.303511,-0.69575083,0.3189782,0.9963071,-0.25758862,0.42477936
0.10071873664855957,-1.3193806,-0.7292246,0.34927845,0.97380763,-0.24351093,0.42799133
0.12080025672912598,-1.3223437,-0.75162685,0.37384313,0.96028954,-0.2343615,0.42745417
0.14083027839660645,-1.3210413,-0.75693303,0.37985831,0.9587276,-0.23315205,0.42684942
0.1608724594116211,-1.3211114,-0.7575967,0.3823402,0.95870703,-0.23243552,0.42672044
0.18096685409545898,-1.3188043,-0.7576138,0.38645065,0.96044767,-0.23013745,0.42607635
0.20107412338256836,-1.3192595,-0.7572001,0.38661832,0.9598932,-0.22984163,0.42613357
0.22112441062927246,-1.3154914,-0.7571342,0.38967103,0.9613015,-0.2279163,0.4255404
0.24124407768249512,-1.312232,-0.7579314,0.38963908,0.96091664,-0.2271436,0.4255156
0.2612605094909668,-1.3132524,-0.75758266,0.38952446,0.960494,-0.22704794,0.4253636
0.2813377380371094,-1.3120587,-0.7578429,0.38986218,0.96100926,-0.22669716,0.42524314
0.3014037609100342,-1.3069444,-0.75871336,0.3931466,0.9623785,-0.22432359,0.42457694
0.32146573066711426,-1.3046381,-0.7585734,0.39644608,0.96265805,-0.22253996,0.42425835
0.3415260314941406,-1.3026001,-0.7587564,0.39709517,0.9630282,-0.22148341,0.42390013
0.36165475845336914,-1.3014494,-0.7589282,0.3974256,0.9630175,-0.22096883,0.42382562
0.38172268867492676,-1.3010297,-0.7588794,0.39731076,0.96289253,-0.22089748,0.42366582
0.4017651081085205,-1.2962546,-0.75976384,0.4006486,0.9641332,-0.2186994,0.42271543
0.42187070846557617,-1.2938807,-0.7595154,0.40375674,0.96491957,-0.21680114,0.42218447
0.4419384002685547,-1.2954538,-0.7586262,0.40439957,0.9650408,-0.21624325,0.42203784
0.4620029926300049,-1.2944798,-0.75832075,0.40417475,0.9645149,-0.21589051,0.42171407
0.4821012020111084,-1.2913254,-0.759163,0.40403187,0.9650111,-0.21580195,0.4215691
0.5021271705627441,-1.2898765,-0.7595782,0.404836,0.9648836,-0.21526097,0.42113394
0.522214412689209,-1.2869027,-0.7601198,0.40642476,0.96558845,-0.21402445,0.42070228
0.5422945022583008,-1.2874111,-0.759639,0.40716356,0.96549535,-0.213236,0.42042506
0.5624051094055176,-1.2862213,-0.75971186,0.4065581,0.96547925,-0.21321538,0.41999227
0.5824182033538818,-1.2827098,-0.760597,0.40808758,0.96583927,-0.21207666,0.41934544
0.6026034355163574,-1.2784368,-0.7613926,0.41143695,0.9667776,-0.21041384,0.41855234
0.6227195262908936,-1.2776358,-0.7612131,0.41230488,0.96686584,-0.20917366,0.4183194
0.6428203582763672,-1.2759571,-0.7611246,0.41389883,0.9671558,-0.20825945,0.41768974
0.6628351211547852,-1.2756436,-0.7609376,0.41519344,0.9673306,-0.20772143,0.41715682
0.6828837394714355,-1.2727768,-0.76137173,0.41509145,0.966836,-0.20690684,0.41664833
0.7030019760131836,-1.2718234,-0.7615589,0.41553134,0.9668556,-0.20674072,0.41648448
0.723059892654419,-1.2693352,-0.7617711,0.41786614,0.9675999,-0.20520069,0.41606605
0.7431118488311768,-1.2694545,-0.7614467,0.41788945,0.96717894,-0.20499192,0.41575128
0.7631666660308838,-1.2683084,-0.76121217,0.41810846,0.9676385,-0.2045935,0.41554606
0.7832562923431396,-1.2679613,-0.7612117,0.4184785,0.9678,-0.20439872,0.41550475
0.8033511638641357,-1.2646077,-0.7619444,0.41967368,0.96822584,-0.20312004,0.41507918
0.8234164714813232,-1.2610344,-0.76238525,0.422516,0.9683882,-0.20142314,0.41421884
0.8434839248657227,-1.26162,-0.76205397,0.4223736,0.96792006,-0.20107356,0.41388392
0.8635914325714111,-1.2612073,-0.7619345,0.42292526,0.9683703,-0.20084886,0.41366768
0.8836808204650879,-1.2544906,-0.76310074,0.42741096,0.9701015,-0.19764337,0.41244185
0.9037864208221436,-1.2523441,-0.7631364,0.42872065,0.9696046,-0.19634037,0.412188
0.9239566326141357,-1.2527201,-0.76290333,0.42869878,0.9694793,-0.19647674,0.41192842
0.9439907073974609,-1.2492516,-0.7634543,0.42964506,0.96941197,-0.19533618,0.4110092
0.9640359878540039,-1.2443676,-0.764617,0.4309474,0.96997255,-0.19404511,0.4100967
0.9840836524963379,-1.242017,-0.76538444,0.4316608,0.97018003,-0.19334237,0.40959275
1.0041725635528564,-1.2414784,-0.76543236,0.43226457,0.96978205,-0.19312376,0.40945882
1.0242631435394287,-1.2429497,-0.764749,0.43315253,0.9699628,-0.1927143,0.40895915
1.0446877479553223,-1.2430443,-0.763993,0.433527,0.9700249,-0.19277972,0.4089561
1.0647358894348145,-1.2414819,-0.7641299,0.43421686,0.9703932,-0.19169942,0.40864998
1.084867000579834,-1.2406675,-0.76427156,0.43484583,0.9705182,-0.19123158,0.40816152
1.1048939228057861,-1.2380935,-0.7647271,0.43509263,0.97042716,-0.19040506,0.4078985
1.1249840259552002,-1.2342473,-0.76541996,0.43693656,0.97100884,-0.18900622,0.4074921
1.145047664642334,-1.2346392,-0.7648096,0.43791905,0.971361,-0.18854728,0.4073763
1.165191411972046,-1.2325504,-0.7647271,0.4400631,0.9716662,-0.18716261,0.40661395
1.185283899307251,-1.2294912,-0.76534164,0.44116828,0.9721323,-0.18600875,0.40633512
1.20534086227417,-1.226279,-0.76569617,0.44336876,0.9727272,-0.18441479,0.40588868
1.22542405128479,-1.2243171,-0.76560986,0.44562277,0.972774,-0.18258464,0.40514475
1.245609998703003,-1.2233858,-0.76536655,0.44633922,0.9726231,-0.18200609,0.40472466
1.265678882598877,-1.2236718,-0.76511407,0.44670084,0.97282434,-0.18195659,0.40468836
1.2858960628509521,-1.221313,-0.76568985,0.44776672,0.97302336,-0.18119718,0.40399873
1.305931568145752,-1.2170619,-0.7664324,0.4495882,0.97281337,-0.17960624,0.40320802
1.3261232376098633,-1.2163112,-0.7664816,0.45003477,0.9722706,-0.17941496,0.4025795
1.3462066650390625,-1.2162703,-0.7665317,0.45001316,0.9722647,-0.17905915,0.40238804
1.366272211074829,-1.215656,-0.7667953,0.44918254,0.9722439,-0.17922439,0.4019426
1.386411190032959,-1.2145138,-0.7663823,0.45067495,0.97291625,-0.17815211,0.40165251
1.4066684246063232,-1.2129841,-0.7666054,0.4511615,0.9730055,-0.1776988,0.4012624
1.4268462657928467,-1.2107526,-0.76696646,0.45298636,0.9739183,-0.17612053,0.40070313
1.44691801071167,-1.206939,-0.76702625,0.45658228,0.97443026,-0.17360865,0.4001261
1.466973066329956,-1.2073429,-0.7664977,0.4566637,0.9739337,-0.17363349,0.40008807
1.4870266914367676,-1.2057009,-0.76712453,0.45651263,0.97389966,-0.17304368,0.39949012
1.507171392440796,-1.2020171,-0.76794815,0.45827407,0.9746147,-0.1711359,0.39887017
1.5272159576416016,-1.1975448,-0.76885235,0.46051115,0.9745472,-0.16932257,0.39800477
1.5472869873046875,-1.1953793,-0.768681,0.4630272,0.9751127,-0.16790226,0.39759606
1.5673396587371826,-1.1942096,-0.7680285,0.46568954,0.9754341,-0.16555095,0.39683652
1.5874567031860352,-1.1944405,-0.76789826,0.4655555,0.9749962,-0.16559021,0.39664102
1.6075196266174316,-1.1908213,-0.7688642,0.46675095,0.9753684,-0.16454194,0.3962589
1.6276087760925293,-1.1878991,-0.7689968,0.46894395,0.97604644,-0.16297174,0.39544392
1.647651195526123,-1.1866701,-0.7688647,0.46997112,0.9746795,-0.16194884,0.39424694
1.6677391529083252,-1.1863916,-0.7691346,0.46985996,0.97403204,-0.16232726,0.3935458
1.6878223419189453,-1.1855688,-0.76910275,0.47169316,0.97483194,-0.16177669,0.39272457
1.7078981399536133,-1.1844177,-0.7688956,0.4725676,0.9748163,-0.16082986,0.3926146
1.7279729843139648,-1.1820616,-0.7693296,0.47209924,0.9746913,-0.16049163,0.39246833
1.748298168182373,-1.1784296,-0.77017933,0.47380516,0.9749846,-0.15902326,0.39172637
1.7683868408203125,-1.1759236,-0.77052367,0.47458482,0.97550404,-0.15768833,0.39123255
1.7884409427642822,-1.1745775,-0.7706296,0.47494447,0.97524124,-0.15737401,0.3910588
1.8085036277770996,-1.1731248,-0.7706795,0.47642338,0.9755968,-0.15652105,0.39050102
1.8286876678466797,-1.1699744,-0.77138394,0.47774422,0.97602844,-0.15528208,0.3902101
1.8487863540649414,-1.1668704,-0.7715658,0.48033872,0.9764979,-0.15344965,0.3893993
1.8688690662384033,-1.1678638,-0.7707957,0.47957885,0.975912,-0.15334712,0.38928902
1.8889615535736084,-1.165914,-0.7707524,0.48108515,0.97611684,-0.15184596,0.38829052
1.9091646671295166,-1.1653101,-0.7710391,0.48126972,0.975703,-0.15146072,0.38778436
1.92926025390625,-1.1609061,-0.77193975,0.48367733,0.97643864,-0.14975365,0.38694298
1.9493374824523926,-1.1584668,-0.77218425,0.48602533,0.9764507,-0.14838734,0.38601607
1.9693739414215088,-1.1584914,-0.77174497,0.4861783,0.9764632,-0.14803861,0.38593233
1.9894447326660156,-1.1587495,-0.77139646,0.48635462,0.97640854,-0.14764313,0.38563025
2.0095198154449463,-1.1562387,-0.7720376,0.48579383,0.9766457,-0.1462078,0.3848477
2.029590129852295,-1.1528215,-0.77249813,0.4885388,0.9775983,-0.14420171,0.38414663
2.0496602058410645,-1.1503334,-0.7730258,0.49019676,0.9772153,-0.14322206,0.38354874
2.0697038173675537,-1.1490148,-0.7728789,0.4916558,0.9774899,-0.14177851,0.3831675
2.0897998809814453,-1.147028,-0.77306366,0.49354672,0.97808695,-0.14066558,0.38253784
2.1098639965057373,-1.1429312,-0.7733476,0.49549377,0.9785703,-0.13857366,0.38204718
2.1299469470977783,-1.1404757,-0.7731971,0.49772882,0.9791043,-0.13703898,0.381674
2.1500067710876465,-1.138821,-0.7733317,0.49797904,0.9787307,-0.13654946,0.38117242
2.1703438758850098,-1.1376688,-0.77342427,0.4981814,0.97842366,-0.13619071,0.38085616
2.190432548522949,-1.1363904,-0.7734016,0.49943572,0.97907305,-0.1355583,0.3805375
2.2104930877685547,-1.1338481,-0.7738267,0.50018054,0.9786233,-0.1345285,0.3797518
2.2305636405944824,-1.1304919,-0.77431834,0.5017325,0.97875977,-0.13359345,0.3787276
2.2506215572357178,-1.1302302,-0.7738987,0.5031272,0.9790677,-0.13238382,0.37812716
2.270735025405884,-1.1297934,-0.7738221,0.5040114,0.9790898,-0.13199496,0.3776831
2.2909629344940186,-1.1281961,-0.7738832,0.50334203,0.9788204,-0.13168156,0.37733412
2.3109564781188965,-1.126555,-0.77382946,0.5035599,0.9792044,-0.13122118,0.37711012
2.3310227394104004,-1.1221005,-0.77472806,0.50495714,0.97968596,-0.12965852,0.37675947
2.3511433601379395,-1.1216488,-0.77461433,0.50601137,0.9799402,-0.12915482,0.3766768
2.371169328689575,-1.1183476,-0.77481234,0.50902355,0.98056376,-0.12720285,0.3758393
2.3913187980651855,-1.1176386,-0.77414244,0.5099914,0.9802813,-0.1262659,0.37576914
2.4118847846984863,-1.1143386,-0.77502966,0.5100684,0.98006964,-0.12569167,0.37520903
2.43204402923584,-1.1107445,-0.7753742,0.5130565,0.98092407,-0.12320929,0.3741579
2.452070951461792,-1.1104548,-0.774881,0.5129906,0.9801713,-0.12346685,0.3739829
2.472137689590454,-1.1102215,-0.77478147,0.51335347,0.98005116,-0.12308939,0.3734625
2.4924018383026123,-1.107198,-0.77541924,0.51521176,0.9807951,-0.12174223,0.37273926
2.5125060081481934,-1.1017559,-0.77627796,0.51693624,0.98065734,-0.12017389,0.37177318
2.5325887203216553,-1.1022501,-0.7752568,0.5179727,0.9810566,-0.119900115,0.37146997
2.552591323852539,-1.1023827,-0.77512324,0.51657057,0.9806373,-0.12031799,0.3713097
2.572658061981201,-1.1011611,-0.77503145,0.5171589,0.9809973,-0.11931033,0.37099344
2.5927419662475586,-1.099354,-0.7753898,0.51834685,0.98163605,-0.11844489,0.37077838
2.6128015518188477,-1.0938555,-0.7762827,0.5212363,0.98170495,-0.11593415,0.36981082
2.632906675338745,-1.0939851,-0.7756901,0.5213625,0.98151076,-0.1158628,0.36988366
2.652984142303467,-1.0898333,-0.77647305,0.523044,0.98192674,-0.11425625,0.3689267
2.673112392425537,-1.0889933,-0.7761045,0.5240556,0.981889,-0.11357898,0.36879706
2.6931698322296143,-1.0857818,-0.7759534,0.52609277,0.98272264,-0.11178452,0.36832613
2.713223457336426,-1.0844601,-0.7763306,0.52563035,0.9817266,-0.11127001,0.36776674
2.733405828475952,-1.081653,-0.7770023,0.52604246,0.9815763,-0.11123768,0.36730617
2.753481149673462,-1.0803537,-0.77699697,0.5272924,0.98214245,-0.110044755,0.3668844
2.7735416889190674,-1.0771768,-0.7771672,0.5291424,0.9814574,-0.108594514,0.36603302
2.7936060428619385,-1.0745456,-0.7774972,0.53037596,0.9811251,-0.10829762,0.36557472
2.8137640953063965,-1.0736284,-0.77696407,0.5325502,0.98133206,-0.10570964,0.36424392
2.8338499069213867,-1.0740571,-0.7766222,0.53273135,0.9807466,-0.10600666,0.36382687
2.8539185523986816,-1.0723095,-0.77716064,0.5323355,0.9807311,-0.10544859,0.36322165
2.873988389968872,-1.0682275,-0.7776267,0.5354171,0.9820007,-0.10373312,0.36272496
2.8942015171051025,-1.0672045,-0.777907,0.53514874,0.9813883,-0.10352496,0.36246467
2.914332151412964,-1.0641248,-0.7780665,0.5371825,0.9817865,-0.10208298,0.36205697
2.9343814849853516,-1.0612078,-0.77780384,0.5399933,0.9822045,-0.09996469,0.36136347
2.9544172286987305,-1.0579629,-0.7777462,0.54267967,0.9831243,-0.09755929,0.36042714
2.974496364593506,-1.0571718,-0.77774274,0.5431985,0.9823344,-0.09683022,0.36016083
2.9945645332336426,-1.0530438,-0.7785946,0.5442126,0.98230875,-0.09482676,0.35905087
3.014639139175415,-1.0519434,-0.7790718,0.5439079,0.98155856,-0.09450154,0.3582347
3.03468918800354,-1.0465804,-0.78058237,0.5452934,0.981962,-0.092606746,0.35692823
3.0547568798065186,-1.046623,-0.7802057,0.5468983,0.9823057,-0.092752345,0.35657525
3.074869394302368,-1.0440093,-0.77973163,0.54950446,0.98333263,-0.09021665,0.3556558
3.0950520038604736,-1.0446537,-0.77874374,0.5490659,0.9826471,-0.09023835,0.35570902
3.115082263946533,-1.042551,-0.77884936,0.550879,0.9830198,-0.08861393,0.35489088
3.1351988315582275,-1.0422187,-0.778628,0.55182534,0.9831458,-0.087736174,0.3545909
3.155303716659546,-1.039273,-0.77899796,0.5520893,0.98307985,-0.08723304,0.3544513
3.175365686416626,-1.035039,-0.7794552,0.554859,0.9842337,-0.085132584,0.35392457
3.1954691410064697,-1.034287,-0.77914715,0.5541581,0.98336947,-0.08503237,0.35357046
3.215820074081421,-1.032142,-0.7793931,0.555424,0.98409057,-0.08364202,0.3531105
3.235905408859253,-1.0268227,-0.7804628,0.55758244,0.98406345,-0.08060261,0.35193187
3.2560572624206543,-1.0262579,-0.7802057,0.55835736,0.9837446,-0.07986636,0.3513252
3.2761456966400146,-1.02401,-0.7799355,0.56150293,0.98404264,-0.07686892,0.3500467
3.2961812019348145,-1.021773,-0.78054583,0.56262237,0.983954,-0.07573018,0.3493634
3.3162755966186523,-1.0181247,-0.7808056,0.5660037,0.98441637,-0.07327216,0.3480752
3.336334228515625,-1.0175853,-0.7804036,0.5665754,0.9836062,-0.07304641,0.34760892
3.356400966644287,-1.0158514,-0.78083134,0.5673307,0.9832073,-0.0726814,0.34702718
3.376648426055908,-1.0131402,-0.78084207,0.56901026,0.9832006,-0.071936905,0.3465488
3.3967337608337402,-1.0125955,-0.78078383,0.5687274,0.982486,-0.071304366,0.34605896
3.4168143272399902,-1.0097578,-0.7807211,0.56901073,0.98302215,-0.070745066,0.3458057
3.4368860721588135,-1.0049562,-0.78160167,0.5706749,0.983995,-0.06913602,0.34533995
3.4569358825683594,-1.0041677,-0.7813861,0.5722319,0.98401743,-0.06781475,0.34478378
3.4770634174346924,-1.0021242,-0.78124,0.57359767,0.98385733,-0.06679121,0.34407496
3.4971141815185547,-0.99766946,-0.7818022,0.575267,0.984485,-0.06503178,0.34334064
3.5171658992767334,-0.9942999,-0.78203046,0.5774809,0.98420304,-0.06302263,0.3424557
3.537277936935425,-0.9935695,-0.781772,0.57839876,0.98358715,-0.063155934,0.34189957
3.557358503341675,-0.9929429,-0.78113306,0.57978845,0.98359865,-0.061907858,0.3409332
3.577468156814575,-0.9895824,-0.78192675,0.5794921,0.9837207,-0.061212435,0.3402868
3.5975263118743896,-0.98481447,-0.7824451,0.5814752,0.9848142,-0.059342116,0.33963913
3.617610216140747,-0.9857347,-0.7816265,0.58142424,0.9843205,-0.059875757,0.3398158
3.637683391571045,-0.98386896,-0.7813921,0.5819669,0.98447204,-0.058482945,0.33906722
3.6577250957489014,-0.9785417,-0.7817828,0.585218,0.9861654,-0.055862725,0.33833987
3.6778225898742676,-0.9771835,-0.78168774,0.5858051,0.98502654,-0.055650845,0.33807856
3.697880268096924,-0.9767463,-0.7805551,0.5874399,0.9850299,-0.054391168,0.3373797
3.7179455757141113,-0.97140336,-0.7821232,0.5865714,0.98481107,-0.053625584,0.33666724
3.7381091117858887,-0.96841234,-0.78264904,0.5872877,0.984725,-0.053241506,0.33620936
3.758192539215088,-0.9651964,-0.78261745,0.59011406,0.98490727,-0.050478444,0.33457917
3.778280735015869,-0.9636096,-0.7825758,0.5912124,0.9851426,-0.049918942,0.33394676
3.798468828201294,-0.96089005,-0.7824621,0.5927638,0.98547506,-0.04854787,0.33330268
3.8184516429901123,-0.96072364,-0.7823341,0.5930282,0.9854345,-0.048398286,0.33327764
3.8386049270629883,-0.95839053,-0.78189266,0.5953945,0.9861951,-0.046776086,0.33285332
3.858645439147949,-0.95682305,-0.7819139,0.59479356,0.98497653,-0.046892114,0.33256918
3.8787569999694824,-0.9552108,-0.7816997,0.59523505,0.98597753,-0.04631854,0.3319267
3.898804187774658,-0.95477223,-0.7818354,0.5947773,0.98491883,-0.045896396,0.33151436
3.9188671112060547,-0.9482951,-0.78268766,0.5975377,0.98577094,-0.04327932,0.3307559
3.938958168029785,-0.9459084,-0.78259623,0.5982471,0.9853735,-0.042315558,0.32994574
3.9590771198272705,-0.94229436,-0.7827191,0.601,0.9851361,-0.04073961,0.3285612
3.979191541671753,-0.93803394,-0.7831327,0.6038058,0.98637146,-0.03832434,0.32735467
3.99936842918396,-0.9361471,-0.7830714,0.6028281,0.9857621,-0.037471987,0.32678992
4.01938271522522,-0.93466026,-0.78254485,0.6044561,0.9864229,-0.036478058,0.32640088
4.03945517539978,-0.93327737,-0.78289235,0.6037989,0.9856036,-0.03643267,0.3260157
4.059505224227905,-0.9269667,-0.7832806,0.60771644,0.9871934,-0.033738896,0.32539934
4.079556941986084,-0.9277762,-0.7820304,0.6085907,0.9864714,-0.03294596,0.32486284
4.099611043930054,-0.9274422,-0.7815463,0.608639,0.98634094,-0.032334164,0.32432783
4.119691610336304,-0.9254463,-0.7818054,0.6098723,0.98668647,-0.031495288,0.32373303
4.139763355255127,-0.9216233,-0.78251654,0.6101628,0.98543245,-0.030629558,0.32239866
4.159844160079956,-0.917434,-0.782884,0.61113214,0.9860527,-0.030609248,0.32172203
4.179886102676392,-0.9156643,-0.7828702,0.6117398,0.9866443,-0.028927116,0.3209129
4.2000038623809814,-0.9140421,-0.7831047,0.6120888,0.9862857,-0.028771719,0.3209315
4.220135927200317,-0.909482,-0.78346634,0.61600673,0.98700356,-0.02549128,0.31960082
4.240143537521362,-0.909891,-0.78226244,0.6171129,0.98651683,-0.024903474,0.31945986
4.260194778442383,-0.9050546,-0.7830254,0.61756563,0.98632157,-0.023456661,0.3186779
4.280274391174316,-0.90368104,-0.78341687,0.6171967,0.9858053,-0.023415593,0.31829965
4.3003387451171875,-0.9006898,-0.78332794,0.61897826,0.98652947,-0.02251759,0.3179376
4.320415019989014,-0.89836144,-0.7833725,0.6192239,0.986127,-0.021975739,0.31734377
4.34047794342041,-0.89794445,-0.7825324,0.62142074,0.98664004,-0.019958152,0.31648213
4.360573768615723,-0.89736474,-0.7826299,0.6216919,0.9859737,-0.019856108,0.31590658
4.38064432144165,-0.8932847,-0.7828487,0.6239536,0.98613876,-0.018268121,0.31433398
4.400832414627075,-0.8918135,-0.7827652,0.62468725,0.9860756,-0.017706705,0.31381857
4.421220779418945,-0.88767755,-0.78290755,0.6254884,0.98580194,-0.016484452,0.31351602
4.441321849822998,-0.88729393,-0.7826099,0.6257916,0.9863343,-0.015695913,0.31318992
4.461395740509033,-0.88423383,-0.78299206,0.62552273,0.98618495,-0.015135614,0.3125952
4.481470584869385,-0.8786602,-0.78401273,0.6279216,0.9866122,-0.013466237,0.31138235
4.50151515007019,-0.87527937,-0.78365386,0.63169754,0.9863586,-0.010547755,0.31022906
4.521608352661133,-0.87533486,-0.7833369,0.6312389,0.9857907,-0.010688504,0.30961227
4.5416834354400635,-0.8743222,-0.7830609,0.63089347,0.98556465,-0.010546623,0.30897832
4.561765432357788,-0.86963314,-0.7833673,0.63346374,0.98729306,-0.009130893,0.30803502
4.581811428070068,-0.86698955,-0.78283703,0.63524187,0.98701835,-0.007357819,0.30772173
4.60196852684021,-0.8671134,-0.78247,0.6341766,0.9863803,-0.0074955653,0.30781794
4.622001886367798,-0.8648015,-0.7821202,0.63563496,0.9869946,-0.0053809565,0.3066619
4.642054557800293,-0.8604157,-0.78233796,0.63777506,0.9872884,-0.004039688,0.30594295
4.662100791931152,-0.8576866,-0.78233916,0.6383836,0.9868102,-0.0031196158,0.30540746
4.682184934616089,-0.85572886,-0.78242916,0.63919353,0.98754084,-0.0022326391,0.30507684
4.70225977897644,-0.8530661,-0.7826632,0.63881385,0.9866555,-0.0016921144,0.30430454
4.722324371337891,-0.8503184,-0.7828552,0.63962346,0.9867918,-0.0015646275,0.3037985
4.74252462387085,-0.845883,-0.78341603,0.6431326,0.9865731,0.0013084579,0.3016585
4.762513875961304,-0.844036,-0.7826815,0.6444879,0.9870389,0.0027073044,0.301194
4.782615661621094,-0.8433467,-0.7826658,0.6432535,0.9866365,0.00254062,0.30123127
4.802679061889648,-0.83981144,-0.7827301,0.64498067,0.98732346,0.0041535366,0.30046386
4.822727203369141,-0.83603185,-0.7825917,0.64653844,0.9871933,0.004729176,0.29992753
4.8428168296813965,-0.8356844,-0.7822547,0.64616215,0.986956,0.0053797234,0.29970193
4.862866640090942,-0.83340025,-0.7823023,0.6465013,0.9863352,0.00631419,0.29833734
4.882939100265503,-0.8273866,-0.7838369,0.6471701,0.98577595,0.0072355587,0.29648215
4.903058052062988,-0.82494426,-0.7832526,0.6481596,0.98599577,0.008556442,0.2957464
4.923181533813477,-0.82159126,-0.783459,0.64988744,0.98698056,0.009333672,0.29522836
4.943209648132324,-0.81894994,-0.7835394,0.6497803,0.9864261,0.010504538,0.29459262
4.963366985321045,-0.8142543,-0.7835438,0.65295637,0.98737323,0.013265954,0.2936827
4.983415603637695,-0.81376153,-0.78265744,0.6536205,0.9863678,0.013232442,0.29292393
5.003569841384888,-0.81410253,-0.78222764,0.65316576,0.98577964,0.013327474,0.29276252
5.02360725402832,-0.8083654,-0.7829831,0.6554506,0.9864549,0.015124695,0.29165554
5.04367470741272,-0.80592334,-0.78248507,0.6571593,0.9856934,0.015655415,0.2905966
5.063720226287842,-0.8059799,-0.7818378,0.6559191,0.98527837,0.015822807,0.28976268
5.083802223205566,-0.80412215,-0.78149986,0.65792584,0.98620397,0.016940536,0.2892382
5.10390043258667,-0.8022926,-0.7817438,0.65697384,0.98593885,0.017759876,0.2889251
5.124040126800537,-0.7970177,-0.7821393,0.65939856,0.9864002,0.019456575,0.28817308
5.14406156539917,-0.7931503,-0.78196,0.66110086,0.9869109,0.02078751,0.28778023
5.164268732070923,-0.79301167,-0.7818848,0.6604658,0.9860423,0.021019043,0.28742182
5.184353590011597,-0.78579414,-0.7825393,0.6640129,0.9868927,0.0244092,0.28569847
5.204357385635376,-0.78393334,-0.7817507,0.6647816,0.9857679,0.02512327,0.28447288
5.224530220031738,-0.7816458,-0.78200835,0.663609,0.9854028,0.024989942,0.28358036
5.2446489334106445,-0.78130925,-0.7822994,0.66253465,0.9849942,0.024913834,0.28311157
5.26479172706604,-0.7776251,-0.78226197,0.6647685,0.98637706,0.026330234,0.2826001
5.284859895706177,-0.77477443,-0.7816514,0.6663338,0.9861162,0.027395757,0.28214437
5.304899215698242,-0.7736635,-0.7807559,0.6673336,0.98619753,0.028755093,0.2814275
5.325119495391846,-0.77308905,-0.77980876,0.66967165,0.98722404,0.029776404,0.28098726
5.345182657241821,-0.76923096,-0.78031015,0.66871494,0.986522,0.030967915,0.2798381
5.365177631378174,-0.762549,-0.7817445,0.6696475,0.9850923,0.031676665,0.2779349
5.385473728179932,-0.7610263,-0.78113556,0.6715375,0.9864776,0.032695003,0.27746123
5.405541896820068,-0.76071143,-0.78051984,0.6717283,0.9860518,0.033220857,0.27721292
5.425597667694092,-0.7569179,-0.78055036,0.67233205,0.9860488,0.034555145,0.27671736
5.445664882659912,-0.75336516,-0.7801471,0.6739907,0.9865636,0.036874786,0.2757203
5.465803384780884,-0.7522471,-0.779173,0.67580783,0.98718,0.03726142,0.27549
5.485864639282227,-0.75120175,-0.7791081,0.67532253,0.98654723,0.038091958,0.2750101
5.505981206893921,-0.747411,-0.7791047,0.67645,0.98714453,0.039352715,0.27408022
5.526036024093628,-0.74165714,-0.77983224,0.6776528,0.9870923,0.040912487,0.27298528
5.546097278594971,-0.7418857,-0.778329,0.6787242,0.98648125,0.04091514,0.27209234
5.566156625747681,-0.7422507,-0.77812636,0.67696404,0.98557246,0.04072748,0.27179116
5.586283922195435,-0.7367293,-0.7784392,0.67988694,0.9874576,0.043039456,0.27062744
5.6063454151153564,-0.73174715,-0.7786928,0.6812661,0.9875272,0.044889644,0.2696542
5.626420259475708,-0.73184395,-0.77831495,0.68056613,0.9863249,0.04460074,0.26947826
5.646500110626221,-0.728598,-0.7779182,0.68152267,0.9869369,0.04598231,0.26865935
5.666557550430298,-0.7249265,-0.77792305,0.6816369,0.9863035,0.047103673,0.26787466
5.686668872833252,-0.71942955,-0.77834207,0.68335783,0.9858472,0.04912252,0.2658425
5.706727504730225,-0.71823764,-0.77721775,0.68633616,0.9868185,0.04971902,0.26514977
5.7269158363342285,-0.7148746,-0.77643037,0.6890353,0.9877467,0.0518592,0.26432294
5.746937990188599,-0.7121906,-0.77592343,0.6904242,0.98798776,0.05386138,0.26379746
5.7669923305511475,-0.71059984,-0.7750221,0.69077665,0.9874385,0.05464007,0.26308584
5.787067890167236,-0.71092844,-0.7746966,0.6897311,0.9867912,0.054215707,0.2629252
5.807132720947266,-0.7090867,-0.7739967,0.68969166,0.9866921,0.05486156,0.26219237
5.827348470687866,-0.7066122,-0.77406716,0.68814623,0.9861196,0.054355115,0.2616923
5.847403287887573,-0.7010635,-0.7746117,0.68912435,0.98631316,0.05620686,0.25991172
5.867525339126587,-0.6994242,-0.7741977,0.6906607,0.986402,0.055897787,0.2594512
5.8875651359558105,-0.69570124,-0.7742187,0.6918992,0.9862195,0.057740696,0.2581833
5.907621145248413,-0.69431174,-0.77374315,0.6917606,0.985898,0.059624135,0.25720257
5.927701950073242,-0.6894923,-0.7739748,0.6947303,0.9861051,0.06090834,0.25606418
5.947788238525391,-0.6869552,-0.77346563,0.6974008,0.9872457,0.06331625,0.25541455
5.9678497314453125,-0.68298626,-0.7729223,0.69867766,0.98602957,0.06423513,0.25375456
5.987905263900757,-0.6784627,-0.77293015,0.6992784,0.9860438,0.06514585,0.25251484
6.007972240447998,-0.6777003,-0.7717976,0.7001293,0.98611283,0.065912515,0.2520166
6.028090000152588,-0.6774782,-0.771905,0.6989088,0.9852213,0.066583455,0.25151545
6.0481579303741455,-0.675181,-0.771582,0.6999438,0.98575944,0.06791605,0.25051498
6.068269729614258,-0.6712821,-0.77159446,0.6991205,0.9852401,0.06828964,0.24985985
6.088422060012817,-0.6666223,-0.77056205,0.70196754,0.98581415,0.069981426,0.24830185
6.108460426330566,-0.6654338,-0.7703328,0.7017331,0.9845666,0.07010862,0.24720018
6.128515243530273,-0.66044235,-0.7706921,0.70267147,0.98563784,0.07195346,0.2460611
6.148622274398804,-0.65529275,-0.77030164,0.70568967,0.9868792,0.074857324,0.24500088
6.168682813644409,-0.6531102,-0.7695102,0.7054601,0.98561925,0.07499654,0.2445436
6.188871622085571,-0.6511023,-0.76942486,0.7040082,0.98474824,0.075957716,0.24337853
6.208954572677612,-0.6484829,-0.76933867,0.70614946,0.9852245,0.07698205,0.24230574
6.229049205780029,-0.64298743,-0.76991516,0.706349,0.98491895,0.077599615,0.24059407
6.249119758605957,-0.643426,-0.7683989,0.7063086,0.98508185,0.07715804,0.24016587
6.26916766166687,-0.641783,-0.7679185,0.7071453,0.9854905,0.0787276,0.23972909
6.289276361465454,-0.6390588,-0.76715857,0.7079455,0.98562366,0.07979026,0.23854776
6.309425115585327,-0.6358037,-0.7669955,0.70807827,0.9854463,0.08050048,0.23782487
6.329437971115112,-0.63216996,-0.7670029,0.7079402,0.9833405,0.08114001,0.23629759
6.349508762359619,-0.6283349,-0.76726365,0.70896995,0.9840829,0.082254976,0.23501329
6.369574785232544,-0.62288517,-0.7669172,0.71050364,0.9848828,0.08364457,0.23402701
6.389793157577515,-0.62038624,-0.7655027,0.71309304,0.9843139,0.08560611,0.23293589
6.409815549850464,-0.61820805,-0.76425487,0.7134328,0.9835267,0.0862947,0.23197977
6.429887056350708,-0.6143069,-0.76421046,0.7161081,0.9842775,0.08886418,0.23101602
6.449966192245483,-0.6110643,-0.76368034,0.7151446,0.98254025,0.08890512,0.2299193
6.470064401626587,-0.60906,-0.76341367,0.7134049,0.9818647,0.0885838,0.22877054
6.4901039600372314,-0.6073718,-0.7627108,0.7135998,0.98296237,0.0891354,0.22798626
6.510148525238037,-0.60671735,-0.762182,0.7133251,0.982763,0.08938784,0.227419
6.530227422714233,-0.601654,-0.76193446,0.715166,0.9838408,0.091109484,0.22621901
6.550289630889893,-0.5988505,-0.7609416,0.71657467,0.9833586,0.09219534,0.22578682
6.570369005203247,-0.5947238,-0.7605544,0.7172673,0.9827102,0.09398185,0.22410487
6.590702295303345,-0.5893781,-0.76081645,0.7180958,0.98217654,0.09435961,0.22227131
6.6108691692352295,-0.5867696,-0.7613712,0.7162684,0.982127,0.09508204,0.2219903
6.630964994430542,-0.5846796,-0.760231,0.7172613,0.9822819,0.09655334,0.22098239
6.650987386703491,-0.5810112,-0.75948787,0.71834123,0.98315275,0.098094076,0.21989258
6.6710546016693115,-0.57867813,-0.75861895,0.718573,0.9827411,0.09829652,0.21877573
6.691143989562988,-0.57647926,-0.7583573,0.71986604,0.9830756,0.09937023,0.21808921
6.711194753646851,-0.574768,-0.7574892,0.7190914,0.98204875,0.099580295,0.21692176
6.7312657833099365,-0.5750158,-0.75631374,0.7190889,0.98206925,0.0996162,0.21643384
6.751323699951172,-0.5691452,-0.75622517,0.72013307,0.98216486,0.10175215,0.215234
6.771404504776001,-0.5670132,-0.75557375,0.7225463,0.9832852,0.10298152,0.21436451
6.7914719581604,-0.56419396,-0.7545836,0.72334385,0.98322487,0.10332412,0.21392523
6.811574697494507,-0.56019473,-0.7544979,0.7235178,0.9817537,0.10460808,0.2118295
6.831653356552124,-0.5559653,-0.7544659,0.72418386,0.98147917,0.10583377,0.21021886
6.851720571517944,-0.5542517,-0.75306606,0.72661966,0.98210305,0.106919594,0.20944063
6.8717873096466064,-0.5521715,-0.752136,0.7255388,0.981362,0.107425705,0.20853929
6.891872406005859,-0.5483942,-0.7525873,0.72371906,0.97991604,0.10704307,0.20686243
6.911910057067871,-0.5421233,-0.7525542,0.7266835,0.98116344,0.10916449,0.20478551
6.932003498077393,-0.54276866,-0.7519,0.72510123,0.9798814,0.108630165,0.20473711
6.9520745277404785,-0.5396079,-0.7499771,0.72715664,0.98087436,0.110466346,0.20409821
6.972150802612305,-0.5386671,-0.74930274,0.7250972,0.9797348,0.11065443,0.20301776
6.9922497272491455,-0.535802,-0.74924994,0.7246394,0.97874284,0.11102314,0.20093088
7.0125391483306885,-0.53160864,-0.7488914,0.72733617,0.980139,0.1123672,0.19956015
7.032614231109619,-0.5267416,-0.74811065,0.7273606,0.9810487,0.113617346,0.1988629
7.052679538726807,-0.52343804,-0.74722505,0.72608155,0.9806591,0.11403121,0.19820945
7.0727410316467285,-0.5180593,-0.7467588,0.72721994,0.9803865,0.11528985,0.19672571
7.0928053855896,-0.5139492,-0.74618584,0.7288799,0.97981733,0.116954535,0.1946467
7.1128928661346436,-0.513267,-0.7454703,0.72856474,0.97920203,0.11683799,0.19424005
7.132981538772583,-0.5093544,-0.7449251,0.7288104,0.97979265,0.118974015,0.19316052
7.153046131134033,-0.50404185,-0.7440721,0.7314771,0.9807286,0.12142442,0.19191591
7.173110008239746,-0.5044256,-0.742154,0.730068,0.97995037,0.12065412,0.19151334
7.193191051483154,-0.5041285,-0.7416268,0.7287662,0.97962654,0.12047596,0.19106035
7.21327543258667,-0.5025283,-0.74138546,0.7269122,0.9784263,0.11985983,0.18930353
7.233328342437744,-0.49853495,-0.7405967,0.7284398,0.9799079,0.12114017,0.1883048
7.253373384475708,-0.49195984,-0.74052554,0.7289442,0.9799142,0.12276803,0.18731634
7.2735512256622314,-0.4923795,-0.7395477,0.7283195,0.97910863,0.12239668,0.18666221
7.293646574020386,-0.48823383,-0.7395078,0.7274991,0.9783899,0.12286623,0.18492489
7.313680171966553,-0.4829819,-0.7394058,0.7272115,0.9778821,0.12352848,0.18317096
7.333738803863525,-0.47960037,-0.7385034,0.72743416,0.9787485,0.12532799,0.18231992
7.353841781616211,-0.477801,-0.73785186,0.7294575,0.979609,0.12649769,0.18153696
7.37389612197876,-0.4771658,-0.7364907,0.7289388,0.97960514,0.12743084,0.18074493
7.394006967544556,-0.47417253,-0.73511,0.7316474,0.98103213,0.12853882,0.17984472
7.414042949676514,-0.46693817,-0.73480177,0.7318399,0.9794314,0.13018438,0.17786573
7.4341418743133545,-0.467455,-0.7343016,0.72835225,0.97732854,0.12873319,0.1774988
7.454207897186279,-0.46649984,-0.732121,0.72848886,0.97768384,0.13029408,0.17609052
7.474261999130249,-0.4635884,-0.7313859,0.7281572,0.9774232,0.13039209,0.1736681
7.494310617446899,-0.45890784,-0.7316031,0.72782934,0.9774699,0.13075136,0.17198236
7.514387845993042,-0.45938286,-0.73104864,0.7267071,0.9776077,0.1303326,0.17197596
7.534451246261597,-0.45606652,-0.7309295,0.72542167,0.9770135,0.13005926,0.17163949
7.554560899734497,-0.453909,-0.7299522,0.7249173,0.9772115,0.13111265,0.170254
7.574634552001953,-0.4490227,-0.73036325,0.72336954,0.9760641,0.1313303,0.16811447
7.594700336456299,-0.44656473,-0.7297921,0.7258911,0.9770911,0.1324953,0.1670994
7.61477255821228,-0.44316447,-0.7285952,0.726459,0.9772653,0.13386102,0.1661049
7.634867429733276,-0.43950003,-0.727655,0.7270447,0.97719944,0.13530125,0.1648042
7.654932022094727,-0.43645728,-0.7262801,0.7287266,0.97635037,0.13656026,0.16254692
7.675049304962158,-0.43365023,-0.7251822,0.7291945,0.9765502,0.1365949,0.16095589
7.695134878158569,-0.43087032,-0.7260893,0.72538567,0.9742288,0.13651383,0.16049547
7.715223073959351,-0.42680058,-0.72472745,0.72609824,0.9741106,0.13756154,0.159216
7.735332250595093,-0.42572686,-0.723415,0.7254065,0.97303325,0.13775717,0.1570385
7.756203889846802,-0.42502233,-0.7227002,0.7225943,0.97337514,0.13691004,0.15634139
7.7763142585754395,-0.42263287,-0.7216421,0.7244669,0.97460455,0.13858648,0.15524767
7.796385765075684,-0.4199008,-0.7207021,0.7237891,0.97436893,0.13876058,0.15413432
7.816496133804321,-0.41728178,-0.71997494,0.7220172,0.9738314,0.13804531,0.1528856
7.836560249328613,-0.41178235,-0.71960145,0.7212502,0.9732395,0.13869493,0.15104328
7.8566131591796875,-0.41004607,-0.7198288,0.7194794,0.97319806,0.13904372,0.15078191
7.876688003540039,-0.40678635,-0.7180355,0.7203809,0.9729333,0.14113705,0.14922784
7.8967626094818115,-0.40002272,-0.7178021,0.7216903,0.9721395,0.14293222,0.1463723
7.916843414306641,-0.3963566,-0.7162379,0.7245071,0.9736924,0.14467593,0.14484702
7.9369282722473145,-0.3968473,-0.7150551,0.7245629,0.9735871,0.14451133,0.144951
7.957001447677612,-0.39570192,-0.7139441,0.7228452,0.9730559,0.14468127,0.1438679
7.977065801620483,-0.3925766,-0.713081,0.7214244,0.9719379,0.1444844,0.14206715
7.9970924854278564,-0.3879475,-0.71291167,0.72229886,0.97296333,0.14527895,0.14008145
8.017221689224243,-0.38686153,-0.7125573,0.7201688,0.9713917,0.14492314,0.13996397
8.037256479263306,-0.3845042,-0.7116139,0.72014594,0.9706749,0.14578784,0.13837402
8.057334423065186,-0.38280722,-0.7108322,0.71855724,0.96951663,0.14587586,0.13615404
8.077404022216797,-0.38168457,-0.7101122,0.71565104,0.96918887,0.14509094,0.1350259
8.09749460220337,-0.37934223,-0.7093032,0.7131524,0.9682447,0.14438608,0.13374905
8.117613554000854,-0.37756518,-0.7081475,0.7159879,0.9691869,0.1457368,0.13232805
8.137716054916382,-0.37165314,-0.70737106,0.7160776,0.96978164,0.14643009,0.13037984
8.157735347747803,-0.36881253,-0.7055932,0.7154113,0.9698899,0.14690386,0.12994196
8.178047180175781,-0.36640334,-0.70431864,0.71332955,0.96827924,0.148441,0.12832312
8.19823408126831,-0.36306837,-0.70407903,0.71602166,0.9690404,0.15036178,0.12626462
8.218249797821045,-0.35933036,-0.7029837,0.71744025,0.96953607,0.15134814,0.12446909
8.238317728042603,-0.35588363,-0.7020415,0.71561307,0.96858156,0.15204999,0.12329604
8.258373975753784,-0.354842,-0.7012529,0.71123284,0.967047,0.1501701,0.121999696
8.278493404388428,-0.35427466,-0.70144135,0.7072644,0.9660845,0.14851214,0.12160294
8.298593521118164,-0.350434,-0.7013518,0.70657563,0.9677259,0.14920011,0.12092297
8.318634033203125,-0.34842658,-0.7000072,0.7061326,0.96723586,0.15018202,0.11981715
8.338711738586426,-0.34602067,-0.6988351,0.7051759,0.96697176,0.15093291,0.1189359
8.358781814575195,-0.3426287,-0.69651455,0.70790577,0.9673525,0.15305676,0.11690566
8.378888607025146,-0.34052682,-0.69599545,0.70941263,0.96746624,0.1540822,0.11531411
8.399044275283813,-0.33837828,-0.6944725,0.7085828,0.9674175,0.15387258,0.11446777
8.41903281211853,-0.33605117,-0.69273907,0.7088424,0.9669759,0.15574227,0.11271982
8.439120054244995,-0.33545542,-0.69286466,0.7052987,0.9650539,0.15443097,0.11166163
8.459184885025024,-0.33414778,-0.69128686,0.7047868,0.96683115,0.15451014,0.11023478
8.479280948638916,-0.32993963,-0.6904926,0.7034646,0.9664858,0.15507501,0.10900624
8.499489545822144,-0.32573107,-0.6891153,0.70200086,0.96659887,0.15519132,0.10782026
8.519598245620728,-0.3242105,-0.6895123,0.6979251,0.9646218,0.15295622,0.10740359
8.539668560028076,-0.3211784,-0.6884454,0.6974182,0.9650172,0.15408018,0.10523744
8.559864282608032,-0.3197534,-0.68769616,0.6970749,0.96456945,0.15456046,0.10343827
8.580248832702637,-0.3143718,-0.6870527,0.69794595,0.9640642,0.15578242,0.10056804
8.600329875946045,-0.3122979,-0.68634427,0.6966908,0.96406794,0.15619956,0.09995617
8.620393991470337,-0.30873594,-0.6847902,0.6962229,0.96327156,0.15587017,0.098629996
8.640460729598999,-0.30736768,-0.6826984,0.6960207,0.96376395,0.1569363,0.0964995
8.660520792007446,-0.30293107,-0.6822976,0.69363004,0.9630028,0.15834628,0.094647914
8.680667877197266,-0.30115524,-0.680713,0.695951,0.96322167,0.15918769,0.09274699
8.70071530342102,-0.3001277,-0.6779747,0.6951629,0.9639195,0.15923542,0.09106518
8.720903396606445,-0.2979423,-0.6766061,0.6924188,0.96369076,0.15923822,0.090218976
8.74108338356018,-0.29569966,-0.6770245,0.6884674,0.96232176,0.15881546,0.089911655
8.761080265045166,-0.2895141,-0.6771615,0.6864176,0.96099615,0.15936217,0.087396845
8.781123399734497,-0.28874436,-0.6751137,0.68294966,0.9610928,0.1586611,0.086121455
8.80120301246643,-0.28610995,-0.6738758,0.6858394,0.96196735,0.16028045,0.084284976
8.821274995803833,-0.28357485,-0.67255175,0.6834526,0.96073776,0.1605603,0.081654
8.841341733932495,-0.28283828,-0.6706402,0.6820188,0.96204424,0.16035807,0.08092345
8.861401557922363,-0.28122583,-0.66968507,0.6790874,0.9607687,0.15904433,0.080133185
8.881497144699097,-0.27936226,-0.66913813,0.6795471,0.96062934,0.15971829,0.0786695
8.901597499847412,-0.27654305,-0.66808957,0.67798764,0.96060365,0.15960853,0.07752378
8.92166519165039,-0.27322873,-0.66769695,0.67487454,0.95979244,0.16053955,0.07602231
8.94170594215393,-0.2706909,-0.66686106,0.6723572,0.95902,0.16039222,0.0745552
8.961784362792969,-0.26994383,-0.666629,0.6707016,0.95876515,0.15961443,0.07362282
8.981871366500854,-0.26750678,-0.6660902,0.666692,0.9586448,0.15881832,0.072188035
9.001935958862305,-0.26582402,-0.6648358,0.66463804,0.95821846,0.15792185,0.07084486
9.022003412246704,-0.2600246,-0.66386837,0.6640402,0.9572724,0.15797757,0.067912415
9.042081594467163,-0.25982997,-0.66280997,0.6629698,0.95745015,0.1571816,0.067242205
9.062159299850464,-0.25493222,-0.661477,0.662574,0.9566106,0.15874283,0.06479688
9.08221435546875,-0.2525419,-0.6594739,0.6617371,0.95714223,0.16050221,0.06282084
9.10238242149353,-0.2507256,-0.65798855,0.6587081,0.95550776,0.16133685,0.06071551
9.122479438781738,-0.24787845,-0.6574759,0.6593678,0.95571816,0.16130929,0.058984324
9.142563819885254,-0.24489893,-0.65625584,0.65551305,0.9556917,0.15938649,0.058194757
9.162651777267456,-0.24285562,-0.65581197,0.651387,0.95470977,0.15739088,0.056699947
9.182689905166626,-0.24072115,-0.6549109,0.6470848,0.9545523,0.15601528,0.055182382
9.202778339385986,-0.2396448,-0.65362614,0.6477944,0.9556589,0.15655684,0.05476527
9.222843170166016,-0.23620753,-0.652248,0.6446848,0.9542253,0.15609936,0.053477556
9.242954015731812,-0.2350164,-0.65039974,0.6430169,0.95420897,0.15672907,0.051299304
9.26302719116211,-0.23222809,-0.6490684,0.64133793,0.9540246,0.15670691,0.049318045
9.28312349319458,-0.2311442,-0.6482363,0.6385865,0.95310307,0.15727146,0.04869555
9.303228855133057,-0.22613452,-0.6467458,0.63798344,0.9525783,0.15738483,0.04621114
9.323279857635498,-0.22551765,-0.644618,0.63611484,0.9534371,0.15758808,0.04518439
9.343321800231934,-0.22430836,-0.64316297,0.6342085,0.95316625,0.15760571,0.04369548
9.363397359848022,-0.22408445,-0.6438018,0.62866354,0.951236,0.15614602,0.043398663
9.383484363555908,-0.22202277,-0.64181834,0.62581193,0.95007503,0.15558857,0.041197598
9.403599739074707,-0.22050901,-0.64084923,0.62039554,0.9499489,0.15422015,0.039769128
9.42366099357605,-0.2168185,-0.6398374,0.616871,0.9479692,0.15360488,0.036824122
9.44381046295166,-0.21304594,-0.63831884,0.6148416,0.94883347,0.1532956,0.034748927
9.463927507400513,-0.21163069,-0.6368675,0.61527705,0.94808435,0.15360744,0.033015773
9.484036684036255,-0.20929614,-0.63525,0.61316466,0.94871205,0.15348904,0.031058922
9.504056692123413,-0.20566052,-0.63375574,0.612231,0.947951,0.1544947,0.02838558
9.524191617965698,-0.20313649,-0.6341543,0.6079124,0.94697106,0.15319738,0.027979895
9.54426383972168,-0.20082054,-0.6315374,0.6070776,0.9462354,0.154386,0.025942162
9.56433653831482,-0.19896384,-0.629614,0.60195804,0.94508463,0.15248585,0.023886785
9.58438491821289,-0.19702671,-0.6267687,0.59821725,0.944822,0.15259297,0.022262946
9.60447359085083,-0.19621398,-0.6257714,0.5989348,0.9449725,0.15261658,0.02046071
9.624541521072388,-0.19281158,-0.62422997,0.5956504,0.9449725,0.15232451,0.018578485
9.644646167755127,-0.1901116,-0.6228261,0.59184813,0.94400525,0.15165217,0.01667197
9.665019989013672,-0.18841672,-0.62075925,0.5886969,0.9435409,0.15108709,0.014487848
9.68510127067566,-0.18708919,-0.61968094,0.58500826,0.9424467,0.14978442,0.013853863
9.705196619033813,-0.18570583,-0.6178328,0.5820235,0.9422462,0.1493025,0.011619762
9.725218057632446,-0.1829877,-0.6160511,0.57878184,0.94231445,0.15029866,0.009863988
9.7456693649292,-0.17745683,-0.61563134,0.57616293,0.94004816,0.15005891,0.006980166
9.765767097473145,-0.17453699,-0.61403495,0.57870865,0.94074714,0.15142545,0.005128324
9.785849332809448,-0.17073676,-0.6112396,0.5779933,0.93938106,0.15186597,0.0020162314
9.805904865264893,-0.16921324,-0.60849786,0.5757717,0.9382417,0.15237765,-0.0008555651
9.8259916305542,-0.16829026,-0.6073291,0.573469,0.93746126,0.15238301,-0.0021038875
9.846122741699219,-0.16662562,-0.6046275,0.5734509,0.9374922,0.15339011,-0.005041018
9.866156339645386,-0.16523956,-0.60122526,0.57275695,0.93789226,0.15465258,-0.00701572
9.886240005493164,-0.16355179,-0.5981396,0.57020044,0.9355395,0.15427797,-0.009455964
9.906283378601074,-0.16294253,-0.59750134,0.5667471,0.93553495,0.15227407,-0.009607315
9.926363945007324,-0.16108575,-0.59602845,0.5617359,0.93348914,0.15151836,-0.012174353
9.946428537368774,-0.15979752,-0.59499115,0.5577171,0.93308717,0.15087748,-0.014222212
9.96651315689087,-0.1575318,-0.5932027,0.5547252,0.93197656,0.15094234,-0.01699239
9.986574649810791,-0.15542918,-0.59147906,0.55073535,0.92924535,0.14971346,-0.020025536
10.006692171096802,-0.15453464,-0.5904481,0.54947484,0.9293078,0.14943807,-0.021317646
10.026766777038574,-0.15328726,-0.58782727,0.548052,0.92960685,0.14940545,-0.023723714
10.046818017959595,-0.1512377,-0.5857532,0.54451627,0.92787683,0.15004957,-0.026279524
10.066885232925415,-0.14930137,-0.58344376,0.5415691,0.9262862,0.14988251,-0.028708443
10.086980819702148,-0.14836758,-0.5823267,0.5396166,0.92553055,0.14817403,-0.029708609
10.107084274291992,-0.14693728,-0.57951677,0.53734326,0.925365,0.14880362,-0.031851478
10.127134323120117,-0.1455421,-0.5768883,0.5357522,0.9243695,0.14934902,-0.034622796
10.147291660308838,-0.14440502,-0.5758434,0.53300965,0.9227582,0.1495766,-0.03598266
10.16736364364624,-0.14209816,-0.5724044,0.5336541,0.92184484,0.15094112,-0.039598845
10.187562227249146,-0.14107881,-0.5687765,0.535304,0.9216033,0.15267228,-0.04251133
10.207571506500244,-0.13894095,-0.5667175,0.53114617,0.9181762,0.15288718,-0.045293137
10.22765851020813,-0.13826269,-0.5652481,0.5315616,0.9187317,0.15366668,-0.04695238
10.247713088989258,-0.13579617,-0.5642028,0.52438545,0.91635036,0.15199687,-0.049954385
10.267815589904785,-0.13423488,-0.56189656,0.5214025,0.91482866,0.1515293,-0.052444845
10.287865161895752,-0.13340245,-0.5614658,0.51803046,0.91386485,0.1503051,-0.05326532
10.30793285369873,-0.13157721,-0.5588253,0.5147753,0.91231716,0.14993304,-0.056268215
10.328004360198975,-0.12973504,-0.5559534,0.5108853,0.91010165,0.14972857,-0.059101626
10.348077774047852,-0.12893212,-0.5543255,0.5117804,0.9094608,0.15076023,-0.061006658
10.368164300918579,-0.12683217,-0.5511596,0.5083751,0.9075207,0.1513117,-0.06393307
10.388261079788208,-0.12500511,-0.5477295,0.50678647,0.90620834,0.15194729,-0.06698715
10.408331155776978,-0.123026446,-0.5455842,0.5006647,0.9032791,0.15092565,-0.07013352
10.428543090820312,-0.12269758,-0.54541683,0.4988302,0.902167,0.15131354,-0.07213875
10.448589324951172,-0.12049703,-0.5429706,0.49463695,0.90010685,0.15079074,-0.07524514
10.468621492385864,-0.118471175,-0.54056853,0.48637542,0.89792395,0.1474091,-0.07744249
10.488669157028198,-0.11743125,-0.5379627,0.48379323,0.89856106,0.14624074,-0.078210786
10.508750677108765,-0.11582905,-0.5356313,0.4759431,0.8972578,0.1452271,-0.08059526
10.528846740722656,-0.114533916,-0.5325116,0.4717821,0.8961069,0.144646,-0.0835861
10.54890489578247,-0.11240104,-0.5299221,0.46516582,0.89272475,0.14372377,-0.086826086
10.569000244140625,-0.11129533,-0.5294996,0.45823476,0.8884102,0.14138518,-0.08870367
10.58906888961792,-0.10890466,-0.5261491,0.4534503,0.8876439,0.1414244,-0.09257884
10.609267711639404,-0.10797587,-0.523375,0.4467175,0.8847289,0.14110865,-0.09639254
10.629274606704712,-0.10777967,-0.5219697,0.44537395,0.88416326,0.14157878,-0.09837232
10.649363994598389,-0.10790667,-0.51857215,0.44173262,0.88111997,0.14174446,-0.10242252
10.669488668441772,-0.10763341,-0.51524734,0.43437025,0.8769112,0.13952066,-0.10585602
10.689517974853516,-0.109254494,-0.50993633,0.43162215,0.87470615,0.1382896,-0.10892694
10.709586381912231,-0.109842,-0.5071564,0.42945772,0.87279236,0.13886946,-0.11135773
10.729652404785156,-0.11165871,-0.5025233,0.42583245,0.86958444,0.1379272,-0.11548416
10.749750852584839,-0.115585044,-0.4957149,0.4239736,0.866982,0.13919996,-0.1190447
10.76997971534729,-0.12064476,-0.4923929,0.42109233,0.86499524,0.13773395,-0.12081215
10.790158033370972,-0.12252383,-0.48549497,0.41939324,0.8619946,0.13920352,-0.12496391
10.810183048248291,-0.12215653,-0.47984064,0.41635773,0.857081,0.14020026,-0.1304672
10.830269575119019,-0.12300743,-0.473033,0.41309485,0.8560887,0.14087445,-0.13410033
10.850361585617065,-0.12220311,-0.47177833,0.40807545,0.8519317,0.14133687,-0.13663244
10.870418548583984,-0.1218742,-0.46721533,0.3996457,0.8446181,0.13992469,-0.14215271
10.890530586242676,-0.12373096,-0.46188885,0.38793814,0.83709365,0.13824606,-0.14844298
10.910585641860962,-0.124701664,-0.45730639,0.39164606,0.83715856,0.14048974,-0.15211205
10.930662631988525,-0.1261275,-0.45281363,0.37969506,0.8291594,0.13906951,-0.15806097
10.950780868530273,-0.13275596,-0.44721568,0.37122244,0.82023346,0.1390321,-0.16510601
10.970849752426147,-0.1382001,-0.4412741,0.36431092,0.8127799,0.13892286,-0.17177491
10.990926265716553,-0.14525214,-0.43911907,0.3556354,0.8059972,0.13311785,-0.1742925
11.011032104492188,-0.15071253,-0.43378913,0.34578058,0.7959544,0.13011079,-0.18119645
11.03107476234436,-0.14960681,-0.42983064,0.3399511,0.79000664,0.12849309,-0.18768343
11.051135301589966,-0.15017517,-0.4270025,0.3355056,0.77503306,0.1256962,-0.19773611
11.07121992111206,-0.14863256,-0.42454612,0.33877528,0.77016544,0.12725203,-0.20298314
11.091286182403564,-0.14926027,-0.4236016,0.3402654,0.75447327,0.12653406,-0.21376996
11.111368417739868,-0.15042764,-0.42584425,0.34361947,0.7338085,0.12704982,-0.2278795
11.131450414657593,-0.14989182,-0.42974657,0.34302425,0.7229068,0.12218487,-0.2389079
11.151554584503174,-0.15097794,-0.43614578,0.3394733,0.70671916,0.11649555,-0.2529807
11.171651363372803,-0.15099953,-0.4403969,0.33391038,0.70091474,0.108906984,-0.25917864
11.191779613494873,-0.15185179,-0.44665325,0.32485086,0.6975173,0.09586787,-0.2701792
11.211829900741577,-0.15465237,-0.4502794,0.32599837,0.7059814,0.08301078,-0.27901995
11.231874465942383,-0.15653934,-0.4525392,0.3339041,0.714726,0.07272414,-0.28682393
11.251959800720215,-0.15711789,-0.4518422,0.34193718,0.71923316,0.07530172,-0.29208368
11.272038459777832,-0.15651882,-0.44777885,0.35956168,0.731418,0.085738435,-0.3033954
11.292125940322876,-0.15381968,-0.44512826,0.368479,0.7376585,0.09201993,-0.31352326
11.312180995941162,-0.14647487,-0.45114863,0.34254616,0.73683006,0.08898091,-0.32433993
11.332290649414062,-0.14499022,-0.45369306,0.3339172,0.74048126,0.08533152,-0.3292619
11.35236406326294,-0.14685896,-0.45862243,0.32075998,0.74874,0.06459063,-0.33286375
11.372420072555542,-0.15185846,-0.45891544,0.3220049,0.7603718,0.052710198,-0.33498716
11.392534017562866,-0.15799674,-0.45719504,0.33338857,0.76658154,0.052558377,-0.3363089
11.41258692741394,-0.16027868,-0.4516117,0.36476937,0.7759281,0.06926912,-0.3434847
11.432617425918579,-0.1569433,-0.4438188,0.39653933,0.7801621,0.10369178,-0.35804814
11.45283842086792,-0.147818,-0.44107896,0.3998177,0.7817956,0.12020342,-0.36964342
11.47292685508728,-0.14307648,-0.443241,0.38899052,0.77935994,0.12436324,-0.37554973
11.492992401123047,-0.12360552,-0.45301235,0.34463733,0.78092813,0.11347154,-0.38333064
11.51305103302002,-0.14310728,-0.4600914,0.30290836,0.7820424,0.077524364,-0.38269275
11.533177614212036,-0.17190965,-0.46144038,0.28887713,0.7904454,0.031641573,-0.37045833
11.553261756896973,-0.1872988,-0.4631319,0.283742,0.7880394,0.018187242,-0.3662917
11.573344469070435,1.4556959,-1.1679087,0.98400307,1.124949,0.07606902,-0.043469474
11.593412160873413,1.4448448,-1.2450452,1.1720501,1.0527055,0.17439266,-0.04365371
11.61345386505127,1.4621105,-1.22582,1.257771,1.0585248,0.26750156,-0.061072037
11.63354229927063,1.4667819,-1.2149235,1.2770832,1.0618608,0.28540215,-0.06444618
11.653626918792725,1.4743844,-1.2082341,1.2788703,1.0622575,0.29574707,-0.06768285
11.6736900806427,1.4720457,-1.217076,1.2575687,1.0573081,0.26711985,-0.06344755
11.693774223327637,1.4633455,-1.2304366,1.2327666,1.0490206,0.23044315,-0.057187557
11.713806390762329,1.461268,-1.2353735,1.228132,1.0465697,0.22196554,-0.056617513
11.73388123512268,1.459325,-1.2371686,1.2283593,1.0468259,0.22317399,-0.056121275
11.753962993621826,1.4607047,-1.2325484,1.2391193,1.0501754,0.2405409,-0.05843565
11.774015426635742,1.4584959,-1.2249194,1.2505014,1.0535295,0.25351772,-0.060785428
11.794097661972046,1.4597027,-1.2227772,1.2515421,1.054455,0.25757793,-0.06171173
11.814168214797974,1.4606632,-1.2213818,1.2524306,1.0554968,0.25992873,-0.062429503
11.834259986877441,1.462533,-1.2248017,1.2441196,1.0533413,0.2483608,-0.060606346
11.854357719421387,1.4605076,-1.2280532,1.2381173,1.0510113,0.2378789,-0.059208587
11.874439239501953,1.459196,-1.2288374,1.2366881,1.0504174,0.23676945,-0.058894858
11.89452862739563,1.4580059,-1.2280152,1.2390822,1.0511568,0.24070583,-0.05958341
11.914676666259766,1.4569526,-1.226212,1.2418895,1.0521212,0.24525957,-0.06032379
11.934776782989502,1.4539243,-1.2249594,1.2430669,1.0527937,0.24833946,-0.06101276
11.954846620559692,1.4516766,-1.2254207,1.2385113,1.0525604,0.24269383,-0.060132444
11.974904775619507,1.4515058,-1.2273309,1.2348921,1.051715,0.23875462,-0.05934462
11.99516224861145,1.451041,-1.2285331,1.2326393,1.0508953,0.23675923,-0.05922456
12.015258550643921,1.4509625,-1.2287008,1.2330872,1.0510505,0.23630984,-0.059185833
12.035383462905884,1.4511365,-1.2279886,1.2346623,1.0513256,0.2381451,-0.059446096
12.055466413497925,1.4519202,-1.2264098,1.2367952,1.0519321,0.2411079,-0.06004998
12.075505018234253,1.4518435,-1.2262608,1.235887,1.0519093,0.24035741,-0.060026422
12.095651626586914,1.4521468,-1.226337,1.235479,1.0518776,0.24062447,-0.060084328
12.115774631500244,1.450836,-1.2271382,1.2324349,1.0511924,0.23692538,-0.05928594
12.135761022567749,1.4493489,-1.227311,1.2314589,1.0512214,0.23507576,-0.059002325
12.155810832977295,1.4493749,-1.2278976,1.2304391,1.0507925,0.23423563,-0.059002995
12.175894021987915,1.4488305,-1.2274243,1.2315704,1.0511814,0.23530744,-0.059214756
12.195969820022583,1.4482167,-1.2265991,1.2320752,1.0512826,0.23584361,-0.059432164
12.216251134872437,1.4471695,-1.2253405,1.2330239,1.0516833,0.23741297,-0.059793398
12.236265659332275,1.4467022,-1.2248862,1.2313855,1.051648,0.23599462,-0.059428915
12.256523609161377,1.4458203,-1.2253433,1.2291431,1.0511935,0.23405956,-0.059324756
12.276679754257202,1.4452477,-1.2259481,1.2275367,1.051092,0.23282145,-0.058958262
12.296730995178223,1.4443132,-1.226975,1.2259336,1.0506052,0.23000254,-0.058650315
12.316766500473022,1.4429747,-1.2278371,1.2236841,1.0502454,0.2293072,-0.0585586
12.337266683578491,1.4422362,-1.227725,1.224071,1.0504426,0.22915198,-0.05857654
12.357374429702759,1.4405487,-1.2272675,1.2242498,1.0504345,0.22877248,-0.05861953
12.377456665039062,1.4407492,-1.2269892,1.223298,1.0504591,0.2281703,-0.058482707
12.397501707077026,1.4392521,-1.2269356,1.2227962,1.0504141,0.22812599,-0.058520094
12.41767144203186,1.4386072,-1.2271318,1.2221588,1.0506115,0.22788729,-0.05849108
12.437758207321167,1.4384519,-1.2272879,1.2216188,1.0505393,0.22667225,-0.058035687
12.457855224609375,1.4366103,-1.2272998,1.2199461,1.050023,0.22517888,-0.0581636
12.477921962738037,1.437297,-1.2273616,1.2194428,1.0502844,0.22533384,-0.058219776
12.497970581054688,1.4368479,-1.227039,1.2194307,1.0503029,0.22557499,-0.058258966
12.518069505691528,1.4368143,-1.2270203,1.2193898,1.050275,0.2255076,-0.058262184
12.538131713867188,1.4355557,-1.2272222,1.21853,1.0501127,0.2241254,-0.05804275
12.558181285858154,1.4348135,-1.2264429,1.2182381,1.0502121,0.22403477,-0.058101326
12.578857660293579,1.434379,-1.2262845,1.2172904,1.0501208,0.22349213,-0.05808811
12.59896206855774,1.4344397,-1.2260282,1.2172872,1.0503144,0.2243711,-0.058261722
12.619018316268921,1.4323912,-1.2264179,1.2162892,1.0502963,0.2235253,-0.05822161
12.63909125328064,1.430982,-1.2262053,1.2157053,1.0502285,0.22206284,-0.057984814
12.659149646759033,1.430666,-1.2264563,1.2139894,1.049934,0.22027902,-0.05769141
12.679285764694214,1.430715,-1.2263155,1.2142216,1.0500499,0.22143331,-0.057869926
12.699392557144165,1.4279127,-1.2266364,1.2131428,1.0497437,0.22003216,-0.057740718
12.71943736076355,1.4268827,-1.226408,1.2117074,1.0501055,0.21954204,-0.057755128
12.739472150802612,1.426527,-1.2264465,1.2102083,1.0497646,0.2166055,-0.057240114
12.759568214416504,1.4266723,-1.2267973,1.2090474,1.0493978,0.21594399,-0.057148576
12.77962350845337,1.4260778,-1.2267741,1.2094939,1.0495733,0.2171203,-0.05733742
12.799701690673828,1.4237161,-1.2264348,1.2092729,1.0494213,0.21626021,-0.05732836
12.819771528244019,1.4232807,-1.2259547,1.2090119,1.0497977,0.21711892,-0.057539716
12.83982253074646,1.4236082,-1.2263259,1.2083244,1.0496436,0.21622345,-0.057576716
12.859961748123169,1.4232838,-1.2260711,1.2075683,1.0497712,0.21537276,-0.057198778
12.880095720291138,1.4222779,-1.2263258,1.2061719,1.0494852,0.21419467,-0.057072297
12.900099992752075,1.4204485,-1.2264961,1.2059147,1.0495528,0.21326864,-0.05690451
12.920212268829346,1.4205604,-1.2259332,1.205893,1.0496515,0.21335153,-0.056945607
12.940239906311035,1.4200844,-1.2251889,1.2059894,1.0497271,0.21405752,-0.057144254
12.960317134857178,1.4193251,-1.2248656,1.2063214,1.0502409,0.2153491,-0.05746998
12.980441093444824,1.4180553,-1.2251589,1.2041409,1.049679,0.21292861,-0.057191953
13.00058388710022,1.41638,-1.2251861,1.2026136,1.0495197,0.21183379,-0.057052106
13.020756721496582,1.416294,-1.2258562,1.2006946,1.0493308,0.20948513,-0.056550637
13.040749311447144,1.41435,-1.2264602,1.1994306,1.0489757,0.20796002,-0.05627401
13.060901641845703,1.4138322,-1.2268816,1.1993245,1.0489881,0.20803516,-0.056540415
13.08103084564209,1.4139881,-1.2266383,1.199942,1.0491719,0.20934406,-0.056756333
13.101105451583862,1.4124032,-1.2265722,1.1996466,1.0493425,0.2089616,-0.056800157
13.121140480041504,1.4128948,-1.2254878,1.199229,1.0493283,0.20824106,-0.056758195
13.141223907470703,1.4111005,-1.2247739,1.19847,1.0494207,0.20762007,-0.056761146
13.161365270614624,1.4106544,-1.2246548,1.1981444,1.0494285,0.20790602,-0.056840196
13.181405067443848,1.408746,-1.2249613,1.1966105,1.0492358,0.20653065,-0.056661442
13.20148491859436,1.4093134,-1.2255042,1.195622,1.0492057,0.2059546,-0.056531593
13.221584796905518,1.4093256,-1.2256008,1.1945407,1.0487343,0.20514645,-0.056561425
13.241640090942383,1.4088948,-1.225662,1.1945267,1.049077,0.20556405,-0.05658646
13.261741876602173,1.4080604,-1.2264339,1.1923139,1.0486293,0.20235823,-0.056057006
13.28186321258545,1.4063516,-1.2260596,1.1921574,1.0484852,0.20240267,-0.056247115
13.301896572113037,1.4062972,-1.2259473,1.1913917,1.0484993,0.20112436,-0.05602908
13.321979522705078,1.4052627,-1.2248989,1.1917789,1.0488486,0.20274687,-0.05633475
13.34206509590149,1.4038453,-1.2244351,1.1913701,1.048957,0.20287727,-0.05640094
13.362133264541626,1.4030907,-1.2245024,1.1901674,1.0490667,0.20183514,-0.056264848
13.382209062576294,1.4025195,-1.2250345,1.188801,1.0489254,0.2003872,-0.05601655
13.40227198600769,1.401885,-1.2258146,1.1868773,1.0484729,0.19822924,-0.055607647
13.422356128692627,1.4001745,-1.2262253,1.1860107,1.0479202,0.19822444,-0.055770233
13.442430973052979,1.3981144,-1.22693,1.1845844,1.047786,0.19557081,-0.055610955
13.462517976760864,1.397818,-1.2263691,1.1848586,1.0481547,0.19640113,-0.055719435
13.48255443572998,1.3975244,-1.2259495,1.1847484,1.0481522,0.19657977,-0.055803314
13.503141164779663,1.3965628,-1.2251645,1.1850231,1.0483948,0.19731118,-0.056057453
13.523319959640503,1.3931211,-1.2251358,1.1833913,1.0482928,0.19560035,-0.055824652
13.543375015258789,1.3946128,-1.226024,1.1808095,1.0480443,0.19350386,-0.0554467
13.56343388557434,1.3944025,-1.2262213,1.1807642,1.0480775,0.19338144,-0.055405572
13.583577156066895,1.3935187,-1.2265441,1.1803746,1.047846,0.19258972,-0.055263296
13.603724956512451,1.3935003,-1.2267593,1.1799107,1.0477931,0.19224353,-0.05518554
13.623788595199585,1.3919595,-1.2259979,1.1804265,1.0480366,0.19367926,-0.055514947
13.643837690353394,1.3910861,-1.2254287,1.1807053,1.0481889,0.19271909,-0.0554284
13.663899421691895,1.3903091,-1.2257341,1.177292,1.0475651,0.19101752,-0.05527608
13.684025049209595,1.3903031,-1.2258507,1.1775124,1.0479697,0.19205227,-0.0554377
13.704071283340454,1.3896928,-1.226233,1.1766031,1.0478945,0.19033293,-0.055108115
13.724141120910645,1.3871324,-1.2268983,1.1741796,1.047152,0.18695845,-0.054592744
13.74421215057373,1.3870523,-1.2273153,1.1733263,1.047236,0.18682383,-0.05457303
13.764379501342773,1.3868697,-1.2268918,1.1743417,1.0475068,0.18735571,-0.054673046
13.784384489059448,1.3864489,-1.2262193,1.1737728,1.0475458,0.18728043,-0.054704174
13.804431676864624,1.3859798,-1.2260479,1.1736168,1.0476838,0.18832259,-0.05493863
13.824506759643555,1.38306,-1.225364,1.173568,1.0477998,0.1876568,-0.05497442
13.844588994979858,1.3834381,-1.2253028,1.1731092,1.047896,0.18716636,-0.054832548
13.864674806594849,1.3834877,-1.2251897,1.1718671,1.0477165,0.18590648,-0.05460997
13.884746074676514,1.3816538,-1.225493,1.1705698,1.0474735,0.18496992,-0.054547146
13.90480923652649,1.378133,-1.2259357,1.1681602,1.0471607,0.1830929,-0.054363698
13.924861669540405,1.3785036,-1.2261895,1.1679382,1.0475934,0.18317749,-0.054364935
13.944967031478882,1.3784108,-1.2262973,1.1667266,1.0471672,0.18103158,-0.05394751
13.965022325515747,1.3784941,-1.2261813,1.1658999,1.0472319,0.18104678,-0.05396019
13.985101222991943,1.3776534,-1.2260863,1.1657552,1.0471164,0.18107659,-0.054067597
14.005321979522705,1.377079,-1.2253958,1.1666392,1.0474851,0.1811078,-0.05410783
14.025419473648071,1.3772019,-1.225314,1.1658587,1.0472631,0.18043734,-0.05398725
14.045533418655396,1.3764395,-1.225502,1.1652019,1.047132,0.18043151,-0.05426559
14.06554365158081,1.3751245,-1.2247605,1.1654041,1.0476109,0.18164553,-0.054286793
14.086057186126709,1.3741757,-1.2250749,1.1644204,1.0474222,0.1799133,-0.054018095
14.106167078018188,1.3732564,-1.2249966,1.1635337,1.0472978,0.17922431,-0.05394803
14.126294612884521,1.3732231,-1.2250513,1.1618736,1.047157,0.17779718,-0.053732798
14.146350860595703,1.3724592,-1.2254384,1.1608857,1.0471224,0.17698157,-0.053623453
14.166415929794312,1.3706703,-1.225653,1.1604058,1.046902,0.17687507,-0.05383852
14.18651270866394,1.3699563,-1.2259458,1.1595677,1.0470234,0.17563675,-0.053426296
14.206700086593628,1.368261,-1.225548,1.1596895,1.04719,0.1757568,-0.053720906
14.226711988449097,1.3676087,-1.2250906,1.1586733,1.0470011,0.17484443,-0.053653628
14.246788740158081,1.3644118,-1.225061,1.1572235,1.0464385,0.17348215,-0.053593427
14.266881942749023,1.3648703,-1.2253184,1.1563954,1.0469987,0.17358734,-0.053634077
14.28697156906128,1.3638935,-1.2254641,1.155113,1.0467067,0.17182744,-0.053374663
14.307226657867432,1.3633137,-1.225873,1.1539108,1.0464926,0.17082483,-0.053112403
14.327340364456177,1.3634616,-1.2258644,1.1537483,1.0465798,0.17105746,-0.053171635
14.347460508346558,1.3619514,-1.2259074,1.1528184,1.0464965,0.17077276,-0.053158298
14.367531299591064,1.360306,-1.2261409,1.1517246,1.0464983,0.17021768,-0.053218514
14.387588500976562,1.360356,-1.2263312,1.1511755,1.046465,0.16870022,-0.052890092
14.407783508300781,1.3590757,-1.2261039,1.1508226,1.0463549,0.16771512,-0.052797273
14.42785096168518,1.3574988,-1.2258753,1.14921,1.0462964,0.16644083,-0.05255747
14.447875022888184,1.3568809,-1.2251067,1.1488642,1.0463375,0.1667827,-0.052692622
14.467963457107544,1.3565879,-1.224852,1.1485217,1.0464417,0.16695727,-0.052815422
14.488049268722534,1.3558677,-1.2249676,1.1478047,1.0463783,0.16720141,-0.052912205
14.508140802383423,1.3548038,-1.2253276,1.1469516,1.0464269,0.16572233,-0.05270517
14.528196096420288,1.3531048,-1.2257172,1.1451442,1.0462493,0.16403097,-0.052350774
14.548259258270264,1.3520358,-1.225174,1.1456563,1.0464715,0.16437855,-0.052549362
14.568482160568237,1.3502488,-1.2251997,1.1439304,1.0460312,0.16280095,-0.05232057
14.588491439819336,1.3482524,-1.2249978,1.1424677,1.0463638,0.16172601,-0.052135065
14.608578205108643,1.349562,-1.2247163,1.1425238,1.0464361,0.16220917,-0.052199855
14.628694295883179,1.3495305,-1.2247741,1.1423053,1.0463574,0.16194688,-0.05220881
14.648761987686157,1.3487165,-1.2242979,1.1424927,1.0465212,0.16248754,-0.052326396
14.668821811676025,1.3477275,-1.2246995,1.1411823,1.0461227,0.1609628,-0.052357107
14.688871145248413,1.3470595,-1.2243038,1.1418585,1.046617,0.1615575,-0.05229962
14.708966255187988,1.3471376,-1.2239575,1.1413952,1.0464565,0.1613981,-0.052492633
14.729021310806274,1.344171,-1.2238463,1.1395215,1.0463527,0.15952659,-0.052059427
14.749097108840942,1.3437762,-1.2239445,1.1388308,1.046437,0.15956463,-0.052090034
14.769142866134644,1.3428513,-1.2241807,1.1379187,1.0463135,0.15800227,-0.051927373
14.789238214492798,1.3427165,-1.2242566,1.1371124,1.0461586,0.15726632,-0.051745564
14.8093101978302,1.3432404,-1.2238741,1.1372995,1.0461068,0.15774338,-0.052074417
14.829371929168701,1.3425679,-1.2239368,1.1365569,1.0461794,0.15836371,-0.0522708
14.849430322647095,1.3405079,-1.2237033,1.1362057,1.0462109,0.15791076,-0.052343965
14.869509935379028,1.3397499,-1.2238497,1.1356549,1.0462537,0.15703504,-0.05216311
14.889714002609253,1.3376113,-1.2245013,1.1326082,1.0458363,0.1535417,-0.051554486
14.909700632095337,1.3368987,-1.2244382,1.1315761,1.0458028,0.1526768,-0.051371172
14.92980408668518,1.3344641,-1.2245052,1.1309369,1.0453775,0.15275754,-0.05153252
14.94989824295044,1.3335948,-1.2255011,1.1292189,1.0453819,0.1509899,-0.05135016
14.969980239868164,1.3335613,-1.2249187,1.12988,1.0455722,0.15140639,-0.051466018
14.990021228790283,1.3337153,-1.2244933,1.1291319,1.0454026,0.15059923,-0.051292136
15.010168313980103,1.3330536,-1.2244829,1.128809,1.0453626,0.15034917,-0.05128166
15.030197143554688,1.3318257,-1.2238568,1.1294839,1.0454584,0.1513979,-0.051607564
15.050263166427612,1.3305751,-1.2236823,1.1282032,1.0452887,0.15019797,-0.05177936
15.070321321487427,1.329324,-1.22401,1.1263883,1.0454088,0.15053941,-0.051613122
15.09038496017456,1.3295029,-1.2242194,1.1261097,1.0455104,0.14998075,-0.051538184
15.110493659973145,1.3276707,-1.2247703,1.1234393,1.0449384,0.14658134,-0.05103229
15.130556583404541,1.3272316,-1.2256426,1.1220918,1.0446821,0.14536233,-0.050991073
15.150625705718994,1.326076,-1.2261716,1.121851,1.0445629,0.14437805,-0.050820813
15.170694828033447,1.3248236,-1.2251441,1.1222256,1.0446626,0.14467265,-0.050894216
15.190771341323853,1.3241123,-1.2248694,1.1218835,1.0447677,0.14503343,-0.05094686
15.210864305496216,1.3244061,-1.2240757,1.1227655,1.0453017,0.14695854,-0.051338747
15.230945348739624,1.3228533,-1.2238863,1.1221077,1.0454355,0.14601918,-0.05130689
15.25100827217102,1.322331,-1.2239397,1.1200922,1.0450836,0.14364527,-0.050890207
15.27109694480896,1.3216348,-1.2243401,1.1188555,1.0448132,0.14239056,-0.050694555
15.29122018814087,1.3188949,-1.2250359,1.1169839,1.044496,0.14203538,-0.050766975
15.311280727386475,1.3178128,-1.2254976,1.115994,1.0445853,0.14059217,-0.050470144
15.33136510848999,1.3181777,-1.2254452,1.1162493,1.0445852,0.1407262,-0.05076492
15.35140323638916,1.3174293,-1.2250137,1.1157665,1.0445216,0.14032973,-0.05080603
15.371500968933105,1.3175993,-1.22449,1.1161067,1.0447046,0.14084177,-0.050855428
15.391585111618042,1.3167439,-1.2239524,1.116133,1.0450093,0.14207406,-0.050917685
15.411638021469116,1.3163018,-1.2241467,1.1159296,1.0449358,0.1407512,-0.05095525
15.431696891784668,1.3148265,-1.2240938,1.1136832,1.044476,0.13843511,-0.05064638
15.451833248138428,1.3138202,-1.2239401,1.1131337,1.0443398,0.13810986,-0.05080846
15.471940755844116,1.3129451,-1.2237184,1.1133626,1.0447854,0.13939963,-0.05104609
15.49200987815857,1.3118758,-1.2230127,1.1136851,1.045315,0.13934185,-0.05087875
15.512080669403076,1.3112677,-1.223386,1.111537,1.0446628,0.13721086,-0.05080399
15.532274007797241,1.3114271,-1.223547,1.1108296,1.0446953,0.137327,-0.050797373
15.552354335784912,1.3102355,-1.2239007,1.109875,1.044485,0.13658388,-0.050808534
15.572429180145264,1.3083591,-1.2244655,1.1080086,1.0441213,0.13431247,-0.05060993
15.592499256134033,1.3073442,-1.2242925,1.1080062,1.0444837,0.13481055,-0.050768778
15.612682819366455,1.3066386,-1.2235937,1.1074997,1.0445452,0.13337542,-0.050532624
15.632752656936646,1.3068545,-1.2228174,1.1080639,1.0447555,0.1344558,-0.05072312
15.652855634689331,1.3051994,-1.2225462,1.10732,1.0446448,0.13432236,-0.050792858
15.672925472259521,1.3023628,-1.2231584,1.1048476,1.0444404,0.13252704,-0.050553694
15.693053007125854,1.3031836,-1.2232009,1.1045187,1.0444244,0.13240889,-0.05086501
15.713242292404175,1.3031644,-1.2233856,1.1038108,1.0445169,0.13196868,-0.050733805
15.73317837715149,1.3019929,-1.224157,1.1022255,1.0442824,0.13053778,-0.050527737
15.753222465515137,1.2992979,-1.2236139,1.1022586,1.0442802,0.12899862,-0.050236776
15.773292064666748,1.2979071,-1.2237248,1.1000677,1.0438411,0.12765981,-0.050139725
15.793371438980103,1.2971754,-1.223416,1.1002398,1.0442646,0.12877646,-0.05021605
15.813436269760132,1.2979884,-1.2227554,1.1017312,1.0445313,0.13041349,-0.05084905
15.833515167236328,1.2971377,-1.2226638,1.0997641,1.0441773,0.12816446,-0.05063297
15.853559017181396,1.2954884,-1.2231572,1.0982013,1.0441104,0.12758385,-0.0504954
15.873654127120972,1.2953708,-1.2233942,1.0978963,1.0441525,0.12670673,-0.050366685
15.893752098083496,1.2936814,-1.2235206,1.0970442,1.0439215,0.12544882,-0.050180122
15.913788318634033,1.2924348,-1.2231426,1.0966134,1.0439898,0.12527382,-0.05034128
15.93384313583374,1.291803,-1.222439,1.0958066,1.0439804,0.12570311,-0.05057338
15.953948020935059,1.2914504,-1.2222292,1.0961292,1.044324,0.12655342,-0.050789744
15.974045991897583,1.2905041,-1.2219373,1.0952029,1.0443673,0.12493023,-0.050560102
15.994104385375977,1.2879181,-1.2228112,1.0922337,1.0438452,0.12193982,-0.050043747
16.014188289642334,1.2856761,-1.2235122,1.0907624,1.0438242,0.121199906,-0.04981315
16.034260988235474,1.2856522,-1.2226756,1.0917573,1.0443016,0.12186013,-0.04992813
16.054432153701782,1.285793,-1.2218956,1.0923839,1.0444347,0.12228903,-0.05005975
16.07443904876709,1.2851189,-1.221922,1.0909458,1.0438998,0.12163325,-0.05007817
16.094499111175537,1.2848103,-1.2219223,1.0908376,1.0442808,0.12213175,-0.050149336
16.114582777023315,1.2845938,-1.2217062,1.0901463,1.0443358,0.121586785,-0.050119683
16.134644031524658,1.2836007,-1.2220626,1.0892328,1.0442172,0.11989844,-0.049858823
16.15471076965332,1.2817276,-1.2220348,1.0884697,1.0439292,0.11889227,-0.04970953
16.17478084564209,1.2807069,-1.2221668,1.0872624,1.0436958,0.11812906,-0.049825028
16.19485640525818,1.2790289,-1.2217124,1.0873551,1.0439668,0.11913706,-0.050114036
16.214951276779175,1.2794545,-1.2209094,1.0875435,1.0444456,0.119892046,-0.050047785
16.235008239746094,1.2783949,-1.2213368,1.0851791,1.0439565,0.11649831,-0.049771845
16.255104303359985,1.2761023,-1.2219981,1.0833886,1.0438899,0.11568743,-0.04933004
16.275286197662354,1.2745211,-1.2222695,1.0821216,1.0438389,0.11455952,-0.049348965
16.295377016067505,1.274797,-1.2219306,1.0827038,1.0440305,0.11492397,-0.04942523
16.31544256210327,1.2739415,-1.2213157,1.0826619,1.0440414,0.11537595,-0.049553707
16.335566759109497,1.2708595,-1.2216827,1.0805479,1.043748,0.11348529,-0.049362466
16.35561728477478,1.269655,-1.222121,1.0791711,1.0439667,0.11300512,-0.04914643
16.375701904296875,1.2697992,-1.2219135,1.0793127,1.0440274,0.112744346,-0.04909423
16.39577293395996,1.2695901,-1.2219439,1.0788469,1.0439299,0.111417755,-0.04892063
16.41583824157715,1.2696359,-1.2213389,1.0782202,1.0437969,0.11127514,-0.048968777
16.436171293258667,1.2693138,-1.220723,1.0785146,1.0441176,0.11324273,-0.049400494
16.456245183944702,1.2681786,-1.2200766,1.0790678,1.0443852,0.113308355,-0.04948564
16.476288318634033,1.2674962,-1.2203561,1.0769527,1.0442361,0.1110027,-0.04912643
16.496347427368164,1.2649875,-1.221105,1.0748916,1.0439043,0.10950036,-0.04882638
16.516592264175415,1.2640631,-1.2211283,1.0741491,1.0438867,0.10855745,-0.048628286
16.53668522834778,1.2632325,-1.2210891,1.0738777,1.0439038,0.10866375,-0.04867883
16.55678963661194,1.2618043,-1.2204142,1.0742383,1.0442786,0.10855986,-0.048726007
16.576943397521973,1.2597895,-1.2204536,1.0718126,1.0440185,0.106997654,-0.048524037
16.59693717956543,1.2593591,-1.2199029,1.0718255,1.0442479,0.10761677,-0.048611343
16.6170916557312,1.2596161,-1.2197523,1.0721698,1.0443006,0.10796739,-0.048856214
16.637123823165894,1.257453,-1.2198908,1.0699742,1.0441794,0.10592852,-0.048545435
16.65717315673828,1.2570918,-1.2198515,1.0702741,1.0443184,0.10659406,-0.048654243
16.6772243976593,1.2521813,-1.2206552,1.0671201,1.0437856,0.10320571,-0.04816985
16.697325944900513,1.2519724,-1.2210431,1.0664175,1.0440764,0.10321492,-0.048078746
16.71738362312317,1.2521062,-1.2208289,1.0659637,1.0439209,0.102859974,-0.048129544
16.737467288970947,1.251407,-1.2208766,1.0638909,1.0437896,0.09966773,-0.04764615
16.757528066635132,1.250951,-1.2204392,1.0638477,1.0436447,0.10084742,-0.047908857
16.77765727043152,1.2502422,-1.2199382,1.0638244,1.0440019,0.1010725,-0.0479604
16.797703504562378,1.250376,-1.2198545,1.0636363,1.043856,0.10107948,-0.048034295
16.817781686782837,1.247498,-1.2204154,1.0619428,1.0435842,0.0994801,-0.047820047
16.837828397750854,1.2462869,-1.2201765,1.0612519,1.0437733,0.09879455,-0.047758013
16.85797357559204,1.2454033,-1.2203201,1.0605593,1.0437994,0.09844982,-0.047606394
16.878057718276978,1.2446386,-1.2200695,1.059608,1.0437508,0.09682459,-0.04740642
16.898115396499634,1.2423353,-1.2203382,1.0569961,1.0433819,0.094996616,-0.047168583
16.918280124664307,1.2409654,-1.220461,1.0565901,1.0433311,0.09546516,-0.047493055
16.938244581222534,1.2406379,-1.2202432,1.0568446,1.0438256,0.09553635,-0.047453687
16.958354473114014,1.2404466,-1.2201244,1.0555296,1.0435668,0.094407186,-0.047296807
16.978489875793457,1.2394885,-1.2200882,1.0554363,1.0435649,0.09446742,-0.047456115
16.99855399131775,1.2343286,-1.2202487,1.0533926,1.0434844,0.09288987,-0.04725352
17.018735885620117,1.2356894,-1.2197818,1.0524672,1.0435799,0.09123306,-0.046826825
17.038820505142212,1.2348653,-1.2196631,1.0522336,1.0437596,0.09152501,-0.046833336
17.058881044387817,1.2352948,-1.2194052,1.0529802,1.0437714,0.092950985,-0.04716067
17.07895565032959,1.2354169,-1.2181344,1.0539865,1.0441308,0.09351764,-0.04737541
17.09904909133911,1.2339599,-1.2183218,1.052125,1.0439357,0.09296308,-0.04728037
17.119128942489624,1.2340782,-1.2182719,1.0522352,1.0440996,0.09333024,-0.04737681
17.139201402664185,1.2317319,-1.2186223,1.0501835,1.0439422,0.09183181,-0.047288
17.159263610839844,1.2296023,-1.218857,1.0487934,1.0436727,0.08899401,-0.04696533
17.17932391166687,1.2273622,-1.2191294,1.0456967,1.0436419,0.08685821,-0.046293005
17.199409008026123,1.2277547,-1.2192523,1.0456128,1.0435865,0.08731069,-0.0463579
17.219475746154785,1.2258422,-1.218898,1.0456804,1.0438765,0.08775349,-0.04650095
17.23954463005066,1.2248955,-1.2188625,1.0455468,1.0436167,0.08666612,-0.04658556
17.259597301483154,1.2233024,-1.2185371,1.0436606,1.0439563,0.08558233,-0.04613562
17.279680490493774,1.2227354,-1.2188067,1.0440078,1.0435131,0.086443774,-0.04669915
17.299792766571045,1.2215176,-1.2179421,1.0453563,1.043964,0.086764365,-0.046855688
17.319863319396973,1.2179179,-1.2184485,1.0407159,1.0431622,0.0839002,-0.046415895
17.339937210083008,1.2182422,-1.2186891,1.0400009,1.0432688,0.0833381,-0.046470672
17.359987258911133,1.2179446,-1.219396,1.0387089,1.0427796,0.08139416,-0.046247497
17.38007140159607,1.2161512,-1.2195851,1.0380813,1.0424323,0.079899,-0.046067074
17.400149822235107,1.2157831,-1.2195504,1.0372466,1.0422119,0.07998334,-0.046118498
17.420213222503662,1.2162502,-1.2192158,1.0383432,1.0424398,0.08158085,-0.046675265
17.440260648727417,1.2135422,-1.2179134,1.039045,1.0428003,0.083006814,-0.04701951
17.460343599319458,1.212848,-1.217942,1.037569,1.0424454,0.081020705,-0.046998516
17.480445623397827,1.2112274,-1.2183406,1.0359198,1.0425208,0.08007397,-0.046789616
17.500576972961426,1.2112224,-1.2184973,1.0355467,1.0426784,0.07975431,-0.04672149
17.520848751068115,1.2088687,-1.2187687,1.0334632,1.0422263,0.07803336,-0.046551093
17.54093599319458,1.2075311,-1.2185436,1.032809,1.042457,0.07746792,-0.046446696
17.561013221740723,1.2070677,-1.2193044,1.0312128,1.0420785,0.076125495,-0.046581298
17.581069946289062,1.2063491,-1.2199587,1.0308242,1.0418862,0.07591498,-0.047061637
17.60112953186035,1.2052968,-1.2191182,1.0317197,1.0420109,0.0758157,-0.047168806
17.6212100982666,1.2027717,-1.2187141,1.0306851,1.0418755,0.07495119,-0.047105014
17.641276597976685,1.201355,-1.2186403,1.0286201,1.0420841,0.073813826,-0.04680097
17.661349773406982,1.2013452,-1.2180806,1.0295866,1.0422914,0.07526912,-0.047169358
17.681708097457886,1.2004994,-1.2184969,1.0274156,1.0419356,0.07258029,-0.04672551
17.701857805252075,1.1983469,-1.2182579,1.0267446,1.0419846,0.072417885,-0.046717957
17.721890211105347,1.1978296,-1.2182988,1.0264857,1.0419602,0.072258234,-0.0468681
17.741957426071167,1.1964223,-1.2188671,1.0250257,1.0419717,0.07174513,-0.046867833
17.762009143829346,1.1951594,-1.2184844,1.024581,1.0420436,0.07117286,-0.04686287
17.782087564468384,1.1925857,-1.2184949,1.0224414,1.0419818,0.068227984,-0.04618223
17.80220627784729,1.1930238,-1.2179612,1.022428,1.0422174,0.068817765,-0.046356514
17.822288513183594,1.192215,-1.2171719,1.0227702,1.0420804,0.069595054,-0.04660058
17.84234619140625,1.1909673,-1.2173837,1.0219964,1.0420623,0.06982925,-0.046689317
17.862427473068237,1.1900386,-1.217073,1.0215248,1.0423452,0.06945277,-0.04657525
17.88250994682312,1.1880009,-1.2171638,1.0205922,1.0423259,0.0682164,-0.04653892
17.90255832672119,1.1849722,-1.217179,1.0179402,1.0420153,0.0653986,-0.04612665
17.922616720199585,1.1829299,-1.2174983,1.0161396,1.0421724,0.06458748,-0.045963064
17.942700624465942,1.1833408,-1.2175518,1.0162264,1.0423294,0.06466752,-0.045773625
17.96276545524597,1.180889,-1.2175288,1.0140013,1.0419796,0.06304806,-0.04557179
17.98282241821289,1.1816635,-1.2170001,1.0141916,1.0424535,0.06467195,-0.045910403
18.00291419029236,1.1810377,-1.2175717,1.0129018,1.0418695,0.062256873,-0.04575698
18.022974491119385,1.1810569,-1.2177845,1.0126921,1.0419295,0.062083364,-0.04573798
18.04301118850708,1.1788156,-1.2169162,1.0130799,1.0421026,0.06223198,-0.0457588
18.06308603286743,1.1775222,-1.216134,1.0127395,1.0423652,0.06296201,-0.045936972
18.083183765411377,1.1764519,-1.2149997,1.0132284,1.0428113,0.06409554,-0.046205
18.103260278701782,1.1766858,-1.2149707,1.0123322,1.0427572,0.06325565,-0.04606563
18.123400926589966,1.1711938,-1.2159142,1.0084668,1.0423071,0.05975081,-0.04547684
18.14338707923889,1.1719558,-1.2166736,1.0074713,1.0425211,0.0588028,-0.045149624
18.16350817680359,1.1705291,-1.215995,1.008113,1.042713,0.058531776,-0.045128882
18.183583974838257,1.1709819,-1.2156695,1.008285,1.0426971,0.059083,-0.045158684
18.203648328781128,1.1680591,-1.2148985,1.0074854,1.0426422,0.059245124,-0.045356825
18.22373914718628,1.1675855,-1.2137643,1.0082805,1.0430431,0.06202282,-0.04613833
18.24377465248108,1.1674567,-1.2134479,1.0073221,1.0429995,0.06027238,-0.046035126
18.263855695724487,1.166788,-1.2138317,1.0063205,1.0428916,0.059963077,-0.04602854
18.28402328491211,1.1633343,-1.2137113,1.0043488,1.0427327,0.05653064,-0.045466647
18.304070949554443,1.1635733,-1.2144423,1.0019212,1.0426471,0.0546773,-0.04498124
18.324137926101685,1.1618152,-1.2146169,1.0013039,1.0426801,0.055788785,-0.045184568
18.344234466552734,1.1610402,-1.2143239,1.0016598,1.0426526,0.05575393,-0.045289613
18.364296913146973,1.157592,-1.2140079,1.0007035,1.042417,0.05429174,-0.04533243
18.38437056541443,1.1568419,-1.2141885,0.9987937,1.0424837,0.052839935,-0.04504569
18.40444278717041,1.155992,-1.2143002,0.9982028,1.0426494,0.052866682,-0.044982508
18.4245343208313,1.1535,-1.2140855,0.99829936,1.0426912,0.0524581,-0.044959456
18.444645404815674,1.1530925,-1.2135321,0.9967362,1.0426537,0.05082147,-0.044689693
18.464704990386963,1.1522515,-1.2136554,0.99558413,1.0424339,0.05142796,-0.044957772
18.484785795211792,1.1494242,-1.2137752,0.9948494,1.0423174,0.050809056,-0.045110874
18.504969596862793,1.1481044,-1.2133951,0.9943092,1.0425684,0.05049403,-0.04505305
18.525119304656982,1.147788,-1.2143044,0.9917054,1.0421659,0.04873737,-0.044923373
18.545158624649048,1.1460668,-1.2143537,0.9912826,1.0419928,0.047858313,-0.044964485
18.56519889831543,1.1455052,-1.2145076,0.9910913,1.0421892,0.047517747,-0.044917166
18.585307121276855,1.1451977,-1.2136309,0.9921552,1.0423363,0.04786396,-0.0449609
18.605390310287476,1.142339,-1.2135825,0.98968816,1.0417876,0.04620187,-0.04484047
18.62547469139099,1.1414528,-1.2131884,0.98909765,1.0417262,0.048689663,-0.04575771
18.645562410354614,1.1417766,-1.2130603,0.9885766,1.0418717,0.04738795,-0.045792334
18.665618658065796,1.1407332,-1.2132297,0.98758596,1.0417385,0.046715215,-0.045725763
18.685729503631592,1.1364301,-1.2140223,0.98507744,1.0414625,0.043889992,-0.045308128
18.705838918685913,1.13451,-1.2151779,0.9825567,1.0416352,0.041225687,-0.044629276
18.72586154937744,1.1342669,-1.2144173,0.983724,1.041544,0.041913286,-0.044832036
18.745922327041626,1.1310655,-1.2134995,0.9832704,1.0415432,0.04103218,-0.044794224
18.76600980758667,1.1297332,-1.2129555,0.9831319,1.0418391,0.043132447,-0.045021974
18.786067008972168,1.1316001,-1.2124151,0.9833636,1.0420091,0.043780096,-0.045321614
18.806214570999146,1.1315026,-1.2124588,0.98283345,1.0420375,0.043547347,-0.045421973
18.826231956481934,1.1301804,-1.2128565,0.9804232,1.0415301,0.041437976,-0.04517509
18.846335411071777,1.1292899,-1.2129153,0.9804468,1.0418704,0.041145176,-0.045137882
18.866461992263794,1.127079,-1.2128103,0.97839713,1.041668,0.038144268,-0.044783086
18.886505842208862,1.1248639,-1.2133162,0.977108,1.0413842,0.037367597,-0.04457058
18.90657067298889,1.1251665,-1.2117196,0.97907305,1.0421703,0.040531322,-0.045111194
18.926679611206055,1.1248872,-1.2114004,0.9790276,1.04217,0.040429436,-0.045167953
18.946744441986084,1.1232581,-1.21124,0.9773601,1.0422112,0.039505765,-0.045008175
18.966848134994507,1.1207914,-1.2116312,0.9756753,1.0421449,0.038088195,-0.044774957
18.98689842224121,1.1192424,-1.2121758,0.97385246,1.0420842,0.035751224,-0.044354104
19.006946325302124,1.1169015,-1.2120492,0.97232956,1.0418389,0.034225866,-0.044112034
19.027146100997925,1.1167701,-1.2118003,0.9721708,1.0419662,0.035362057,-0.044250086
19.04721975326538,1.1159879,-1.210421,0.9729432,1.0424259,0.035784043,-0.04441694
19.067213773727417,1.1142594,-1.2107085,0.9709776,1.0423324,0.03535378,-0.04459423
19.08730459213257,1.1116644,-1.211083,0.9697776,1.0422084,0.034089588,-0.044434108
19.107373476028442,1.1119022,-1.2111803,0.9689398,1.0420138,0.032745995,-0.04420705
19.127424478530884,1.1092076,-1.2109891,0.96741915,1.0419405,0.031163922,-0.044011705
19.14765214920044,1.1061188,-1.2107209,0.96643966,1.0422283,0.030936277,-0.043872245
19.167714595794678,1.1052876,-1.2100589,0.9665298,1.0424556,0.03200368,-0.044030756
19.18779182434082,1.10387,-1.2100791,0.96411145,1.0424747,0.030400502,-0.04381594
19.20784902572632,1.1034449,-1.2090452,0.9642701,1.042721,0.030642552,-0.043918245
19.227994918823242,1.1000634,-1.2091606,0.9628846,1.0426499,0.027813638,-0.043526635
19.248103141784668,1.097125,-1.2095306,0.96071213,1.0424348,0.02700516,-0.043452173
19.268078088760376,1.0978715,-1.209276,0.96062785,1.0428095,0.027438087,-0.043550916
19.28815793991089,1.0969263,-1.2088891,0.9597047,1.0427427,0.027145589,-0.04350148
19.30824327468872,1.094148,-1.2087524,0.95873696,1.0426162,0.026162418,-0.04339364
19.32830309867859,1.0926758,-1.208481,0.95842,1.0430008,0.026151901,-0.043381266
19.348358154296875,1.0914814,-1.2078635,0.95769525,1.0431252,0.024884878,-0.043173864
19.36847233772278,1.0895427,-1.2073427,0.9569068,1.0428935,0.025128203,-0.043223783
19.388549327850342,1.090251,-1.2073321,0.95615244,1.0430026,0.025290241,-0.04326266
19.408629655838013,1.0868022,-1.2077789,0.9535934,1.0431957,0.023616696,-0.04298473
19.428707599639893,1.08692,-1.2069144,0.9545559,1.0431597,0.02390446,-0.04331816
19.44895887374878,1.084349,-1.2076479,0.9508941,1.0428965,0.020464847,-0.0427875
19.469029188156128,1.0834494,-1.2072967,0.95104575,1.043052,0.021281274,-0.042828664
19.489104509353638,1.081634,-1.2065893,0.95148456,1.0433385,0.02222511,-0.042997517
19.50917649269104,1.0781428,-1.2073824,0.94827855,1.0428972,0.018976709,-0.042464636
19.52986216545105,1.0773704,-1.2070618,0.94750655,1.043195,0.019178754,-0.042408116
19.5499529838562,1.0749869,-1.2072716,0.9468858,1.0430456,0.018875243,-0.042556226
19.57001280784607,1.0728921,-1.2078295,0.9451536,1.0432646,0.016951727,-0.042176545
19.59009575843811,1.0725917,-1.2073636,0.94389284,1.0429931,0.016430756,-0.042183645
19.610215425491333,1.0723681,-1.206782,0.9444126,1.043419,0.016741088,-0.042245403
19.630374908447266,1.0706607,-1.2058767,0.94378126,1.0435312,0.017152024,-0.042280935
19.650413751602173,1.0695627,-1.2063932,0.94245183,1.0432436,0.015620975,-0.042116314
19.670438289642334,1.0669422,-1.2065494,0.9409452,1.0432489,0.014824027,-0.042185836
19.690521478652954,1.0643047,-1.2071868,0.9392036,1.0427115,0.012750411,-0.042135388
19.710615873336792,1.0624281,-1.2067629,0.9389886,1.0429332,0.012014983,-0.042169273
19.730684995651245,1.0591063,-1.2059644,0.9381759,1.0433288,0.012125665,-0.042105332
19.75073480606079,1.0591617,-1.2052099,0.93778723,1.0433147,0.01268165,-0.042237
19.770848751068115,1.0594332,-1.2051135,0.937866,1.0434973,0.013156319,-0.042364962
19.79091787338257,1.0541723,-1.2051826,0.9363125,1.0431643,0.011180056,-0.04222872
19.811006784439087,1.0536742,-1.2051986,0.9343529,1.0429566,0.009218847,-0.04212082
19.83108639717102,1.0525957,-1.2053666,0.93285537,1.0430974,0.008935766,-0.042237043
19.851257801055908,1.0519229,-1.2047302,0.9333836,1.0427966,0.009384228,-0.04244885
19.87137746810913,1.0519044,-1.2047812,0.93325526,1.0427002,0.009270744,-0.04250002
19.891483783721924,1.050109,-1.2045802,0.93276095,1.0422282,0.0095044505,-0.042810887
19.911526203155518,1.0474851,-1.204762,0.93163884,1.0424033,0.007675359,-0.042386666
19.931608200073242,1.0463066,-1.2049043,0.92938685,1.0421214,0.0059503186,-0.04233429
19.951724767684937,1.0437386,-1.2046455,0.92898893,1.0419494,0.006050078,-0.04239367
19.971781015396118,1.0417821,-1.2041125,0.9294284,1.0423206,0.0060548987,-0.042353258
19.99186611175537,1.0412815,-1.2036057,0.92849237,1.0425156,0.005372213,-0.04215791
20.01192593574524,1.038761,-1.2026621,0.9279802,1.0427085,0.0062570404,-0.042228468
20.032017946243286,1.0386801,-1.2027233,0.92688686,1.042425,0.004767826,-0.04235314
20.052073001861572,1.0347465,-1.20291,0.92463326,1.0425975,0.0034457557,-0.04214461
20.07218050956726,1.0330918,-1.2032858,0.92150104,1.0425949,0.0015415084,-0.041850902
20.09221124649048,1.0316172,-1.2041682,0.91995716,1.0424176,-0.00045542233,-0.041434795
20.11231517791748,1.0315576,-1.2037369,0.9200133,1.0426131,0.00023374148,-0.041505218
20.132390022277832,1.0305879,-1.202287,0.9213256,1.0430198,0.0012313928,-0.041642517
20.152473211288452,1.0283674,-1.2015154,0.92063826,1.0430638,0.0011125617,-0.041741505
20.17253017425537,1.0271943,-1.2014104,0.91871643,1.0432109,0.00026121177,-0.041687064
20.192705392837524,1.0245383,-1.2016631,0.9166238,1.0430987,-0.0012034047,-0.041654654
20.21278142929077,1.0243548,-1.202118,0.9158267,1.0430964,-0.002614664,-0.041368812
20.232863426208496,1.0187359,-1.2019439,0.9144419,1.0431939,-0.0039888155,-0.04105877
20.252914428710938,1.0173858,-1.2016102,0.9129343,1.0434494,-0.0045046937,-0.040804237
20.273008108139038,1.0154021,-1.2007698,0.91252494,1.0431265,-0.003759699,-0.041071326
20.293104887008667,1.0121673,-1.2006949,0.9113484,1.0432591,-0.0037730765,-0.04103186
20.313170194625854,1.013199,-1.2014855,0.90960646,1.0432384,-0.0053777117,-0.040972337
20.333283185958862,1.0112116,-1.2021874,0.907211,1.0430773,-0.007815773,-0.04068753
20.35333228111267,1.0093122,-1.2022703,0.90705323,1.0432143,-0.009474283,-0.040324807
20.373409748077393,1.0083771,-1.2020963,0.9050687,1.0431216,-0.010064973,-0.040083617
20.39349675178528,1.0069788,-1.2005515,0.9065356,1.0438064,-0.0066594537,-0.040569127
20.413553714752197,1.0040927,-1.2002312,0.90547514,1.0434164,-0.007613452,-0.04078009
20.433626890182495,1.0031269,-1.2005241,0.9046709,1.0430807,-0.008603113,-0.040798016
20.45369005203247,1.0000055,-1.2001721,0.9032412,1.0432487,-0.010212155,-0.040555492
20.473768949508667,0.9957316,-1.20125,0.89840066,1.0428104,-0.014114879,-0.039836355
20.493817806243896,0.9953487,-1.2010293,0.89926225,1.0433238,-0.013523949,-0.03980936
20.513896942138672,0.9942827,-1.200464,0.89910567,1.0430135,-0.012994943,-0.040089637
20.533968210220337,0.990271,-1.2011931,0.89646244,1.0427223,-0.015513381,-0.03973048
20.554044246673584,0.9906006,-1.2002462,0.8982498,1.0429218,-0.013586663,-0.040168107
20.5741605758667,0.9876988,-1.199735,0.89592236,1.0427053,-0.015979927,-0.03990025
20.59425950050354,0.98819864,-1.1996628,0.8960272,1.0428921,-0.015141232,-0.04012285
20.614320516586304,0.9847406,-1.1994177,0.89467263,1.0428834,-0.015673118,-0.040025264
20.634426593780518,0.98232424,-1.1995566,0.8932241,1.0429146,-0.017004255,-0.0399286
20.654465436935425,0.9832959,-1.1986601,0.8942653,1.042995,-0.016356604,-0.040161826
20.67453694343567,0.98052645,-1.1991249,0.89186436,1.0424589,-0.018173153,-0.03998393
20.694676160812378,0.9762858,-1.1988779,0.889931,1.0427463,-0.019195896,-0.039993912
20.714709281921387,0.9776075,-1.1984044,0.8901467,1.0431663,-0.01911602,-0.039911173
20.734779596328735,0.9708618,-1.1985636,0.887278,1.0429363,-0.02088094,-0.039599523
20.7548725605011,0.97079074,-1.1978211,0.88780093,1.0434923,-0.0202362,-0.039529197
20.774936199188232,0.9708699,-1.1972497,0.88684946,1.0436274,-0.020576607,-0.039576307
20.79499125480652,0.96813726,-1.1967295,0.8867116,1.0435301,-0.020392602,-0.03980013
20.815043449401855,0.9660542,-1.1967969,0.88461685,1.0434834,-0.022175131,-0.039498277
20.835150480270386,0.96486115,-1.1969376,0.8840736,1.0436419,-0.022530602,-0.039374575
20.855207204818726,0.964185,-1.1959597,0.88481104,1.0437653,-0.021789122,-0.039455906
20.875288009643555,0.9617989,-1.1956577,0.88299215,1.0436442,-0.022430347,-0.03956745
20.895343780517578,0.9590677,-1.1946363,0.8823344,1.044097,-0.02137991,-0.03974969
20.915437936782837,0.9562137,-1.1950614,0.88072693,1.0438956,-0.023819825,-0.039416492
20.935508728027344,0.9557309,-1.1950727,0.87998736,1.0440519,-0.024205755,-0.03928093
20.95555591583252,0.95093954,-1.1951414,0.8765757,1.0437118,-0.026912244,-0.03884252
20.975643157958984,0.9492674,-1.1943754,0.87648684,1.0446787,-0.026217028,-0.03874138
20.995731592178345,0.94994617,-1.1940973,0.8764297,1.0445807,-0.02588725,-0.03875716
21.01581597328186,0.947544,-1.1937652,0.8758248,1.0446923,-0.026019562,-0.03875661
21.03594470024109,0.94817245,-1.192915,0.8769119,1.0449468,-0.025067024,-0.038871706
21.055991172790527,0.94385326,-1.1926085,0.8749151,1.0446993,-0.02773013,-0.038751118
21.07607650756836,0.94288903,-1.192321,0.8744447,1.0449709,-0.027292978,-0.038750857
21.096181869506836,0.9408936,-1.1920822,0.87256676,1.045047,-0.027899064,-0.038639486
21.11625623703003,0.9399662,-1.1921821,0.8718226,1.0451849,-0.028426714,-0.038535267
21.13628888130188,0.9341253,-1.1914203,0.87081003,1.0455872,-0.029233553,-0.03822048
21.15641474723816,0.93347144,-1.1917398,0.86934143,1.0450699,-0.030722037,-0.03825386
21.176454782485962,0.9291714,-1.1913159,0.8675068,1.0450379,-0.031481616,-0.03817758
21.196508646011353,0.92866826,-1.190697,0.8671795,1.0456136,-0.030345837,-0.038153544
21.216706037521362,0.9272721,-1.1901264,0.86790353,1.0460199,-0.030490812,-0.038110435
21.236826419830322,0.9243436,-1.1901268,0.8658273,1.0456835,-0.032246508,-0.03782209
21.25688123703003,0.92192215,-1.1900418,0.86443335,1.0458442,-0.032625772,-0.03786744
21.276970624923706,0.92196953,-1.1888511,0.8655225,1.0458332,-0.030701268,-0.038202368
21.297126531600952,0.91955286,-1.1890261,0.8632411,1.045819,-0.032436788,-0.03804916
21.317285776138306,0.9193982,-1.1883117,0.86377203,1.0462421,-0.03156655,-0.03820987
21.33734631538391,0.91561466,-1.1887251,0.8596356,1.0462608,-0.034524098,-0.03764049
21.357428789138794,0.91156954,-1.1897857,0.8568702,1.0463314,-0.036880493,-0.03709136
21.37744927406311,0.9090661,-1.1891301,0.856599,1.046607,-0.03648608,-0.037016064
21.39753746986389,0.9046174,-1.1899265,0.8543967,1.0456884,-0.039501548,-0.036841094
21.417608976364136,0.9046025,-1.1884928,0.8544706,1.046329,-0.037193272,-0.037237503
21.437697410583496,0.90386164,-1.1872393,0.8551089,1.0469002,-0.03680995,-0.037199005
21.4577534198761,0.9001306,-1.1878409,0.8518878,1.0465417,-0.03901307,-0.03689245
21.47799277305603,0.8972862,-1.1880379,0.8504588,1.0465012,-0.040171973,-0.036859624
21.498080253601074,0.896997,-1.1870778,0.8516924,1.0471506,-0.038676195,-0.036957823
21.518157482147217,0.895077,-1.1869979,0.85048187,1.0467949,-0.04046836,-0.036919415
21.53822898864746,0.89088833,-1.1865127,0.84796476,1.046843,-0.040926427,-0.036984086
21.558295726776123,0.89045346,-1.185503,0.84903234,1.0471644,-0.04048843,-0.03732112
21.578366994857788,0.88998663,-1.185013,0.84810686,1.047448,-0.041461103,-0.036930665
21.59843420982361,0.88460743,-1.1847032,0.84625083,1.0475136,-0.041551225,-0.036906764
21.618502378463745,0.8847766,-1.1846964,0.8452963,1.047129,-0.04219758,-0.037151963
21.638561725616455,0.8833668,-1.1834351,0.8467588,1.0477029,-0.040948417,-0.037342325
21.658758878707886,0.8810488,-1.183295,0.84531695,1.0470849,-0.04201185,-0.03749592
21.678757905960083,0.8782273,-1.1828631,0.84367394,1.0473837,-0.043267153,-0.037228994
21.698823928833008,0.8751039,-1.1826046,0.84223175,1.0475932,-0.042822935,-0.03709194
21.718926668167114,0.87106097,-1.1823977,0.8419137,1.0472676,-0.04386033,-0.03728336
21.738977432250977,0.86983526,-1.1828399,0.83943534,1.0465713,-0.04593888,-0.037116095
21.75904083251953,0.8663395,-1.1829865,0.8371311,1.0470011,-0.04826604,-0.03658837
21.779115676879883,0.86263776,-1.1831646,0.8345653,1.0466485,-0.04930924,-0.036413968
21.799524545669556,0.86130875,-1.1821946,0.83535457,1.0474511,-0.04792787,-0.036518857
21.81961989402771,0.8601725,-1.1821283,0.8339251,1.0468788,-0.049155608,-0.036572404
21.839704275131226,0.85732967,-1.1819026,0.83130753,1.0468985,-0.05060125,-0.036389135
21.85977792739868,0.8535107,-1.1815245,0.83055353,1.0474544,-0.050766848,-0.036265075
21.879863262176514,0.8521073,-1.1812472,0.83026886,1.0476817,-0.05079636,-0.036129564
21.900028705596924,0.8513181,-1.1811398,0.828738,1.0477023,-0.05194051,-0.035863467
21.920058965682983,0.84829164,-1.1807106,0.828425,1.0477301,-0.052273862,-0.03599012
21.940109252929688,0.8436631,-1.1803643,0.82649803,1.047507,-0.053026453,-0.03580779
21.960166215896606,0.84398246,-1.1799402,0.82656926,1.0480242,-0.052655533,-0.03576505
21.980268955230713,0.83871365,-1.1790695,0.82548946,1.0481765,-0.052701443,-0.035751857
22.000356435775757,0.8370303,-1.1786516,0.82432747,1.0479088,-0.054037027,-0.035864264
22.020423412322998,0.83488566,-1.177779,0.82362944,1.0485039,-0.052625805,-0.03615734
22.04078984260559,0.8322333,-1.1775792,0.8217031,1.0482959,-0.05475921,-0.035822406
22.060890913009644,0.8299393,-1.177215,0.82136154,1.0483396,-0.055199035,-0.03577678
22.081013917922974,0.82842696,-1.1776282,0.8188306,1.0482228,-0.056703888,-0.035720423
22.101035594940186,0.8247178,-1.1773179,0.8186269,1.0481671,-0.055432066,-0.036023617
22.12128472328186,0.8207522,-1.1758409,0.81923467,1.0480391,-0.0560031,-0.036287986
22.1413676738739,0.82196146,-1.1750963,0.8196447,1.0488288,-0.054638118,-0.03629701
22.161437273025513,0.8136336,-1.1751689,0.81605816,1.048278,-0.05598575,-0.03597548
22.181544303894043,0.8135783,-1.1748402,0.81660247,1.0480077,-0.056236625,-0.03616474
22.201590538024902,0.8124984,-1.1737978,0.8159225,1.0484709,-0.056911238,-0.03614083
22.221721649169922,0.807089,-1.1745877,0.8122852,1.0476456,-0.06074909,-0.03567557
22.241779088974,0.8071969,-1.17421,0.81175756,1.0479721,-0.05900061,-0.035769135
22.261850357055664,0.805911,-1.172857,0.812667,1.0483665,-0.058228783,-0.03585741
22.28189754486084,0.80223805,-1.1719772,0.8118432,1.04841,-0.05875335,-0.035803996
22.30198383331299,0.80133283,-1.1711297,0.81171113,1.0488505,-0.05689635,-0.03593886
22.3220477104187,0.7990007,-1.1698831,0.8127393,1.0495679,-0.055842668,-0.03597126
22.342133045196533,0.79203755,-1.1696997,0.80908436,1.0492128,-0.05969073,-0.035307348
22.362207412719727,0.7912925,-1.1700406,0.8060924,1.0496396,-0.06100019,-0.03495107
22.3824143409729,0.7898476,-1.1684355,0.80760735,1.0498127,-0.05982764,-0.035297498
22.402525901794434,0.7874576,-1.1679515,0.807009,1.0499667,-0.060188353,-0.035192594
22.422584056854248,0.7852498,-1.1671535,0.80586505,1.0499574,-0.06022329,-0.035357207
22.442657947540283,0.78130144,-1.1654142,0.80606335,1.0502254,-0.0596108,-0.03551218
22.463070392608643,0.7786994,-1.1646883,0.8043998,1.0503514,-0.0606995,-0.035459474
22.483197450637817,0.7747194,-1.1644729,0.80316216,1.0505091,-0.061106294,-0.035307944
22.50323510169983,0.7707927,-1.1644611,0.8003412,1.050724,-0.06291026,-0.034941413
22.52329921722412,0.7665761,-1.1640725,0.7982514,1.0515951,-0.06394232,-0.034330904
22.543355703353882,0.7641559,-1.1643895,0.79566467,1.0511702,-0.06492721,-0.034349754
22.56343722343445,0.7635002,-1.1634878,0.79715824,1.051605,-0.064726,-0.034375593
22.58349847793579,0.75944114,-1.1626824,0.79566896,1.0514607,-0.065367006,-0.03435813
22.60369300842285,0.7574707,-1.1617324,0.7949537,1.0508536,-0.06443375,-0.035162225
22.62367296218872,0.75259644,-1.1609771,0.7941163,1.0512526,-0.065895006,-0.035187595
22.643775463104248,0.75183415,-1.1604614,0.794032,1.05169,-0.065025486,-0.03529919
22.663843631744385,0.7460303,-1.1603657,0.79092455,1.0513731,-0.06737427,-0.034870073
22.683907508850098,0.7427237,-1.1593022,0.7902116,1.0518985,-0.06785719,-0.03468007
22.703951358795166,0.7382957,-1.1581668,0.788666,1.0523301,-0.06853676,-0.034349807
22.724066972732544,0.73749,-1.1573209,0.78852886,1.0527306,-0.0676634,-0.03435105
22.744110822677612,0.7356819,-1.1562214,0.7873909,1.0526698,-0.06727789,-0.03469827
22.764249563217163,0.7318735,-1.155664,0.78625095,1.0528302,-0.068465315,-0.03462965
22.784302234649658,0.72860324,-1.1551669,0.7856033,1.0529491,-0.06852955,-0.03467354
22.804394006729126,0.7260039,-1.1551087,0.78425264,1.052678,-0.069388255,-0.034661256
22.824525833129883,0.7173958,-1.1541406,0.7819364,1.0530403,-0.07126347,-0.034142613
22.84453582763672,0.71429914,-1.1525097,0.78101754,1.0532436,-0.07048133,-0.0340456
22.864651679992676,0.7102189,-1.151906,0.7788067,1.0534719,-0.071458384,-0.03396266
22.884780168533325,0.7094133,-1.1508888,0.78001237,1.05441,-0.0705218,-0.033939987
22.904906511306763,0.70831114,-1.1512613,0.7770951,1.0534192,-0.07252828,-0.033974037
22.924955368041992,0.70409274,-1.1510081,0.77540684,1.0528424,-0.07354758,-0.034199774
22.94511342048645,0.70071435,-1.1497432,0.77559346,1.0523401,-0.0731625,-0.034933418
22.965227127075195,0.697587,-1.14942,0.77535236,1.0521692,-0.07386386,-0.03514941
22.985311031341553,0.69465476,-1.1486177,0.7734252,1.0526636,-0.073177464,-0.03517115
23.00533962249756,0.6907675,-1.1472684,0.77299595,1.0531343,-0.07321899,-0.035025448
23.025531768798828,1.2423294,-0.46418673,0.9088038,0.72356606,0.025693418,-0.27701062
23.045620441436768,1.384628,-0.4078169,0.973178,0.793471,0.060846135,-0.34827882
23.065704345703125,1.4040848,-0.4024446,1.0255461,0.825335,0.081705645,-0.3660198
23.08574914932251,1.3997546,-0.40251943,1.0403246,0.8269994,0.08985129,-0.3667767
23.10582685470581,1.3996565,-0.40287852,1.043712,0.82703084,0.09123452,-0.3666786
23.125934839248657,1.3984737,-0.40312442,1.0432906,0.8265966,0.09070508,-0.36660713
23.14602541923523,1.3961899,-0.4032507,1.0424439,0.826184,0.0896229,-0.3663637
23.166109323501587,1.3935788,-0.40397802,1.0385013,0.8249921,0.08714402,-0.36612874
23.186146020889282,1.3938868,-0.40427157,1.0364618,0.8248986,0.08538769,-0.36590827
23.206236839294434,1.3916373,-0.40450495,1.0356275,0.82431567,0.084109366,-0.36578527
23.226300716400146,1.3910284,-0.40486926,1.0328294,0.8238232,0.082337275,-0.3655653
23.246366262435913,1.3885084,-0.40508413,1.0312762,0.8231993,0.080143124,-0.36527702
23.26642680168152,1.3865615,-0.40517706,1.0310371,0.8228983,0.08011827,-0.3651931
23.286502599716187,1.387097,-0.40526628,1.0303152,0.8232365,0.080367684,-0.3651554
23.30663251876831,1.3848321,-0.4056942,1.0282254,0.822236,0.07792424,-0.3649013
23.326686143875122,1.3799089,-0.40612996,1.025898,0.8211446,0.07517108,-0.36444432
23.346749305725098,1.3811958,-0.4061185,1.0245922,0.8212287,0.075070575,-0.3643763
23.366854906082153,1.3791072,-0.4064694,1.023273,0.8206233,0.07365748,-0.3642459
23.386921882629395,1.3754792,-0.40697426,1.0189192,0.81956357,0.0711257,-0.36390895
23.40697145462036,1.3758621,-0.40733275,1.017003,0.81944054,0.068976834,-0.36365682
23.42730212211609,1.3754748,-0.40842277,1.0114026,0.8179487,0.065889984,-0.3634454
23.4474196434021,1.3741709,-0.40826195,1.0106555,0.8178844,0.06523822,-0.36343515
23.467478275299072,1.3722427,-0.40866488,1.0084566,0.81740654,0.06277461,-0.3630963
23.487537622451782,1.3713291,-0.4088484,1.0072204,0.8171195,0.061971337,-0.36292297
23.50759530067444,1.3679478,-0.40910006,1.006272,0.81637496,0.060613096,-0.36270827
23.527693033218384,1.3684139,-0.4089818,1.0059861,0.816808,0.06106071,-0.3626622
23.54776668548584,1.3652827,-0.40949678,1.003262,0.81588244,0.059087098,-0.36240345
23.567823886871338,1.362595,-0.4099894,1.0000523,0.8148556,0.056429446,-0.362099
23.58787751197815,1.3604397,-0.41052783,0.99661684,0.81416225,0.0530978,-0.36169797
23.60800051689148,1.3580942,-0.41083133,0.9952912,0.8135854,0.051194444,-0.36139876
23.62804865837097,1.3581581,-0.41148847,0.9919323,0.8127358,0.049550027,-0.3612563
