liuyurong129/humanoid-gym/humanoid/data/target_q_20250522-035216.csv
timestamp,joint_1,joint_2,joint_3,joint_4,joint_5,joint_6
5.078315734863281e-05,0.0,0.0,0.0,0.0,0.0,0.0
0.020131587982177734,0.0,0.0,0.0,0.0,0.0,0.0
0.04023265838623047,0.0,0.0,0.0,0.0,0.0,0.0
0.06030011177062988,0.0,0.0,0.0,0.0,0.0,0.0
0.08037209510803223,0.0,0.0,0.0,0.0,0.0,0.0
0.10045075416564941,0.24121443927288055,-0.5331276655197144,0.6186554431915283,0.05706632882356644,-0.2800344228744507,-0.3423960506916046
0.12050294876098633,0.24037934839725494,-0.5681847333908081,0.6365882158279419,0.08549930900335312,-0.28687918186187744,-0.34872201085090637
0.14058852195739746,0.23272201418876648,-0.5980845093727112,0.6646801233291626,0.11100704222917557,-0.29107025265693665,-0.3567536175251007
0.16068077087402344,0.22493302822113037,-0.6132785677909851,0.6769232749938965,0.12341773509979248,-0.2939213216304779,-0.3613821566104889
0.18072962760925293,0.21048440039157867,-0.6391688585281372,0.7071894407272339,0.14651750028133392,-0.29693400859832764,-0.37108394503593445
0.20086264610290527,0.20410358905792236,-0.648500919342041,0.7257335186004639,0.15754060447216034,-0.2961612939834595,-0.37667059898376465
0.22092938423156738,0.17784474790096283,-0.6696206331253052,0.75095534324646,0.1783488690853119,-0.30171239376068115,-0.38797128200531006
0.2410266399383545,0.14839047193527222,-0.6890259981155396,0.7707393169403076,0.1982230544090271,-0.306978315114975,-0.40002867579460144
0.2610940933227539,0.12977005541324615,-0.6999999284744263,0.773525595664978,0.20766714215278625,-0.31180599331855774,-0.4061599671840668
0.2813150882720947,0.09954916685819626,-0.7211513519287109,0.7716444134712219,0.2267334759235382,-0.3177037239074707,-0.4191969931125641
0.3014342784881592,0.07240355014801025,-0.7402913570404053,0.7689762115478516,0.24416950345039368,-0.3219945728778839,-0.432280957698822
0.3215153217315674,0.0631057471036911,-0.7442944645881653,0.7826110124588013,0.25186556577682495,-0.32038378715515137,-0.43901076912879944
0.3417196273803711,0.04712580889463425,-0.7518471479415894,0.7900102138519287,0.26347532868385315,-0.3162233233451843,-0.45166289806365967
0.3617382049560547,0.03845009580254555,-0.7550333738327026,0.7868914604187012,0.26611095666885376,-0.3141452968120575,-0.4586721956729889
0.3817877769470215,0.03359256312251091,-0.7558807134628296,0.7978549599647522,0.27288344502449036,-0.3103103041648865,-0.4700052738189697
0.40184473991394043,0.02892180159687996,-0.7559471726417542,0.7977912425994873,0.2758854031562805,-0.309658944606781,-0.48081016540527344
0.42192888259887695,0.027599027380347252,-0.7534095048904419,0.8070107102394104,0.27750036120414734,-0.3095531761646271,-0.48527616262435913
0.4420304298400879,0.02572551555931568,-0.7540870308876038,0.7993798851966858,0.27699440717697144,-0.3089718818664551,-0.49552595615386963
0.46214771270751953,0.023965533822774887,-0.7558382153511047,0.7911020517349243,0.2764424979686737,-0.3122910261154175,-0.5045066475868225
0.48227620124816895,0.021868007257580757,-0.761452853679657,0.7703635692596436,0.2748604714870453,-0.31451523303985596,-0.509149968624115
0.5023159980773926,0.02597646787762642,-0.7625514268875122,0.7654067873954773,0.2744879126548767,-0.3161369264125824,-0.5165942907333374
0.5224997997283936,0.0302352886646986,-0.7568845748901367,0.7698855400085449,0.2708975672721863,-0.31667885184288025,-0.5247175693511963
0.5427424907684326,0.036309052258729935,-0.7465816736221313,0.7916584014892578,0.2697746753692627,-0.3165648877620697,-0.527292013168335
0.5627436637878418,0.04096259921789169,-0.7431287169456482,0.7875440716743469,0.26731088757514954,-0.32210299372673035,-0.5336679816246033
0.582819938659668,0.04178102687001228,-0.7444672584533691,0.7769080996513367,0.2641007900238037,-0.3250141739845276,-0.5376698970794678
0.6029360294342041,0.052530668675899506,-0.7385069131851196,0.7813782691955566,0.25852274894714355,-0.3266570568084717,-0.5444819927215576
0.6230635643005371,0.06499740481376648,-0.7317177057266235,0.7899613976478577,0.2550398111343384,-0.33112090826034546,-0.5499918460845947
0.6431941986083984,0.07371921837329865,-0.7290908098220825,0.796816885471344,0.25277140736579895,-0.33277833461761475,-0.552463948726654
0.6631877422332764,0.08923567086458206,-0.7259458899497986,0.7970770001411438,0.24761956930160522,-0.3353431224822998,-0.5572773814201355
0.6832432746887207,0.10744183510541916,-0.7245256900787354,0.7985348105430603,0.24245300889015198,-0.3370650112628937,-0.561309278011322
0.7033438682556152,0.11471590399742126,-0.7259998321533203,0.7952128648757935,0.23972433805465698,-0.33938711881637573,-0.5631260871887207
0.7234151363372803,0.13989819586277008,-0.7228102087974548,0.8099761009216309,0.23508402705192566,-0.33685728907585144,-0.5652880668640137
0.7434685230255127,0.1600242406129837,-0.7177075147628784,0.8322672843933105,0.22905439138412476,-0.33710843324661255,-0.5664817094802856
0.7635605335235596,0.17123492062091827,-0.7128399610519409,0.8540438413619995,0.22798341512680054,-0.3366899788379669,-0.5661870241165161
0.7836692333221436,0.17872653901576996,-0.7064780592918396,0.8819138407707214,0.21943947672843933,-0.34079509973526,-0.5649153590202332
0.8039541244506836,0.1669556200504303,-0.6974344849586487,0.9028306603431702,0.1997552365064621,-0.35252729058265686,-0.5627891421318054
0.8240540027618408,0.15980665385723114,-0.690214991569519,0.9076610803604126,0.18664631247520447,-0.3557642996311188,-0.5616907477378845
0.8441929817199707,0.13909004628658295,-0.6751016974449158,0.9078028798103333,0.16133011877536774,-0.36498749256134033,-0.5604225993156433
0.8642482757568359,0.12275604158639908,-0.6695679426193237,0.8979971408843994,0.15141038596630096,-0.37360963225364685,-0.5601601004600525
0.8843250274658203,0.08892521262168884,-0.6621218919754028,0.8681744933128357,0.13927717506885529,-0.38884249329566956,-0.5602129697799683
0.9043788909912109,0.06189221888780594,-0.6579141020774841,0.8283464908599854,0.13501089811325073,-0.40086475014686584,-0.5600113272666931
0.924473762512207,0.05115542188286781,-0.6570301055908203,0.8064813017845154,0.13451893627643585,-0.406390517950058,-0.5597344040870667
0.9445619583129883,0.040779661387205124,-0.6539275050163269,0.7584412693977356,0.13838160037994385,-0.4123751223087311,-0.5599737763404846
0.9646942615509033,0.04673019424080849,-0.6512044668197632,0.7176613211631775,0.14497435092926025,-0.4094482362270355,-0.5608142018318176
0.9847767353057861,0.05487649887800217,-0.6499521136283875,0.7035435438156128,0.14919130504131317,-0.40615758299827576,-0.5614001750946045
1.004835844039917,0.08154439926147461,-0.6461575627326965,0.6879760026931763,0.15586936473846436,-0.39211106300354004,-0.5629631280899048
1.0252251625061035,0.11345547437667847,-0.6419480443000793,0.6797280311584473,0.16019049286842346,-0.3741288185119629,-0.5642828941345215
1.0453424453735352,0.12840889394283295,-0.6403868198394775,0.6780419945716858,0.1619151383638382,-0.3670923113822937,-0.5647091865539551
1.065467119216919,0.16201984882354736,-0.6375730633735657,0.6767889857292175,0.1640269160270691,-0.3505657911300659,-0.5653173923492432
1.0857763290405273,0.1872793734073639,-0.6345750689506531,0.6822125911712646,0.16429799795150757,-0.34026211500167847,-0.5653729438781738
1.1058993339538574,0.20006898045539856,-0.6330949068069458,0.684455931186676,0.16482453048229218,-0.33472391963005066,-0.5653759241104126
1.1259651184082031,0.22738759219646454,-0.6283894181251526,0.6960418820381165,0.1613525152206421,-0.3208736181259155,-0.5638254880905151
1.1460561752319336,0.23803618550300598,-0.6259770393371582,0.702811598777771,0.15840855240821838,-0.3162657916545868,-0.5622740983963013
1.1662054061889648,0.24912011623382568,-0.6196880340576172,0.7188305258750916,0.1501302719116211,-0.312408983707428,-0.560050904750824
1.186556100845337,0.24591074883937836,-0.6130775809288025,0.7219223976135254,0.12716008722782135,-0.308809757232666,-0.5587104558944702
1.2066717147827148,0.24344536662101746,-0.6090116500854492,0.718960702419281,0.11605366319417953,-0.3053206503391266,-0.5591880083084106
1.2267241477966309,0.21444642543792725,-0.6046678423881531,0.7094278931617737,0.10239402949810028,-0.31925472617149353,-0.5620074272155762
1.2468047142028809,0.19573447108268738,-0.604875922203064,0.6957156658172607,0.09902479499578476,-0.3278977572917938,-0.5628678202629089
1.2668769359588623,0.16603714227676392,-0.6060780882835388,0.657330334186554,0.09351268410682678,-0.3370896279811859,-0.5657609701156616
1.286942958831787,0.14177605509757996,-0.6089299917221069,0.6150760650634766,0.09751039743423462,-0.34608781337738037,-0.5684893131256104
1.3071086406707764,0.13128872215747833,-0.6103683114051819,0.592932939529419,0.1007111594080925,-0.34912756085395813,-0.5702626705169678
1.3272829055786133,0.11914803087711334,-0.6144236326217651,0.5472847819328308,0.11388496309518814,-0.3528384566307068,-0.5749421715736389
1.3472800254821777,0.11795859038829803,-0.6164069175720215,0.5250917077064514,0.12260546535253525,-0.35158923268318176,-0.57815021276474
1.3673462867736816,0.13081613183021545,-0.6162101030349731,0.5109689235687256,0.1464860737323761,-0.34451407194137573,-0.5862929224967957
1.3874876499176025,0.13873937726020813,-0.614987850189209,0.5141003131866455,0.15987738966941833,-0.34210148453712463,-0.5911269783973694
1.4075322151184082,0.1631535440683365,-0.6089445948600769,0.5288324356079102,0.18420761823654175,-0.3303622305393219,-0.6012896299362183
1.4276220798492432,0.1764652580022812,-0.6046913266181946,0.5439460277557373,0.19526100158691406,-0.32511621713638306,-0.6061158180236816
1.4477260112762451,0.20337827503681183,-0.5975093841552734,0.5711686611175537,0.2163020819425583,-0.3161788284778595,-0.613806962966919
1.4677891731262207,0.2333783656358719,-0.5890066027641296,0.6046198606491089,0.23204253613948822,-0.3047606945037842,-0.6193106770515442
1.4878740310668945,0.24786415696144104,-0.5843480229377747,0.6216737031936646,0.23661187291145325,-0.29820701479911804,-0.6218463778495789
1.5080008506774902,0.24828137457370758,-0.5757636427879333,0.6533969044685364,0.2340649962425232,-0.2973087728023529,-0.6292448043823242
1.528998851776123,0.23993222415447235,-0.5658743977546692,0.6757293343544006,0.22776883840560913,-0.29794007539749146,-0.6388376355171204
1.5490927696228027,0.23753267526626587,-0.5627462863922119,0.6759725213050842,0.22942179441452026,-0.298767626285553,-0.643531858921051
1.5691626071929932,0.21307891607284546,-0.5633087754249573,0.6388672590255737,0.23145882785320282,-0.30891722440719604,-0.650697648525238
1.5894339084625244,0.2002963125705719,-0.5616456270217896,0.59963458776474,0.24109652638435364,-0.31196773052215576,-0.6573243141174316
1.6095640659332275,0.19338124990463257,-0.5611342787742615,0.5783792734146118,0.24658679962158203,-0.31348487734794617,-0.6597373485565186
1.629659652709961,0.19844423234462738,-0.5563509464263916,0.5571503639221191,0.25788065791130066,-0.30423134565353394,-0.6662464737892151
1.6497058868408203,0.20837320387363434,-0.5529801249504089,0.5553781986236572,0.26328667998313904,-0.2958507537841797,-0.6694871187210083
1.6698558330535889,0.23061007261276245,-0.5443134307861328,0.5718628764152527,0.272678017616272,-0.2800896465778351,-0.6764909029006958
1.6899223327636719,0.25709268450737,-0.5321111083030701,0.6027979850769043,0.2721693217754364,-0.2584914565086365,-0.6851692795753479
1.7101142406463623,0.26319852471351624,-0.5246835947036743,0.6222463846206665,0.2702096700668335,-0.25109121203422546,-0.6913131475448608
1.7301287651062012,0.2508750259876251,-0.5184695720672607,0.6298264265060425,0.2717658579349518,-0.25498729944229126,-0.7005848288536072
1.7502071857452393,0.23936232924461365,-0.5177276730537415,0.6146306395530701,0.2688099443912506,-0.2565804719924927,-0.7037736773490906
1.7703237533569336,0.21322886645793915,-0.5196802616119385,0.5738626718521118,0.2719133496284485,-0.26731884479522705,-0.7083008289337158
1.7905004024505615,0.19049927592277527,-0.5216343402862549,0.5317410826683044,0.2811843752861023,-0.27686870098114014,-0.7109556794166565
1.8105809688568115,0.1879950314760208,-0.5215367674827576,0.5179266333580017,0.29106852412223816,-0.2781206965446472,-0.7125958800315857
1.8307571411132812,0.2050800919532776,-0.5183477997779846,0.5124850869178772,0.31114280223846436,-0.26582685112953186,-0.7170184850692749
1.8519060611724854,0.2347484678030014,-0.510957658290863,0.5386528968811035,0.3299867808818817,-0.24668346345424652,-0.722427487373352
1.8719868659973145,0.24145981669425964,-0.5068408250808716,0.5567222237586975,0.3337100148200989,-0.23969417810440063,-0.7267776727676392
1.8921394348144531,0.2593289017677307,-0.4952459931373596,0.5942359566688538,0.32395005226135254,-0.21793070435523987,-0.7347909808158875
1.9123077392578125,0.2588304579257965,-0.49321573972702026,0.5974328517913818,0.32667601108551025,-0.21540960669517517,-0.7389473915100098
1.932410717010498,0.23695108294487,-0.4932388663291931,0.5834778547286987,0.32133087515830994,-0.21861843764781952,-0.7453595399856567
1.9524619579315186,0.20830117166042328,-0.4970706105232239,0.5442129373550415,0.319468230009079,-0.22753316164016724,-0.7486633062362671
1.9725301265716553,0.195210263133049,-0.4992697834968567,0.5241588950157166,0.32185056805610657,-0.23393160104751587,-0.748771071434021
1.992617130279541,0.17781637609004974,-0.5021136999130249,0.49087217450141907,0.33939632773399353,-0.24281296133995056,-0.7502086758613586
2.0126802921295166,0.19343112409114838,-0.5019785761833191,0.4861804246902466,0.3630308508872986,-0.23494955897331238,-0.7523440718650818
2.032836675643921,0.20547546446323395,-0.4997825026512146,0.5029731392860413,0.37408918142318726,-0.2287476658821106,-0.7543087601661682
2.0529401302337646,0.22725555300712585,-0.49403858184814453,0.5368382930755615,0.3843925893306732,-0.21026206016540527,-0.7588829398155212
2.0730650424957275,0.2451752871274948,-0.4847208261489868,0.5739193558692932,0.3716893196105957,-0.18771065771579742,-0.7650590538978577
2.0931529998779297,0.24965038895606995,-0.4810260832309723,0.5906397104263306,0.3752364218235016,-0.18261253833770752,-0.7699141502380371
2.1132099628448486,0.23356997966766357,-0.4827800989151001,0.5788038969039917,0.3730737864971161,-0.18268918991088867,-0.7749669551849365
2.1333165168762207,0.2175593227148056,-0.48578745126724243,0.560843288898468,0.37110018730163574,-0.1876041144132614,-0.7765289545059204
2.1533613204956055,0.1904929131269455,-0.4910660684108734,0.5201660990715027,0.3711640536785126,-0.19645051658153534,-0.777641236782074
2.173438787460327,0.16365298628807068,-0.49697184562683105,0.4846682846546173,0.38099488615989685,-0.21121910214424133,-0.7765748500823975
2.19353985786438,0.1661245971918106,-0.49701350927352905,0.479422390460968,0.3899480700492859,-0.20801275968551636,-0.7764595150947571
2.2136213779449463,0.18472938239574432,-0.49804073572158813,0.48905041813850403,0.41163453459739685,-0.20070672035217285,-0.777084469795227
2.233696699142456,0.20972394943237305,-0.49398043751716614,0.5206458568572998,0.42517951130867004,-0.18221384286880493,-0.7801107168197632
2.2537758350372314,0.21215495467185974,-0.4911835789680481,0.5437836050987244,0.4211505949497223,-0.17544302344322205,-0.7838303446769714
2.2739007472991943,0.22226203978061676,-0.48203083872795105,0.5795899629592896,0.4172819256782532,-0.1587994396686554,-0.7907701134681702
2.293973684310913,0.21941345930099487,-0.48230689764022827,0.5766537189483643,0.41628873348236084,-0.15086954832077026,-0.7942784428596497
2.3141000270843506,0.2119383066892624,-0.4847411811351776,0.5610272884368896,0.414338082075119,-0.15006566047668457,-0.7952834963798523
2.334151268005371,0.1864994913339615,-0.491073876619339,0.5195314288139343,0.41197890043258667,-0.1585841327905655,-0.7956287264823914
2.3543167114257812,0.1706821769475937,-0.4948268532752991,0.503493070602417,0.41608256101608276,-0.1678788959980011,-0.7961452603340149
2.374427318572998,0.1468907743692398,-0.5006610751152039,0.4795142412185669,0.4274037480354309,-0.18158869445323944,-0.7950647473335266
2.394486904144287,0.1619371473789215,-0.5024605989456177,0.4817117154598236,0.4475148320198059,-0.1747244894504547,-0.7945412993431091
2.4150583744049072,0.17227056622505188,-0.5018627047538757,0.49765413999557495,0.45638927817344666,-0.16940346360206604,-0.7951020002365112
2.435163974761963,0.18687444925308228,-0.497230589389801,0.5338143706321716,0.4596313536167145,-0.1520068198442459,-0.7992797493934631
2.4555046558380127,0.20216944813728333,-0.4875623285770416,0.575984001159668,0.45745915174484253,-0.1344483345746994,-0.8048312067985535
2.4757025241851807,0.1983811855316162,-0.48850810527801514,0.5714560747146606,0.4542844891548157,-0.1300256997346878,-0.8065805435180664
2.495673418045044,0.18086394667625427,-0.49268126487731934,0.5387436747550964,0.45021042227745056,-0.1290338635444641,-0.8075919151306152
2.515770435333252,0.17078933119773865,-0.4962301254272461,0.5186246633529663,0.4494433104991913,-0.1318565011024475,-0.808149516582489
2.5358333587646484,0.14837636053562164,-0.5032238960266113,0.4888726770877838,0.45612743496894836,-0.14571218192577362,-0.8078664541244507
2.5560286045074463,0.13032583892345428,-0.5092984437942505,0.4659143388271332,0.46323007345199585,-0.15451045334339142,-0.8062424659729004
2.5761210918426514,0.1347765028476715,-0.5106155872344971,0.47205111384391785,0.47209057211875916,-0.15380439162254333,-0.8064115047454834
2.5962460041046143,0.15487134456634521,-0.5102501511573792,0.5062872767448425,0.4882343113422394,-0.14461058378219604,-0.8069174289703369
2.6165385246276855,0.16087870299816132,-0.5086278319358826,0.5200582146644592,0.4900089204311371,-0.1357438564300537,-0.8086668848991394
2.636627197265625,0.17688429355621338,-0.4980621933937073,0.5567933917045593,0.4825039505958557,-0.11110913008451462,-0.8134495615959167
2.656719923019409,0.180669367313385,-0.4958607256412506,0.5660655498504639,0.48052024841308594,-0.09755516797304153,-0.8171080946922302
2.6767756938934326,0.17365306615829468,-0.49806714057922363,0.5530238151550293,0.47834545373916626,-0.09644987434148788,-0.818006694316864
2.6969997882843018,0.14900797605514526,-0.50484699010849,0.5133792757987976,0.472795307636261,-0.10252931714057922,-0.8186753392219543
2.7170021533966064,0.12156032025814056,-0.5129647850990295,0.4798823595046997,0.4776000380516052,-0.12072134017944336,-0.8176262378692627
2.737074136734009,0.11284467577934265,-0.5169316530227661,0.4654543697834015,0.4818897545337677,-0.12821081280708313,-0.8161991834640503
2.7571449279785156,0.12428473681211472,-0.5202661156654358,0.46789970993995667,0.49697956442832947,-0.1241619810461998,-0.8151221871376038
2.7772164344787598,0.14338044822216034,-0.5203842520713806,0.5054724812507629,0.5122601389884949,-0.11673992872238159,-0.8155053853988647
2.7973146438598633,0.15230771899223328,-0.5177341103553772,0.526823103427887,0.5150618553161621,-0.10819485783576965,-0.8167555928230286
2.81734561920166,0.16937530040740967,-0.5079224109649658,0.5640923380851746,0.5071288347244263,-0.08295905590057373,-0.8207716345787048
2.837430477142334,0.17257575690746307,-0.5049174427986145,0.5797832608222961,0.5007696151733398,-0.06935299187898636,-0.825821042060852
2.857516050338745,0.16564461588859558,-0.5056326985359192,0.5712447166442871,0.49716973304748535,-0.06732088327407837,-0.8270629048347473
2.8776607513427734,0.1407594084739685,-0.5112078189849854,0.53615403175354,0.49030211567878723,-0.07369904965162277,-0.8283451795578003
2.8976900577545166,0.12642888724803925,-0.5146746635437012,0.5177004933357239,0.4889974594116211,-0.0817849338054657,-0.8283110857009888
2.917900800704956,0.1017967239022255,-0.5223153233528137,0.4966052770614624,0.49694621562957764,-0.10270384699106216,-0.8269737958908081
2.9383161067962646,0.0963040292263031,-0.5259068012237549,0.482856422662735,0.5046818852424622,-0.1052413359284401,-0.8243650794029236
2.9584531784057617,0.11147571355104446,-0.5265063643455505,0.4902411699295044,0.5134083032608032,-0.09778207540512085,-0.8233254551887512
2.978511095046997,0.13593752682209015,-0.5225992202758789,0.5286837816238403,0.5238930583000183,-0.08128731697797775,-0.8246930241584778
2.998610019683838,0.14518095552921295,-0.5194482803344727,0.5496781468391418,0.5250848531723022,-0.072061687707901,-0.8262207508087158
3.018767833709717,0.15575821697711945,-0.51213538646698,0.5836675763130188,0.5202318429946899,-0.05575947090983391,-0.8311552405357361
3.038831949234009,0.15644048154354095,-0.5105705261230469,0.5822294354438782,0.512228786945343,-0.041477639228105545,-0.8331672549247742
3.058910369873047,0.15028147399425507,-0.5130850672721863,0.5679647326469421,0.5102459788322449,-0.041392311453819275,-0.8334320783615112
3.0790586471557617,0.12760071456432343,-0.5197634696960449,0.5319189429283142,0.5064316987991333,-0.05002188682556152,-0.8340574502944946
3.099099636077881,0.10490060597658157,-0.5264334082603455,0.5089605450630188,0.509817898273468,-0.06627100706100464,-0.8341147303581238
3.119262218475342,0.09498397260904312,-0.5294835567474365,0.5045011639595032,0.5130447745323181,-0.0751420333981514,-0.8330366611480713
3.139301300048828,0.09796622395515442,-0.5330378413200378,0.5032224655151367,0.523543655872345,-0.07723857462406158,-0.8296994566917419
3.159963846206665,0.11535166203975677,-0.5318246483802795,0.5257852673530579,0.5336855053901672,-0.0662146583199501,-0.8293511867523193
3.1800713539123535,0.12413901835680008,-0.5292558670043945,0.5440598130226135,0.5367394089698792,-0.05884673818945885,-0.8302587270736694
3.2001302242279053,0.14012669026851654,-0.5225922465324402,0.5786988139152527,0.5395002961158752,-0.0444018617272377,-0.8335978984832764
3.220402479171753,0.14303947985172272,-0.5203815698623657,0.5859176516532898,0.5313771963119507,-0.03111368976533413,-0.8363807201385498
3.2404985427856445,0.1427176594734192,-0.5209605693817139,0.5809546113014221,0.5287634134292603,-0.026241516694426537,-0.8370674252510071
3.2605738639831543,0.12257722020149231,-0.5262991189956665,0.5508574843406677,0.5220875144004822,-0.03163057193160057,-0.8377199172973633
3.2806997299194336,0.10890575498342514,-0.529441773891449,0.5311219692230225,0.5192644000053406,-0.03717165067791939,-0.8374966979026794
3.300841808319092,0.08639781177043915,-0.5367727279663086,0.5099115371704102,0.5228326916694641,-0.05617264658212662,-0.8358705639839172
3.3208940029144287,0.08004523813724518,-0.5410106182098389,0.49819591641426086,0.528256356716156,-0.06090628728270531,-0.833244800567627
3.34096360206604,0.08617444336414337,-0.5413737297058105,0.5044198632240295,0.5331133604049683,-0.05793119594454765,-0.8322172164916992
3.3611185550689697,0.10713844001293182,-0.5396710634231567,0.5373824834823608,0.5455914735794067,-0.04880613833665848,-0.8320420980453491
3.3811862468719482,0.11431794613599777,-0.5370345115661621,0.5545691847801208,0.5472804307937622,-0.0419856533408165,-0.8332181572914124
3.4013123512268066,0.1253802329301834,-0.5302165746688843,0.5858981609344482,0.5466879606246948,-0.028615783900022507,-0.8370480537414551
3.421339511871338,0.12417085468769073,-0.5290370583534241,0.5796768069267273,0.539104163646698,-0.016477983444929123,-0.8382582068443298
3.441519260406494,0.12045347690582275,-0.5307796001434326,0.5649067759513855,0.5363055467605591,-0.013251863420009613,-0.8384191393852234
3.4616053104400635,0.09916284680366516,-0.5366782546043396,0.5292513370513916,0.5293667912483215,-0.02014179527759552,-0.838421106338501
3.481646776199341,0.08648861199617386,-0.5408495664596558,0.5156444907188416,0.5299519300460815,-0.03054126352071762,-0.8381514549255371
3.501749038696289,0.07343325763940811,-0.5470674633979797,0.5045583248138428,0.5356888771057129,-0.04467053711414337,-0.8366848826408386
3.521812915802002,0.0783817246556282,-0.5492168664932251,0.512822151184082,0.5433677434921265,-0.0442131832242012,-0.8346130847930908
3.5419399738311768,0.08372560143470764,-0.5491372346878052,0.5284439325332642,0.5482316613197327,-0.04379238188266754,-0.8344834446907043
3.5620675086975098,0.10111597180366516,-0.5441661477088928,0.5588393807411194,0.5533115863800049,-0.02898346073925495,-0.8359521627426147
3.5821287631988525,0.11757826805114746,-0.5350518226623535,0.5933875441551208,0.5540273785591125,-0.012150376103818417,-0.8396162390708923
3.6022424697875977,0.11691241711378098,-0.5350229740142822,0.5915517807006836,0.5517454147338867,-0.007883084937930107,-0.8399028182029724
3.622361421585083,0.11258241534233093,-0.5369554758071899,0.5675418376922607,0.5448229312896729,0.002783243777230382,-0.8392871022224426
3.642529010772705,0.09034772962331772,-0.543621301651001,0.5308209657669067,0.5385096073150635,-0.006209558341652155,-0.8391103744506836
3.6626200675964355,0.07767981290817261,-0.5475684404373169,0.5196075439453125,0.537747323513031,-0.016271665692329407,-0.839084804058075
3.6826815605163574,0.058343496173620224,-0.5545366406440735,0.506397008895874,0.5399384498596191,-0.034453995525836945,-0.8373064398765564
3.7028310298919678,0.0634412169456482,-0.5553356409072876,0.5078727006912231,0.5441737174987793,-0.031822022050619125,-0.8361425995826721
3.7228856086730957,0.08023403584957123,-0.5572507977485657,0.5326486825942993,0.5575286746025085,-0.0306693222373724,-0.8347226977348328
3.7429583072662354,0.09348075091838837,-0.5509538650512695,0.5633150339126587,0.559345006942749,-0.015690403059124947,-0.8368430733680725
3.763057231903076,0.10208616405725479,-0.544775664806366,0.5836488604545593,0.5588067770004272,-0.00597598310559988,-0.83899986743927
3.783123731613159,0.10567847639322281,-0.541581928730011,0.5899547934532166,0.5541257262229919,0.0065301223658025265,-0.8411203622817993
3.8032443523406982,0.10290629416704178,-0.5421468019485474,0.5808051228523254,0.5508755445480347,0.010789301246404648,-0.8414982557296753
3.8233258724212646,0.08592782914638519,-0.5469077825546265,0.5465633869171143,0.5425412058830261,0.009911071509122849,-0.8417548537254333
3.8433914184570312,0.061124805361032486,-0.5545663237571716,0.5178407430648804,0.5402436256408691,-0.009091587737202644,-0.8402553796768188
3.8634724617004395,0.04887973144650459,-0.5586454272270203,0.5061619281768799,0.5403972268104553,-0.01996847614645958,-0.8388054370880127
3.8835558891296387,0.060434408485889435,-0.5615545511245728,0.5122348070144653,0.5516051054000854,-0.019277120009064674,-0.8363622426986694
3.903604507446289,0.070514976978302,-0.5621239542961121,0.531568706035614,0.5596903562545776,-0.020378032699227333,-0.835654616355896
3.923646926879883,0.07990940660238266,-0.5594437718391418,0.5594464540481567,0.5642395615577698,-0.01355027500540018,-0.8371369242668152
3.9437201023101807,0.0960065945982933,-0.5480204224586487,0.5996313691139221,0.5638787746429443,0.0033361618407070637,-0.8407024145126343
3.9637997150421143,0.09779196977615356,-0.5461134314537048,0.600225567817688,0.561026930809021,0.011185579933226109,-0.8416613936424255
3.983865976333618,0.08974004536867142,-0.5479252338409424,0.5758165121078491,0.5529230833053589,0.019232869148254395,-0.8422508239746094
4.003929853439331,0.08220412582159042,-0.5499702095985413,0.5588281154632568,0.5494705438613892,0.019495591521263123,-0.8426882028579712
4.024019956588745,0.059445224702358246,-0.5568745136260986,0.527559757232666,0.5460229516029358,0.004461626056581736,-0.8419625163078308
4.044081687927246,0.04759669676423073,-0.5628150701522827,0.5129303336143494,0.5484430193901062,-0.008730731904506683,-0.8392813205718994
4.064167499542236,0.05222225934267044,-0.565051794052124,0.5092317461967468,0.5527538657188416,-0.0077409264631569386,-0.8377332091331482
4.084272861480713,0.06895210593938828,-0.5651523470878601,0.539364755153656,0.5629040002822876,-0.004862183704972267,-0.8364666700363159
4.104600191116333,0.07747039198875427,-0.5619910359382629,0.5616843700408936,0.5653641819953918,0.00018063466995954514,-0.8371731042861938
4.124698162078857,0.09670723974704742,-0.5499700903892517,0.6007328629493713,0.5647598505020142,0.02057008072733879,-0.8398653864860535
4.144737720489502,0.10011572390794754,-0.5466259121894836,0.606112539768219,0.5610888004302979,0.03207064047455788,-0.8422427773475647
4.164823770523071,0.09639377892017365,-0.5477980971336365,0.5973320007324219,0.5581749677658081,0.034043002873659134,-0.8427796363830566
4.1848907470703125,0.0773695632815361,-0.5528389811515808,0.5628687739372253,0.5501154661178589,0.03036392107605934,-0.843485951423645
4.205031394958496,0.05326724052429199,-0.560065507888794,0.5309473872184753,0.5461996793746948,0.013169268146157265,-0.8424238562583923
4.225149869918823,0.04347805678844452,-0.5649456977844238,0.5216572880744934,0.5483419895172119,0.00010118912905454636,-0.8406916856765747
4.2452709674835205,0.04283389076590538,-0.5680205821990967,0.5180649161338806,0.5525112152099609,-0.0027790432795882225,-0.8378000855445862
4.265361309051514,0.04906743764877319,-0.5693798661231995,0.5220223665237427,0.5567650198936462,-0.0016268613981083035,-0.8361328840255737
4.285408973693848,0.06764671206474304,-0.5663045048713684,0.5525224804878235,0.5646386742591858,0.00874018482863903,-0.8371849656105042
4.3054680824279785,0.0788770392537117,-0.5602685809135437,0.5697510242462158,0.5639429092407227,0.021516621112823486,-0.8385642766952515
4.325566053390503,0.091494120657444,-0.5531714558601379,0.59919673204422,0.5645299553871155,0.03396028280258179,-0.8419279456138611
4.3457441329956055,0.08921445906162262,-0.5531831979751587,0.5849403142929077,0.5585952401161194,0.045092176645994186,-0.8424673080444336
4.365769624710083,0.08193115890026093,-0.5550596117973328,0.5699172019958496,0.5552629828453064,0.04508904740214348,-0.8426080346107483
4.385875225067139,0.055355653166770935,-0.5620672702789307,0.5330361127853394,0.5478100180625916,0.02993246540427208,-0.842188835144043
4.405911684036255,0.037102360278367996,-0.5707306861877441,0.5182976722717285,0.5511837005615234,0.005768292583525181,-0.840800404548645
4.4260828495025635,0.035485200583934784,-0.5733044743537903,0.5140554904937744,0.5534628629684448,0.001159637002274394,-0.839152455329895
4.446103096008301,0.050333961844444275,-0.5731656551361084,0.5391389727592468,0.5629478693008423,0.003047994337975979,-0.8382693529129028
4.466185092926025,0.07144898921251297,-0.568612813949585,0.5757565498352051,0.570798397064209,0.01369414571672678,-0.838769793510437
4.486311197280884,0.0834835097193718,-0.563685953617096,0.5945001244544983,0.5719091892242432,0.023838944733142853,-0.8394210338592529
4.506460189819336,0.09813350439071655,-0.5551065802574158,0.6239751577377319,0.5715264678001404,0.03963933512568474,-0.842400312423706
4.526627540588379,0.09908498078584671,-0.5539330840110779,0.6265590190887451,0.5697401762008667,0.04378807544708252,-0.8433794379234314
4.546722412109375,0.09191077947616577,-0.5555663108825684,0.6048061847686768,0.5635077953338623,0.05099380761384964,-0.8438572287559509
4.566816091537476,0.06764422357082367,-0.562438428401947,0.5666890740394592,0.5552516579627991,0.04015745222568512,-0.8439112305641174
4.586931943893433,0.054188117384910583,-0.5658777356147766,0.5475369691848755,0.5513026714324951,0.03311020880937576,-0.8437030911445618
4.607057094573975,0.040710654109716415,-0.5727151036262512,0.537865936756134,0.5549569129943848,0.014605896547436714,-0.8422729969024658
4.627095460891724,0.039985813200473785,-0.5752768516540527,0.5357815623283386,0.5580694675445557,0.010992927476763725,-0.8392351269721985
4.6472015380859375,0.046416133642196655,-0.574902355670929,0.5440427660942078,0.5611497759819031,0.01368851587176323,-0.8385496735572815
4.667263984680176,0.05961544066667557,-0.5719032883644104,0.5667594075202942,0.5659839510917664,0.02166375145316124,-0.8391401171684265
4.6874775886535645,0.07542385905981064,-0.564696729183197,0.6008400321006775,0.569465160369873,0.03185698017477989,-0.8423289656639099
4.707578659057617,0.07798956334590912,-0.5632051229476929,0.6016231179237366,0.5680397152900696,0.03794276714324951,-0.8426868319511414
4.727636337280273,0.0695309117436409,-0.5650306940078735,0.5754567384719849,0.561385452747345,0.044915538281202316,-0.8426784873008728
4.7477335929870605,0.05917983129620552,-0.5679188966751099,0.5569566488265991,0.5579857230186462,0.041176244616508484,-0.8428034782409668
4.767809152603149,0.033608704805374146,-0.5763746500015259,0.5228601694107056,0.5541995167732239,0.020788908004760742,-0.8412202596664429
4.787891864776611,0.027904504910111427,-0.5791803598403931,0.5191650986671448,0.5553392171859741,0.013428736478090286,-0.8406211137771606
4.808061122894287,0.03485319763422012,-0.581963062286377,0.5231547951698303,0.5617815256118774,0.01206089835613966,-0.8375223278999329
4.828341960906982,0.052506223320961,-0.5822342038154602,0.5559090971946716,0.5722494721412659,0.01254376582801342,-0.836005449295044
4.848383903503418,0.060105130076408386,-0.5796265602111816,0.5693245530128479,0.573552131652832,0.019434669986367226,-0.836558997631073
4.868503570556641,0.07963444292545319,-0.566450297832489,0.6033043265342712,0.5712132453918457,0.04357107728719711,-0.8399436473846436
4.888951301574707,0.08415870368480682,-0.5637985467910767,0.612835168838501,0.5712598562240601,0.04911857098340988,-0.8413593769073486
4.909071683883667,0.0774131715297699,-0.563124418258667,0.6014876961708069,0.563545823097229,0.056545548141002655,-0.8430374264717102
4.929099082946777,0.0542563833296299,-0.5676008462905884,0.5719341039657593,0.5548295378684998,0.04773829132318497,-0.8445866107940674
4.949263572692871,0.03998199850320816,-0.5710386633872986,0.5542867183685303,0.5513660907745361,0.03847106918692589,-0.8442450165748596
4.969379901885986,0.0212154109030962,-0.5778710842132568,0.5257595777511597,0.5503472089767456,0.022751085460186005,-0.8417558670043945
4.989474296569824,0.0294700525701046,-0.5821513533592224,0.5186600089073181,0.5591208338737488,0.02238316647708416,-0.838187575340271
5.009592771530151,0.03958515077829361,-0.583044707775116,0.5283994078636169,0.5648666620254517,0.024186844006180763,-0.8365375995635986
5.029659986495972,0.05237062647938728,-0.5810015797615051,0.5568130016326904,0.5702313780784607,0.028927523642778397,-0.8371841907501221
5.04973292350769,0.060125283896923065,-0.5756317973136902,0.5744092464447021,0.5694127082824707,0.037731461226940155,-0.8386916518211365
5.069868564605713,0.07583992183208466,-0.5661300420761108,0.6131622791290283,0.5711163878440857,0.04941685497760773,-0.842158317565918
5.089982509613037,0.08044032752513885,-0.5623961687088013,0.6094301342964172,0.5670742988586426,0.06584106385707855,-0.8431349396705627
5.110028266906738,0.07663452625274658,-0.5630574822425842,0.5974745154380798,0.5640907287597656,0.07007243484258652,-0.843576192855835
5.130131721496582,0.05484309419989586,-0.5689008235931396,0.5626884698867798,0.5572518706321716,0.06073131412267685,-0.844114363193512
5.150218725204468,0.02777942642569542,-0.5772390961647034,0.5292114615440369,0.5531980991363525,0.03777570649981499,-0.8426591753959656
5.170348644256592,0.018775271251797676,-0.5814912915229797,0.5203415155410767,0.5542414784431458,0.026086870580911636,-0.8413009643554688
5.190473794937134,0.02445649541914463,-0.584494411945343,0.5250489711761475,0.5611363053321838,0.021670984104275703,-0.8384732007980347
5.21051812171936,0.04020591452717781,-0.5866057872772217,0.548906683921814,0.5716899037361145,0.01986227184534073,-0.8362230658531189
5.230568885803223,0.05178243666887283,-0.5838305950164795,0.5671682953834534,0.5748322606086731,0.026941046118736267,-0.8366660475730896
5.2506468296051025,0.07151906192302704,-0.5725291967391968,0.6000677347183228,0.5739892721176147,0.047999247908592224,-0.8393604159355164
5.270728349685669,0.07893109321594238,-0.5677417516708374,0.6154032349586487,0.5737504363059998,0.05577860772609711,-0.8410778641700745
5.290846109390259,0.07837358117103577,-0.5661758184432983,0.6048449873924255,0.5677417516708374,0.06927688419818878,-0.8420220613479614
5.3109822273254395,0.05727884918451309,-0.5701875686645508,0.5706869959831238,0.55820232629776,0.06547924876213074,-0.8433226346969604
5.331195831298828,0.0422707200050354,-0.5731182098388672,0.5536401271820068,0.5537595748901367,0.05648909881711006,-0.8434280753135681
5.351294040679932,0.019796650856733322,-0.5821725130081177,0.5352391004562378,0.5549867749214172,0.028432197868824005,-0.8420824408531189
5.371413469314575,0.020758815109729767,-0.5862941145896912,0.5243596434593201,0.5598503947257996,0.024604160338640213,-0.839241087436676
5.391504764556885,0.0328415222465992,-0.5871163606643677,0.5350067615509033,0.5667728185653687,0.026534050703048706,-0.8380411863327026
5.411583423614502,0.049827203154563904,-0.5844448804855347,0.5683921575546265,0.5745947360992432,0.03146403655409813,-0.8381327390670776
5.431633710861206,0.06632477045059204,-0.57568359375,0.5987864136695862,0.5748429894447327,0.04705405235290527,-0.8407317399978638
5.451726913452148,0.07551652193069458,-0.5709101557731628,0.6161174774169922,0.5757099986076355,0.054549917578697205,-0.8423128724098206
5.471895217895508,0.07419854402542114,-0.5707652568817139,0.6080710291862488,0.5717079043388367,0.06259702146053314,-0.8436022996902466
5.4919562339782715,0.05617626756429672,-0.5739554762840271,0.5785950422286987,0.5632940530776978,0.05971084162592888,-0.8446246385574341
5.5120158195495605,0.04126720502972603,-0.5772398114204407,0.5619868040084839,0.5590365529060364,0.04981577396392822,-0.8443778157234192
5.532153367996216,0.02107454277575016,-0.5855748057365417,0.5412912368774414,0.558737576007843,0.026723189279437065,-0.8431383371353149
5.552201509475708,0.021746518090367317,-0.5894837379455566,0.5289074778556824,0.5624566674232483,0.025035012513399124,-0.8397795557975769
5.5723302364349365,0.02729111537337303,-0.5897436141967773,0.537733793258667,0.5661135911941528,0.025076184421777725,-0.8385858535766602
5.59246039390564,0.04279574006795883,-0.5877919793128967,0.5681565999984741,0.5738016366958618,0.028389472514390945,-0.8380266427993774
5.612512111663818,0.05527058616280556,-0.582624077796936,0.5823925733566284,0.5747659802436829,0.0410144217312336,-0.8383054733276367
5.6325953006744385,0.07366776466369629,-0.5721766352653503,0.6192923188209534,0.5759447813034058,0.05607518553733826,-0.8412696719169617
5.6526641845703125,0.07251789420843124,-0.5699759721755981,0.6169044375419617,0.5714784860610962,0.06462042033672333,-0.8429285287857056
5.67275333404541,0.07126396894454956,-0.5698606967926025,0.6068665385246277,0.5692837238311768,0.0711343064904213,-0.8435579538345337
5.692841053009033,0.04822554439306259,-0.5758609175682068,0.5713014006614685,0.5615729093551636,0.06108950823545456,-0.8440190553665161
5.712888479232788,0.026865903288125992,-0.5830983519554138,0.5410279631614685,0.5589267015457153,0.04375113174319267,-0.8426884412765503
5.732985496520996,0.01769881881773472,-0.5874767303466797,0.5330273509025574,0.5600226521492004,0.031075354665517807,-0.8413716554641724
5.753059387207031,0.020812932401895523,-0.5890834331512451,0.5315666794776917,0.5625000596046448,0.031081635504961014,-0.838525116443634
5.773108005523682,0.042955733835697174,-0.5878415107727051,0.5645908117294312,0.5730323791503906,0.034808527678251266,-0.836889922618866
5.79319953918457,0.05001470074057579,-0.5861597061157227,0.5777544379234314,0.5756555199623108,0.03870398551225662,-0.8372594714164734
5.8133203983306885,0.06890115141868591,-0.5734351277351379,0.6139596700668335,0.5745967626571655,0.05826335400342941,-0.8407130241394043
5.8333821296691895,0.07367009669542313,-0.5696902871131897,0.62144935131073,0.5736451148986816,0.06600585579872131,-0.8421058654785156
5.853501796722412,0.06987041234970093,-0.5692245960235596,0.6057354211807251,0.5676952004432678,0.07643812149763107,-0.8431048393249512
5.873550176620483,0.04926413297653198,-0.5743041038513184,0.5728694796562195,0.5606638193130493,0.0689675584435463,-0.8439983129501343
5.893629789352417,0.03557953983545303,-0.5774883031845093,0.5542405843734741,0.5569067001342773,0.0608304999768734,-0.8435205221176147
5.913698673248291,0.015489771962165833,-0.5856749415397644,0.5319234728813171,0.5573232769966125,0.037479743361473083,-0.8413773775100708
5.933818578720093,0.017497655004262924,-0.5873028039932251,0.5304603576660156,0.5599358081817627,0.035759665071964264,-0.8400904536247253
5.9539103507995605,0.03242667764425278,-0.5885070562362671,0.5469663143157959,0.5688462257385254,0.036514852195978165,-0.8376863598823547
5.974180698394775,0.04922853410243988,-0.5867313146591187,0.5748160481452942,0.5757577419281006,0.041681431233882904,-0.8371392488479614
5.994270086288452,0.06139121949672699,-0.5806421637535095,0.590798020362854,0.5753970742225647,0.05465565249323845,-0.8381103277206421
6.014345645904541,0.07684534788131714,-0.5720663070678711,0.6161511540412903,0.575000524520874,0.07155968248844147,-0.840969443321228
6.0344274044036865,0.07670187205076218,-0.5699465870857239,0.6171363592147827,0.5718755722045898,0.07709620893001556,-0.8422221541404724
6.054495573043823,0.06234367564320564,-0.5711835622787476,0.6008909940719604,0.5646364688873291,0.07566887140274048,-0.8446221947669983
6.074547529220581,0.03629576414823532,-0.5763264894485474,0.5669119954109192,0.5563099980354309,0.06247410923242569,-0.8449711799621582
6.094722509384155,0.02947993390262127,-0.5784887671470642,0.5555903315544128,0.5555832982063293,0.05747641995549202,-0.8446060419082642
6.114758491516113,0.01302921399474144,-0.5863962173461914,0.5321448445320129,0.5576172471046448,0.03697908669710159,-0.8415312170982361
6.1348326206207275,0.020745310932397842,-0.5887255072593689,0.5364922285079956,0.5641478896141052,0.03540326654911041,-0.8389493227005005
6.154909610748291,0.03207996487617493,-0.5891930460929871,0.5423077344894409,0.5692102313041687,0.040505923330783844,-0.837282657623291
6.174984693527222,0.04608176648616791,-0.5882672667503357,0.562375545501709,0.5749170780181885,0.04620038717985153,-0.8371438980102539
6.195034980773926,0.06519271433353424,-0.580466628074646,0.5965126752853394,0.577210009098053,0.06059885025024414,-0.8397539258003235
6.2151288986206055,0.07162974774837494,-0.5775864124298096,0.6090773344039917,0.5777106285095215,0.06601607799530029,-0.8410738706588745
6.2351908683776855,0.06505190581083298,-0.5752091407775879,0.5953529477119446,0.5685958862304688,0.076529860496521,-0.8420710563659668
6.255270481109619,0.05723755434155464,-0.5759882926940918,0.5871680378913879,0.5649814605712891,0.07440799474716187,-0.8430279493331909
6.275357723236084,0.031273093074560165,-0.5815511345863342,0.5582826137542725,0.558068037033081,0.05730724707245827,-0.8431469202041626
6.295417070388794,0.017498265951871872,-0.5893686413764954,0.5428422689437866,0.5623348951339722,0.03589226305484772,-0.8415828943252563
6.315501928329468,0.011380571871995926,-0.5924187898635864,0.5372903347015381,0.5632146596908569,0.027470920234918594,-0.8400777578353882
6.335576057434082,0.020328594371676445,-0.5951141119003296,0.5428265333175659,0.5710299015045166,0.02588406577706337,-0.8373124599456787
6.3560950756073,0.03939580172300339,-0.5932345390319824,0.561465859413147,0.5778756141662598,0.03719787299633026,-0.8369109630584717
6.37618613243103,0.050659436732530594,-0.5881762504577637,0.5749229192733765,0.5774736404418945,0.049482814967632294,-0.8377183079719543
6.396327972412109,0.06544411927461624,-0.5815175771713257,0.606844961643219,0.5791757106781006,0.059796079993247986,-0.8409807085990906
6.416372537612915,0.06779096275568008,-0.5785142183303833,0.6065745949745178,0.575781524181366,0.06956478953361511,-0.8415567278862
6.436452865600586,0.055637020617723465,-0.5793743133544922,0.5846883654594421,0.5675158500671387,0.07323181629180908,-0.8420290946960449
6.45655369758606,0.029303841292858124,-0.5846773982048035,0.558691143989563,0.5603923201560974,0.055647771805524826,-0.8426566123962402
6.476613759994507,0.024160338565707207,-0.5881986618041992,0.5552660226821899,0.5631231069564819,0.04514797031879425,-0.8422611355781555
6.496684551239014,0.014286653138697147,-0.5952978134155273,0.5404505133628845,0.5666557550430298,0.028623303398489952,-0.8395648002624512
6.517328500747681,0.017146993428468704,-0.5980664491653442,0.54864901304245,0.57220059633255,0.022694338113069534,-0.8379552364349365
6.53736424446106,0.026895973831415176,-0.5967632532119751,0.5585224628448486,0.5753397345542908,0.028949668630957603,-0.8375185132026672
6.557457447052002,0.04798496887087822,-0.5900406241416931,0.5875194668769836,0.5788853764533997,0.045352768152952194,-0.8385677933692932
6.5775535106658936,0.056762028485536575,-0.5862025618553162,0.6052804589271545,0.5802943706512451,0.051144011318683624,-0.8400366902351379
6.597655296325684,0.06551935523748398,-0.579460620880127,0.6111310720443726,0.5760265588760376,0.07101749628782272,-0.841330349445343
6.617724895477295,0.05457865446805954,-0.5814023017883301,0.5811029672622681,0.5682176351547241,0.07860121130943298,-0.8416045904159546
6.637802362442017,0.03964557498693466,-0.5843753218650818,0.5645891427993774,0.5625571608543396,0.0704701766371727,-0.8422271013259888
6.657978296279907,0.016545722261071205,-0.5913534164428711,0.5387996435165405,0.55841064453125,0.05063680559396744,-0.8411880135536194
6.678952693939209,0.014611933380365372,-0.596299409866333,0.5341982841491699,0.564126193523407,0.04031556099653244,-0.8391211032867432
6.699058532714844,0.01720380410552025,-0.5971053242683411,0.5388809442520142,0.5667601227760315,0.03871794790029526,-0.8380936980247498
6.719106912612915,0.031180880963802338,-0.5961804986000061,0.5704651474952698,0.5753340125083923,0.03724273666739464,-0.8374339938163757
6.739481210708618,0.05445671081542969,-0.5852018594741821,0.5989423990249634,0.5765825510025024,0.06102472171187401,-0.8385735154151917
6.7595860958099365,0.06317514181137085,-0.5793910026550293,0.6181662678718567,0.5770543217658997,0.06822808086872101,-0.8405902981758118
6.779679775238037,0.06618563830852509,-0.5758625268936157,0.6196148991584778,0.5740973949432373,0.07928228378295898,-0.8422926068305969
6.799746036529541,0.06239762157201767,-0.5763290524482727,0.6074225902557373,0.5705564022064209,0.08385355025529861,-0.8424124717712402
6.819828748703003,0.036400701850652695,-0.5819066762924194,0.5683106184005737,0.5614192485809326,0.07306472212076187,-0.8429091572761536
6.839893579483032,0.01776306703686714,-0.5896707773208618,0.5466036796569824,0.5619854927062988,0.05124793201684952,-0.8416179418563843
6.8600099086761475,0.01129910908639431,-0.593193531036377,0.5348544716835022,0.5623328685760498,0.0433255098760128,-0.8397974967956543
6.880096673965454,0.015634000301361084,-0.5962052345275879,0.5408368110656738,0.5682713389396667,0.03756317123770714,-0.837956428527832
6.9003212451934814,0.038634851574897766,-0.5933161377906799,0.5743792057037354,0.5773233771324158,0.04473940283060074,-0.8370388746261597
6.920461893081665,0.044680748134851456,-0.5915308594703674,0.583768904209137,0.5788607597351074,0.04957081377506256,-0.8372340202331543
6.94051456451416,0.06564779579639435,-0.5795572996139526,0.6201712489128113,0.5803310871124268,0.06774724274873734,-0.8400013446807861
6.960720539093018,0.06598362326622009,-0.5769622921943665,0.6208255887031555,0.5774310231208801,0.07390734553337097,-0.8411673307418823
6.980867862701416,0.057874441146850586,-0.5782850384712219,0.6021711826324463,0.571790337562561,0.07822342216968536,-0.8422898650169373
7.00091814994812,0.03633790835738182,-0.5829254388809204,0.5702152252197266,0.5636327266693115,0.07000156491994858,-0.8434688448905945
7.021003723144531,0.024683630093932152,-0.5863689184188843,0.5533013343811035,0.5611709952354431,0.061427757143974304,-0.8427547812461853
7.041092157363892,0.009211305528879166,-0.5939188599586487,0.5329462885856628,0.5612738132476807,0.04209791123867035,-0.8404257893562317
7.061173439025879,0.016990724951028824,-0.5955607295036316,0.5408738255500793,0.5671408176422119,0.04002818837761879,-0.838033139705658
7.081252098083496,0.029512088745832443,-0.5940708518028259,0.5556023716926575,0.5717424750328064,0.044905491173267365,-0.8368961811065674
7.1013641357421875,0.04277818650007248,-0.5921887159347534,0.5819789171218872,0.5779547095298767,0.04765225574374199,-0.837303638458252
7.12144923210144,0.06365823745727539,-0.578863799571991,0.6200105547904968,0.5786017775535583,0.06651483476161957,-0.8411672711372375
7.1415629386901855,0.06709282845258713,-0.5758759379386902,0.6251677870750427,0.5773015022277832,0.07299837470054626,-0.8421269059181213
7.161626100540161,0.06480022519826889,-0.5755529999732971,0.6115453839302063,0.5723739862442017,0.08228132128715515,-0.8424402475357056
7.181728839874268,0.0443226583302021,-0.5799422860145569,0.5778946280479431,0.5636870861053467,0.07636022567749023,-0.8427765369415283
7.2018327713012695,0.03085106983780861,-0.5834699869155884,0.5595504641532898,0.5602813959121704,0.06725527346134186,-0.8425219058990479
7.221990585327148,0.012730127200484276,-0.5905712842941284,0.533722996711731,0.558652937412262,0.04991145804524422,-0.8411663174629211
7.242020606994629,0.011593458242714405,-0.592404305934906,0.5323657989501953,0.560772180557251,0.04573310539126396,-0.8407207131385803
7.262167453765869,0.020438244566321373,-0.5944243669509888,0.5441700220108032,0.5677928328514099,0.04231869429349899,-0.8380768299102783
7.282208442687988,0.030813682824373245,-0.5937240123748779,0.5593694448471069,0.5722907781600952,0.04473007842898369,-0.8371644616127014
7.3023412227630615,0.05383765697479248,-0.5861228704452515,0.5862786769866943,0.5756984949111938,0.06424738466739655,-0.8372679948806763
7.322563886642456,0.06458424031734467,-0.5818181037902832,0.6075623035430908,0.577797532081604,0.06991532444953918,-0.8384741544723511
7.34274697303772,0.07533170282840729,-0.5753675699234009,0.6233149170875549,0.5760622024536133,0.08455320447683334,-0.8403859734535217
7.362745761871338,0.06875009089708328,-0.5763911008834839,0.6087139844894409,0.5718284845352173,0.08847707509994507,-0.8414924144744873
7.382831811904907,0.05501006171107292,-0.5790122747421265,0.5955754518508911,0.5667451620101929,0.08038557320833206,-0.8423893451690674
7.402927398681641,0.03034362383186817,-0.5848723649978638,0.5600869655609131,0.5598952174186707,0.06637637317180634,-0.8426111936569214
7.422994375228882,0.01902574673295021,-0.5895524621009827,0.5506864190101624,0.5611153841018677,0.05136892572045326,-0.8422516584396362
7.443089962005615,0.008167929947376251,-0.5966536998748779,0.5427999496459961,0.5656442046165466,0.03084968589246273,-0.8399669528007507
7.463177919387817,0.023584887385368347,-0.5969440937042236,0.5525532364845276,0.5731444358825684,0.03706046938896179,-0.8379902839660645
7.48331618309021,0.033018261194229126,-0.5953280329704285,0.5644329786300659,0.5761632919311523,0.042653534561395645,-0.8381397724151611
7.503376483917236,0.04957224801182747,-0.5888897180557251,0.5900104641914368,0.578069806098938,0.05629075691103935,-0.8399547934532166
7.52352237701416,0.06630814075469971,-0.5800611972808838,0.6214316487312317,0.579486608505249,0.07000317424535751,-0.843015193939209
7.543568134307861,0.0665159523487091,-0.578437864780426,0.6140813231468201,0.5755835175514221,0.07948055863380432,-0.8430679440498352
7.56363582611084,0.05748508870601654,-0.579538881778717,0.594941258430481,0.5698469281196594,0.08330795913934708,-0.8439405560493469
7.583683252334595,0.03656184673309326,-0.5840798616409302,0.5694824457168579,0.5635655522346497,0.07124285399913788,-0.8442824482917786
7.603781461715698,0.0252253245562315,-0.58743816614151,0.5556793808937073,0.5612119436264038,0.06166227534413338,-0.843503475189209
7.623947381973267,0.009134256280958652,-0.5942001938819885,0.5357455611228943,0.5608090758323669,0.04295792803168297,-0.8411046266555786
7.644065618515015,0.020647263154387474,-0.5949679017066956,0.5460657477378845,0.5683070421218872,0.04373200237751007,-0.8390249013900757
7.66420841217041,0.030153434723615646,-0.5946835279464722,0.5535679459571838,0.5724882483482361,0.048000648617744446,-0.8381062746047974
