liuyurong129/humanoid-gym/humanoid/data/target_q_20250521-035244.csv
timestamp,joint_1,joint_2,joint_3,joint_4,joint_5,joint_6
6.4849853515625e-05,0.0,0.0,0.0,0.0,0.0,0.0
0.020142316818237305,0.0,0.0,0.0,0.0,0.0,0.0
0.04021430015563965,0.0,0.0,0.0,0.0,0.0,0.0
0.06027626991271973,0.0,0.0,0.0,0.0,0.0,0.0
0.08034777641296387,0.0,0.0,0.0,0.0,0.0,0.0
0.10042285919189453,-0.5506088733673096,-0.7415308952331543,0.26428788900375366,-0.3338478207588196,0.3306354284286499,-0.5635594129562378
0.12049031257629395,-0.5778735280036926,-0.6526623964309692,0.30834490060806274,-0.31077370047569275,0.31379127502441406,-0.5858827233314514
0.14054632186889648,-0.574441134929657,-0.6041681170463562,0.34333449602127075,-0.3137287497520447,0.3097705543041229,-0.5914045572280884
0.16066789627075195,-0.5537714958190918,-0.5749170780181885,0.340861439704895,-0.32780101895332336,0.3464176654815674,-0.5946197509765625
0.18114781379699707,-0.5413769483566284,-0.5525044202804565,0.34776556491851807,-0.33734673261642456,0.363358736038208,-0.6000183820724487
0.20136642456054688,-0.5560736060142517,-0.6748281717300415,0.28991949558258057,-0.3617785573005676,0.36002498865127563,-0.5890262126922607
0.22156786918640137,-0.570637047290802,-0.6582077741622925,0.2929149866104126,-0.3617302477359772,0.35596904158592224,-0.5902827382087708
0.24161481857299805,-0.5593348145484924,-0.6553651094436646,0.29092055559158325,-0.36523425579071045,0.36970949172973633,-0.5918666124343872
0.2617621421813965,-0.5453212857246399,-0.5693277716636658,0.33830147981643677,-0.34342584013938904,0.382431298494339,-0.6022504568099976
0.28185057640075684,-0.5467543601989746,-0.5960257649421692,0.33099889755249023,-0.34323543310165405,0.37865695357322693,-0.6011130809783936
0.30199527740478516,-0.550158679485321,-0.6023380756378174,0.32605859637260437,-0.33924251794815063,0.3838241994380951,-0.6004931926727295
0.32210469245910645,-0.5633957982063293,-0.6745507121086121,0.302285373210907,-0.34633833169937134,0.36818093061447144,-0.5941792130470276
0.34218835830688477,-0.5470065474510193,-0.663956344127655,0.2952860891819,-0.364533007144928,0.39102816581726074,-0.5962697267532349
0.3625319004058838,-0.5472787022590637,-0.6638762354850769,0.30066347122192383,-0.3597080409526825,0.39658594131469727,-0.5979573726654053
0.3826260566711426,-0.5468209385871887,-0.5965531468391418,0.3350582718849182,-0.3451411724090576,0.39175742864608765,-0.6057701110839844
0.4026908874511719,-0.5450190305709839,-0.5968054533004761,0.32771873474121094,-0.3401939570903778,0.40062087774276733,-0.6064265966415405
0.42275404930114746,-0.5408827662467957,-0.5602885484695435,0.3522772192955017,-0.34060990810394287,0.40364396572113037,-0.6112659573554993
0.44284558296203613,-0.5587742328643799,-0.6644818782806396,0.31356412172317505,-0.3609311282634735,0.39417463541030884,-0.6012741327285767
0.462939977645874,-0.5635439157485962,-0.6622693538665771,0.31702011823654175,-0.3586794435977936,0.38546445965766907,-0.60296231508255
0.4830036163330078,-0.551943302154541,-0.6662662029266357,0.3139203190803528,-0.3627277612686157,0.404693067073822,-0.6035230159759521
0.5030806064605713,-0.5298711657524109,-0.5339536666870117,0.36325639486312866,-0.3490484356880188,0.43105223774909973,-0.6152098178863525
0.5231690406799316,-0.539368748664856,-0.565211296081543,0.35534799098968506,-0.3384837210178375,0.4241066873073578,-0.614233136177063
0.5432372093200684,-0.5227373242378235,-0.5446434020996094,0.3562374711036682,-0.3547484874725342,0.4461684823036194,-0.6165019273757935
0.5633101463317871,-0.514500617980957,-0.5389989614486694,0.3642835021018982,-0.360214501619339,0.4612354636192322,-0.6185800433158875
0.5834059715270996,-0.5518614649772644,-0.6581202745437622,0.32181990146636963,-0.3652031123638153,0.4082562029361725,-0.6107075810432434
0.6034865379333496,-0.5538269281387329,-0.6671390533447266,0.32083696126937866,-0.3627223074436188,0.42806124687194824,-0.6108025908470154
0.6238362789154053,-0.5511787533760071,-0.6494823694229126,0.3203989267349243,-0.3767339587211609,0.4384409785270691,-0.612220048904419
0.6439321041107178,-0.5259590148925781,-0.5413187146186829,0.36312055587768555,-0.36245542764663696,0.46656250953674316,-0.6220740675926208
0.6640172004699707,-0.5202523469924927,-0.5336369872093201,0.37334245443344116,-0.35363632440567017,0.4756562113761902,-0.6242219805717468
0.6840813159942627,-0.5107982158660889,-0.5146129727363586,0.3750443458557129,-0.37380701303482056,0.49091529846191406,-0.6272341012954712
0.7041676044464111,-0.5563353896141052,-0.647661030292511,0.33866143226623535,-0.3756762742996216,0.43175578117370605,-0.6182442903518677
0.7242484092712402,-0.5549706816673279,-0.6453850269317627,0.3472875952720642,-0.3755195140838623,0.43729203939437866,-0.6199854612350464
0.7443904876708984,-0.5468653440475464,-0.6498205065727234,0.33835726976394653,-0.3790551722049713,0.46237999200820923,-0.6192036271095276
0.7644269466400146,-0.521730363368988,-0.5414116382598877,0.37855714559555054,-0.3576797842979431,0.4774583578109741,-0.6295856833457947
0.7845191955566406,-0.531742513179779,-0.5692844390869141,0.37393248081207275,-0.3563477396965027,0.47668296098709106,-0.6265947818756104
0.8045992851257324,-0.5225229859352112,-0.5602359175682068,0.3658329248428345,-0.369316041469574,0.49238890409469604,-0.628770112991333
0.8247201442718506,-0.5421386361122131,-0.6696352958679199,0.33511829376220703,-0.3747265934944153,0.46895211935043335,-0.6206724643707275
0.8447859287261963,-0.5310679078102112,-0.6720719337463379,0.3339674472808838,-0.371895968914032,0.47626250982284546,-0.6237592101097107
0.8648488521575928,-0.5251986384391785,-0.6624405384063721,0.3406692147254944,-0.38327884674072266,0.4914702773094177,-0.6244692206382751
0.8851532936096191,-0.5338605046272278,-0.567070722579956,0.38166290521621704,-0.3622516393661499,0.48342829942703247,-0.6337354779243469
0.9053025245666504,-0.519983172416687,-0.5331991314888,0.386749804019928,-0.36744987964630127,0.5077821016311646,-0.6376164555549622
0.9253206253051758,-0.5226283669471741,-0.5328519344329834,0.3847516179084778,-0.3645648658275604,0.5132688283920288,-0.6379579901695251
0.9455833435058594,-0.5476410984992981,-0.6685961484909058,0.35689979791641235,-0.369907408952713,0.4851985573768616,-0.628441572189331
0.9656879901885986,-0.5330395698547363,-0.6550484895706177,0.3561108708381653,-0.3895721733570099,0.5092783570289612,-0.6299076676368713
0.9857242107391357,-0.5375092625617981,-0.6627265214920044,0.36391276121139526,-0.37715187668800354,0.508554995059967,-0.6306060552597046
1.0057988166809082,-0.5289634466171265,-0.569663405418396,0.3908708691596985,-0.3625740110874176,0.5068773627281189,-0.63926100730896
1.0258898735046387,-0.533905029296875,-0.544255256652832,0.39871370792388916,-0.35083115100860596,0.5076093077659607,-0.6418627500534058
1.0459625720977783,-0.5252809524536133,-0.5410136580467224,0.3999031186103821,-0.3641829192638397,0.5130415558815002,-0.6439743638038635
1.0670371055603027,-0.5410469174385071,-0.5654951333999634,0.4044027328491211,-0.35771116614341736,0.49090075492858887,-0.6447950005531311
1.0871267318725586,-0.516724705696106,-0.6687840223312378,0.3652288317680359,-0.38758429884910583,0.5534859895706177,-0.6328814029693604
1.1072032451629639,-0.5268821120262146,-0.6671876907348633,0.3722617030143738,-0.37817585468292236,0.5406590104103088,-0.6350059509277344
1.1274750232696533,-0.5153658986091614,-0.6554704904556274,0.36694401502609253,-0.39551177620887756,0.5563622117042542,-0.6363512277603149
1.14756441116333,-0.5401573181152344,-0.5637704133987427,0.39695507287979126,-0.3653183877468109,0.515529215335846,-0.6460098624229431
1.167635202407837,-0.5373678803443909,-0.6032853126525879,0.3915554881095886,-0.3510402739048004,0.5118629336357117,-0.6460937261581421
1.1876916885375977,-0.5429146885871887,-0.6015751957893372,0.3960654139518738,-0.35870489478111267,0.5168337225914001,-0.6456707715988159
1.2078015804290771,-0.502467930316925,-0.6518808603286743,0.3678742051124573,-0.3943465054035187,0.5803013443946838,-0.6386361122131348
1.2278614044189453,-0.517300546169281,-0.6677666902542114,0.3781547546386719,-0.3799314498901367,0.5548856258392334,-0.6415463089942932
1.2479307651519775,-0.517417848110199,-0.6460694074630737,0.3800084590911865,-0.3943864107131958,0.5703884959220886,-0.6421806812286377
1.2680537700653076,-0.5277819037437439,-0.5479527115821838,0.40711748600006104,-0.3725396990776062,0.543651819229126,-0.6527180075645447
1.288160800933838,-0.5443840622901917,-0.5649003982543945,0.4203869104385376,-0.3598170578479767,0.5239595174789429,-0.6534247398376465
1.3082199096679688,-0.5419403910636902,-0.5896739363670349,0.41484880447387695,-0.35848209261894226,0.5254756212234497,-0.6540440917015076
1.3283355236053467,-0.5081139206886292,-0.6677794456481934,0.38696491718292236,-0.3813760578632355,0.5905457139015198,-0.644526481628418
1.3484275341033936,-0.5011672377586365,-0.6587058305740356,0.3795129656791687,-0.3909175395965576,0.5975202918052673,-0.6445069909095764
1.3685331344604492,-0.5052273869514465,-0.6632075309753418,0.3750483989715576,-0.3994247317314148,0.605968177318573,-0.6458154916763306
1.3886985778808594,-0.5353454947471619,-0.5628162026405334,0.4051815867424011,-0.37574324011802673,0.5583269000053406,-0.6571097373962402
1.408822774887085,-0.534376323223114,-0.5793046951293945,0.40355032682418823,-0.3616023659706116,0.5458330512046814,-0.6581797003746033
1.4288811683654785,-0.5377110242843628,-0.576278805732727,0.40660929679870605,-0.37011563777923584,0.5610811114311218,-0.6594523191452026
1.448974370956421,-0.5060751438140869,-0.649734377861023,0.39049142599105835,-0.4039515256881714,0.6199795603752136,-0.6512894630432129
1.46905517578125,-0.5067461729049683,-0.6591254472732544,0.39063501358032227,-0.4023648500442505,0.626842737197876,-0.6513490676879883
1.4891235828399658,-0.5084078907966614,-0.6463913321495056,0.39586901664733887,-0.3930976390838623,0.616115391254425,-0.6537349820137024
1.5092644691467285,-0.5403506755828857,-0.6254223585128784,0.4031725525856018,-0.36962082982063293,0.5734053254127502,-0.6578382849693298
1.5293633937835693,-0.538070023059845,-0.6318288445472717,0.4051738977432251,-0.3719298243522644,0.5698296427726746,-0.6594110727310181
1.5494358539581299,-0.5367648005485535,-0.6306913495063782,0.401386022567749,-0.37452200055122375,0.5743395090103149,-0.6597247123718262
1.5695462226867676,-0.5000138878822327,-0.6407238245010376,0.3973872661590576,-0.3983215391635895,0.6310489177703857,-0.6574890613555908
1.589585781097412,-0.5094690322875977,-0.6526411175727844,0.3979027271270752,-0.37564656138420105,0.6299435496330261,-0.6574925184249878
1.6096415519714355,-0.5077340006828308,-0.6509223580360413,0.4006718397140503,-0.38517123460769653,0.6271488070487976,-0.6584063768386841
1.6298871040344238,-0.5312522649765015,-0.6358690857887268,0.40176963806152344,-0.37473517656326294,0.5833846926689148,-0.6624939441680908
1.6561334133148193,-0.5366198420524597,-0.6361707448959351,0.3984196186065674,-0.36068928241729736,0.5879136919975281,-0.6629074811935425
1.6762301921844482,-0.49700406193733215,-0.559783935546875,0.40663212537765503,-0.3971172869205475,0.6291508674621582,-0.6692044138908386
1.6963536739349365,-0.49758246541023254,-0.6737901568412781,0.3782365322113037,-0.37434637546539307,0.5936547517776489,-0.6707218885421753
1.716374397277832,-0.5423923134803772,-0.6322629451751709,0.40010368824005127,-0.3971731662750244,0.6345298886299133,-0.6692375540733337
1.736464262008667,-0.5144764184951782,-0.5689131021499634,0.4217180013656616,-0.3923823833465576,0.6388090252876282,-0.6745449304580688
1.7565345764160156,-0.5099632740020752,-0.6220538020133972,0.419444739818573,-0.3937974274158478,0.6539799571037292,-0.6699917316436768
1.776587963104248,-0.5257183909416199,-0.6039468050003052,0.43293964862823486,-0.3802828788757324,0.6360130906105042,-0.672405481338501
1.7967100143432617,-0.5403691530227661,-0.635917067527771,0.42733705043792725,-0.3794610798358917,0.6147751212120056,-0.670909583568573
1.8167884349822998,-0.5427882075309753,-0.684376060962677,0.4283106327056885,-0.36283743381500244,0.6151581406593323,-0.6685396432876587
1.8368449211120605,-0.5340346693992615,-0.6946910619735718,0.4201878309249878,-0.3744812607765198,0.6100527048110962,-0.6679134368896484
1.8569347858428955,-0.5110453963279724,-0.6298627853393555,0.4286850094795227,-0.377225786447525,0.6462952494621277,-0.6724973917007446
1.8770909309387207,-0.5220910906791687,-0.6205041408538818,0.44077134132385254,-0.373199999332428,0.641322910785675,-0.673974871635437
1.897087812423706,-0.5137205719947815,-0.6089959144592285,0.4315982460975647,-0.3818320631980896,0.6632995009422302,-0.673518180847168
1.917177677154541,-0.5366628766059875,-0.6559271812438965,0.4265769124031067,-0.3809370696544647,0.6279743313789368,-0.6730897426605225
1.937251329421997,-0.5364551544189453,-0.652733325958252,0.4296327829360962,-0.3805837035179138,0.6227460503578186,-0.6766413450241089
1.9573204517364502,-0.5349300503730774,-0.632121741771698,0.43166112899780273,-0.38215237855911255,0.6415881514549255,-0.6762996912002563
1.9774243831634521,-0.5291880369186401,-0.645168662071228,0.4366046190261841,-0.3773375153541565,0.6531766653060913,-0.6761506199836731
1.997483491897583,-0.5199334025382996,-0.6671624779701233,0.42438387870788574,-0.38538867235183716,0.6581997275352478,-0.6742886304855347
2.017636775970459,-0.5173290967941284,-0.6842246055603027,0.4176771640777588,-0.3880802392959595,0.6586122512817383,-0.6736069321632385
2.037672281265259,-0.5289041996002197,-0.6831001043319702,0.42542725801467896,-0.3724275529384613,0.6412514448165894,-0.6759242415428162
2.0577921867370605,-0.5257058143615723,-0.6561211943626404,0.427190899848938,-0.37506166100502014,0.6465231776237488,-0.6772596836090088
2.077822208404541,-0.5326905250549316,-0.6141754984855652,0.44638746976852417,-0.37041109800338745,0.6415340304374695,-0.6820536851882935
2.0979020595550537,-0.5066658854484558,-0.6844191551208496,0.4245152473449707,-0.3947901427745819,0.67159503698349,-0.6764616966247559
2.117968797683716,-0.5110225081443787,-0.6700633764266968,0.44239068031311035,-0.39151531457901,0.674649178981781,-0.6802980899810791
2.138028383255005,-0.5321285724639893,-0.6804600954055786,0.45366746187210083,-0.37051263451576233,0.6555533409118652,-0.6803010702133179
2.1581010818481445,-0.523253321647644,-0.6781452298164368,0.45005398988723755,-0.38242048025131226,0.663349449634552,-0.6794317960739136
2.1782329082489014,-0.5342547297477722,-0.626713216304779,0.44967591762542725,-0.3758699893951416,0.6516394019126892,-0.6834200620651245
2.1983842849731445,-0.5364896655082703,-0.6456916332244873,0.4451594948768616,-0.36768123507499695,0.6437454223632812,-0.6847066879272461
2.2185754776000977,-0.5314880609512329,-0.6375075578689575,0.4380069375038147,-0.3776610791683197,0.6595029234886169,-0.6846726536750793
2.2386693954467773,-0.5152775049209595,-0.6887799501419067,0.43276238441467285,-0.39071720838546753,0.6890630125999451,-0.6804862022399902
2.258742570877075,-0.5196293592453003,-0.6701471209526062,0.4439523220062256,-0.3923308849334717,0.684187650680542,-0.6832563877105713
2.278777599334717,-0.5164588093757629,-0.657941997051239,0.43751317262649536,-0.38735702633857727,0.6833781599998474,-0.6850801110267639
2.298874855041504,-0.5249642729759216,-0.6540560722351074,0.44386762380599976,-0.3789280652999878,0.6769512891769409,-0.6857005953788757
2.3189382553100586,-0.5384812951087952,-0.6487879753112793,0.45104414224624634,-0.374931275844574,0.6615654826164246,-0.6869044899940491
2.338991403579712,-0.5395711660385132,-0.653684139251709,0.45973914861679077,-0.3734248876571655,0.658479630947113,-0.6879602670669556
2.3590779304504395,-0.5119693279266357,-0.6750301122665405,0.44455868005752563,-0.39217057824134827,0.6901329755783081,-0.6850816011428833
2.3791372776031494,-0.5173289179801941,-0.6676992177963257,0.4518113136291504,-0.3847997188568115,0.684822142124176,-0.6869516372680664
2.399198293685913,-0.5122407674789429,-0.6527700424194336,0.4483269453048706,-0.3844737708568573,0.6938400864601135,-0.688823938369751
2.419369697570801,-0.5344713926315308,-0.6903690099716187,0.45341503620147705,-0.3670071065425873,0.6671522259712219,-0.688728928565979
2.4394726753234863,-0.5381937623023987,-0.654436469078064,0.4578954577445984,-0.3758566975593567,0.6755562424659729,-0.689441978931427
2.4595491886138916,-0.5323867201805115,-0.6520774364471436,0.45876556634902954,-0.38013124465942383,0.6683481335639954,-0.6925153732299805
2.479611873626709,-0.5168296694755554,-0.6624744534492493,0.4582771062850952,-0.38420575857162476,0.6959366798400879,-0.6908366084098816
2.4997050762176514,-0.525107741355896,-0.6683609485626221,0.4619700312614441,-0.3774529695510864,0.6908243298530579,-0.690936267375946
2.519770622253418,-0.5240642428398132,-0.6912689208984375,0.4516944885253906,-0.38248035311698914,0.690746009349823,-0.6893897652626038
2.5398645401000977,-0.537024199962616,-0.6899606585502625,0.4576072692871094,-0.37217724323272705,0.6793133616447449,-0.6897153258323669
2.559974193572998,-0.5236963033676147,-0.6840689182281494,0.445834755897522,-0.379648894071579,0.6941260695457458,-0.689303457736969
2.5800578594207764,-0.5206681489944458,-0.7018415331840515,0.45053476095199585,-0.3816976547241211,0.6965745091438293,-0.6905218362808228
2.600288152694702,-0.5144908428192139,-0.6901383399963379,0.4513435959815979,-0.38602215051651,0.7046567797660828,-0.6924169063568115
2.6203930377960205,-0.5335550904273987,-0.6454257369041443,0.47100281715393066,-0.36499476432800293,0.6696010231971741,-0.6985651850700378
2.640495538711548,-0.5329877734184265,-0.6287902593612671,0.4710036516189575,-0.37750130891799927,0.6914447546005249,-0.698410153388977
2.6605889797210693,-0.537638783454895,-0.6453487277030945,0.4690549969673157,-0.3784656822681427,0.6941277980804443,-0.6969915628433228
2.6806273460388184,-0.5102842450141907,-0.6539480686187744,0.4575352668762207,-0.3942848742008209,0.7287198305130005,-0.6956912875175476
2.7007076740264893,-0.5091332793235779,-0.6925039291381836,0.4552965760231018,-0.3838390111923218,0.7212689518928528,-0.6937968730926514
2.72076153755188,-0.5149245858192444,-0.7090007662773132,0.4562656879425049,-0.38239622116088867,0.71754390001297,-0.6949830055236816
2.740854024887085,-0.525795578956604,-0.6809672713279724,0.44930070638656616,-0.38113677501678467,0.7016103863716125,-0.6967332363128662
2.7609264850616455,-0.533996045589447,-0.6675141453742981,0.4609830379486084,-0.3757798671722412,0.6952877640724182,-0.6989849805831909
2.7809741497039795,-0.5289670825004578,-0.6673891544342041,0.45912832021713257,-0.3790714740753174,0.696132481098175,-0.6999742984771729
2.801158905029297,-0.510938823223114,-0.6924126744270325,0.45218974351882935,-0.3864903748035431,0.7236949801445007,-0.6975845098495483
2.821258306503296,-0.5052090287208557,-0.6708759069442749,0.4600120782852173,-0.39665845036506653,0.729910671710968,-0.6997780799865723
2.8413236141204834,-0.5071489810943604,-0.667262613773346,0.4726361632347107,-0.39316773414611816,0.7334842681884766,-0.7019160985946655
2.8613784313201904,-0.5183382630348206,-0.6772469878196716,0.4720935821533203,-0.3807646632194519,0.7314230799674988,-0.7013766765594482
2.881462812423706,-0.536491334438324,-0.6756481528282166,0.4711330533027649,-0.3740243911743164,0.7036907076835632,-0.7025852203369141
2.901531457901001,-0.5281328558921814,-0.6938595175743103,0.46824949979782104,-0.3789083957672119,0.7108047604560852,-0.7006917595863342
2.9216043949127197,-0.523305356502533,-0.7121664881706238,0.45976513624191284,-0.3758993148803711,0.7210100889205933,-0.6989796161651611
2.94173002243042,-0.5362793803215027,-0.7198402881622314,0.46940797567367554,-0.3648316562175751,0.7000747919082642,-0.7006733417510986
2.9617955684661865,-0.5292319059371948,-0.711277186870575,0.46345287561416626,-0.3733447790145874,0.7046957612037659,-0.7021366953849792
2.9818546772003174,-0.5305163860321045,-0.702516496181488,0.4636780023574829,-0.380940705537796,0.7107309699058533,-0.7041525840759277
3.0019376277923584,-0.5353001356124878,-0.6444330811500549,0.4858289957046509,-0.3756349980831146,0.7136250138282776,-0.7077656984329224
3.0220108032226562,-0.5415294170379639,-0.654240608215332,0.4883597493171692,-0.3764275312423706,0.7146719098091125,-0.7068028450012207
3.0420897006988525,-0.5326884984970093,-0.6809692978858948,0.4758304953575134,-0.38356971740722656,0.7196447253227234,-0.7061775922775269
3.0621626377105713,-0.5138494372367859,-0.6554628610610962,0.48141056299209595,-0.38399654626846313,0.7410687804222107,-0.7075384259223938
3.0822362899780273,-0.509606122970581,-0.6792218685150146,0.48159360885620117,-0.37812942266464233,0.7397019267082214,-0.7075874209403992
3.1022989749908447,-0.5115301609039307,-0.6967743039131165,0.47745394706726074,-0.386771023273468,0.7470772862434387,-0.7056961059570312
3.122363567352295,-0.531768262386322,-0.7155069708824158,0.4713345766067505,-0.37420913577079773,0.7238520979881287,-0.7062160968780518
3.142453908920288,-0.5354195833206177,-0.6886425018310547,0.47749215364456177,-0.3671887516975403,0.7297863960266113,-0.7074013352394104
3.1625359058380127,-0.5244513154029846,-0.6864038705825806,0.4735093116760254,-0.38250166177749634,0.7335125803947449,-0.7079377770423889
3.1832435131073,-0.5252877473831177,-0.7035006880760193,0.4719530940055847,-0.3794636130332947,0.7289045453071594,-0.7080525159835815
3.203331232070923,-0.5153852701187134,-0.6628807783126831,0.4818071722984314,-0.3842732310295105,0.7388954758644104,-0.7117838859558105
3.223447799682617,-0.5171566009521484,-0.6684335470199585,0.4903002381324768,-0.3782314658164978,0.7328577637672424,-0.7131518125534058
3.2434866428375244,-0.5309238433837891,-0.6660596132278442,0.490908682346344,-0.38321101665496826,0.7308134436607361,-0.7139521837234497
3.2635719776153564,-0.5322713255882263,-0.6793990135192871,0.48934024572372437,-0.378505140542984,0.7372449636459351,-0.712594747543335
3.283648729324341,-0.5257949233055115,-0.6884013414382935,0.48273491859436035,-0.3768334984779358,0.7392035126686096,-0.7104434370994568
3.3037078380584717,-0.5136697888374329,-0.6773171424865723,0.48832154273986816,-0.38553357124328613,0.7488212585449219,-0.712731122970581
3.3237948417663574,-0.5353512167930603,-0.7192078232765198,0.4871089458465576,-0.3732592463493347,0.7164515852928162,-0.7122868299484253
3.3438720703125,-0.5337399244308472,-0.7054176926612854,0.4906831383705139,-0.36885130405426025,0.7275833487510681,-0.713773250579834
3.3639299869537354,-0.5355216860771179,-0.7113061547279358,0.487947940826416,-0.3697752058506012,0.7369065880775452,-0.712792158126831
3.3840126991271973,-0.5200207829475403,-0.7091640830039978,0.485210120677948,-0.3792189061641693,0.7502202987670898,-0.712083101272583
3.4040868282318115,-0.5150309205055237,-0.6887330412864685,0.47833073139190674,-0.38484835624694824,0.7621726393699646,-0.7134421467781067
3.424139976501465,-0.5189306735992432,-0.6770129799842834,0.48369789123535156,-0.3850552439689636,0.7564846277236938,-0.7146543264389038
3.4442269802093506,-0.5300840735435486,-0.6834904551506042,0.4849991798400879,-0.3810065984725952,0.7444522976875305,-0.7170408964157104
3.464301586151123,-0.5318586230278015,-0.6736446619033813,0.49159306287765503,-0.38245680928230286,0.7405597567558289,-0.7185156345367432
3.4843502044677734,-0.5282790064811707,-0.7066761255264282,0.4955344796180725,-0.3800903558731079,0.749388575553894,-0.716688871383667
3.504441738128662,-0.518208384513855,-0.7089820504188538,0.4886022210121155,-0.38188648223876953,0.7577268481254578,-0.7163002490997314
3.52451229095459,-0.5203860998153687,-0.7159472703933716,0.4919278621673584,-0.3734424114227295,0.7611672282218933,-0.7162127494812012
3.54461669921875,-0.5290585160255432,-0.7232016921043396,0.4929523468017578,-0.3697684407234192,0.7560287117958069,-0.7163858413696289
3.564847707748413,-0.5355502963066101,-0.7202351689338684,0.4951079487800598,-0.3713415265083313,0.7516286373138428,-0.7173892855644226
3.584933042526245,-0.5271767973899841,-0.7123951315879822,0.4962579011917114,-0.3769301176071167,0.7596999406814575,-0.7176418304443359
3.6050117015838623,-0.5371686816215515,-0.7234352231025696,0.5045247077941895,-0.36705440282821655,0.7361598610877991,-0.7201533913612366
3.6251628398895264,-0.5189839005470276,-0.6931398510932922,0.5084149241447449,-0.38265496492385864,0.7625912427902222,-0.7206672430038452
3.6452388763427734,-0.5224012136459351,-0.7001015543937683,0.5013410449028015,-0.3715890944004059,0.7591983675956726,-0.7209360003471375
3.6652894020080566,-0.5218818783760071,-0.6868007779121399,0.5060160160064697,-0.3822893798351288,0.7597935199737549,-0.7221074104309082
3.685406446456909,-0.5224354863166809,-0.6958709359169006,0.5002562999725342,-0.3848002552986145,0.7574127316474915,-0.7225142121315002
3.7055201530456543,-0.5368543267250061,-0.6772712469100952,0.511500358581543,-0.37677454948425293,0.7597025632858276,-0.7233033776283264
3.725569725036621,-0.5336019992828369,-0.6972450017929077,0.5060722231864929,-0.3687567710876465,0.7554890513420105,-0.7234591245651245
3.745671033859253,-0.5343639850616455,-0.7106072306632996,0.5113370418548584,-0.36495834589004517,0.7565006613731384,-0.722413182258606
3.7658326625823975,-0.5265194177627563,-0.7036412358283997,0.4970914125442505,-0.3787667155265808,0.7559810876846313,-0.7230194807052612
3.785841226577759,-0.5252334475517273,-0.7100268006324768,0.4940773844718933,-0.3829633295536041,0.7709577679634094,-0.7224744558334351
3.806037664413452,-0.5189341306686401,-0.724680483341217,0.49404072761535645,-0.38223162293434143,0.7706648111343384,-0.7224036455154419
3.8260388374328613,-0.5150431990623474,-0.7397947907447815,0.5040155649185181,-0.37655067443847656,0.7808889150619507,-0.72263503074646
3.8462820053100586,-0.5239719152450562,-0.7007126808166504,0.5097337961196899,-0.3742769956588745,0.7676056623458862,-0.7255744338035583
3.8664052486419678,-0.5364368557929993,-0.7238807082176208,0.5064697265625,-0.36982274055480957,0.7674420475959778,-0.7246703505516052
3.8864903450012207,-0.5273683667182922,-0.7025524973869324,0.5124933123588562,-0.37982022762298584,0.7717909216880798,-0.7269825339317322
3.9065511226654053,-0.5167204737663269,-0.7025780081748962,0.5080332159996033,-0.38149139285087585,0.7741554975509644,-0.7268123626708984
3.9266819953918457,-0.5366857647895813,-0.7436637878417969,0.5169199109077454,-0.3575342893600464,0.7512636780738831,-0.7267570495605469
3.946751356124878,-0.5228230953216553,-0.73978191614151,0.5040338635444641,-0.3721584379673004,0.7661857008934021,-0.7262758016586304
3.966827154159546,-0.5147640109062195,-0.7223548293113708,0.5017934441566467,-0.38210630416870117,0.7815999388694763,-0.7274458408355713
3.9869139194488525,-0.5288593173027039,-0.7200514674186707,0.5075764060020447,-0.3763769268989563,0.7680354714393616,-0.7293148040771484
4.007016181945801,-0.5327968001365662,-0.7264620661735535,0.5048884153366089,-0.3739926815032959,0.7758527398109436,-0.7286539077758789
4.027055740356445,-0.534905731678009,-0.7410171627998352,0.5019201040267944,-0.36592039465904236,0.7755607962608337,-0.7279660105705261
4.047217130661011,-0.516919732093811,-0.708648681640625,0.5016927719116211,-0.3837563097476959,0.7956352233886719,-0.7288124561309814
4.0672993659973145,-0.5273467898368835,-0.7175748348236084,0.5102490186691284,-0.37520095705986023,0.78547602891922,-0.7298851013183594
4.087385416030884,-0.532656192779541,-0.7070935368537903,0.5171362161636353,-0.3753977119922638,0.7765670418739319,-0.7316791415214539
4.107568264007568,-0.5335771441459656,-0.7176769971847534,0.5182228088378906,-0.3637409806251526,0.7736766934394836,-0.7315756678581238
4.127653121948242,-0.5095803737640381,-0.7109389305114746,0.5088357329368591,-0.38771873712539673,0.7963403463363647,-0.7311198711395264
4.147746562957764,-0.5207920670509338,-0.6924266815185547,0.5190858840942383,-0.3857661187648773,0.7944455742835999,-0.7340734004974365
4.1678831577301025,-0.5294286608695984,-0.701520562171936,0.5148242712020874,-0.37857526540756226,0.7886775732040405,-0.7334631085395813
4.187971353530884,-0.5362153053283691,-0.724994421005249,0.5221496224403381,-0.3716844916343689,0.7818489670753479,-0.7331112623214722
4.208080291748047,-0.5296602845191956,-0.7320154905319214,0.516924262046814,-0.3706308603286743,0.7858277559280396,-0.7328680753707886
4.228290796279907,-0.5294393301010132,-0.7278024554252625,0.5160389542579651,-0.3668424189090729,0.7811431884765625,-0.733511209487915
4.2483837604522705,-0.5061656832695007,-0.7275192141532898,0.5113381147384644,-0.38710668683052063,0.8033832907676697,-0.7335391044616699
4.268471002578735,-0.504362165927887,-0.7260106205940247,0.5051608681678772,-0.38739532232284546,0.8122196793556213,-0.7328712940216064
4.2886803150177,-0.5137344598770142,-0.7354950308799744,0.5135043263435364,-0.3746081292629242,0.8025254011154175,-0.7349587678909302
4.308873176574707,-0.5351437926292419,-0.7455523610115051,0.5119677186012268,-0.3708776831626892,0.7813686728477478,-0.735120415687561
4.328913450241089,-0.5333054661750793,-0.7286846041679382,0.5204756855964661,-0.3827298879623413,0.7931905388832092,-0.7377270460128784
4.348971843719482,-0.5295704007148743,-0.7141736149787903,0.5270699858665466,-0.37608838081359863,0.8021227121353149,-0.7379264235496521
4.369039058685303,-0.5318997502326965,-0.7244617342948914,0.5275238752365112,-0.3664991557598114,0.7856382131576538,-0.7384250164031982
4.389164924621582,-0.5233811736106873,-0.7250121235847473,0.519662618637085,-0.37562984228134155,0.809718906879425,-0.7363573312759399
4.409230709075928,-0.5307410359382629,-0.7449806332588196,0.5200538635253906,-0.36921611428260803,0.7952010035514832,-0.7372252345085144
4.42931866645813,-0.5307155847549438,-0.7297966480255127,0.5187513828277588,-0.3732130229473114,0.7899966835975647,-0.739346981048584
4.449397802352905,-0.5330119729042053,-0.7126523852348328,0.5268464088439941,-0.37916040420532227,0.8020873069763184,-0.7397995591163635
4.470052480697632,-0.5319869518280029,-0.7398801445960999,0.5255637168884277,-0.36985868215560913,0.7929298281669617,-0.7391998171806335
4.490189552307129,-0.5153186321258545,-0.7303189635276794,0.5192844867706299,-0.3849230110645294,0.815136730670929,-0.7384673357009888
4.510238170623779,-0.5298422574996948,-0.7223024964332581,0.5326189994812012,-0.37722378969192505,0.8074685335159302,-0.7397953271865845
4.530290603637695,-0.5318180918693542,-0.7300949096679688,0.5298751592636108,-0.3725621700286865,0.8056679368019104,-0.7404090762138367
4.5503990650177,-0.5212393403053284,-0.7346768975257874,0.5235559940338135,-0.38459134101867676,0.8182668685913086,-0.7400648593902588
4.5704665184021,-0.5211285948753357,-0.7397133708000183,0.5304239988327026,-0.38094478845596313,0.8099662661552429,-0.7415245771408081
4.590526103973389,-0.5196002125740051,-0.7484243512153625,0.5269747376441956,-0.37772655487060547,0.8139269948005676,-0.7416107058525085
4.61061954498291,-0.53261798620224,-0.733355700969696,0.5298243761062622,-0.3711569607257843,0.7951450943946838,-0.7433621883392334
4.630702257156372,-0.5287622809410095,-0.7251620888710022,0.5265734195709229,-0.3742174804210663,0.8028393983840942,-0.7426031231880188
4.6507604122161865,-0.5251701474189758,-0.7401735782623291,0.5378640294075012,-0.3741098940372467,0.801433265209198,-0.7447606325149536
4.67084264755249,-0.5275669693946838,-0.7354551553726196,0.5349439978599548,-0.37712427973747253,0.8141040802001953,-0.7447507381439209
4.690922737121582,-0.5366401076316833,-0.7274457216262817,0.540812075138092,-0.3688403069972992,0.8099591135978699,-0.7451554536819458
4.710994005203247,-0.5331985950469971,-0.748127818107605,0.5328065156936646,-0.3732568919658661,0.8101838231086731,-0.744013786315918
4.731842756271362,-0.533799409866333,-0.7445573806762695,0.5330833792686462,-0.371861070394516,0.8059326410293579,-0.7463635206222534
4.751948595046997,-0.5144971013069153,-0.7456666827201843,0.5306734442710876,-0.38653963804244995,0.8335505127906799,-0.7441495656967163
4.7720184326171875,-0.5267320275306702,-0.7608277201652527,0.527004063129425,-0.3702344596385956,0.8118584156036377,-0.7459961175918579
4.792073011398315,-0.5311917662620544,-0.7545991539955139,0.5283543467521667,-0.37266936898231506,0.8200706839561462,-0.7455414533615112
4.812166690826416,-0.5330237746238708,-0.7498252987861633,0.5353073477745056,-0.36621227860450745,0.8178712725639343,-0.7461981773376465
4.832233667373657,-0.5286509394645691,-0.7474128603935242,0.534076988697052,-0.3740540146827698,0.8146392107009888,-0.7472430467605591
4.852406024932861,-0.5355579853057861,-0.7521394491195679,0.5396498441696167,-0.37119603157043457,0.8159083724021912,-0.7475261688232422
4.8724939823150635,-0.5318567156791687,-0.737194299697876,0.535521388053894,-0.3705786466598511,0.8199605941772461,-0.7477004528045654
4.892672777175903,-0.5327329039573669,-0.7515912055969238,0.5374391078948975,-0.3630780875682831,0.8080455660820007,-0.747956395149231
4.912662029266357,-0.5325891971588135,-0.7639051079750061,0.5428513288497925,-0.3668823540210724,0.8080455660820007,-0.7489609718322754
4.932744979858398,-0.5156000852584839,-0.7433083653450012,0.5409043431282043,-0.3808995485305786,0.8295145630836487,-0.7493675947189331
4.95282244682312,-0.5173464417457581,-0.7389308214187622,0.5411942601203918,-0.38105201721191406,0.8287901878356934,-0.750306248664856
4.972875356674194,-0.5265758633613586,-0.7609707713127136,0.5424270629882812,-0.36910825967788696,0.8267936110496521,-0.7504054307937622
4.9931018352508545,-0.5233789086341858,-0.7293001413345337,0.5331066846847534,-0.38101208209991455,0.8331525325775146,-0.7507036924362183
5.0131964683532715,-0.5275031924247742,-0.7313031554222107,0.5417502522468567,-0.3816591203212738,0.8351010680198669,-0.7519537806510925
5.03328013420105,-0.5349592566490173,-0.7626766562461853,0.5422792434692383,-0.36654382944107056,0.8287314772605896,-0.7514055967330933
5.053353309631348,-0.5343760848045349,-0.7619088292121887,0.5432177186012268,-0.3710376024246216,0.8231303095817566,-0.7524425983428955
5.07344126701355,-0.5301761031150818,-0.739933967590332,0.5415424108505249,-0.37647393345832825,0.8331847190856934,-0.7519933581352234
5.0935351848602295,-0.5343802571296692,-0.7369325757026672,0.5489876866340637,-0.3673636317253113,0.8258617520332336,-0.7534046173095703
5.1135334968566895,-0.5291540026664734,-0.7608221769332886,0.5473024845123291,-0.3700658977031708,0.8234006762504578,-0.753333330154419
5.133619785308838,-0.5267235040664673,-0.7433243989944458,0.543729841709137,-0.37844133377075195,0.8291900753974915,-0.7539787292480469
5.153691291809082,-0.5354060530662537,-0.7458372712135315,0.5531275868415833,-0.37178826332092285,0.8195157647132874,-0.755760908126831
5.173753261566162,-0.5307109951972961,-0.7827666401863098,0.5454593300819397,-0.3638921082019806,0.8187364935874939,-0.7545384168624878
5.193841457366943,-0.5142333507537842,-0.7546458840370178,0.5391730666160583,-0.38021862506866455,0.8458482027053833,-0.7539200782775879
5.213918685913086,-0.5172410607337952,-0.7496597170829773,0.5378615856170654,-0.3749123811721802,0.8484533429145813,-0.7553927898406982
5.233979940414429,-0.5279087424278259,-0.76182621717453,0.544805645942688,-0.37438884377479553,0.834530234336853,-0.7570985555648804
5.254070997238159,-0.5290457010269165,-0.7405931353569031,0.5438229441642761,-0.37935084104537964,0.8376447558403015,-0.7578280568122864
5.274143934249878,-0.5353012681007385,-0.7378247380256653,0.5522378087043762,-0.3729892075061798,0.8374428153038025,-0.7587094306945801
5.29421329498291,-0.5369238257408142,-0.7641617655754089,0.5573794841766357,-0.36545330286026,0.8301887512207031,-0.7579015493392944
5.314375877380371,-0.5307207703590393,-0.7543538212776184,0.5463665127754211,-0.3736848831176758,0.839081346988678,-0.7573386430740356
5.334464073181152,-0.5245691537857056,-0.7600694298744202,0.552871584892273,-0.3712139129638672,0.8352891206741333,-0.7577579617500305
5.354549169540405,-0.529657781124115,-0.7699850797653198,0.5562211275100708,-0.37480103969573975,0.8403795957565308,-0.7586357593536377
5.374634027481079,-0.5319539308547974,-0.7692945599555969,0.5483353734016418,-0.3686060905456543,0.8383141160011292,-0.7597266435623169
5.39473295211792,-0.5226287841796875,-0.7681074142456055,0.5533028841018677,-0.3753887116909027,0.8521126508712769,-0.758563756942749
5.414799451828003,-0.5160550475120544,-0.7684661746025085,0.5471307039260864,-0.37921178340911865,0.8635961413383484,-0.7597905397415161
5.434871673583984,-0.5216780304908752,-0.7705681920051575,0.5495301485061646,-0.37335890531539917,0.8600450754165649,-0.7609086036682129
5.455009698867798,-0.5337421298027039,-0.752194344997406,0.5576047897338867,-0.3707990348339081,0.8482220768928528,-0.7623927593231201
5.475070476531982,-0.5356643795967102,-0.7629909515380859,0.5552627444267273,-0.36636123061180115,0.8476985096931458,-0.761919379234314
5.495131731033325,-0.5340014100074768,-0.7619617581367493,0.5621796250343323,-0.35887059569358826,0.8411288261413574,-0.7616989612579346
5.515223026275635,-0.5343195796012878,-0.77664715051651,0.5578528642654419,-0.36057227849960327,0.8338740468025208,-0.7618895173072815
5.535303354263306,-0.5346753597259521,-0.7776389122009277,0.5686312913894653,-0.36487311124801636,0.8401265144348145,-0.762664794921875
5.555349111557007,-0.5320582985877991,-0.7872030138969421,0.5693669319152832,-0.36322641372680664,0.8302034139633179,-0.7627583742141724
5.575433015823364,-0.5216209888458252,-0.7666948437690735,0.5624311566352844,-0.3736652731895447,0.8406112194061279,-0.7642467617988586
5.595508813858032,-0.5223497748374939,-0.767353892326355,0.5562489628791809,-0.3754905164241791,0.8557083010673523,-0.7627548575401306
5.615561485290527,-0.5252005457878113,-0.7606077790260315,0.5632839202880859,-0.37510672211647034,0.8591890931129456,-0.76450115442276
5.635710954666138,-0.5315859317779541,-0.7618769407272339,0.5636324286460876,-0.36758604645729065,0.8550248146057129,-0.7663403153419495
5.655749320983887,-0.5280326008796692,-0.777255654335022,0.5567089915275574,-0.37557151913642883,0.8569796085357666,-0.7662513852119446
5.675814390182495,-0.5225252509117126,-0.7717879414558411,0.5621415972709656,-0.3739951550960541,0.8655651211738586,-0.7666086554527283
5.695889234542847,-0.5264798402786255,-0.7633149027824402,0.5589131116867065,-0.37933167815208435,0.8672650456428528,-0.7664971351623535
5.7159905433654785,-0.5312914252281189,-0.7546305060386658,0.5644426941871643,-0.3747556805610657,0.8593173623085022,-0.7674223184585571
5.736034870147705,-0.538052499294281,-0.7701705694198608,0.5753536820411682,-0.36649060249328613,0.8540012240409851,-0.768464207649231
5.756279230117798,-0.5374109148979187,-0.7879685759544373,0.5784624814987183,-0.36207830905914307,0.8449132442474365,-0.7685748934745789
5.776371717453003,-0.5239371657371521,-0.7624039053916931,0.5714980363845825,-0.3725150227546692,0.8608033657073975,-0.7685315608978271
5.79646635055542,-0.51580411195755,-0.7790965437889099,0.570354700088501,-0.37181273102760315,0.8563386797904968,-0.7685871720314026
5.816528081893921,-0.5180729031562805,-0.7905240058898926,0.5686044692993164,-0.3690257966518402,0.8677079677581787,-0.7692728042602539
5.836615562438965,-0.529432475566864,-0.7658352851867676,0.564960777759552,-0.3719887435436249,0.8563737273216248,-0.7709841728210449
5.856677293777466,-0.529352605342865,-0.7675963044166565,0.5678460001945496,-0.3700976073741913,0.862671971321106,-0.7705626487731934
5.876751899719238,-0.5301210284233093,-0.7737706303596497,0.5745609998703003,-0.37188389897346497,0.8670447468757629,-0.7719380259513855
5.896912336349487,-0.5195773839950562,-0.7845792770385742,0.5670363306999207,-0.3807081878185272,0.8800880312919617,-0.7706992626190186
5.916931629180908,-0.5359497666358948,-0.7787423729896545,0.5808972716331482,-0.3670576214790344,0.8654186129570007,-0.7718902230262756
5.937095403671265,-0.5338186621665955,-0.7715840935707092,0.5752940773963928,-0.3645133078098297,0.8661682605743408,-0.773097038269043
5.957192420959473,-0.533088207244873,-0.7647029161453247,0.5775673389434814,-0.3681906759738922,0.8650071024894714,-0.7741311192512512
5.977286338806152,-0.5273206830024719,-0.7984183430671692,0.5786591172218323,-0.3606472611427307,0.8588022589683533,-0.7712811231613159
5.997996091842651,-0.5270330309867859,-0.7924429774284363,0.5793578028678894,-0.36806967854499817,0.8661795258522034,-0.7730229496955872
6.018115758895874,-0.5186797380447388,-0.7906532883644104,0.5678472518920898,-0.3771551549434662,0.8728185296058655,-0.7730880379676819
6.038175106048584,-0.5236027836799622,-0.7830975651741028,0.5848200917243958,-0.3781481981277466,0.8698074221611023,-0.7755674123764038
6.058619976043701,-0.5128733515739441,-0.7907127737998962,0.5724906325340271,-0.375964879989624,0.8913230299949646,-0.7731338143348694
6.078713655471802,-0.5295553803443909,-0.8010239005088806,0.5782656073570251,-0.3587143123149872,0.8628942370414734,-0.7758172750473022
6.098793983459473,-0.5215806365013123,-0.7744112014770508,0.5791724324226379,-0.37459468841552734,0.8825181126594543,-0.7774434089660645
6.1188647747039795,-0.5320473313331604,-0.7559251189231873,0.5900853872299194,-0.37153565883636475,0.8831376433372498,-0.7786551117897034
6.139000654220581,-0.5356606841087341,-0.7968350648880005,0.5845123529434204,-0.3634937107563019,0.8783239126205444,-0.7771233916282654
6.159038066864014,-0.5344343781471252,-0.7889096140861511,0.5843406915664673,-0.3673391044139862,0.8763180375099182,-0.7778085470199585
6.179092884063721,-0.5346581339836121,-0.7923569679260254,0.5867452621459961,-0.360304057598114,0.8714746832847595,-0.7766997814178467
6.199181795120239,-0.5325718522071838,-0.8138464093208313,0.5797088146209717,-0.35664185881614685,0.8634015917778015,-0.7764927744865417
6.219299077987671,-0.5282335877418518,-0.7803407907485962,0.5878465175628662,-0.3721766769886017,0.8758109211921692,-0.779800295829773
6.239418268203735,-0.5252657532691956,-0.7796694040298462,0.585423469543457,-0.37445399165153503,0.8828843235969543,-0.7797709703445435
6.259519815444946,-0.5198540091514587,-0.8048077821731567,0.5798975825309753,-0.36878615617752075,0.882479727268219,-0.7793347835540771
6.279592752456665,-0.5249654650688171,-0.8127911686897278,0.5954181551933289,-0.3611738979816437,0.8859214186668396,-0.7804700136184692
6.2996602058410645,-0.5140860676765442,-0.7947508096694946,0.5913426876068115,-0.3760470449924469,0.8924639821052551,-0.7813994884490967
6.319732189178467,-0.5291137099266052,-0.8028544187545776,0.5945015549659729,-0.3628014028072357,0.8807157874107361,-0.782291054725647
6.339804649353027,-0.5306366086006165,-0.8080137968063354,0.5965484380722046,-0.3593146502971649,0.880363404750824,-0.7826071977615356
6.359856367111206,-0.524394690990448,-0.7986648082733154,0.5912459492683411,-0.3706277906894684,0.8877578973770142,-0.7823622226715088
6.379949331283569,-0.5319715738296509,-0.793251097202301,0.5896071791648865,-0.3668890595436096,0.8840397596359253,-0.7828316688537598
6.40002703666687,-0.5342786312103271,-0.7859543561935425,0.5964186787605286,-0.35958969593048096,0.8815760016441345,-0.7842381000518799
6.420095443725586,-0.5336709022521973,-0.807401180267334,0.5979927778244019,-0.361337810754776,0.8742973208427429,-0.7839524745941162
6.4401915073394775,-0.5281561613082886,-0.8098723292350769,0.588753342628479,-0.3635018467903137,0.8840793371200562,-0.7830672264099121
6.460333585739136,-0.5249425172805786,-0.8052079677581787,0.596788763999939,-0.36834916472435,0.8865599036216736,-0.7847878932952881
6.48038911819458,-0.5204583406448364,-0.811926543712616,0.6066734790802002,-0.3730444312095642,0.8879351019859314,-0.7865289449691772
6.500452518463135,-0.5306479334831238,-0.8016398549079895,0.599808931350708,-0.3688278794288635,0.8813430666923523,-0.7868601083755493
6.520565509796143,-0.5332707166671753,-0.8214842677116394,0.6058073043823242,-0.3549637496471405,0.881254255771637,-0.7864099740982056
6.540579557418823,-0.5304684042930603,-0.8085967898368835,0.5950247645378113,-0.36187052726745605,0.8848105072975159,-0.7873101234436035
6.5606689453125,-0.5067673921585083,-0.7991535067558289,0.601105272769928,-0.3839978575706482,0.9191039204597473,-0.788688063621521
6.580750942230225,-0.5210884213447571,-0.7999098896980286,0.5993453860282898,-0.3732585906982422,0.9080610275268555,-0.7887471914291382
6.60082745552063,-0.5236574411392212,-0.8122009634971619,0.6068118214607239,-0.35821670293807983,0.9055519700050354,-0.788501501083374
6.620901346206665,-0.5294978022575378,-0.8026264309883118,0.5999083518981934,-0.3645317554473877,0.8967260718345642,-0.7886470556259155
6.6409711837768555,-0.5315169095993042,-0.8143394589424133,0.6065725684165955,-0.3638012111186981,0.8989145159721375,-0.7900826930999756
6.661031484603882,-0.5326970815658569,-0.8238693475723267,0.6085174083709717,-0.35714292526245117,0.8877203464508057,-0.7907019853591919
6.681174039840698,-0.5301520228385925,-0.8178406357765198,0.6106011271476746,-0.359152227640152,0.8910761475563049,-0.790827751159668
6.70123291015625,-0.5330492854118347,-0.8505281805992126,0.6095676422119141,-0.3485761284828186,0.8830128908157349,-0.7919499278068542
6.721290111541748,-0.5316387414932251,-0.8255918025970459,0.6021774411201477,-0.3619725704193115,0.8911252617835999,-0.7930288314819336
6.741385221481323,-0.5266402959823608,-0.8232741951942444,0.6097981333732605,-0.3570404052734375,0.9048112034797668,-0.7927926182746887
6.761460304260254,-0.5310052037239075,-0.8149652481079102,0.6065054535865784,-0.3538326919078827,0.9028248190879822,-0.7934547662734985
6.781532287597656,-0.5208094716072083,-0.8154569268226624,0.6063690781593323,-0.37064629793167114,0.9130026698112488,-0.7941216230392456
6.8016862869262695,-0.5312352180480957,-0.7999424338340759,0.6131867170333862,-0.36463141441345215,0.9076868295669556,-0.7958569526672363
6.821739673614502,-0.5319422483444214,-0.8041413426399231,0.6092669367790222,-0.3647383451461792,0.9109010100364685,-0.7963010668754578
6.841845273971558,-0.5295900702476501,-0.811723530292511,0.6094422936439514,-0.36499518156051636,0.9117458462715149,-0.795539379119873
6.861961603164673,-0.5381492972373962,-0.8370914459228516,0.6256097555160522,-0.3452470302581787,0.8992698788642883,-0.7972580194473267
6.882049560546875,-0.5336593985557556,-0.8234343528747559,0.6176334023475647,-0.3500593602657318,0.8920381665229797,-0.7986114025115967
6.902105093002319,-0.531435489654541,-0.7954176664352417,0.6183813214302063,-0.3630322217941284,0.8986765742301941,-0.799666166305542
6.922540664672852,-0.5284369587898254,-0.8319942951202393,0.6262112259864807,-0.3567928969860077,0.898202121257782,-0.7989219427108765
6.942631721496582,-0.520352303981781,-0.8329262137413025,0.6188465356826782,-0.3627679646015167,0.918429970741272,-0.7990387678146362
6.962710618972778,-0.5200685858726501,-0.8059003353118896,0.6190206408500671,-0.3736836314201355,0.9212166666984558,-0.7996147274971008
6.982795238494873,-0.5303635597229004,-0.8123264908790588,0.6298290491104126,-0.3669983744621277,0.9223106503486633,-0.8014569282531738
7.0028839111328125,-0.5216524004936218,-0.8240668177604675,0.6191989779472351,-0.3709927797317505,0.9314713478088379,-0.8006121516227722
7.022944450378418,-0.5329861044883728,-0.8304814696311951,0.6383548378944397,-0.35717612504959106,0.9165065288543701,-0.8016155958175659
7.043015241622925,-0.539455235004425,-0.8588247895240784,0.6364691853523254,-0.33480775356292725,0.8955471515655518,-0.8016070127487183
7.063058376312256,-0.5321197509765625,-0.8438420295715332,0.6404367089271545,-0.34951674938201904,0.9175523519515991,-0.800215482711792
7.083134412765503,-0.5365121960639954,-0.8622134327888489,0.6398823261260986,-0.3387044370174408,0.8933431506156921,-0.802241325378418
7.103193759918213,-0.5287508964538574,-0.8292945027351379,0.6226244568824768,-0.3585366904735565,0.910770058631897,-0.8034929633140564
7.1232757568359375,-0.5227199196815491,-0.8533138632774353,0.6329684853553772,-0.3631672263145447,0.9183352589607239,-0.8019989728927612
7.143351316452026,-0.5332722067832947,-0.8357788324356079,0.6349471211433411,-0.3592856526374817,0.9226951003074646,-0.8045165538787842
7.163461208343506,-0.5309378504753113,-0.8341858386993408,0.6302241086959839,-0.35956498980522156,0.9230416417121887,-0.8050849437713623
7.183501243591309,-0.5289964079856873,-0.8375966548919678,0.6375332474708557,-0.3617250323295593,0.9271660447120667,-0.8044708967208862
7.203575372695923,-0.5301846265792847,-0.848913848400116,0.6291341185569763,-0.35074785351753235,0.9123097062110901,-0.806397557258606
7.223644971847534,-0.5224349498748779,-0.8522409200668335,0.6260027289390564,-0.3618709444999695,0.934612512588501,-0.8064470291137695
7.243731737136841,-0.532450258731842,-0.8686931729316711,0.6451360583305359,-0.3434160351753235,0.9190929532051086,-0.8067883253097534
7.2638258934021,-0.5276092886924744,-0.8522617220878601,0.627241313457489,-0.35483217239379883,0.9182045459747314,-0.807815432548523
7.2838592529296875,-0.5296093821525574,-0.8298997282981873,0.6372869610786438,-0.36093491315841675,0.9321423768997192,-0.8095186948776245
7.304016351699829,-0.5334592461585999,-0.8548193573951721,0.6356364488601685,-0.3444700539112091,0.9180708527565002,-0.8091238737106323
7.324105739593506,-0.5309341549873352,-0.8332141041755676,0.638617217540741,-0.3570961654186249,0.9318084120750427,-0.8099747896194458
7.344183444976807,-0.5283973217010498,-0.8241046667098999,0.6502659320831299,-0.3600917160511017,0.9304940104484558,-0.8110315799713135
7.364618301391602,-0.5320975184440613,-0.8423929810523987,0.6604297757148743,-0.35478347539901733,0.9254657030105591,-0.8118707537651062
7.3847105503082275,-0.5297496318817139,-0.8376153111457825,0.6475799679756165,-0.3560762405395508,0.9312015771865845,-0.8120832443237305
7.404773235321045,-0.5204025506973267,-0.8448665738105774,0.6430312395095825,-0.3620946407318115,0.9334423542022705,-0.8117166757583618
7.424837350845337,-0.5153831839561462,-0.8278754949569702,0.6501203775405884,-0.3721511960029602,0.9463563561439514,-0.8126499652862549
7.444929838180542,-0.5306458473205566,-0.8365427851676941,0.6538960337638855,-0.3601052165031433,0.9315419793128967,-0.8153426647186279
7.465072870254517,-0.5273140668869019,-0.8445045351982117,0.6475297808647156,-0.3581416606903076,0.9417921304702759,-0.8134217262268066
7.485089302062988,-0.5188621878623962,-0.8654406666755676,0.6560376882553101,-0.3555740714073181,0.9432733654975891,-0.8130360841751099
7.50518274307251,-0.5238836407661438,-0.8620876669883728,0.6543775796890259,-0.35708409547805786,0.9477709531784058,-0.8146756887435913
7.5252556800842285,-0.5297937989234924,-0.8697032332420349,0.6627055406570435,-0.3492879867553711,0.9288711547851562,-0.815420925617218
7.545463800430298,-0.528612494468689,-0.878960371017456,0.6752395629882812,-0.34783780574798584,0.9379880428314209,-0.8173816204071045
7.565558433532715,-0.5233246684074402,-0.870459794998169,0.6715639233589172,-0.35064059495925903,0.9407928586006165,-0.8175755143165588
7.585647344589233,-0.5307729840278625,-0.8644923567771912,0.6673306822776794,-0.3400687575340271,0.9252627491950989,-0.8189544677734375
7.605717182159424,-0.5342103838920593,-0.8718625903129578,0.6671338677406311,-0.336722195148468,0.9279101490974426,-0.8189103603363037
7.625816345214844,-0.5285030603408813,-0.8609843850135803,0.6570623517036438,-0.34605729579925537,0.9323505759239197,-0.8189646005630493
7.645876884460449,-0.5287957191467285,-0.8648412227630615,0.6780948042869568,-0.3483721613883972,0.9374247193336487,-0.8205685019493103
7.6659746170043945,-0.5246032476425171,-0.8585600852966309,0.6628190875053406,-0.3568897843360901,0.9353043437004089,-0.82110196352005
7.686068534851074,-0.5184303522109985,-0.8619584441184998,0.6658459901809692,-0.35977858304977417,0.9568742513656616,-0.8231090307235718
7.7064690589904785,-0.5233035087585449,-0.8764680027961731,0.6799562573432922,-0.34870290756225586,0.9481867551803589,-0.8244378566741943
7.7265613079071045,-0.5304577946662903,-0.8897337913513184,0.6962491869926453,-0.3387204110622406,0.9475435018539429,-0.8248392939567566
7.746634244918823,-0.5287062525749207,-0.8988866806030273,0.6828358769416809,-0.33253100514411926,0.9365983009338379,-0.8238487839698792
7.7670557498931885,-0.5252604484558105,-0.8741921782493591,0.6816278100013733,-0.3449212610721588,0.9544036984443665,-0.8268387317657471
7.7870917320251465,-0.516849935054779,-0.9038416743278503,0.6832653284072876,-0.34477537870407104,0.9460542798042297,-0.8262717127799988
7.807223320007324,-0.5327698588371277,-0.8849031925201416,0.6851978898048401,-0.33656930923461914,0.9403044581413269,-0.8290040493011475
7.827282190322876,-0.5347327589988708,-0.916520893573761,0.6958363056182861,-0.3244086503982544,0.937726616859436,-0.8279498815536499
7.847352504730225,-0.5288391709327698,-0.8829775452613831,0.6859380602836609,-0.33689799904823303,0.9346382021903992,-0.8292158246040344
7.867418527603149,-0.5307140946388245,-0.8836798071861267,0.6943114995956421,-0.34414637088775635,0.9385338425636292,-0.8317774534225464
7.887526988983154,-0.5241493582725525,-0.8912267088890076,0.6899444460868835,-0.3470478951931,0.9489753842353821,-0.8303762078285217
7.907587289810181,-0.5265946388244629,-0.917926549911499,0.6944218277931213,-0.33124226331710815,0.9448282122612,-0.8317761421203613
7.927676200866699,-0.5224544405937195,-0.909403383731842,0.6947579979896545,-0.33483076095581055,0.936662495136261,-0.8342535495758057
7.947798252105713,-0.5229430198669434,-0.8665909767150879,0.7000531554222107,-0.34815889596939087,0.9398853778839111,-0.8378599882125854
7.9679036140441895,-0.5217936038970947,-0.8743924498558044,0.6889132857322693,-0.3485125005245209,0.9596801400184631,-0.8377621173858643
7.987969398498535,-0.532182514667511,-0.8987519145011902,0.7089024186134338,-0.33432236313819885,0.9519755244255066,-0.8410341739654541
8.008105516433716,-0.5191035866737366,-0.9114115834236145,0.7057220339775085,-0.3346632719039917,0.9626560807228088,-0.8404747843742371
8.02817177772522,-0.5038961172103882,-0.9089738130569458,0.6938207149505615,-0.349364697933197,0.9685375094413757,-0.8390160799026489
8.04825472831726,-0.526301383972168,-0.8950015902519226,0.7139998078346252,-0.33958619832992554,0.9654006361961365,-0.8438504934310913
8.068318128585815,-0.5267460346221924,-0.9023902416229248,0.7149786949157715,-0.3423675000667572,0.9693648219108582,-0.8435670137405396
8.088390827178955,-0.5263323187828064,-0.9072676301002502,0.7178806662559509,-0.3397577106952667,0.9749047160148621,-0.843949556350708
8.108463764190674,-0.5284299254417419,-0.9567593932151794,0.7253245115280151,-0.32227882742881775,0.9532731175422668,-0.843798041343689
8.129400730133057,-0.5270922780036926,-0.9279363751411438,0.7179468274116516,-0.31821534037590027,0.9478420615196228,-0.8458791971206665
8.149601459503174,-0.528347373008728,-0.8986265063285828,0.7323724031448364,-0.33195316791534424,0.9440146684646606,-0.8498647212982178
8.169594287872314,-0.5263836979866028,-0.9406412243843079,0.737266480922699,-0.33333292603492737,0.954713761806488,-0.8483915328979492
8.189965009689331,-0.5242931246757507,-0.9741072058677673,0.726534366607666,-0.31451353430747986,0.9595044851303101,-0.8473895788192749
8.210047006607056,-0.5266814827919006,-0.9885299801826477,0.7339637875556946,-0.2965238392353058,0.9370279908180237,-0.8488953113555908
8.23012113571167,-0.5265432000160217,-0.8481504321098328,0.7771503925323486,-0.34667426347732544,0.9512473940849304,-0.8604248762130737
8.250175476074219,-0.5123143196105957,-0.937070369720459,0.7511136531829834,-0.3440348207950592,1.0022218227386475,-0.8541862368583679
8.270283937454224,-0.525229275226593,-0.9745722413063049,0.743540346622467,-0.31836026906967163,0.975764811038971,-0.8536385297775269
8.290337800979614,-0.5262832045555115,-0.9919635057449341,0.7527221441268921,-0.3031710386276245,0.9595248699188232,-0.8547602295875549
8.31039810180664,-0.5306762456893921,-0.8938062191009521,0.7861310839653015,-0.3410356342792511,0.975296676158905,-0.8633780479431152
8.33048391342163,-0.5212662816047668,-0.9426353573799133,0.7913358807563782,-0.349921315908432,0.9898914694786072,-0.8614410758018494
8.350608348846436,-0.5250179171562195,-1.0249758958816528,0.746526300907135,-0.302257239818573,0.9800692200660706,-0.854629397392273
8.370670080184937,-0.5286880731582642,-0.8713272213935852,0.78553706407547,-0.3313560485839844,0.9622454047203064,-0.8673012852668762
8.391278505325317,-0.5284361243247986,-0.9933000206947327,0.7948089241981506,-0.3348429799079895,1.0009870529174805,-0.8618000149726868
8.41137146949768,-0.5282209515571594,-1.0485104322433472,0.7630308270454407,-0.297504186630249,0.9804155230522156,-0.8583565950393677
8.431441068649292,-0.527935802936554,-0.884793221950531,0.7681718468666077,-0.3082188665866852,0.9595546126365662,-0.8685657978057861
8.451494455337524,-0.5292515754699707,-0.9088290333747864,0.8448154926300049,-0.3689851462841034,0.9870999455451965,-0.8700950145721436
8.47158670425415,-0.5306620001792908,-0.9603464007377625,0.82058185338974,-0.34057295322418213,1.0228304862976074,-0.8672425150871277
8.491647481918335,-0.5224326848983765,-1.0927002429962158,0.7447115182876587,-0.26087522506713867,0.9953019022941589,-0.856934130191803
8.511703252792358,-0.5219152569770813,-0.886358380317688,0.8044473528862,-0.32100343704223633,0.9745283722877502,-0.8733547925949097
8.53179669380188,-0.5186546444892883,-0.8658635020256042,0.8469513058662415,-0.3793932795524597,0.9861547350883484,-0.8759450316429138
8.551918506622314,-0.5258334279060364,-0.9665411114692688,0.8118622899055481,-0.34074535965919495,1.0364108085632324,-0.870921790599823
8.5719895362854,-0.5398318767547607,-1.0719099044799805,0.7939379811286926,-0.2512744963169098,0.992689311504364,-0.8656435012817383
8.59212875366211,-0.5092692971229553,-0.889150857925415,0.8231794834136963,-0.33103877305984497,0.994813859462738,-0.8751539587974548
8.612232446670532,-0.5242641568183899,-0.8574524521827698,0.8645409941673279,-0.37261080741882324,0.9801600575447083,-0.8804627656936646
8.632294416427612,-0.5269008874893188,-0.9488465189933777,0.8269878625869751,-0.3418990671634674,1.0308648347854614,-0.8743864297866821
8.652475833892822,-0.5329832434654236,-1.135627031326294,0.7975184917449951,-0.23937657475471497,1.0089428424835205,-0.8634203672409058
8.672571897506714,-0.5244374871253967,-1.1312692165374756,0.8058705925941467,-0.23983055353164673,0.9850415587425232,-0.8615598678588867
8.69265103340149,-0.5082556009292603,-0.9331449270248413,0.8417641520500183,-0.3423196077346802,1.003718376159668,-0.8769330382347107
8.712708234786987,-0.5206577181816101,-0.9891576766967773,0.8233259916305542,-0.33942288160324097,1.0221799612045288,-0.8722301721572876
8.732806205749512,-0.5274235606193542,-1.0336976051330566,0.8184553980827332,-0.2820690870285034,1.0238780975341797,-0.87382972240448
8.75287389755249,-0.5398368239402771,-1.124657154083252,0.8244659304618835,-0.22001464664936066,0.9685280919075012,-0.8636942505836487
8.772934198379517,-0.5153566002845764,-0.9666964411735535,0.8718133568763733,-0.3114585876464844,0.9693040251731873,-0.8800126314163208
8.79302167892456,-0.518090546131134,-0.9661572575569153,0.8608535528182983,-0.3327764868736267,0.996537983417511,-0.8767623901367188
8.81310224533081,-0.5247053503990173,-1.0636706352233887,0.8217960596084595,-0.28057029843330383,1.0138819217681885,-0.8722183108329773
8.833153247833252,-0.5267189145088196,-1.1158900260925293,0.8352774977684021,-0.22649137675762177,0.9918116927146912,-0.863383412361145
8.853232860565186,-0.5168126821517944,-0.9683598875999451,0.8350719809532166,-0.2809101939201355,0.9882692694664001,-0.8739002346992493
8.873333930969238,-0.5160245299339294,-1.063877820968628,0.8660060167312622,-0.3391621708869934,1.0077282190322876,-0.8694652318954468
8.89340329170227,-0.5328288078308105,-1.0967347621917725,0.8090242147445679,-0.2479272335767746,1.0246250629425049,-0.8692085146903992
8.913920164108276,-0.5275936126708984,-0.9382598996162415,0.8822420239448547,-0.28812146186828613,1.0036319494247437,-0.8804566264152527
8.934005737304688,-0.5306218862533569,-0.9519862532615662,0.9108403921127319,-0.31013333797454834,1.015667200088501,-0.8827387094497681
8.954102754592896,-0.5298030376434326,-1.0411384105682373,0.8784447312355042,-0.2712705433368683,1.0172460079193115,-0.8759937286376953
8.974175453186035,-0.5205481648445129,-1.1143059730529785,0.8115079998970032,-0.2243572622537613,0.9867386221885681,-0.8676168918609619
8.99427843093872,-0.5124173164367676,-1.0555733442306519,0.8143869042396545,-0.25908511877059937,0.9903461337089539,-0.869472324848175
9.014351606369019,-0.5216884613037109,-0.9211923480033875,0.9072335362434387,-0.3824138343334198,1.0411491394042969,-0.8783553838729858
9.034396409988403,-0.5129114985466003,-1.0933239459991455,0.8299190402030945,-0.2863736152648926,1.052931308746338,-0.8674739003181458
9.05448031425476,-0.5100696086883545,-1.171539068222046,0.8189199566841125,-0.2515382766723633,1.0317637920379639,-0.8629341125488281
9.07455849647522,-0.5212284922599792,-0.9855294823646545,0.8777410984039307,-0.29366979002952576,0.9996220469474792,-0.8779568672180176
9.09461236000061,-0.5181118845939636,-1.1089935302734375,0.8660258650779724,-0.2818089723587036,1.0149335861206055,-0.8717281222343445
9.114694833755493,-0.5202112197875977,-1.1260597705841064,0.8317287564277649,-0.24340681731700897,1.009464144706726,-0.8697969913482666
9.134772300720215,-0.5445200800895691,-0.9088942408561707,0.8869053721427917,-0.2713777720928192,0.9867960810661316,-0.8815796375274658
9.154850244522095,-0.5371639728546143,-0.9643555283546448,0.9214092493057251,-0.3245760202407837,1.015225887298584,-0.8808890581130981
9.174968957901001,-0.5272690057754517,-1.0301096439361572,0.8988482356071472,-0.27389419078826904,1.0230987071990967,-0.8796129822731018
9.195037841796875,-0.5127281546592712,-1.2126030921936035,0.818813145160675,-0.2073739767074585,0.9960164427757263,-0.8618588447570801
9.215089797973633,-0.5076846480369568,-0.9920047521591187,0.8669453263282776,-0.2828811705112457,1.0102883577346802,-0.8762224912643433
9.235259056091309,-0.5082188844680786,-0.9530153274536133,0.8791702389717102,-0.33010345697402954,1.0297731161117554,-0.8795844316482544
9.255340337753296,-0.5126259922981262,-1.1237975358963013,0.8531255125999451,-0.27958500385284424,1.0495188236236572,-0.8676245212554932
9.275420665740967,-0.5211884379386902,-0.9860737323760986,0.8608463406562805,-0.25582510232925415,0.9953534007072449,-0.8786871433258057
9.295982599258423,-0.5250888466835022,-1.139744520187378,0.9080585837364197,-0.257554829120636,0.9885521531105042,-0.8736741542816162
9.316077470779419,-0.5185865759849548,-1.1229825019836426,0.8752642273902893,-0.23760683834552765,0.9987046122550964,-0.8717821836471558
9.336220026016235,-0.5294538736343384,-1.018766164779663,0.8546534180641174,-0.2454995959997177,0.9794368147850037,-0.8751249313354492
9.356236457824707,-0.5313730835914612,-1.1260159015655518,0.923892080783844,-0.2758029103279114,1.0377745628356934,-0.8730588555335999
9.376335144042969,-0.5113571286201477,-1.138293743133545,0.8641317486763,-0.2514004409313202,1.0499317646026611,-0.865402340888977
9.396417140960693,-0.49336954951286316,-1.0224454402923584,0.8269728422164917,-0.28141605854034424,1.011438012123108,-0.8709860444068909
9.416557312011719,-0.5600738525390625,-1.0888642072677612,0.9465429782867432,-0.27688419818878174,1.0058605670928955,-0.8765851259231567
9.43669056892395,-0.521543562412262,-1.1886816024780273,0.903793454170227,-0.2467678040266037,1.0308139324188232,-0.8680243492126465
9.456732034683228,-0.501780092716217,-1.0387156009674072,0.7916267514228821,-0.25461748242378235,0.9982334971427917,-0.873370885848999
9.476794719696045,-0.5364369750022888,-1.064465045928955,0.9693005681037903,-0.26224932074546814,0.9924575686454773,-0.881543755531311
9.496886730194092,-0.5250810980796814,-1.0525875091552734,0.9507048726081848,-0.2947360873222351,1.047459602355957,-0.8745564222335815
9.516992807388306,-0.5116778612136841,-1.176175832748413,0.8288331627845764,-0.2108495682477951,1.0149884223937988,-0.8648048639297485
9.537036418914795,-0.5164499878883362,-0.9989510774612427,0.8944349884986877,-0.2765161991119385,0.9852284789085388,-0.882377028465271
9.557127952575684,-0.5216183066368103,-0.9812006950378418,0.9457456469535828,-0.3257516920566559,1.0308727025985718,-0.8812503218650818
9.57731580734253,-0.5181276202201843,-1.1172571182250977,0.8774154186248779,-0.24601782858371735,1.034463882446289,-0.8717585802078247
9.597365856170654,-0.5075786113739014,-1.1548573970794678,0.8324154615402222,-0.22342278063297272,0.9887829422950745,-0.8683071136474609
9.617462396621704,-0.5077710151672363,-0.9364014863967896,0.8967101573944092,-0.2994607985019684,1.0122957229614258,-0.8824225664138794
9.63753342628479,-0.51734459400177,-1.031097412109375,0.913502037525177,-0.3104117810726166,1.0269662141799927,-0.8801000118255615
9.657585859298706,-0.5178840756416321,-1.1710810661315918,0.8650851249694824,-0.2268519103527069,1.0332270860671997,-0.8709276914596558
9.677862882614136,-0.5263859033584595,-1.162608027458191,0.8698902726173401,-0.19351474940776825,1.003942847251892,-0.8705774545669556
9.697953224182129,-0.5227046608924866,-0.9731181859970093,0.9232484698295593,-0.28638121485710144,0.9761051535606384,-0.8863187432289124
9.71804428100586,-0.5187623500823975,-1.0913316011428833,0.9048001170158386,-0.25225570797920227,1.0215636491775513,-0.8775143623352051
9.738120317459106,-0.512495756149292,-1.150430679321289,0.8504781723022461,-0.22708742320537567,1.022117257118225,-0.8709772825241089
9.758198022842407,-0.5084006786346436,-1.0002621412277222,0.9012202620506287,-0.25481024384498596,1.0080527067184448,-0.8783292770385742
9.77826976776123,-0.5195948481559753,-1.0811982154846191,0.935009777545929,-0.30487585067749023,1.0044500827789307,-0.8766032457351685
9.798341274261475,-0.5105690956115723,-1.1694817543029785,0.8365614414215088,-0.21615459024906158,1.029161810874939,-0.868718683719635
9.818424701690674,-0.5139164924621582,-1.1716361045837402,0.8372694253921509,-0.19856874644756317,0.9978621602058411,-0.8689125776290894
9.838492631912231,-0.5265231728553772,-0.9374563694000244,0.9365476965904236,-0.2881668210029602,1.0141199827194214,-0.8894487619400024
9.85876750946045,-0.5195870399475098,-1.1270618438720703,0.9072046279907227,-0.23443396389484406,1.0220566987991333,-0.8754327297210693
9.87889552116394,-0.5351518988609314,-1.1987824440002441,0.866607129573822,-0.1844027042388916,0.990997850894928,-0.8675874471664429
9.898987293243408,-0.5044379234313965,-1.0255932807922363,0.8870046734809875,-0.25279325246810913,1.0052814483642578,-0.8768953084945679
9.919023275375366,-0.5101672410964966,-1.1686501502990723,0.9153186678886414,-0.2894052267074585,1.016994833946228,-0.8689847588539124
9.939114570617676,-0.5157520174980164,-1.2371907234191895,0.8892151117324829,-0.2211150825023651,1.0240569114685059,-0.8654319047927856
9.959186553955078,-0.5091118216514587,-1.0997450351715088,0.8734933137893677,-0.25117194652557373,1.0120649337768555,-0.8739021420478821
9.979246616363525,-0.5224384665489197,-1.1104272603988647,0.9189658761024475,-0.24141059815883636,1.0133147239685059,-0.8762479424476624
9.999338150024414,-0.521506130695343,-1.1653704643249512,0.8845301270484924,-0.20227646827697754,0.9850156903266907,-0.8732436299324036
10.01944613456726,-0.5127037167549133,-0.9437105059623718,0.9068104028701782,-0.26999592781066895,1.0134062767028809,-0.8840713500976562
10.039543628692627,-0.5229378342628479,-1.028656005859375,0.9258236289024353,-0.2806466817855835,1.0212509632110596,-0.8828827142715454
10.059672832489014,-0.5237135887145996,-1.056256890296936,0.9135844111442566,-0.24376891553401947,1.0179073810577393,-0.8819836378097534
10.07975172996521,-0.5166341662406921,-1.2884631156921387,0.8796693086624146,-0.1712540239095688,1.0087881088256836,-0.8606282472610474
10.099870204925537,-0.49790093302726746,-1.104968547821045,0.8917409181594849,-0.2669813632965088,1.0040616989135742,-0.8699537515640259
10.119961023330688,-0.5021977424621582,-1.0392961502075195,0.9030446410179138,-0.2980739176273346,1.0284781455993652,-0.8780409097671509
10.14003324508667,-0.5270655155181885,-1.1984877586364746,0.9067041277885437,-0.26122939586639404,1.011314868927002,-0.8703495264053345
10.160080194473267,-0.5154337286949158,-1.1041514873504639,0.86361163854599,-0.20695577561855316,1.00983726978302,-0.8732439279556274
10.180167198181152,-0.5275601744651794,-1.1403727531433105,0.888526439666748,-0.2073616087436676,0.9683632254600525,-0.8763697743415833
10.200243473052979,-0.5251606702804565,-0.988153874874115,0.942330539226532,-0.2733549475669861,0.9817021489143372,-0.8872563242912292
10.220297813415527,-0.5136719346046448,-1.119077205657959,0.8685160279273987,-0.23401175439357758,1.0184826850891113,-0.8764238357543945
10.240396976470947,-0.5238039493560791,-1.1021666526794434,0.8798543810844421,-0.21352049708366394,1.0282166004180908,-0.8765486478805542
10.260485887527466,-0.5107813477516174,-1.0759243965148926,0.9136447310447693,-0.26723361015319824,1.0292329788208008,-0.8789395093917847
10.280544519424438,-0.5028807520866394,-1.1432111263275146,0.8739513754844666,-0.23117206990718842,1.0257837772369385,-0.8750026226043701
10.301103115081787,-0.5087828636169434,-1.032789945602417,0.8952065110206604,-0.2862403690814972,1.0230686664581299,-0.8783363103866577
10.321188688278198,-0.5236027836799622,-0.951396107673645,0.9353250861167908,-0.3046503961086273,1.017869472503662,-0.8870852589607239
10.341288328170776,-0.5198233127593994,-1.1558808088302612,0.8994229435920715,-0.22937624156475067,1.0288105010986328,-0.8739126920700073
10.361329317092896,-0.5234243273735046,-1.1090433597564697,0.885891318321228,-0.20922251045703888,0.9511129260063171,-0.881201982498169
10.381418228149414,-0.5127069354057312,-1.1526687145233154,0.935392439365387,-0.2593688368797302,0.9799533486366272,-0.8752251863479614
10.401488304138184,-0.5230720043182373,-1.1612310409545898,0.8814720511436462,-0.19445300102233887,0.9977466464042664,-0.8749969005584717
10.421560525894165,-0.5014206767082214,-1.0268490314483643,0.8831930756568909,-0.27892443537712097,1.035570502281189,-0.8779326677322388
10.442644119262695,-0.5226751565933228,-1.1800193786621094,0.9468843936920166,-0.26782897114753723,1.0315755605697632,-0.8733007907867432
10.46273159980774,-0.5173421502113342,-1.183164358139038,0.9041188955307007,-0.2191677987575531,1.0554946660995483,-0.8702274560928345
10.48283052444458,-0.5048522353172302,-1.1363751888275146,0.8346063494682312,-0.21665452420711517,0.9771365523338318,-0.8727226257324219
10.503323078155518,-0.5356382727622986,-0.8949610590934753,1.0107061862945557,-0.3379318118095398,1.0429706573486328,-0.8895362019538879
10.523418426513672,-0.5358824133872986,-0.9936261773109436,0.974614679813385,-0.30965185165405273,1.0383970737457275,-0.8855482935905457
10.54348087310791,-0.5241066217422485,-1.1692863702774048,0.9048750996589661,-0.18655048310756683,1.0102365016937256,-0.8737500309944153
10.563548803329468,-0.5132156014442444,-1.118204116821289,0.869709849357605,-0.18386726081371307,0.9515090584754944,-0.8768539428710938
10.583637952804565,-0.5070768594741821,-0.9232754111289978,0.929799497127533,-0.29441046714782715,0.9667701125144958,-0.8864479660987854
10.60370397567749,-0.5187393426895142,-1.0331332683563232,0.9259739518165588,-0.29687848687171936,1.0409843921661377,-0.8820280432701111
10.623762845993042,-0.5070660710334778,-1.1781935691833496,0.8820237517356873,-0.24175816774368286,1.0490663051605225,-0.8717669248580933
10.643856287002563,-0.5170676708221436,-1.2490947246551514,0.8809463977813721,-0.18912754952907562,1.0059549808502197,-0.8673022985458374
10.663923978805542,-0.4962962567806244,-1.108208417892456,0.9010167717933655,-0.2496260553598404,0.9889735579490662,-0.8788383603096008
10.683977365493774,-0.5127074718475342,-1.0679998397827148,0.9154314398765564,-0.2685422897338867,1.0181300640106201,-0.8831647634506226
10.70406460762024,-0.5327854156494141,-1.1484858989715576,0.9064093828201294,-0.2205379158258438,1.0008623600006104,-0.8784337639808655
10.724133014678955,-0.5127278566360474,-1.1495113372802734,0.8757123947143555,-0.18758398294448853,1.0045337677001953,-0.8712906837463379
10.744186401367188,-0.5177919864654541,-1.0206024646759033,0.9469429850578308,-0.26792123913764954,0.9852549433708191,-0.8851774334907532
10.76429295539856,-0.5129039883613586,-1.1654133796691895,0.9085081815719604,-0.23475714027881622,1.0195329189300537,-0.8750396370887756
10.784393787384033,-0.5140211582183838,-1.1841812133789062,0.866260826587677,-0.1908217817544937,1.0144741535186768,-0.8705257773399353
10.80448603630066,-0.503485918045044,-0.9915285110473633,0.906810462474823,-0.2976985275745392,1.0277999639511108,-0.8829048871994019
10.824534177780151,-0.5093592405319214,-1.0796101093292236,0.9277454018592834,-0.2574894428253174,1.0315961837768555,-0.8842623233795166
10.844642877578735,-0.4995563328266144,-1.1299161911010742,0.905239462852478,-0.25913816690444946,1.0573445558547974,-0.8762456774711609
10.86470651626587,-0.5219563245773315,-1.199577808380127,0.8807896971702576,-0.17309461534023285,0.9799144864082336,-0.8714649081230164
10.884782791137695,-0.5120294094085693,-1.0275382995605469,0.9328553080558777,-0.2721705138683319,1.00309419631958,-0.8860200643539429
10.90487003326416,-0.5114777088165283,-1.104178547859192,0.929812490940094,-0.270567387342453,0.9944273829460144,-0.8796047568321228
10.924939155578613,-0.5265226364135742,-1.1919641494750977,0.8807027339935303,-0.1790691465139389,0.9981676936149597,-0.8726317882537842
10.945002555847168,-0.5123735070228577,-1.0126616954803467,0.9138043522834778,-0.24959556758403778,0.9915987849235535,-0.8819054961204529
10.965076923370361,-0.5031455755233765,-1.0051065683364868,0.9375486373901367,-0.3065469264984131,1.0250415802001953,-0.8834182620048523
10.985128402709961,-0.5155820250511169,-1.1584333181381226,0.9142906665802002,-0.22568577527999878,1.0127084255218506,-0.8758182525634766
11.005192995071411,-0.5036390423774719,-1.1824898719787598,0.8649879097938538,-0.19118176400661469,1.0076454877853394,-0.8680475950241089
11.025331497192383,-0.4997454881668091,-0.993415892124176,0.9362207055091858,-0.31999149918556213,1.0425773859024048,-0.8844432234764099
11.045385122299194,-0.5081382989883423,-1.0761754512786865,0.9214177131652832,-0.29287105798721313,1.0242656469345093,-0.879546046257019
11.065454721450806,-0.518155038356781,-1.1944377422332764,0.9057462811470032,-0.2019844651222229,1.0393850803375244,-0.8724722862243652
11.085616111755371,-0.5062655210494995,-1.043349266052246,0.8941835761070251,-0.2126232534646988,0.9668466448783875,-0.8790220618247986
11.105719804763794,-0.5143944025039673,-1.0518443584442139,0.9362046122550964,-0.2551533877849579,0.9745108485221863,-0.8838983178138733
11.125788450241089,-0.5157435536384583,-1.1927200555801392,0.9062175750732422,-0.21555964648723602,1.012758731842041,-0.8712763786315918
11.146313667297363,-0.5358192920684814,-0.9837520718574524,0.8976748585700989,-0.2324337214231491,0.9791569113731384,-0.8816808462142944
11.1664297580719,-0.518907368183136,-1.011540412902832,0.9556682705879211,-0.30413299798965454,1.0140557289123535,-0.8818408846855164
11.186481952667236,-0.5135431885719299,-1.1593918800354004,0.9081088900566101,-0.23585335910320282,0.9859799742698669,-0.8737246990203857
11.206593990325928,-0.5072584748268127,-1.2037782669067383,0.870412290096283,-0.17928500473499298,1.0008678436279297,-0.8668283224105835
11.226661205291748,-0.5007604360580444,-0.9629936814308167,0.908284604549408,-0.26553577184677124,1.0064202547073364,-0.8818591237068176
11.246732950210571,-0.5093909502029419,-1.003028392791748,0.9426037073135376,-0.3019210994243622,1.0225951671600342,-0.8841976523399353
11.2670316696167,-0.5185471773147583,-1.1032984256744385,0.9186039566993713,-0.2232767641544342,1.0451228618621826,-0.87911456823349
11.287117719650269,-0.536838710308075,-1.2737689018249512,0.9094472527503967,-0.15013445913791656,0.9947885870933533,-0.8651763796806335
11.30721926689148,-0.5039499402046204,-1.1097118854522705,0.9078324437141418,-0.2084382325410843,0.9817283749580383,-0.8743789792060852
11.327254056930542,-0.5149269104003906,-1.0478887557983398,0.9477184414863586,-0.2964150309562683,0.9971405863761902,-0.8801615238189697
11.347347259521484,-0.5167629718780518,-1.127307415008545,0.9225344061851501,-0.2585107684135437,1.023168683052063,-0.8758195638656616
11.367437839508057,-0.5140262246131897,-1.1900444030761719,0.8791365027427673,-0.19491742551326752,1.0153416395187378,-0.8693740367889404
11.387489080429077,-0.5257981419563293,-1.002790927886963,0.9590479135513306,-0.25085750222206116,0.9914595484733582,-0.8864364624023438
11.407588243484497,-0.498006135225296,-1.1249592304229736,0.9432666897773743,-0.2699086666107178,1.015369176864624,-0.8785159587860107
11.427674531936646,-0.5242388844490051,-1.1978280544281006,0.8876335024833679,-0.17207704484462738,0.992054283618927,-0.8708299994468689
11.447737216949463,-0.5144636034965515,-1.034240961074829,0.9391955137252808,-0.25189483165740967,1.0117435455322266,-0.8843456506729126
11.467845916748047,-0.5104241967201233,-1.1138582229614258,0.9313153624534607,-0.2618294954299927,1.0233956575393677,-0.8769681453704834
11.487927198410034,-0.5158252716064453,-1.1849249601364136,0.8903290629386902,-0.17967522144317627,1.0221896171569824,-0.8690472841262817
11.507982730865479,-0.50494384765625,-1.0357232093811035,0.9203336834907532,-0.25546154379844666,0.9997319579124451,-0.8781782984733582
11.528072118759155,-0.51526939868927,-0.9657120704650879,0.9664515852928162,-0.3104117810726166,1.0124834775924683,-0.8838781714439392
11.548147201538086,-0.5077367424964905,-1.221102237701416,0.9020216464996338,-0.21214933693408966,1.0247578620910645,-0.8686054944992065
11.568212270736694,-0.5097321271896362,-0.9990429878234863,0.9114157557487488,-0.24572227895259857,0.9805387854576111,-0.8793417811393738
11.588330268859863,-0.48123031854629517,-1.0434160232543945,0.9579498171806335,-0.31108927726745605,1.0326881408691406,-0.8815376162528992
11.608404159545898,-0.5027276277542114,-1.1334028244018555,0.919869601726532,-0.24842636287212372,1.0172686576843262,-0.8754472732543945
11.628498077392578,-0.5232256054878235,-1.1720664501190186,0.8986579775810242,-0.1797088235616684,0.9941536784172058,-0.870370626449585
11.648725748062134,-0.5019129514694214,-1.0006943941116333,0.9167793393135071,-0.2503344714641571,1.006791591644287,-0.8805379867553711
11.668722152709961,-0.5116364359855652,-1.1131384372711182,0.9380421042442322,-0.2764393091201782,1.0076255798339844,-0.8780305981636047
11.688787937164307,-0.5219456553459167,-1.218738079071045,0.889261782169342,-0.16509991884231567,1.010862112045288,-0.8682123422622681
11.708887577056885,-0.5148680210113525,-1.162203073501587,0.8919351696968079,-0.18203513324260712,0.9840772747993469,-0.8698721528053284
11.728951454162598,-0.5008377432823181,-1.0087237358093262,0.9534209966659546,-0.2986918091773987,1.0199123620986938,-0.8833703398704529
11.749022245407104,-0.5144619941711426,-1.1449329853057861,0.928759753704071,-0.22883951663970947,1.0162808895111084,-0.8762903213500977
11.769163131713867,-0.5132414698600769,-1.249004602432251,0.8880580067634583,-0.1844281405210495,1.004961371421814,-0.8661890029907227
11.789224863052368,-0.5008622407913208,-1.092721939086914,0.907091498374939,-0.23984040319919586,0.9942945837974548,-0.8748416900634766
11.80927562713623,-0.5149784684181213,-1.0542770624160767,0.9494215846061707,-0.2868851125240326,1.0188993215560913,-0.8807870149612427
11.829360961914062,-0.5189604163169861,-1.1282448768615723,0.9255879521369934,-0.23532243072986603,1.0150574445724487,-0.8777475953102112
11.849427700042725,-0.5095803141593933,-1.169350504875183,0.8966488242149353,-0.19614486396312714,1.0166621208190918,-0.8711320161819458
11.869555711746216,-0.5102089643478394,-1.045067548751831,0.9394403696060181,-0.24823878705501556,1.0033719539642334,-0.8809302449226379
11.889567136764526,-0.514814019203186,-1.0638227462768555,0.9449917078018188,-0.25921326875686646,1.0113909244537354,-0.8815582990646362
11.909621477127075,-0.510440468788147,-1.2162480354309082,0.9048399329185486,-0.19362013041973114,1.0294065475463867,-0.867434024810791
11.929688453674316,-0.5081566572189331,-0.978314995765686,0.9237255454063416,-0.2677263915538788,1.0053318738937378,-0.8839808702468872
11.94975209236145,-0.5093941688537598,-1.0446677207946777,0.9608794450759888,-0.3176730275154114,1.0251023769378662,-0.8795477747917175
11.969838380813599,-0.5143181681632996,-1.1622352600097656,0.9138659834861755,-0.2176034301519394,1.0138194561004639,-0.8744961619377136
11.989914178848267,-0.5054318904876709,-1.1824946403503418,0.8871767520904541,-0.18987181782722473,0.9914448857307434,-0.8701400756835938
12.009980916976929,-0.502151370048523,-1.0078730583190918,0.9347071647644043,-0.26871025562286377,0.999830424785614,-0.880644679069519
12.030069828033447,-0.514025866985321,-1.0528509616851807,0.9463394284248352,-0.2709602415561676,1.0182855129241943,-0.8845726251602173
12.05013132095337,-0.5158417224884033,-1.227212905883789,0.9085791707038879,-0.18547718226909637,1.018676996231079,-0.870473325252533
12.070209264755249,-0.5313202738761902,-1.2081871032714844,0.9096847176551819,-0.15643881261348724,0.9904366135597229,-0.8688094615936279
12.09034776687622,-0.6722357869148254,-0.9526647329330444,1.0005944967269897,-0.3460119664669037,1.0114781856536865,-0.9433144330978394
12.110351324081421,-0.6727747917175293,-1.0004780292510986,1.0053138732910156,-0.3687511682510376,1.049694538116455,-0.9420201778411865
12.130443096160889,-0.6815024018287659,-1.0423789024353027,0.9945127367973328,-0.32626238465309143,1.0456008911132812,-0.9411017894744873
12.150516271591187,-0.6474083065986633,-1.1199259757995605,0.9458403587341309,-0.29915231466293335,1.0574092864990234,-0.9338061213493347
12.17057180404663,-0.5842319130897522,-1.138312578201294,0.9184803366661072,-0.3626854121685028,1.095354437828064,-0.938626766204834
12.19078278541565,-0.5963588953018188,-1.1312437057495117,0.9139040112495422,-0.35933059453964233,1.0984148979187012,-0.9396120309829712
12.210787534713745,-0.5971828699111938,-1.1036815643310547,0.9040740132331848,-0.3750109076499939,1.1382617950439453,-0.9425756931304932
12.231065034866333,-0.6053219437599182,-1.0892893075942993,0.9041857719421387,-0.37127816677093506,1.1367597579956055,-0.9457751512527466
12.251173973083496,-0.6218593716621399,-1.0881236791610718,0.9069563746452332,-0.3485742211341858,1.1373493671417236,-0.9485206604003906
12.271236896514893,-0.6218032240867615,-1.169518232345581,0.9057491421699524,-0.3132839798927307,1.1125906705856323,-0.9438558220863342
12.291476249694824,-0.6455568671226501,-1.177909016609192,0.9217442870140076,-0.29185551404953003,1.0669960975646973,-0.9459524750709534
12.311563491821289,-0.6618979573249817,-1.0148299932479858,0.9480203986167908,-0.34036874771118164,1.0631380081176758,-0.9580680131912231
12.331635236740112,-0.655929446220398,-1.134175181388855,0.9375755190849304,-0.33025112748146057,1.0842633247375488,-0.9521698355674744
12.351993799209595,-0.643894612789154,-1.1411705017089844,0.9122110605239868,-0.3136201500892639,1.0900061130523682,-0.9490034580230713
12.372087001800537,-0.6229252815246582,-1.098349928855896,0.905177652835846,-0.3655080497264862,1.1110336780548096,-0.9520824551582336
12.392168998718262,-0.673626184463501,-1.0737485885620117,0.9483979940414429,-0.3533957600593567,1.0906522274017334,-0.9599499106407166
12.412227869033813,-0.6416706442832947,-1.2004287242889404,0.8964017033576965,-0.32510876655578613,1.1353737115859985,-0.948907732963562
12.43233871459961,-0.6728949546813965,-1.141258716583252,0.8991625308990479,-0.3129749298095703,1.0962508916854858,-0.9520972371101379
12.452402114868164,-0.6634768843650818,-1.0111684799194336,0.9436035752296448,-0.40047168731689453,1.125649333000183,-0.9675437211990356
12.472450256347656,-0.6686410307884216,-1.145226001739502,0.9247507452964783,-0.3283662796020508,1.1266298294067383,-0.9595780968666077
12.492544889450073,-0.6849940419197083,-1.1748450994491577,0.9221392869949341,-0.2831040024757385,1.0920259952545166,-0.9576716423034668
12.512627363204956,-0.6371768712997437,-0.959104061126709,0.9220044016838074,-0.4016474783420563,1.1244109869003296,-0.9697564840316772
12.532700538635254,-0.6438353657722473,-1.0272388458251953,0.9406375288963318,-0.4126424789428711,1.1574851274490356,-0.9713587760925293
12.552840232849121,-0.6901706457138062,-1.0443415641784668,0.9353252053260803,-0.3637431263923645,1.1300272941589355,-0.971026599407196
12.572928190231323,-0.6679549217224121,-1.1931462287902832,0.91225665807724,-0.3144185543060303,1.1509989500045776,-0.9578733444213867
12.593011379241943,-0.6667426824569702,-0.9814468026161194,0.9253096580505371,-0.37827128171920776,1.113537073135376,-0.9737080335617065
12.613283395767212,-0.6670211553573608,-1.0530227422714233,0.9392645955085754,-0.3998475670814514,1.1266534328460693,-0.9731342792510986
12.63336181640625,-0.6827825903892517,-1.131540298461914,0.9246834516525269,-0.3519873321056366,1.1433558464050293,-0.9688246250152588
12.653433561325073,-0.690203845500946,-1.2013018131256104,0.9124028086662292,-0.2820586860179901,1.102970838546753,-0.9598835706710815
12.673716306686401,-0.6997082233428955,-0.9108428955078125,0.9561172127723694,-0.39994436502456665,1.0987814664840698,-0.9860256314277649
12.693804502487183,-0.6882397532463074,-0.9941834807395935,0.9608507752418518,-0.4070987105369568,1.1230251789093018,-0.9806860685348511
12.713876485824585,-0.6888541579246521,-1.1139893531799316,0.9376501441001892,-0.34099751710891724,1.1488059759140015,-0.9722466468811035
12.734074354171753,-0.6834495067596436,-1.1730600595474243,0.9039130210876465,-0.2973123788833618,1.127086877822876,-0.9615302085876465
12.75416088104248,-0.6656578183174133,-1.0513176918029785,0.9083582758903503,-0.36696699261665344,1.135254144668579,-0.9706128835678101
12.774229764938354,-0.6939030289649963,-1.0867738723754883,0.9548493027687073,-0.4128059148788452,1.1444900035858154,-0.9740726351737976
12.794318675994873,-0.671522319316864,-1.1244831085205078,0.9194574952125549,-0.37840789556503296,1.1685271263122559,-0.9692865610122681
12.814404487609863,-0.7019843459129333,-1.1070935726165771,0.9021672606468201,-0.3185995817184448,1.1360687017440796,-0.9711581468582153
12.834534645080566,-0.7082603573799133,-1.0831665992736816,0.973512589931488,-0.34539493918418884,1.0972169637680054,-0.9782018065452576
12.854866743087769,-0.674096405506134,-1.1574466228485107,0.910088837146759,-0.35075289011001587,1.1161441802978516,-0.9705907106399536
12.874961137771606,-0.694902241230011,-1.0439872741699219,0.8936019539833069,-0.3293240964412689,1.1116650104522705,-0.9774029850959778
12.895024299621582,-0.7070419192314148,-0.9894587397575378,0.9888265132904053,-0.411933571100235,1.1546485424041748,-0.9823375940322876
12.91539454460144,-0.6967853903770447,-1.145108699798584,0.9268270134925842,-0.32881250977516174,1.146247386932373,-0.9703943133354187
12.93548035621643,-0.6791091561317444,-1.136688232421875,0.8960598111152649,-0.3231392502784729,1.163225769996643,-0.9686912298202515
12.955575227737427,-0.6927878260612488,-0.949137806892395,0.928916871547699,-0.4007249176502228,1.1482622623443604,-0.9811216592788696
12.975621700286865,-0.6876068115234375,-1.0513052940368652,0.9380385279655457,-0.41199108958244324,1.1777920722961426,-0.9794930219650269
12.995737314224243,-0.6897544264793396,-1.1127021312713623,0.9134437441825867,-0.3562026619911194,1.1705126762390137,-0.9747166633605957
13.015808582305908,-0.6934115290641785,-1.161524772644043,0.8995328545570374,-0.3057037591934204,1.1157764196395874,-0.9698525667190552
13.035884618759155,-0.690891444683075,-0.9518623948097229,0.9510216116905212,-0.42869246006011963,1.1422028541564941,-0.9884279370307922
13.055959224700928,-0.7078902125358582,-0.9703365564346313,0.952308714389801,-0.41349294781684875,1.1134803295135498,-0.9871388673782349
13.076040029525757,-0.7065331935882568,-1.0961308479309082,0.9384097456932068,-0.34177181124687195,1.1433510780334473,-0.9804752469062805
13.09609079360962,-0.6906778216362,-1.1555113792419434,0.9037018418312073,-0.3122106194496155,1.1339117288589478,-0.9691649675369263
13.116239309310913,-0.6815803647041321,-0.961669921875,0.8984944224357605,-0.3717694580554962,1.1293941736221313,-0.9827059507369995
13.136343002319336,-0.6855261325836182,-1.0029034614562988,0.9506984353065491,-0.4532832205295563,1.1749426126480103,-0.9818729162216187
13.156384229660034,-0.6815360188484192,-1.1622874736785889,0.8937932848930359,-0.3592676818370819,1.2015862464904785,-0.9705020189285278
13.176477670669556,-0.6907570362091064,-1.233668565750122,0.8968175053596497,-0.3067919611930847,1.173147201538086,-0.9650955200195312
13.196532011032104,-0.6973457932472229,-1.1079537868499756,0.9171872735023499,-0.34724563360214233,1.126542568206787,-0.9781967401504517
13.216592073440552,-0.7008440494537354,-1.003267765045166,0.9355090260505676,-0.412236750125885,1.1398563385009766,-0.9863100647926331
13.23677921295166,-0.7036312222480774,-1.0765737295150757,0.9317306876182556,-0.3828513026237488,1.1540000438690186,-0.9829115867614746
13.256864547729492,-0.7123137712478638,-1.1925630569458008,0.9087865948677063,-0.27681630849838257,1.1313090324401855,-0.970040500164032
13.276946783065796,-0.7025850415229797,-0.993357241153717,0.92632657289505,-0.3856905400753021,1.1341465711593628,-0.9880754947662354
13.297301530838013,-0.7000787854194641,-1.1597471237182617,0.9312439560890198,-0.33942535519599915,1.1657607555389404,-0.9752457141876221
13.317381858825684,-0.6910094618797302,-1.0884729623794556,0.8723753690719604,-0.324607789516449,1.1560492515563965,-0.977041482925415
13.337506294250488,-0.7049037218093872,-0.94244784116745,0.9423269033432007,-0.42489561438560486,1.177488088607788,-0.9888303279876709
13.357772827148438,-0.7103930115699768,-1.113563060760498,0.9504632353782654,-0.3380260467529297,1.1646299362182617,-0.9785416126251221
13.377867937088013,-0.6704522967338562,-1.1485201120376587,0.8468759655952454,-0.3297959864139557,1.1400805711746216,-0.9725953936576843
13.397940397262573,-0.681428849697113,-1.0128343105316162,0.9008016586303711,-0.39563697576522827,1.1396968364715576,-0.983571469783783
13.418001890182495,-0.716672956943512,-1.1335325241088867,0.9422537684440613,-0.37078383564949036,1.1483964920043945,-0.9790388345718384
13.438090324401855,-0.6988170742988586,-1.2073240280151367,0.9184146523475647,-0.3158912658691406,1.1717782020568848,-0.9707981944084167
13.458223581314087,-0.6960898637771606,-0.983357846736908,0.8923134803771973,-0.38953888416290283,1.1406673192977905,-0.9825740456581116
13.478232383728027,-0.717933177947998,-1.1837799549102783,0.9663817882537842,-0.3664632737636566,1.1536884307861328,-0.9759633541107178
13.49847412109375,-0.7064405679702759,-1.1821823120117188,0.923948347568512,-0.325933575630188,1.1553285121917725,-0.972317099571228
13.518542051315308,-0.6973758339881897,-1.0806511640548706,0.8255600333213806,-0.3513537645339966,1.1054208278656006,-0.9781318306922913
13.53864598274231,-0.725714385509491,-0.8781144618988037,1.0146121978759766,-0.443445086479187,1.1684322357177734,-0.9939124584197998
13.558687925338745,-0.7085662484169006,-1.0455424785614014,0.9533197283744812,-0.3772270083427429,1.1775543689727783,-0.9872957468032837
13.578788757324219,-0.7124055624008179,-1.1489297151565552,0.924116849899292,-0.31741422414779663,1.163555383682251,-0.976234495639801
13.598947048187256,-0.6889735460281372,-1.0384340286254883,0.8454588055610657,-0.3314773142337799,1.1070046424865723,-0.9815340042114258
13.6189603805542,-0.700524628162384,-0.933622419834137,0.9766308069229126,-0.4603363871574402,1.1788372993469238,-0.9885571002960205
13.639103889465332,-0.7070598006248474,-1.0927326679229736,0.9462282657623291,-0.383929580450058,1.2003560066223145,-0.9816697835922241
13.659141540527344,-0.6955385804176331,-1.1195497512817383,0.8663230538368225,-0.34659433364868164,1.1722445487976074,-0.9748275876045227
13.67919635772705,-0.7086173892021179,-0.9983869791030884,0.9344961047172546,-0.38968366384506226,1.1450433731079102,-0.9867878556251526
13.699328184127808,-0.7108448147773743,-1.0194822549819946,0.9354869723320007,-0.39026281237602234,1.144333839416504,-0.9873168468475342
13.719408512115479,-0.699409544467926,-1.1695640087127686,0.8906422257423401,-0.32915106415748596,1.159168004989624,-0.975437343120575
13.739610433578491,-0.7103056311607361,-0.9440463781356812,0.9037774205207825,-0.3872392177581787,1.1439180374145508,-0.9878062009811401
13.759753227233887,-0.6927648186683655,-1.0541101694107056,0.9257153868675232,-0.43016743659973145,1.1681264638900757,-0.9826250672340393
13.779776811599731,-0.7091876864433289,-1.1007106304168701,0.8956644535064697,-0.33878278732299805,1.1642389297485352,-0.9792894124984741
13.799885749816895,-0.696726381778717,-1.0494213104248047,0.8879842162132263,-0.3721846640110016,1.1556305885314941,-0.9784730672836304
13.820023536682129,-0.7001800537109375,-0.9214026927947998,0.9171891808509827,-0.4223611056804657,1.1592415571212769,-0.9902774691581726
13.840095043182373,-0.71026611328125,-1.0670595169067383,0.9184284806251526,-0.38889002799987793,1.1666055917739868,-0.9847437143325806
13.860150575637817,-0.7049014568328857,-1.1015326976776123,0.8959315419197083,-0.3346242308616638,1.1639001369476318,-0.9784436225891113
13.880236148834229,-0.7031565308570862,-1.071151614189148,0.8938313722610474,-0.35374167561531067,1.1421244144439697,-0.9800870418548584
13.900344610214233,-0.7086681723594666,-1.0158886909484863,0.9178130030632019,-0.3988855183124542,1.1535521745681763,-0.986021876335144
13.920400619506836,-0.7060069441795349,-1.2417793273925781,0.9018994569778442,-0.31115928292274475,1.161501169204712,-0.9675068855285645
13.94051742553711,-0.6960482001304626,-1.1613318920135498,0.8662964105606079,-0.3252476453781128,1.139611005783081,-0.9692356586456299
13.960620880126953,-0.71168053150177,-0.9633761048316956,0.9164667725563049,-0.42042040824890137,1.1466631889343262,-0.9888501763343811
13.980659484863281,-0.7157516479492188,-1.1003034114837646,0.9190673232078552,-0.3659558594226837,1.1664550304412842,-0.9819915294647217
14.000754117965698,-0.707928478717804,-1.217151403427124,0.897053599357605,-0.31968119740486145,1.1554648876190186,-0.9708327651023865
14.020838737487793,-0.7026917338371277,-1.0735199451446533,0.8763250708580017,-0.3455471694469452,1.1375561952590942,-0.9764189720153809
14.040898323059082,-0.710679829120636,-0.9493105411529541,0.9137677550315857,-0.4288448691368103,1.1585910320281982,-0.9878203272819519
14.060989141464233,-0.7154253125190735,-1.144885778427124,0.9283367395401001,-0.38179779052734375,1.1658146381378174,-0.9779029488563538
14.081066846847534,-0.6965523362159729,-1.009766936302185,0.8501691222190857,-0.34850162267684937,1.1755738258361816,-0.9769823551177979
14.101127624511719,-0.7147500514984131,-1.0362309217453003,0.9538707137107849,-0.41948145627975464,1.1626825332641602,-0.9815717339515686
14.121257543563843,-0.7254970669746399,-0.9731702208518982,0.9604591727256775,-0.40274572372436523,1.1721265316009521,-0.9878150224685669
14.141440391540527,-0.7024309635162354,-1.1488752365112305,0.8584744930267334,-0.36113908886909485,1.134790062904358,-0.97597336769104
14.161539077758789,-0.7150989174842834,-1.0469913482666016,0.8899784088134766,-0.3577973544597626,1.1360763311386108,-0.9837689399719238
14.18199372291565,-0.7175223231315613,-0.912514865398407,0.9258390069007874,-0.44529449939727783,1.1546235084533691,-0.9931683540344238
14.202083826065063,-0.7165868878364563,-1.0179591178894043,0.9170321822166443,-0.40907829999923706,1.156294822692871,-0.9874252676963806
14.222154140472412,-0.7106529474258423,-1.1019210815429688,0.8898029923439026,-0.33272647857666016,1.1785870790481567,-0.9775593280792236
14.242220878601074,-0.7010508179664612,-0.9906888604164124,0.8777854442596436,-0.3838147521018982,1.1441348791122437,-0.9823906421661377
14.262309789657593,-0.7088956236839294,-0.8919358849525452,0.906355082988739,-0.4414290189743042,1.1503922939300537,-0.9908061027526855
14.282400608062744,-0.6956521272659302,-1.0554559230804443,0.9029712677001953,-0.41738128662109375,1.1939754486083984,-0.9807620048522949
14.302458763122559,-0.7066863775253296,-1.1338012218475342,0.8668320775032043,-0.32317593693733215,1.1580562591552734,-0.9709376096725464
14.322641849517822,-0.7202087640762329,-0.9896020293235779,0.8819201588630676,-0.36331403255462646,1.1271662712097168,-0.9832321405410767
14.342643022537231,-0.7099789977073669,-1.1020511388778687,0.9285455346107483,-0.4178077280521393,1.1435428857803345,-0.9792535305023193
14.362698078155518,-0.7161726355552673,-1.0625848770141602,0.8770879507064819,-0.3279263377189636,1.1530282497406006,-0.9815531969070435
14.382817268371582,-0.71392422914505,-1.0159544944763184,0.8696820735931396,-0.35687190294265747,1.1358191967010498,-0.9810885787010193
14.402889490127563,-0.7155115008354187,-1.0150926113128662,0.9265514016151428,-0.4042890667915344,1.1793358325958252,-0.9863462448120117
14.422972917556763,-0.6971288323402405,-1.212019443511963,0.8538943529129028,-0.32015103101730347,1.1640589237213135,-0.9630966186523438
14.443117618560791,-0.684137761592865,-1.0106785297393799,0.8706710338592529,-0.4409058094024658,1.1758630275726318,-0.9830752611160278
14.46321415901184,-0.7491645216941833,-1.0096001625061035,0.9770186543464661,-0.41888564825057983,1.1278564929962158,-0.984560489654541
14.483295202255249,-0.7224480509757996,-1.0595545768737793,0.9331524968147278,-0.38759133219718933,1.1953604221343994,-0.9805634021759033
14.503778219223022,-0.7163773775100708,-1.187751054763794,0.8480270504951477,-0.28875523805618286,1.1080378293991089,-0.9680216312408447
14.5238676071167,-0.6834807395935059,-0.9048595428466797,0.8518776893615723,-0.39393743872642517,1.1356834173202515,-0.9847317337989807
14.543943881988525,-0.7227451801300049,-0.9712611436843872,0.9277663826942444,-0.410226970911026,1.1201766729354858,-0.9874942898750305
14.564016580581665,-0.7055676579475403,-1.1175493001937866,0.8815556764602661,-0.3542273938655853,1.1712646484375,-0.9759280681610107
14.584100484848022,-0.7021098136901855,-1.0984556674957275,0.8718494772911072,-0.3492392897605896,1.1853601932525635,-0.9726303815841675
14.604182720184326,-0.7058625221252441,-0.9137205481529236,0.8962882161140442,-0.45285946130752563,1.1694016456604004,-0.9874753952026367
14.624239921569824,-0.6817615628242493,-1.1512088775634766,0.8838567137718201,-0.38584092259407043,1.1903183460235596,-0.9730278253555298
14.644336700439453,-0.7073694467544556,-0.944853663444519,0.8480337262153625,-0.37126442790031433,1.1683337688446045,-0.9854044914245605
14.664414167404175,-0.7138611674308777,-1.0653300285339355,0.9355139136314392,-0.4059261381626129,1.1610915660858154,-0.9808085560798645
14.684481620788574,-0.7198306322097778,-1.0391205549240112,0.9016434550285339,-0.3773864507675171,1.1507320404052734,-0.98476243019104
