liuyurong129/humanoid-gym/humanoid/data/target_q_20250523-024604.csv
timestamp,joint_1,joint_2,joint_3,joint_4,joint_5,joint_6
0.0006232261657714844,0.0,0.0,0.0,0.0,0.0,0.0
0.02069091796875,0.0,0.0,0.0,0.0,0.0,0.0
0.04075932502746582,0.0,0.0,0.0,0.0,0.0,0.0
0.06082034111022949,0.1228998675942421,-0.09922762215137482,0.4918740391731262,-0.32345104217529297,0.04307343810796738,0.32862547039985657
0.08101248741149902,0.06258487701416016,-0.6237227320671082,0.4947625994682312,-0.24859954416751862,-4.721619188785553e-05,0.24072261154651642
0.10110783576965332,0.05948086082935333,-0.8569783568382263,0.5458657741546631,-0.26571065187454224,0.010236090049147606,0.2138381153345108
0.1213080883026123,0.05730116367340088,-1.2409604787826538,0.632785439491272,-0.24128688871860504,0.039754368364810944,0.21712689101696014
0.14131379127502441,0.037073440849781036,-1.518918514251709,0.6946470737457275,-0.20987318456172943,0.05094609409570694,0.20923922955989838
0.1614532470703125,0.012011995539069176,-1.7245374917984009,0.7436112761497498,-0.17631526291370392,0.05664583295583725,0.2029658555984497
0.18153667449951172,-0.015609735623002052,-1.8577234745025635,0.7301758527755737,-0.10581640899181366,0.04718685895204544,0.191402405500412
0.20161104202270508,-0.025001460686326027,-1.9761613607406616,0.7553200721740723,-0.07529830932617188,0.04626969248056412,0.18947918713092804
0.2216794490814209,-0.02727731503546238,-2.019566059112549,0.7656325101852417,-0.06707842648029327,0.04586384445428848,0.1875980645418167
0.241790771484375,-0.012639189139008522,-1.9671756029129028,0.8179186582565308,-0.11282046139240265,0.05342559516429901,0.19818821549415588
0.26189398765563965,-0.019603604450821877,-1.9861940145492554,0.7989574670791626,-0.08349528908729553,0.048742957413196564,0.1957463175058365
0.2819392681121826,-0.026258373633027077,-2.025653839111328,0.781008243560791,-0.06829294562339783,0.04616275429725647,0.19023855030536652
0.30205512046813965,-0.024042362347245216,-2.0323119163513184,0.7949330806732178,-0.08311757445335388,0.05024275183677673,0.1903698593378067
0.3221409320831299,-0.0311638955026865,-2.0659542083740234,0.7715392112731934,-0.055642787367105484,0.04668562859296799,0.1866958737373352
0.3422706127166748,-0.031017059460282326,-2.0602378845214844,0.772113561630249,-0.05262380465865135,0.04478888213634491,0.18735335767269135
0.3623363971710205,-0.03056984581053257,-2.043344020843506,0.7785528898239136,-0.05839310213923454,0.04540672153234482,0.18815264105796814
0.38248562812805176,-0.030682945623993874,-2.021954298019409,0.7748254537582397,-0.06681418418884277,0.04676838219165802,0.18755578994750977
0.4025766849517822,-0.02018674649298191,-1.9665337800979614,0.8077692985534668,-0.10194678604602814,0.05005374550819397,0.1938782036304474
0.42267346382141113,-0.02273237146437168,-1.9529179334640503,0.8022844791412354,-0.10322369635105133,0.05113881826400757,0.1928786188364029
0.4427921772003174,-0.02843167819082737,-1.9642349481582642,0.7748903036117554,-0.08048342168331146,0.0454227477312088,0.1896040439605713
0.46279406547546387,-0.028482699766755104,-1.9579297304153442,0.7796895503997803,-0.07970370352268219,0.04607703536748886,0.19127115607261658
0.48289966583251953,-0.028571004047989845,-1.9363285303115845,0.7817978262901306,-0.08972764015197754,0.04971196502447128,0.19160430133342743
0.5029308795928955,-0.029805803671479225,-1.928850531578064,0.7738365530967712,-0.08081291615962982,0.04472088813781738,0.19095087051391602
0.5229737758636475,-0.02887081541121006,-1.901633381843567,0.7729865908622742,-0.089067742228508,0.04636434465646744,0.1915576010942459
0.5430216789245605,-0.019543522968888283,-1.846617341041565,0.8018404245376587,-0.12084855139255524,0.04880025237798691,0.19711221754550934
0.5631089210510254,-0.017158934846520424,-1.8018776178359985,0.8033853769302368,-0.13695044815540314,0.05278203636407852,0.19925172626972198
0.5831778049468994,-0.017118478193879128,-1.768854022026062,0.7997292280197144,-0.14007358253002167,0.0506175234913826,0.20009829103946686
0.6032333374023438,-0.017738575115799904,-1.739912748336792,0.7914175987243652,-0.1416705995798111,0.04865853488445282,0.19963160157203674
0.6233222484588623,-0.024078572168946266,-1.74173104763031,0.7710409164428711,-0.12188632786273956,0.044912539422512054,0.196659117937088
0.6434330940246582,-0.023298943415284157,-1.7072559595108032,0.7598311901092529,-0.13040195405483246,0.04558422416448593,0.19555909931659698
0.663485050201416,-0.023692423477768898,-1.6714147329330444,0.7606221437454224,-0.12804506719112396,0.0428592711687088,0.19792650640010834
0.6835198402404785,-0.022408390417695045,-1.6239378452301025,0.7493351697921753,-0.13504625856876373,0.04241024702787399,0.1975020468235016
0.703855037689209,-0.0013751480728387833,-1.5197654962539673,0.8062282800674438,-0.19115976989269257,0.04973531514406204,0.21390388906002045
0.7238509654998779,0.013677870854735374,-1.4083906412124634,0.811357855796814,-0.2248079478740692,0.05395584553480148,0.222733274102211
0.7439274787902832,0.039058126509189606,-1.2349492311477661,0.8213024139404297,-0.2540576159954071,0.053439415991306305,0.23660908639431
0.7639772891998291,-0.0005448255687952042,-1.262316107749939,0.7097975015640259,-0.1789036989212036,0.021404733881354332,0.2009880691766739
0.7840731143951416,0.022617584094405174,-1.0449987649917603,0.6930721998214722,-0.22980569303035736,0.011991089209914207,0.2038803994655609
0.8041470050811768,0.05970785766839981,-0.7080124616622925,0.6887379288673401,-0.27605414390563965,-0.0029702279716730118,0.21671859920024872
0.824225902557373,0.08637098968029022,-0.311857134103775,0.6419948935508728,-0.3164052665233612,-0.02394404448568821,0.22399668395519257
0.8443088531494141,0.11180765181779861,-0.0674307644367218,0.7038267850875854,-0.30474334955215454,-0.02030923403799534,0.26093602180480957
0.8643779754638672,0.07942849397659302,0.17,0.5885640382766724,-0.2935134470462799,-0.04901880770921707,0.2588149905204773
0.8844301700592041,0.08068502694368362,0.17,0.5419244170188904,-0.3192019462585449,-0.05191584676504135,0.25983792543411255
0.9046626091003418,0.09711404889822006,0.17,0.5405251979827881,-0.3240997791290283,-0.06891914457082748,0.2683431804180145
0.924750804901123,0.10660967975854874,0.17,0.5383927226066589,-0.32873034477233887,-0.075035460293293,0.2703193426132202
0.9448258876800537,0.12839365005493164,0.17,0.5603888034820557,-0.32078874111175537,-0.09100579470396042,0.27431032061576843
0.964881181716919,0.14405611157417297,0.17,0.5781862735748291,-0.3113257884979248,-0.1019737496972084,0.2768275737762451
0.98492431640625,0.15015669167041779,0.17,0.5814985036849976,-0.3080412745475769,-0.10724636167287827,0.27764761447906494
1.0050551891326904,0.14721941947937012,0.17,0.5772795677185059,-0.30567216873168945,-0.10575246065855026,0.27850982546806335
1.0251445770263672,0.1488686054944992,0.17,0.5779879689216614,-0.31666094064712524,-0.10257642716169357,0.2782731056213379
1.0451714992523193,0.14528971910476685,0.17,0.5687077045440674,-0.3224164843559265,-0.1001364216208458,0.2774465084075928
1.065256118774414,0.14671342074871063,0.17,0.5702381134033203,-0.32130712270736694,-0.10159831494092941,0.2776269316673279
1.0853562355041504,0.14583554863929749,0.17,0.5687415599822998,-0.3193913698196411,-0.10157572478055954,0.2782280445098877
1.1053893566131592,0.14666302502155304,0.17,0.576725959777832,-0.3105190098285675,-0.1038609966635704,0.2798193097114563
1.1254355907440186,0.1481911838054657,0.17,0.5766476392745972,-0.3119618892669678,-0.1047513410449028,0.27946987748146057
1.145524024963379,0.14601628482341766,0.17,0.5746243000030518,-0.3145431876182556,-0.10253318399190903,0.279598593711853
1.1656012535095215,0.14523901045322418,0.17,0.5696207284927368,-0.3180139362812042,-0.1012805625796318,0.27936020493507385
1.1856544017791748,0.14451348781585693,0.17,0.5717053413391113,-0.3144698441028595,-0.1021590456366539,0.28019648790359497
1.2057654857635498,0.14001254737377167,0.17,0.5597774982452393,-0.3166046738624573,-0.10258398205041885,0.2797781825065613
1.2258570194244385,0.14262822270393372,0.17,0.5699253082275391,-0.31149613857269287,-0.10484368354082108,0.2810664176940918
1.2459580898284912,0.14532595872879028,0.17,0.5700461864471436,-0.3097987174987793,-0.10322435945272446,0.2816322445869446
1.2661583423614502,0.1464768350124359,0.17,0.5735772848129272,-0.3131675124168396,-0.1032264456152916,0.28119227290153503
1.2863273620605469,0.14557071030139923,0.17,0.567139744758606,-0.31309089064598083,-0.10174640268087387,0.2818717360496521
1.30643892288208,0.14510858058929443,0.17,0.5663561820983887,-0.309631884098053,-0.1044749990105629,0.28214171528816223
1.3265156745910645,0.14482618868350983,0.17,0.5670356750488281,-0.3117262125015259,-0.10386570543050766,0.2830464541912079
1.3465609550476074,0.1456376612186432,0.17,0.5671784281730652,-0.31364887952804565,-0.10573785752058029,0.28291988372802734
1.3666257858276367,0.14278915524482727,0.17,0.5661136507987976,-0.3044584393501282,-0.1114048883318901,0.28390195965766907
1.3867192268371582,0.14293798804283142,0.17,0.5655517578125,-0.3051324486732483,-0.10795935243368149,0.2843960225582123
1.4068090915679932,0.1439560502767563,0.17,0.5650519132614136,-0.3148213028907776,-0.10230346769094467,0.28388309478759766
1.426927089691162,0.1444990634918213,0.17,0.5633995532989502,-0.30660924315452576,-0.10618620365858078,0.2843826413154602
1.4470126628875732,0.14367243647575378,0.17,0.5626673698425293,-0.3108786344528198,-0.10436145216226578,0.2841431498527527
1.467048168182373,0.14311853051185608,0.17,0.5592949390411377,-0.3080415725708008,-0.10451855510473251,0.2850189208984375
1.4870686531066895,0.1415579915046692,0.17,0.5559645891189575,-0.3184439241886139,-0.1011938527226448,0.28410667181015015
1.5071263313293457,0.14253418147563934,0.17,0.5584316253662109,-0.31453579664230347,-0.104522205889225,0.2842455506324768
1.527221918106079,0.13971418142318726,0.17,0.5567806959152222,-0.3131140470504761,-0.10347781330347061,0.28531667590141296
1.547365427017212,0.14342553913593292,0.17,0.5612672567367554,-0.3173965513706207,-0.10473675280809402,0.2846216559410095
1.56736421585083,0.14424541592597961,0.17,0.5591960549354553,-0.3115532398223877,-0.10488385707139969,0.28600865602493286
1.58760404586792,0.1436111330986023,0.17,0.5606715679168701,-0.3091591000556946,-0.10599964112043381,0.2864130735397339
1.6076898574829102,0.14023488759994507,0.17,0.5519201755523682,-0.316134512424469,-0.1018298789858818,0.28695738315582275
1.6278316974639893,0.14196878671646118,0.17,0.5533362627029419,-0.31724652647972107,-0.10390873998403549,0.28665006160736084
1.6479134559631348,0.14167587459087372,0.17,0.5540879964828491,-0.31244349479675293,-0.10508748143911362,0.2876896858215332
1.6680176258087158,0.14176446199417114,0.17,0.5558236837387085,-0.31104645133018494,-0.10519983619451523,0.28793054819107056
1.6880903244018555,0.13889014720916748,0.17,0.5508356094360352,-0.31311291456222534,-0.10463262349367142,0.28767475485801697
1.708186149597168,0.13922977447509766,0.17,0.5536901354789734,-0.3086715638637543,-0.10551416128873825,0.2890337109565735
1.7282052040100098,0.14133068919181824,0.17,0.553642988204956,-0.302364706993103,-0.10855089873075485,0.28951460123062134
1.748321533203125,0.14392714202404022,0.17,0.5559122562408447,-0.309601366519928,-0.1070314571261406,0.2890664339065552
1.7684271335601807,0.1422824263572693,0.17,0.5531984567642212,-0.3036983013153076,-0.10947488993406296,0.28913384675979614
1.7885453701019287,0.13818363845348358,0.17,0.5458661913871765,-0.3125916123390198,-0.10391556471586227,0.28896287083625793
1.8086040019989014,0.138112872838974,0.17,0.5444000959396362,-0.30979475378990173,-0.1047692522406578,0.28932350873947144
1.8287537097930908,0.14068399369716644,0.17,0.5497855544090271,-0.3086872696876526,-0.10621456056833267,0.2894618511199951
1.8488030433654785,0.13494513928890228,0.17,0.5396496653556824,-0.3195355236530304,-0.10013657063245773,0.28878358006477356
1.8688886165618896,0.1348232626914978,0.17,0.5385570526123047,-0.31638795137405396,-0.10000016540288925,0.29080677032470703
1.8889307975769043,0.1406383067369461,0.17,0.5501330494880676,-0.31032997369766235,-0.10485967248678207,0.29201728105545044
1.9090194702148438,0.13717906177043915,0.17,0.5414024591445923,-0.3089517652988434,-0.10452630370855331,0.2919180393218994
1.9291200637817383,0.1379469633102417,0.17,0.544783353805542,-0.3065447211265564,-0.1069120392203331,0.2923906445503235
1.9492316246032715,0.13816601037979126,0.17,0.543268620967865,-0.3087749779224396,-0.10797380656003952,0.29198652505874634
1.9693269729614258,0.1396912932395935,0.17,0.5478366613388062,-0.3064834475517273,-0.1077481135725975,0.2928011417388916
1.9894464015960693,0.13995708525180817,0.17,0.5441583395004272,-0.3088543117046356,-0.1078181341290474,0.2919831871986389
2.0095057487487793,0.13670235872268677,0.17,0.5439079999923706,-0.3080635964870453,-0.10520457476377487,0.29291069507598877
2.0296289920806885,0.13894841074943542,0.17,0.5466082692146301,-0.30789896845817566,-0.10687517374753952,0.2928093373775482
2.0496394634246826,0.1383965015411377,0.17,0.5429537892341614,-0.3089032769203186,-0.10649090260267258,0.29266196489334106
2.0697758197784424,0.13743317127227783,0.17,0.5425029993057251,-0.307376891374588,-0.10604109615087509,0.2934954762458801
2.0898544788360596,0.13621841371059418,0.17,0.5384127497673035,-0.30975306034088135,-0.10465892404317856,0.2931630611419678
2.109895706176758,0.13435065746307373,0.17,0.5348384380340576,-0.3102734088897705,-0.10285823792219162,0.29383671283721924
2.129967451095581,0.13040228188037872,0.17,0.5254412293434143,-0.3086780905723572,-0.1048453077673912,0.2947350740432739
2.1501450538635254,0.13607551157474518,0.17,0.5375620722770691,-0.3146255910396576,-0.10367006808519363,0.29438263177871704
2.170255184173584,0.1378616988658905,0.17,0.5368319749832153,-0.3024158477783203,-0.1082061156630516,0.29608920216560364
2.1903929710388184,0.13650159537792206,0.17,0.5377569794654846,-0.3081461787223816,-0.10658391565084457,0.296303927898407
2.2104010581970215,0.13580778241157532,0.17,0.537987470626831,-0.30614787340164185,-0.10622968524694443,0.2967158555984497
2.230475902557373,0.1352640986442566,0.17,0.5366079807281494,-0.3081015348434448,-0.1054292842745781,0.29641813039779663
2.2505767345428467,0.1317821443080902,0.17,0.535564661026001,-0.30762815475463867,-0.10747889429330826,0.29685884714126587
2.27062726020813,0.13499748706817627,0.17,0.5314583778381348,-0.3060992956161499,-0.10765153914690018,0.29663148522377014
2.2907164096832275,0.13425302505493164,0.17,0.5304113626480103,-0.304171621799469,-0.10710086673498154,0.29709795117378235
2.3108253479003906,0.1331586390733719,0.17,0.5270949602127075,-0.3056497871875763,-0.10546927899122238,0.2973911464214325
2.330975294113159,0.130511075258255,0.17,0.5178141593933105,-0.30660462379455566,-0.10404165834188461,0.29764384031295776
2.351047992706299,0.1315566450357437,0.17,0.5197176933288574,-0.3067184388637543,-0.10564763098955154,0.29723304510116577
2.3711938858032227,0.13473142683506012,0.17,0.5324022769927979,-0.30518826842308044,-0.10635089129209518,0.29820671677589417
2.39125657081604,0.13364896178245544,0.17,0.5275470018386841,-0.30639010667800903,-0.10694652050733566,0.2979966998100281
2.4114880561828613,0.13253901898860931,0.17,0.5310208797454834,-0.30147549510002136,-0.10754766315221786,0.2988169193267822
2.43151593208313,0.13211090862751007,0.17,0.5289506912231445,-0.3052186667919159,-0.10623013228178024,0.29907581210136414
2.4515678882598877,0.12918680906295776,0.17,0.5169790387153625,-0.30755290389060974,-0.10460387915372849,0.29842132329940796
2.471653938293457,0.13059450685977936,0.17,0.5197141170501709,-0.30825042724609375,-0.10425897687673569,0.29893791675567627
2.4917705059051514,0.1332177072763443,0.17,0.524233341217041,-0.2989797294139862,-0.10837443917989731,0.3007499575614929
2.512463092803955,0.13175058364868164,0.17,0.5242093801498413,-0.30429890751838684,-0.10411014407873154,0.3012102246284485
2.5326294898986816,0.12869280576705933,0.17,0.513703465461731,-0.3040003776550293,-0.10474159568548203,0.3005138635635376
2.552654266357422,0.13010641932487488,0.17,0.5198834538459778,-0.3086252510547638,-0.10410239547491074,0.3005619943141937
2.5727531909942627,0.13067708909511566,0.17,0.524326741695404,-0.3048419952392578,-0.10520540922880173,0.30089765787124634
2.5928335189819336,0.12704603374004364,0.17,0.5160139203071594,-0.30110716819763184,-0.10875242203474045,0.301614373922348
2.612894296646118,0.12957054376602173,0.17,0.5249332785606384,-0.3042791187763214,-0.10714124888181686,0.3017663061618805
2.6329562664031982,0.13124661147594452,0.17,0.5137832164764404,-0.305858850479126,-0.1064181700348854,0.30076828598976135
2.6530864238739014,0.1299401819705963,0.17,0.5199155807495117,-0.2991330325603485,-0.10642918199300766,0.30226731300354004
2.673366069793701,0.12755340337753296,0.17,0.5149158239364624,-0.2999069392681122,-0.10485842078924179,0.3025774359703064
2.6935367584228516,0.1236998662352562,0.17,0.5048577785491943,-0.30357515811920166,-0.10291653126478195,0.30253803730010986
2.713656425476074,0.12494636327028275,0.17,0.5015960931777954,-0.3084093928337097,-0.10119269043207169,0.3021567761898041
2.733736753463745,0.12933850288391113,0.17,0.5187162160873413,-0.2983761429786682,-0.10588821023702621,0.3035367727279663
2.753826856613159,0.12721487879753113,0.17,0.5102442502975464,-0.3027217984199524,-0.10358621925115585,0.30376505851745605
2.773895263671875,0.12686073780059814,0.17,0.5086215734481812,-0.2984822392463684,-0.10533878952264786,0.305139422416687
2.7939422130584717,0.12270114570856094,0.17,0.5032249093055725,-0.303402841091156,-0.10047774761915207,0.30502450466156006
2.814027786254883,0.12311073392629623,0.17,0.5032328963279724,-0.30163466930389404,-0.10161974281072617,0.3050788640975952
2.834106683731079,0.12495654076337814,0.17,0.5050714015960693,-0.30011895298957825,-0.10319220274686813,0.3056069314479828
2.8541784286499023,0.12689757347106934,0.17,0.5101444721221924,-0.2972993850708008,-0.10503428429365158,0.3062368929386139
2.8742222785949707,0.11992485076189041,0.17,0.5029525756835938,-0.2949155867099762,-0.10732953995466232,0.30686622858047485
2.8943119049072266,0.12495265156030655,0.17,0.5087331533432007,-0.30462169647216797,-0.10249733179807663,0.30637338757514954
2.914375066757202,0.1247967854142189,0.17,0.5010485053062439,-0.3004348874092102,-0.10447206348180771,0.3068123161792755
2.9344356060028076,0.12104887515306473,0.17,0.4895508885383606,-0.30568772554397583,-0.09992062300443649,0.3072483241558075
2.9545490741729736,0.1172790452837944,0.17,0.48919278383255005,-0.30294352769851685,-0.09826923161745071,0.3081011176109314
2.974640130996704,0.12182069569826126,0.17,0.5024055242538452,-0.2990225851535797,-0.10157977789640427,0.3079914450645447
2.9947354793548584,0.12091825157403946,0.17,0.4987075626850128,-0.2961457073688507,-0.1038275882601738,0.30865979194641113
3.0148160457611084,0.12102436274290085,0.17,0.4956161081790924,-0.29480117559432983,-0.10139148682355881,0.30906224250793457
3.0349392890930176,0.11511128395795822,0.17,0.47515028715133667,-0.3040565848350525,-0.0951850637793541,0.3083930015563965
3.055011510848999,0.11491163820028305,0.17,0.4810844957828522,-0.29849445819854736,-0.09699023514986038,0.3088805079460144
3.0751991271972656,0.11315012723207474,0.17,0.4749577045440674,-0.3070215582847595,-0.0925234779715538,0.30856630206108093
3.095177412033081,0.11563356220722198,0.17,0.47753381729125977,-0.3031609356403351,-0.09592457860708237,0.3097282350063324
3.115267276763916,0.11514346301555634,0.17,0.48565125465393066,-0.2992948293685913,-0.09664466232061386,0.31016868352890015
3.1354382038116455,0.11548828333616257,0.17,0.4872077703475952,-0.29387733340263367,-0.09810320287942886,0.3112761676311493
3.1554172039031982,0.1117684468626976,0.17,0.4811137020587921,-0.29332253336906433,-0.09893112629652023,0.3114808201789856
3.1754636764526367,0.11113933473825455,0.17,0.48170092701911926,-0.29987087845802307,-0.09571661800146103,0.31117647886276245
3.195549488067627,0.11502093821763992,0.17,0.4870864450931549,-0.2937261760234833,-0.09932603687047958,0.3113590478897095
3.2156167030334473,0.11205678433179855,0.17,0.47916263341903687,-0.29596802592277527,-0.09651511162519455,0.311586856842041
3.2356679439544678,0.11050000041723251,0.17,0.47085997462272644,-0.29537540674209595,-0.0932752713561058,0.31254059076309204
3.256556510925293,0.11214415729045868,0.17,0.48219743371009827,-0.3010495901107788,-0.09288641065359116,0.3122410476207733
3.276660680770874,0.11334580183029175,0.17,0.4863736629486084,-0.2833203375339508,-0.09994464367628098,0.3144541382789612
3.2967231273651123,0.1110767051577568,0.17,0.4785517752170563,-0.2954920530319214,-0.09377523511648178,0.3127690851688385
3.316781759262085,0.11011233925819397,0.17,0.48291659355163574,-0.28975147008895874,-0.09507366269826889,0.31325337290763855
3.3371429443359375,0.10806264728307724,0.17,0.4785233736038208,-0.28882455825805664,-0.09264134615659714,0.3125809133052826
3.3573522567749023,0.10533053427934647,0.17,0.4646998345851898,-0.2915319800376892,-0.08963488787412643,0.312404990196228
3.3773350715637207,0.10089573264122009,0.17,0.46431365609169006,-0.29346609115600586,-0.08264695852994919,0.31234005093574524
3.3974850177764893,0.10024265199899673,0.17,0.46146875619888306,-0.28997164964675903,-0.0826210156083107,0.3118937015533447
3.4175474643707275,0.10276646167039871,0.17,0.47375768423080444,-0.2868671417236328,-0.08555608242750168,0.3115558624267578
3.437624216079712,0.09747949987649918,0.17,0.4758944809436798,-0.27911126613616943,-0.08151040226221085,0.312604695558548
3.4577014446258545,0.09433849900960922,0.17,0.47434893250465393,-0.27987343072891235,-0.07352714985609055,0.31072738766670227
3.477846622467041,0.08982387185096741,0.17,0.48093050718307495,-0.27729806303977966,-0.06561560183763504,0.30926889181137085
3.498020648956299,0.08617063611745834,0.17,0.47637131810188293,-0.2757466733455658,-0.0609050914645195,0.3057497441768646
3.5181031227111816,0.07807054370641708,0.03949650749564171,0.48183026909828186,-0.2633686065673828,-0.04416554421186447,0.3025684058666229
3.538083076477051,0.06709251552820206,-0.2511230707168579,0.5028661489486694,-0.24610082805156708,-0.026237064972519875,0.29490184783935547
3.558201551437378,0.058936797082424164,-0.41761794686317444,0.5359195470809937,-0.23203782737255096,-0.019222700968384743,0.29407358169555664
3.5783116817474365,0.05255492776632309,-0.7577407956123352,0.5937502384185791,-0.2466549426317215,0.0009712185710668564,0.2730041742324829
3.598344326019287,0.061524517834186554,-0.90131676197052,0.638580322265625,-0.253539115190506,0.011763444170355797,0.27286243438720703
3.6183876991271973,0.07144486159086227,-0.9369801878929138,0.6374682188034058,-0.2371569722890854,-0.006065512076020241,0.26425090432167053
3.638479709625244,0.09482759982347488,-0.8626182675361633,0.6619787216186523,-0.25794875621795654,0.01347949169576168,0.280699223279953
3.658597230911255,0.10808922350406647,-0.7295735478401184,0.6862947940826416,-0.2521491050720215,0.0029340293258428574,0.28931063413619995
3.678717851638794,0.1373468041419983,-0.45043420791625977,0.7134653329849243,-0.20387545228004456,-0.03417576104402542,0.3066662549972534
3.698930263519287,0.1453070342540741,0.020216312259435654,0.6945210695266724,-0.19941367208957672,-0.09630059450864792,0.3174229860305786
3.718972682952881,0.15359638631343842,0.17,0.6298511028289795,-0.28210413455963135,-0.11008437722921371,0.312944233417511
3.7391767501831055,0.11980811506509781,0.17,0.5802332162857056,-0.30577483773231506,-0.11783372610807419,0.32183462381362915
3.7592105865478516,0.11455091089010239,0.17,0.5663225650787354,-0.3163716197013855,-0.08300035446882248,0.33719295263290405
3.7793214321136475,0.1086842343211174,0.17,0.5532277822494507,-0.2909914553165436,-0.07737355679273605,0.3521706461906433
3.799370288848877,0.11861378699541092,0.17,0.5554852485656738,-0.2617352604866028,-0.0995744839310646,0.3534769117832184
3.819450855255127,0.11778213828802109,0.17,0.5702725648880005,-0.2748018801212311,-0.09642156213521957,0.3528115153312683
3.8394782543182373,0.12707684934139252,0.17,0.5853304862976074,-0.25917941331863403,-0.10950595885515213,0.35358792543411255
3.8595640659332275,0.13101768493652344,0.17,0.5906510353088379,-0.25805070996284485,-0.11248322576284409,0.3540444076061249
3.8796377182006836,0.13222502171993256,0.17,0.584528923034668,-0.25988250970840454,-0.11456837505102158,0.3537052869796753
3.8997139930725098,0.1293202042579651,0.17,0.579290509223938,-0.26625895500183105,-0.10865219682455063,0.35449737310409546
3.919956684112549,0.12647846341133118,0.17,0.5719462037086487,-0.2736545205116272,-0.10470611602067947,0.3540678024291992
3.9400458335876465,0.12336096912622452,0.17,0.5616527795791626,-0.2719721794128418,-0.10062622278928757,0.35530251264572144
3.9601809978485107,0.11762762814760208,0.17,0.5551549196243286,-0.28111574053764343,-0.09364461153745651,0.35575416684150696
3.9801881313323975,0.11984781175851822,0.17,0.558692455291748,-0.2724950909614563,-0.09978749603033066,0.3556639552116394
4.000258922576904,0.12050501257181168,0.17,0.5626752972602844,-0.26971784234046936,-0.1015133485198021,0.35526904463768005
4.020381927490234,0.1235453262925148,0.17,0.5688252449035645,-0.2688196003437042,-0.10406088083982468,0.3549919128417969
4.040472030639648,0.12198164314031601,0.17,0.5659687519073486,-0.2717253565788269,-0.10220792144536972,0.35540300607681274
4.060518503189087,0.11995615810155869,0.17,0.5608620643615723,-0.27069592475891113,-0.10174330323934555,0.3575478792190552
4.080583810806274,0.11325105279684067,0.17,0.5490709543228149,-0.27586185932159424,-0.09921551495790482,0.3581899404525757
4.100790977478027,0.1174456998705864,0.17,0.5475677251815796,-0.2669021189212799,-0.10038381069898605,0.35924649238586426
4.12076735496521,0.1135597750544548,0.17,0.5368533134460449,-0.27907630801200867,-0.0919194296002388,0.3593892753124237
4.140820503234863,0.11558281630277634,0.17,0.5424887537956238,-0.26936209201812744,-0.09915892034769058,0.35854190587997437
4.160894393920898,0.11294960230588913,0.17,0.5404674410820007,-0.27435141801834106,-0.09479872137308121,0.3587052822113037
4.180986404418945,0.10899889469146729,0.17,0.5276572704315186,-0.27937614917755127,-0.0879594013094902,0.35982802510261536
4.2011189460754395,0.11468324065208435,0.17,0.547913670539856,-0.26838773488998413,-0.09942247718572617,0.3579980731010437
4.221229076385498,0.10826034098863602,0.17,0.5281829833984375,-0.2740672528743744,-0.09204170852899551,0.36006832122802734
4.241297006607056,0.11138264834880829,0.17,0.5311659574508667,-0.27998432517051697,-0.09199311584234238,0.3581705689430237
4.261397123336792,0.1095581203699112,0.17,0.5240288972854614,-0.2751581072807312,-0.09114385396242142,0.36066126823425293
4.282207489013672,0.11055723577737808,0.17,0.5317517518997192,-0.26666051149368286,-0.09699750691652298,0.3599514067173004
4.302345514297485,0.10680855065584183,0.17,0.5230755805969238,-0.2706535756587982,-0.09177707880735397,0.3607304096221924
4.322541236877441,0.10470443218946457,0.17,0.5198811292648315,-0.268304705619812,-0.08913635462522507,0.3609415590763092
4.342625856399536,0.104024238884449,0.17,0.5186471343040466,-0.267596036195755,-0.08962931483983994,0.3609371483325958
4.362714529037476,0.10418029874563217,0.17,0.5214679837226868,-0.2696283459663391,-0.09007304161787033,0.3595728278160095
4.3827879428863525,0.10337071120738983,0.17,0.5220891237258911,-0.2640029788017273,-0.09091266244649887,0.35954350233078003
4.402888059616089,0.10126515477895737,0.17,0.5102314949035645,-0.2590760588645935,-0.0879271849989891,0.3616308867931366
4.4229021072387695,0.09543333947658539,0.17,0.5059502720832825,-0.27873605489730835,-0.07652579993009567,0.36087679862976074
4.443032503128052,0.09892325848340988,0.17,0.5115879774093628,-0.2602623403072357,-0.08740442246198654,0.3606489896774292
4.463068246841431,0.0963391438126564,0.17,0.5085204839706421,-0.26050230860710144,-0.08239152282476425,0.35960879921913147
4.483144283294678,0.09204752743244171,0.17,0.49709194898605347,-0.2599163055419922,-0.07151288539171219,0.35942572355270386
4.503276348114014,0.08661731332540512,0.17,0.48790010809898376,-0.2597578763961792,-0.055379293859004974,0.3587914705276489
4.523387432098389,0.08629604429006577,0.17,0.47675448656082153,-0.2583822011947632,-0.04244639724493027,0.35992294549942017
4.543454647064209,0.08003609627485275,0.10049274563789368,0.4879840016365051,-0.2410680204629898,-0.033648841083049774,0.35468554496765137
4.563511371612549,0.07532649487257004,-0.22859187424182892,0.49756211042404175,-0.20277754962444305,-0.014744648709893227,0.34926140308380127
4.583560943603516,0.05831331014633179,-0.6594051122665405,0.5497801303863525,-0.15558026731014252,-0.007504889741539955,0.33319705724716187
4.6036927700042725,0.04396025091409683,-0.7669489979743958,0.6381726264953613,-0.1887093335390091,-0.016306856647133827,0.3218826949596405
4.623763561248779,0.04060514271259308,-0.9804608821868896,0.7097756862640381,-0.19643603265285492,-0.0036292318254709244,0.32580405473709106
4.6438682079315186,0.0463402196764946,-1.016570806503296,0.7568018436431885,-0.19685634970664978,-0.004096398130059242,0.33508944511413574
4.663917779922485,0.019325977191329002,-1.0893917083740234,0.7156304121017456,-0.14401252567768097,-0.01875784434378147,0.3215808868408203
4.684163808822632,0.03295773267745972,-0.9689465165138245,0.7419838905334473,-0.1595752090215683,-0.0276035163551569,0.3344062864780426
4.704177379608154,0.06105663627386093,-0.7065921425819397,0.7845298647880554,-0.1890861988067627,-0.046591125428676605,0.35130006074905396
4.724252462387085,0.11606644839048386,-0.4391811788082123,0.8165704011917114,-0.20627157390117645,-0.054965339601039886,0.36730095744132996
4.744319200515747,0.15531277656555176,0.08608092367649078,0.7246464490890503,-0.2402658313512802,-0.0864299014210701,0.3665648102760315
4.764387130737305,0.15067756175994873,0.17,0.6518734097480774,-0.21915403008460999,-0.1448460817337036,0.3760168254375458
4.784438848495483,0.10072462260723114,0.17,0.5702437162399292,-0.27195972204208374,-0.08746708184480667,0.3864092230796814
4.804525136947632,0.1098904088139534,0.17,0.5773379802703857,-0.2657841444015503,-0.09165429323911667,0.38688844442367554
4.8245909214019775,0.11846775561571121,0.17,0.5690126419067383,-0.2677060067653656,-0.09806924313306808,0.3866366744041443
4.844668388366699,0.11523628234863281,0.17,0.5508227348327637,-0.28614670038223267,-0.08347184211015701,0.38843172788619995
4.864725112915039,0.11258751153945923,0.17,0.5495670437812805,-0.2793464958667755,-0.08419676870107651,0.3911040723323822
4.88484001159668,0.11381951719522476,0.17,0.5542024374008179,-0.28036338090896606,-0.08523643761873245,0.3891269862651825
4.905004501342773,0.11384616047143936,0.17,0.5513434410095215,-0.27375108003616333,-0.09112256020307541,0.38979679346084595
4.925031900405884,0.11684603244066238,0.17,0.5530153512954712,-0.26440751552581787,-0.09975560754537582,0.3897908627986908
4.945099353790283,0.116275854408741,0.17,0.5556009411811829,-0.27422288060188293,-0.09599003940820694,0.3893340229988098
4.965188980102539,0.11714386194944382,0.17,0.561699390411377,-0.2637479305267334,-0.09931672364473343,0.3904950022697449
4.985256910324097,0.11771487444639206,0.17,0.5568302869796753,-0.26434510946273804,-0.1000099703669548,0.38995659351348877
5.0053184032440186,0.11386619508266449,0.17,0.5499055981636047,-0.26561763882637024,-0.09512247890233994,0.3910794258117676
5.02560567855835,0.10786794871091843,0.17,0.5301222801208496,-0.2834257483482361,-0.07839827984571457,0.39325031638145447
5.0457165241241455,0.1087137907743454,0.17,0.5299870371818542,-0.2695162892341614,-0.0856538936495781,0.39245083928108215
5.065800189971924,0.10521447658538818,0.17,0.5263444185256958,-0.2730197310447693,-0.07942762225866318,0.3929622769355774
5.085779905319214,0.10452809929847717,0.17,0.5236610174179077,-0.27261853218078613,-0.0794491395354271,0.39288195967674255
5.1058433055877686,0.10167797654867172,0.17,0.5226304531097412,-0.26688718795776367,-0.08233612030744553,0.3928329348564148
5.125907897949219,0.0991859957575798,0.17,0.5168797969818115,-0.2681359052658081,-0.07725455611944199,0.3925131857395172
5.145959138870239,0.09626485407352448,0.17,0.5087445974349976,-0.2681773900985718,-0.06947352737188339,0.39229369163513184
5.1661388874053955,0.09688431769609451,0.17,0.49130570888519287,-0.2611958682537079,-0.061165086925029755,0.396514356136322
5.186190128326416,0.09657881408929825,0.17,0.48144376277923584,-0.259901762008667,-0.0490301176905632,0.3957309424877167
5.20626974105835,0.09306774288415909,0.17,0.4722033143043518,-0.2537619471549988,-0.03778284043073654,0.3972184956073761
5.226432800292969,0.09357620030641556,0.13205310702323914,0.46674925088882446,-0.2335999459028244,-0.021564582362771034,0.3952951431274414
5.24664568901062,0.07790154963731766,-0.0023625679314136505,0.5116340517997742,-0.2313419133424759,-0.03157921880483627,0.37904590368270874
5.266637325286865,0.07338011264801025,-0.4489608108997345,0.5231406688690186,-0.18991175293922424,0.001979103311896324,0.3707984387874603
5.286720275878906,0.03424524515867233,-0.9072868227958679,0.6363649368286133,-0.17029500007629395,0.005123620852828026,0.34902772307395935
5.306792497634888,0.01259947381913662,-1.2885830402374268,0.7083462476730347,-0.13519573211669922,0.012422269210219383,0.3373839259147644
5.326839923858643,0.0019427742809057236,-1.4181805849075317,0.736169695854187,-0.09898664057254791,0.0027756448835134506,0.3348531126976013
5.346916913986206,-0.00747230090200901,-1.5595065355300903,0.7810249924659729,-0.06583864986896515,-0.007377879694104195,0.3304804563522339
5.366997718811035,-0.009130621328949928,-1.6327775716781616,0.8009719848632812,-0.056202273815870285,-0.008858943358063698,0.3265066146850586
5.3870861530303955,-0.012913340702652931,-1.6611831188201904,0.8013437986373901,-0.057618413120508194,0.0008554141968488693,0.32615864276885986
5.407149076461792,-0.009167993441224098,-1.6328098773956299,0.8062626123428345,-0.060883548110723495,-0.010240884497761726,0.3257859945297241
5.427287340164185,-0.012502068653702736,-1.6359281539916992,0.8001838326454163,-0.0643242597579956,-0.00037337280809879303,0.3255763649940491
5.447454929351807,-0.014018530026078224,-1.69450044631958,0.7909931540489197,-0.0551760233938694,0.006948491558432579,0.3218272030353546
5.467527389526367,-0.013617942109704018,-1.6993627548217773,0.8045101165771484,-0.06524321436882019,0.01042519323527813,0.3209012448787689
5.48766565322876,-0.015581900253891945,-1.7463458776474,0.8012022972106934,-0.049324046820402145,0.009265249595046043,0.3189992904663086
5.507685661315918,-0.01554563082754612,-1.7767506837844849,0.8045551776885986,-0.0344131775200367,0.0022828634828329086,0.31805479526519775
5.527813196182251,-0.015758121386170387,-1.7605223655700684,0.8193683624267578,-0.04604497179389,0.004559872671961784,0.31945860385894775
5.54793643951416,-0.016058707609772682,-1.7593845129013062,0.8115551471710205,-0.04333298280835152,0.003937175497412682,0.31917476654052734
5.568004369735718,-0.015260109677910805,-1.7032967805862427,0.816588282585144,-0.0538097508251667,0.0016545262187719345,0.3229614794254303
5.588142395019531,-0.013513410463929176,-1.6807786226272583,0.8157410621643066,-0.05831276252865791,-0.00021619535982608795,0.32314619421958923
5.608191967010498,-0.014819258823990822,-1.6814935207366943,0.8076496124267578,-0.06091902032494545,0.004438465461134911,0.3225565552711487
5.6283557415008545,-0.014241496101021767,-1.6549139022827148,0.8066470623016357,-0.05972136929631233,0.0013329368084669113,0.3240995407104492
5.648353576660156,-0.013008663430809975,-1.6506364345550537,0.8062033653259277,-0.0651727020740509,0.0025008749216794968,0.3229309618473053
5.6685426235198975,-0.015636498108506203,-1.6670405864715576,0.8035416603088379,-0.057016003876924515,0.006782567128539085,0.3235378861427307
5.688620328903198,-0.015147039666771889,-1.6686886548995972,0.8046021461486816,-0.05661690607666969,0.004431759938597679,0.3231548070907593
5.708747148513794,-0.0143487099558115,-1.6611782312393188,0.8124372959136963,-0.06261301040649414,0.003534151241183281,0.32355600595474243
5.72877836227417,-0.01358460821211338,-1.6436479091644287,0.806270956993103,-0.06595532596111298,0.0026483889669179916,0.32362356781959534
5.748863935470581,-0.0141360554844141,-1.6303097009658813,0.8087098598480225,-0.0686357319355011,0.002691296860575676,0.3250802159309387
5.768945932388306,-0.013508761301636696,-1.5868734121322632,0.810917854309082,-0.07559791207313538,0.0022388827055692673,0.3278852701187134
5.789074659347534,-0.011422956362366676,-1.5648150444030762,0.8114635944366455,-0.08167172968387604,0.0006150882691144943,0.3278564214706421
5.809345483779907,-0.011220688000321388,-1.5392711162567139,0.8096350431442261,-0.08146056532859802,-0.00044385530054569244,0.3296668529510498
5.829535007476807,-0.012207398191094398,-1.5343049764633179,0.7993240356445312,-0.07920487225055695,-0.000561857596039772,0.32950836420059204
5.849535942077637,-0.010610902681946754,-1.5070472955703735,0.8011558055877686,-0.08648887276649475,0.00045631639659404755,0.33102643489837646
5.869736671447754,-0.010769033804535866,-1.5052313804626465,0.7984837293624878,-0.08662070333957672,0.002070887014269829,0.3309207856655121
5.890040636062622,-0.006986135616898537,-1.4950541257858276,0.7920606732368469,-0.09584920108318329,0.007785378023982048,0.3305263817310333
5.910188436508179,-0.00835982896387577,-1.4812915325164795,0.7945799827575684,-0.10071457922458649,0.009710719808936119,0.3317568600177765
5.930232286453247,-0.009431863203644753,-1.4727959632873535,0.7874840497970581,-0.09404921531677246,0.005812009796500206,0.33168911933898926
5.9503045082092285,-0.009673098102211952,-1.4432021379470825,0.8033972978591919,-0.10569442808628082,0.006375690922141075,0.33448123931884766
5.970474481582642,-0.007920587435364723,-1.403953194618225,0.8042107820510864,-0.10686466097831726,0.0003968235105276108,0.33654993772506714
5.990550756454468,-0.0034562740474939346,-1.3435403108596802,0.8061954975128174,-0.11852286756038666,-0.00433843769133091,0.3398933708667755
6.010742664337158,-0.005133608356118202,-1.3403629064559937,0.7857486009597778,-0.11097307503223419,-0.005792016163468361,0.33835768699645996
6.030815601348877,-0.0038420800119638443,-1.2710503339767456,0.7881863117218018,-0.11651106178760529,-0.008570993319153786,0.34380555152893066
6.05081582069397,0.00046034716069698334,-1.1969233751296997,0.7740838527679443,-0.12834413349628448,-0.00986413098871708,0.3459263741970062
6.070905447006226,0.008497526869177818,-1.1131553649902344,0.7994358539581299,-0.15115134418010712,-0.0127349141985178,0.35251113772392273
6.090991973876953,0.026077410206198692,-0.9334997534751892,0.811030387878418,-0.1804441213607788,-0.01995735801756382,0.3651140034198761
6.111043691635132,0.07536035776138306,-0.6178919672966003,0.8359977006912231,-0.2193128913640976,-0.03273811191320419,0.38421306014060974
6.131112098693848,0.14849531650543213,-0.16778187453746796,0.7987667322158813,-0.2276892513036728,-0.05334506183862686,0.39256882667541504
6.151227951049805,0.11570761352777481,-0.005812738090753555,0.6759436130523682,-0.2273758500814438,-0.09966256469488144,0.3665308356285095
6.171365261077881,0.12578946352005005,0.17,0.6478297710418701,-0.23663581907749176,-0.12939739227294922,0.3955935835838318
6.191356182098389,0.11517290025949478,0.17,0.5957653522491455,-0.2560034990310669,-0.10502531379461288,0.4133162498474121
6.211727857589722,0.10918568819761276,0.17,0.5969886779785156,-0.2733350992202759,-0.08295261114835739,0.4185710549354553
6.231810092926025,0.1219887062907219,0.17,0.5991576313972473,-0.2888610064983368,-0.08728232234716415,0.4149128794670105
6.251906394958496,0.12756116688251495,0.17,0.5895928740501404,-0.28643232583999634,-0.09055279940366745,0.4164939522743225
6.2719407081604,0.11958672851324081,0.17,0.579201340675354,-0.29805660247802734,-0.07518855482339859,0.4209684729576111
6.292206287384033,0.12047005444765091,0.17,0.5725603103637695,-0.2871347665786743,-0.07890286296606064,0.42320185899734497
6.312351703643799,0.13248667120933533,0.17,0.6040216088294983,-0.2589607834815979,-0.10413681715726852,0.41993945837020874
6.332540512084961,0.1345599889755249,0.17,0.6086786985397339,-0.2540845274925232,-0.10738430172204971,0.4197213649749756
6.352559804916382,0.1303980052471161,0.17,0.5950225591659546,-0.25866562128067017,-0.10777754336595535,0.42121022939682007
6.3726646900177,0.12676629424095154,0.17,0.5884397029876709,-0.2720600962638855,-0.0995936468243599,0.420967161655426
6.392796993255615,0.12423587590456009,0.17,0.580299973487854,-0.272723913192749,-0.09711279720067978,0.4210820198059082
6.412806749343872,0.1286395788192749,0.17,0.5851881504058838,-0.26905667781829834,-0.10301537066698074,0.42046821117401123
6.432896375656128,0.12009910494089127,0.17,0.5737990736961365,-0.2810797095298767,-0.09052114933729172,0.42180949449539185
6.452956199645996,0.12098348885774612,0.17,0.5684419870376587,-0.2725418210029602,-0.0925019308924675,0.42313212156295776
6.473111629486084,0.11813563853502274,0.17,0.5660876631736755,-0.27833274006843567,-0.08928515762090683,0.4242446720600128
6.493130445480347,0.1160428524017334,0.17,0.5619395971298218,-0.27623096108436584,-0.08921920508146286,0.4245645999908447
6.5132060050964355,0.12278834730386734,0.17,0.5759153962135315,-0.2605240046977997,-0.10126540809869766,0.4233319163322449
6.533332109451294,0.11900470405817032,0.17,0.5719146728515625,-0.2735596001148224,-0.0944417342543602,0.4230148196220398
6.553420066833496,0.11701492220163345,0.17,0.5646809339523315,-0.2676469087600708,-0.09355270117521286,0.42384278774261475
6.573467254638672,0.11352255195379257,0.17,0.5510339736938477,-0.27474290132522583,-0.08634825795888901,0.424802303314209
6.593542814254761,0.11447896808385849,0.17,0.5562033653259277,-0.27279335260391235,-0.09080471843481064,0.4240335524082184
6.613631248474121,0.11455360054969788,0.17,0.5557713508605957,-0.2663479447364807,-0.09370986372232437,0.42483898997306824
6.633697509765625,0.11091966927051544,0.17,0.5516563057899475,-0.26907920837402344,-0.08966999500989914,0.42503395676612854
6.653737783432007,0.10944365710020065,0.17,0.543449342250824,-0.2648445665836334,-0.08806217461824417,0.4255053699016571
6.673827648162842,0.10421087592840195,0.17,0.5254061222076416,-0.27870890498161316,-0.0704190656542778,0.4281730353832245
6.693901538848877,0.1035258024930954,0.17,0.5184068083763123,-0.2798675000667572,-0.06408693641424179,0.42838379740715027
6.713958501815796,0.1019756868481636,0.17,0.5075976848602295,-0.27485954761505127,-0.06087677925825119,0.42915377020835876
6.734025955200195,0.10022653639316559,0.17,0.5111286640167236,-0.27445346117019653,-0.061156563460826874,0.4267435669898987
6.754109144210815,0.09793417900800705,0.17,0.49862435460090637,-0.2718503773212433,-0.048885904252529144,0.42830878496170044
6.774142265319824,0.09619017690420151,0.17,0.4871458113193512,-0.26606595516204834,-0.038582198321819305,0.42924684286117554
6.794234991073608,0.09629605710506439,0.17,0.47996678948402405,-0.2482171505689621,-0.027156928554177284,0.4286904036998749
6.814297199249268,0.08551349490880966,0.17,0.5045015811920166,-0.24592868983745575,-0.03423362225294113,0.4167548716068268
6.834392786026001,0.07827354222536087,-0.19001474976539612,0.5192165374755859,-0.2135423719882965,-0.013764509931206703,0.4082426428794861
6.854541063308716,0.0700032189488411,-0.7218039631843567,0.5553823709487915,-0.15596525371074677,0.014645135030150414,0.3929452896118164
6.874577045440674,0.025969764217734337,-1.2713192701339722,0.6800618171691895,-0.1279052197933197,0.021060248836874962,0.3643167018890381
6.894665002822876,0.013186385855078697,-1.4968777894973755,0.7078162431716919,-0.07747268676757812,0.01787603460252285,0.3633984923362732
6.914834022521973,-0.006783360615372658,-1.6874563694000244,0.7912799119949341,-0.07522869110107422,0.021211927756667137,0.34951251745224
6.934826374053955,-0.007705444470047951,-1.7537914514541626,0.8207839727401733,-0.044253673404455185,-0.0031773094087839127,0.347066730260849
6.954884767532349,-0.009504014626145363,-1.814590573310852,0.8283859491348267,-0.03793581947684288,-0.0009874943643808365,0.3433992862701416
6.974977016448975,-0.012174183502793312,-1.8402544260025024,0.8275880813598633,-0.01602201536297798,-0.007545040920376778,0.34425434470176697
6.995055198669434,-0.008826101198792458,-1.7751175165176392,0.837695837020874,-0.04701343551278114,-0.0037497524172067642,0.34627464413642883
7.015120029449463,-0.0110869649797678,-1.7610384225845337,0.819556474685669,-0.04347434267401695,-0.003061676397919655,0.3455641269683838
7.035158395767212,-0.013150239363312721,-1.817878007888794,0.811231255531311,-0.03760257735848427,0.009752733632922173,0.3428828716278076
7.055249214172363,-0.013084018602967262,-1.841407299041748,0.816297173500061,-0.032491181045770645,0.01163983903825283,0.3420371413230896
7.075313091278076,-0.012142801657319069,-1.88218355178833,0.8173316717147827,-0.031023811548948288,0.008090822026133537,0.3377171456813812
7.095443964004517,-0.012797171249985695,-1.8889588117599487,0.8260312080383301,-0.026417668908834457,0.006479127332568169,0.33835214376449585
7.115445613861084,-0.014141792431473732,-1.893018126487732,0.831084132194519,-0.027704451233148575,0.00925414077937603,0.3393721580505371
7.13565993309021,-0.014377618208527565,-1.890581727027893,0.8321971893310547,-0.01709417626261711,0.0031569581478834152,0.3405066728591919
7.155670166015625,-0.012865299358963966,-1.8498318195343018,0.8348822593688965,-0.036710161715745926,0.0061643850058317184,0.3417322635650635
7.175754547119141,-0.011014336720108986,-1.803658366203308,0.8371156454086304,-0.044800493866205215,0.001130109652876854,0.34335222840309143
7.195786952972412,-0.012520456686615944,-1.789872646331787,0.8284362554550171,-0.04504190757870674,0.004406271502375603,0.34417033195495605
7.2158730030059814,-0.012866193428635597,-1.7875386476516724,0.8282573223114014,-0.041340310126543045,0.0030975397676229477,0.344691663980484
7.235957860946655,-0.011631423607468605,-1.7945289611816406,0.8256640434265137,-0.04379323497414589,0.0037686433643102646,0.342521607875824
7.256017446517944,-0.012867266312241554,-1.8145335912704468,0.8235671520233154,-0.04063655063509941,0.007044350728392601,0.3419017195701599
7.276065111160278,-0.012781435623764992,-1.8301678895950317,0.8247443437576294,-0.03554357960820198,0.005719302222132683,0.34088701009750366
7.296221017837524,-0.013826722279191017,-1.8336212635040283,0.8255277872085571,-0.03468533232808113,0.007500139996409416,0.34196996688842773
7.316244602203369,-0.013465309515595436,-1.822657823562622,0.8202638626098633,-0.03259668126702309,0.004488175734877586,0.34208419919013977
7.336311340332031,-0.013408178463578224,-1.7729370594024658,0.8296444416046143,-0.043880391865968704,0.0036575105041265488,0.3465370535850525
7.356359243392944,-0.01058250106871128,-1.7436418533325195,0.8371918201446533,-0.05707699432969093,0.0038501080125570297,0.34639132022857666
7.376440763473511,-0.011950010433793068,-1.7424551248550415,0.8257827758789062,-0.050658244639635086,0.0018393676728010178,0.3463190197944641
7.396507024765015,-0.011286819353699684,-1.735660433769226,0.8305995464324951,-0.050203535705804825,0.0007129516452550888,0.3467087149620056
7.416607856750488,-0.011753642931580544,-1.7252646684646606,0.8264726400375366,-0.05453901365399361,0.003064556047320366,0.3468358814716339
7.436660051345825,-0.011732036247849464,-1.7216469049453735,0.8242878913879395,-0.05427628383040428,0.003206467255949974,0.3466215133666992
7.4568212032318115,-0.012846613302826881,-1.734747052192688,0.8171854019165039,-0.04796021059155464,0.0046351756900548935,0.34692132472991943
7.476866006851196,-0.013555997982621193,-1.7395102977752686,0.8169313669204712,-0.04423663392663002,0.0048603396862745285,0.34731411933898926
7.496907472610474,-0.01282697357237339,-1.7425668239593506,0.8208976984024048,-0.050753768533468246,0.0070656295865774155,0.34651798009872437
7.517108201980591,-0.012149477377533913,-1.7305655479431152,0.8220086097717285,-0.05655035004019737,0.0061382707208395,0.3466336131095886
7.537227630615234,-0.013441437855362892,-1.7393369674682617,0.818333625793457,-0.05368976667523384,0.009581571444869041,0.34724363684654236
7.557383298873901,-0.012883121147751808,-1.7172235250473022,0.8204900026321411,-0.050346676260232925,0.0034114476293325424,0.3487822413444519
7.577415704727173,-0.01033773459494114,-1.6898245811462402,0.8307545185089111,-0.06102599576115608,0.00028981082141399384,0.34926098585128784
7.5975048542022705,-0.011071855202317238,-1.670835256576538,0.826208233833313,-0.06436538696289062,0.002201853320002556,0.3501403331756592
7.6177239418029785,-0.010456094518303871,-1.659748911857605,0.8248136043548584,-0.06404732167720795,0.0003439169377088547,0.3507012128829956
7.637678146362305,-0.011564547196030617,-1.6442339420318604,0.8182113170623779,-0.06532041728496552,0.0024055074900388718,0.3519432544708252
7.657806873321533,-0.011212700977921486,-1.6333470344543457,0.8204081058502197,-0.06812140345573425,0.002214847132563591,0.3524216413497925
7.6778669357299805,-0.01103929616510868,-1.6295469999313354,0.8194714784622192,-0.06613598763942719,0.0012302231043577194,0.3522510230541229
7.697923898696899,-0.011161142960190773,-1.628325343132019,0.8184332847595215,-0.07134409248828888,0.005168600007891655,0.3520887792110443
7.718283653259277,-0.012548292055726051,-1.6405541896820068,0.8114285469055176,-0.061715204268693924,0.004634907469153404,0.35269030928611755
7.7383692264556885,-0.010291406884789467,-1.6343660354614258,0.8165420293807983,-0.06854218244552612,0.003457462415099144,0.3508453369140625
7.75845193862915,-0.010304192081093788,-1.6173123121261597,0.8190293312072754,-0.07773704826831818,0.005130169913172722,0.35152268409729004
7.778532981872559,-0.010914796963334084,-1.5902519226074219,0.817552924156189,-0.07887928187847137,0.004145568236708641,0.35388875007629395
7.798609733581543,-0.011220479384064674,-1.5831012725830078,0.8166298866271973,-0.07179141044616699,0.0005740802735090256,0.3552650511264801
7.8186821937561035,-0.008717978373169899,-1.5601507425308228,0.823088526725769,-0.08354583382606506,0.001027410849928856,0.35504043102264404
7.83882212638855,-0.008383551612496376,-1.5238242149353027,0.82008957862854,-0.09211030602455139,0.0013979878276586533,0.3568337857723236
7.858882665634155,-0.008563870564103127,-1.5030951499938965,0.8119200468063354,-0.08833694458007812,-0.0002936888486146927,0.3580132722854614
7.879008054733276,-0.00851191021502018,-1.4851999282836914,0.8132190704345703,-0.09322293102741241,0.001162482425570488,0.3599856495857239
7.899041175842285,-0.007968584075570107,-1.4711724519729614,0.8094987869262695,-0.08796955645084381,-0.002627002075314522,0.3604949116706848
7.919234037399292,-0.006679484620690346,-1.454808235168457,0.8075463771820068,-0.09827417135238647,0.0010420363396406174,0.3604930341243744
7.939249277114868,-0.005553716793656349,-1.4376062154769897,0.802391767501831,-0.09712155163288116,0.0032355543226003647,0.36235639452934265
7.959320068359375,-0.006197923794388771,-1.4332298040390015,0.8017113208770752,-0.0902097076177597,-0.0022651497274637222,0.3620477318763733
7.979424715042114,-0.0072591546922922134,-1.3933067321777344,0.8047125339508057,-0.10916946828365326,0.004620721563696861,0.36442601680755615
7.999544858932495,-0.0033268574625253677,-1.3729307651519775,0.8034058809280396,-0.11631886661052704,0.004681071266531944,0.36426156759262085
8.019609451293945,-0.005163544788956642,-1.3538132905960083,0.7993392944335938,-0.11206959187984467,0.003060644492506981,0.36633992195129395
8.039741516113281,-0.004326486960053444,-1.3323391675949097,0.8027554750442505,-0.11827237904071808,0.0017001088708639145,0.36695224046707153
8.059905052185059,-0.001486489549279213,-1.3068052530288696,0.8037781715393066,-0.11894151568412781,-0.004549110308289528,0.3672047257423401
8.079951047897339,-0.0010092947632074356,-1.2607229948043823,0.8025631904602051,-0.12522192299365997,-0.004706257954239845,0.3704426884651184
8.100008726119995,0.0023044999688863754,-1.2164238691329956,0.8012361526489258,-0.13448625802993774,-0.006087565794587135,0.3720792531967163
8.12049913406372,0.0007535722106695175,-1.205453872680664,0.7855383157730103,-0.13047157227993011,-0.004517102614045143,0.37299323081970215
8.140661716461182,0.00747949443757534,-1.100472092628479,0.8017741441726685,-0.14894519746303558,-0.010976547375321388,0.3796641230583191
8.160673379898071,0.016794389113783836,-0.9812674522399902,0.7897112369537354,-0.16763703525066376,-0.015815461054444313,0.3843696713447571
8.180733680725098,0.04636489599943161,-0.7191815376281738,0.8138084411621094,-0.20259003341197968,-0.03175460547208786,0.4018319249153137
8.200815916061401,0.048854075372219086,-0.6039416193962097,0.7645485401153564,-0.20239581167697906,-0.04150798171758652,0.39780181646347046
8.220926284790039,0.13171444833278656,-0.044658515602350235,0.7222100496292114,-0.23542247712612152,-0.08986034244298935,0.3969428241252899
8.241047143936157,0.14807182550430298,0.17,0.6984624862670898,-0.23185782134532928,-0.12982815504074097,0.4288133978843689
8.26110553741455,0.1294628381729126,0.17,0.605617880821228,-0.2292875200510025,-0.12888194620609283,0.44512739777565
8.281227588653564,0.11490391939878464,0.17,0.6111136674880981,-0.2906540632247925,-0.07881893962621689,0.4488798975944519
8.301270246505737,0.13538070023059845,0.17,0.6223453283309937,-0.27406784892082214,-0.09402620047330856,0.44695132970809937
8.321327209472656,0.13200542330741882,0.17,0.61279296875,-0.2745699882507324,-0.09744825214147568,0.4486370384693146
8.34143853187561,0.12807929515838623,0.17,0.6124269962310791,-0.28615298867225647,-0.08686553686857224,0.4497044086456299
8.361503839492798,0.1273229420185089,0.17,0.6080403327941895,-0.28867077827453613,-0.08121982961893082,0.45049619674682617
8.381728410720825,0.13069111108779907,0.17,0.6112524271011353,-0.27637025713920593,-0.09255703538656235,0.45043861865997314
8.401718378067017,0.13506607711315155,0.17,0.615604043006897,-0.2636377215385437,-0.1019023135304451,0.4504314661026001
8.421801805496216,0.12742580473423004,0.17,0.5974820852279663,-0.28004127740859985,-0.09263365715742111,0.45148009061813354
8.441862344741821,0.12721258401870728,0.17,0.5972644090652466,-0.28008967638015747,-0.09308656305074692,0.45217880606651306
8.462011098861694,0.12499720603227615,0.17,0.5925350785255432,-0.27873557806015015,-0.09086447209119797,0.45251333713531494
8.482073307037354,0.12583789229393005,0.17,0.5895524024963379,-0.2742612659931183,-0.09509704262018204,0.452588826417923
8.502182483673096,0.1260841190814972,0.17,0.5912032723426819,-0.2712469696998596,-0.09540580958127975,0.4529685378074646
8.52220630645752,0.12290392071008682,0.17,0.5883153676986694,-0.273309588432312,-0.09169536083936691,0.45293980836868286
8.542273044586182,0.12368308752775192,0.17,0.5884580612182617,-0.27058902382850647,-0.09457754343748093,0.45233458280563354
8.562323570251465,0.12190396338701248,0.17,0.5876855254173279,-0.27551591396331787,-0.09200810641050339,0.4520590901374817
8.582446336746216,0.116289883852005,0.17,0.5726454257965088,-0.2802462577819824,-0.08429516106843948,0.453906774520874
8.60252833366394,0.11777622252702713,0.17,0.5748661756515503,-0.28307729959487915,-0.08589135855436325,0.4530801475048065
8.622572422027588,0.1169515997171402,0.17,0.5722236633300781,-0.2766287922859192,-0.08542770892381668,0.45517924427986145
8.642764329910278,0.11624523997306824,0.17,0.5702309608459473,-0.28193747997283936,-0.08504883199930191,0.45433130860328674
8.662978649139404,0.11695744842290878,0.17,0.5679640769958496,-0.266864150762558,-0.08910232037305832,0.45537611842155457
8.682971239089966,0.11412201821804047,0.17,0.5596731901168823,-0.26657137274742126,-0.0855790302157402,0.4561448097229004
8.703107833862305,0.11037743091583252,0.17,0.5591106414794922,-0.27807506918907166,-0.08162989467382431,0.4548683166503906
8.723186492919922,0.10838212817907333,0.17,0.5521581172943115,-0.27587419748306274,-0.07845235615968704,0.45557069778442383
8.743318796157837,0.10370831936597824,0.17,0.5348595380783081,-0.27556151151657104,-0.0700061097741127,0.4587975740432739
8.763407230377197,0.1046728640794754,0.17,0.5263966917991638,-0.2774885594844818,-0.06305547803640366,0.4595280885696411
8.783522844314575,0.10056145489215851,0.17,0.5178145170211792,-0.28885239362716675,-0.049793459475040436,0.45912283658981323
8.803549528121948,0.1026344746351242,0.17,0.5218386650085449,-0.2657162547111511,-0.0635809525847435,0.4581100344657898
8.823625564575195,0.09695341438055038,0.17,0.5152065753936768,-0.27195876836776733,-0.051793597638607025,0.4568592309951782
8.843689680099487,0.09620428830385208,0.17,0.5025066137313843,-0.2652299702167511,-0.04043909162282944,0.4568650722503662
8.863837242126465,0.09574418514966965,0.17,0.493169903755188,-0.25683239102363586,-0.02207794226706028,0.45450884103775024
8.88394832611084,0.09174901992082596,0.09599974751472473,0.4980570077896118,-0.24126587808132172,-0.016749734058976173,0.45025330781936646
8.904014587402344,0.0857657864689827,-0.33793583512306213,0.5165168046951294,-0.19020245969295502,0.005108213052153587,0.44226011633872986
8.924081087112427,0.05584568530321121,-0.9148626923561096,0.6017082929611206,-0.1409837007522583,0.019070154055953026,0.41905444860458374
8.944290399551392,0.051356472074985504,-1.265400767326355,0.6108059883117676,-0.06874208152294159,0.02032565139234066,0.4123452305793762
8.964399576187134,0.0030414368957281113,-1.6191130876541138,0.7628165483474731,-0.07988680899143219,0.02498907409608364,0.38330838084220886
8.984464883804321,-0.004684144631028175,-1.764308214187622,0.8246660232543945,-0.0485452301800251,0.000664910301566124,0.3740106225013733
9.004517793655396,-0.005760306492447853,-1.822583556175232,0.8334770202636719,-0.0423157699406147,0.0006593074649572372,0.3704012632369995
9.024595737457275,-0.008352363482117653,-1.8635615110397339,0.8301016092300415,-0.029502075165510178,0.0019767116755247116,0.36932823061943054
9.044668912887573,-0.004311824217438698,-1.8678662776947021,0.8536179065704346,-0.010218340903520584,-0.0199203509837389,0.3692106306552887
9.064724922180176,-0.0033754054456949234,-1.793688416481018,0.857454776763916,-0.05967623367905617,-0.002914542332291603,0.3714927136898041
9.084776639938354,-0.008317941799759865,-1.8018592596054077,0.8348685503005981,-0.04099345579743385,-0.001568453386425972,0.37126046419143677
9.104880332946777,-0.009750092402100563,-1.843775749206543,0.824223518371582,-0.036860812455415726,0.008106639608740807,0.36899393796920776
9.124957799911499,-0.011305505409836769,-1.9012514352798462,0.831906795501709,-0.028983984142541885,0.012479608878493309,0.36641865968704224
9.145010948181152,-0.009586060419678688,-1.9252593517303467,0.8363325595855713,-0.022392351180315018,0.004587924107909203,0.36419427394866943
9.165163516998291,-0.009678089991211891,-1.9324772357940674,0.8409569263458252,-0.021388676017522812,0.0034607406705617905,0.3640228807926178
9.185203313827515,-0.011186057701706886,-1.9321666955947876,0.8464133739471436,-0.021633107215166092,0.0063386764377355576,0.3652302622795105
9.205251216888428,-0.008226746693253517,-1.8981528282165527,0.8534069061279297,-0.033018808811903,0.001581316813826561,0.3653903901576996
9.225305080413818,-0.009101653471589088,-1.856697916984558,0.8539403676986694,-0.0395083986222744,0.002315899357199669,0.3689206540584564
9.245391607284546,-0.006455982103943825,-1.818418264389038,0.8577556610107422,-0.05208543315529823,0.00040822289884090424,0.36945974826812744
9.265514850616455,-0.007680410519242287,-1.798676609992981,0.8504751920700073,-0.05178581550717354,0.0019359346479177475,0.37088778614997864
9.285532236099243,-0.010166341438889503,-1.8319820165634155,0.833486795425415,-0.03360382094979286,0.003920411691069603,0.36977577209472656
9.305614471435547,-0.009426647797226906,-1.8446712493896484,0.8350754976272583,-0.03960265591740608,0.0065212007611989975,0.36785510182380676
9.32568097114563,-0.009861493483185768,-1.864625096321106,0.8372546434402466,-0.033964384347200394,0.006474277004599571,0.36706778407096863
9.345777988433838,-0.010233128443360329,-1.8776441812515259,0.840064287185669,-0.03035377338528633,0.004755562171339989,0.3667621910572052
9.365839004516602,-0.01032375730574131,-1.8797340393066406,0.8423329591751099,-0.03154546394944191,0.0060796793550252914,0.3666033446788788
9.386016130447388,-0.0107895378023386,-1.87418794631958,0.8441113233566284,-0.03234545513987541,0.005791446194052696,0.3676503896713257
9.406078100204468,-0.010965997353196144,-1.8452128171920776,0.8407027721405029,-0.03473176434636116,0.004126107320189476,0.36978673934936523
9.426077842712402,-0.00938367284834385,-1.8088276386260986,0.8438671827316284,-0.045128438621759415,0.0018968265503644943,0.3706209063529968
9.446094751358032,-0.010047072544693947,-1.7971941232681274,0.8366414308547974,-0.039776358753442764,0.0006348323076963425,0.3715856969356537
9.466188669204712,-0.007475787773728371,-1.7779743671417236,0.8452609777450562,-0.05204053595662117,0.001256665214896202,0.37081271409988403
9.486320495605469,-0.00832822360098362,-1.782148838043213,0.840175986289978,-0.04496638849377632,-0.001214759424328804,0.3708443343639374
9.506308555603027,-0.00979151763021946,-1.7924097776412964,0.8325490951538086,-0.04228797182440758,0.003935640677809715,0.37076252698898315
9.526720523834229,-0.009247446432709694,-1.7967298030853271,0.8361705541610718,-0.04605318233370781,0.004540747031569481,0.3699297308921814
9.546852588653564,-0.010275805369019508,-1.8018691539764404,0.8328452110290527,-0.040630992501974106,0.004197796806693077,0.3704324960708618
9.566933631896973,-0.010167175903916359,-1.8013614416122437,0.8403959274291992,-0.04857044294476509,0.007976626977324486,0.3702026605606079
9.587250232696533,-0.010102624073624611,-1.7864595651626587,0.8387004137039185,-0.042691487818956375,0.0028598960489034653,0.37129735946655273
9.607354402542114,-0.01012578047811985,-1.7894073724746704,0.8353511095046997,-0.04119716212153435,0.003571784123778343,0.37150639295578003
9.627554655075073,-0.00841795839369297,-1.7563879489898682,0.8410756587982178,-0.05442238971590996,0.0015710201114416122,0.3720148503780365
9.647585153579712,-0.009326541796326637,-1.738816738128662,0.8391891717910767,-0.05374842509627342,0.001733599230647087,0.37376585602760315
9.66788101196289,-0.008495086804032326,-1.722995638847351,0.8408229351043701,-0.060595665127038956,0.0029691141098737717,0.3739042282104492
9.68798017501831,-0.008575553074479103,-1.7194570302963257,0.8329474925994873,-0.0530623160302639,5.548261106014252e-05,0.37405937910079956
9.708081722259521,-0.010204130783677101,-1.7238560914993286,0.8290461301803589,-0.05444299057126045,0.005667923018336296,0.37472301721572876
9.72819209098816,-0.01051344908773899,-1.7214492559432983,0.8290494680404663,-0.05421573296189308,0.005500679835677147,0.3750883936882019
9.748290300369263,-0.008374476805329323,-1.7043226957321167,0.8395506143569946,-0.060953687876462936,0.002313045784831047,0.3743760585784912
9.768502473831177,-0.00897064246237278,-1.7123608589172363,0.8331825733184814,-0.05757259950041771,0.003399541601538658,0.37403029203414917
9.788558959960938,-0.008557433262467384,-1.708825945854187,0.8378739356994629,-0.06111423298716545,0.003468802198767662,0.37408071756362915
9.808837175369263,-0.008689874783158302,-1.6887253522872925,0.8395085334777832,-0.06390532851219177,0.0028172489255666733,0.37594324350357056
9.828964948654175,-0.008281299844384193,-1.6768182516098022,0.8334330320358276,-0.06854526698589325,0.004077551886439323,0.37563246488571167
9.849075317382812,-0.006131703034043312,-1.6521443128585815,0.841567873954773,-0.07090920209884644,-0.0002008620649576187,0.3769492506980896
9.869078636169434,-0.003804350271821022,-1.6181148290634155,0.8426711559295654,-0.08196540176868439,0.0018839966505765915,0.37836265563964844
9.889193534851074,-0.007314229384064674,-1.6089330911636353,0.8321831226348877,-0.07584555447101593,0.0011194106191396713,0.3805367946624756
9.909249544143677,-0.007194558158516884,-1.6005961894989014,0.8333590030670166,-0.0778433233499527,0.0015428271144628525,0.37992244958877563
9.929373979568481,-0.008314544335007668,-1.6001465320587158,0.8290368318557739,-0.07534974813461304,0.0040052589029073715,0.38064780831336975
9.949536085128784,-0.007501015439629555,-1.592475175857544,0.8314605951309204,-0.08014394342899323,0.0034497734159231186,0.38035517930984497
9.969624042510986,-0.008390689268708229,-1.598839282989502,0.8235810995101929,-0.07293614745140076,0.002530468627810478,0.3804672360420227
9.989768981933594,-0.007505709305405617,-1.5888210535049438,0.8315898180007935,-0.07770232856273651,0.001847369596362114,0.3804593086242676
10.009908199310303,-0.008494550362229347,-1.6022014617919922,0.8219282627105713,-0.07131125032901764,0.004000646993517876,0.38047167658805847
10.029964923858643,-0.006597394123673439,-1.5735902786254883,0.8347475528717041,-0.08285851776599884,0.0012289267033338547,0.3808901906013489
10.050028800964355,-0.007448980584740639,-1.5590296983718872,0.833898663520813,-0.0844147801399231,0.003287171944975853,0.3821237087249756
10.070093393325806,-0.00575006939470768,-1.523923635482788,0.834548830986023,-0.09110240638256073,0.001111021265387535,0.3834925889968872
10.090211391448975,-0.006854290142655373,-1.5208098888397217,0.8230495452880859,-0.08521296083927155,-8.997507393360138e-05,0.3848532736301422
10.110327243804932,-0.00586547888815403,-1.4892666339874268,0.8210947513580322,-0.08905835449695587,-0.0017444510012865067,0.3861314058303833
10.13040018081665,-0.0020460132509469986,-1.468843936920166,0.8152413368225098,-0.10822330415248871,0.00787363015115261,0.38745081424713135
10.150459289550781,-0.004176953807473183,-1.4468824863433838,0.8160810470581055,-0.10822440683841705,0.006708389148116112,0.38862812519073486
10.170558214187622,-0.0055807773023843765,-1.4421072006225586,0.8180450201034546,-0.10090191662311554,0.003306722268462181,0.3897814154624939
10.190640449523926,-0.004033545032143593,-1.4244155883789062,0.8199253082275391,-0.10493136942386627,-0.00011851079761981964,0.3896712064743042
10.21070146560669,-0.00465221144258976,-1.4218536615371704,0.8124663829803467,-0.10100458562374115,0.0029279496520757675,0.3907028138637543
10.230787992477417,-0.0035377535969018936,-1.4148808717727661,0.8132704496383667,-0.10508333146572113,0.0040438976138830185,0.3908681869506836
10.250889539718628,-0.0032309237867593765,-1.3752713203430176,0.8172732591629028,-0.11040832102298737,0.00035426579415798187,0.3929891884326935
10.270909786224365,-0.002660149708390236,-1.3613746166229248,0.8120235204696655,-0.10568620264530182,-0.004015767946839333,0.39300864934921265
10.291009426116943,-0.001555049791932106,-1.3243292570114136,0.8128429651260376,-0.12146729230880737,0.000132804736495018,0.3947561979293823
10.311100721359253,-0.0016278717666864395,-1.307559609413147,0.810441255569458,-0.12035587430000305,-0.0003492478281259537,0.3961911201477051
10.33124327659607,0.0007928814738988876,-1.2670549154281616,0.8039940595626831,-0.12367396056652069,-0.0037808064371347427,0.3975194990634918
10.35125184059143,0.0015508290380239487,-1.214822769165039,0.8043758869171143,-0.12872326374053955,-0.005607420578598976,0.401215136051178
10.371438026428223,0.0041504111140966415,-1.1765376329421997,0.8064115047454834,-0.13483230769634247,-0.007979283109307289,0.4027823507785797
10.391449451446533,0.008922910317778587,-1.0945988893508911,0.790885329246521,-0.14832916855812073,-0.0110106710344553,0.4047693610191345
10.411494255065918,0.015088668093085289,-0.9558621644973755,0.7775975465774536,-0.16094309091567993,-0.01657807268202305,0.4113008975982666
10.431577682495117,0.05068487673997879,-0.7101872563362122,0.845819354057312,-0.20735596120357513,-0.031308360397815704,0.43138086795806885
10.4516441822052,0.12818585336208344,-0.3111678957939148,0.8434129953384399,-0.23329947888851166,-0.045808590948581696,0.4419870376586914
10.47173023223877,0.1386074721813202,0.17,0.775793194770813,-0.24286527931690216,-0.08264606446027756,0.458950400352478
10.49181342124939,0.1308569312095642,0.17,0.6961525678634644,-0.22636531293392181,-0.12814489006996155,0.4467771053314209
10.511939287185669,0.12144724279642105,0.17,0.6140083074569702,-0.23209251463413239,-0.11366399377584457,0.47225654125213623
10.531994581222534,0.11930609494447708,0.17,0.6189185976982117,-0.26582571864128113,-0.08758432418107986,0.47538161277770996
10.552048683166504,0.13314099609851837,0.17,0.6258572936058044,-0.2670227885246277,-0.10032377392053604,0.47406911849975586
10.572137832641602,0.1281341016292572,0.17,0.6106482744216919,-0.2878522276878357,-0.08726245909929276,0.4746145009994507
10.592201232910156,0.1248316839337349,0.17,0.6061587929725647,-0.29224658012390137,-0.07796015590429306,0.4763141870498657
10.612245559692383,0.12515459954738617,0.17,0.6069125533103943,-0.2841393053531647,-0.08071710914373398,0.4775412678718567
10.63234567642212,0.11971388012170792,0.17,0.5900553464889526,-0.29277288913726807,-0.07015695422887802,0.47863101959228516
10.65246295928955,0.12128103524446487,0.17,0.5906344652175903,-0.28374189138412476,-0.08061181753873825,0.47860848903656006
10.672508716583252,0.12533023953437805,0.17,0.5935962200164795,-0.2735443711280823,-0.09151028841733932,0.47866523265838623
10.6925687789917,0.12322621792554855,0.17,0.5964220762252808,-0.2798352837562561,-0.08791982382535934,0.47824323177337646
10.712628602981567,0.12329389899969101,0.17,0.5896042585372925,-0.2756163477897644,-0.0883856937289238,0.47896522283554077
10.732709169387817,0.1261092722415924,0.17,0.5940860509872437,-0.27005404233932495,-0.09374044090509415,0.47834378480911255
10.752878904342651,0.12099771946668625,0.17,0.5877678394317627,-0.280134379863739,-0.08472680300474167,0.4795685410499573
10.773005247116089,0.12018509954214096,0.17,0.5802338123321533,-0.26968109607696533,-0.08714506775140762,0.48062634468078613
10.793184757232666,0.11591371893882751,0.17,0.5808329582214355,-0.2846827507019043,-0.08119925111532211,0.47933417558670044
10.813271045684814,0.11526564508676529,0.17,0.5747219920158386,-0.2759828567504883,-0.0810399278998375,0.4811801314353943
10.833484411239624,0.11298530548810959,0.17,0.5681467056274414,-0.2833077311515808,-0.07465431839227676,0.48057472705841064
10.853479862213135,0.1085323616862297,0.17,0.5573890805244446,-0.28816279768943787,-0.06262128800153732,0.4825284481048584
10.873547792434692,0.11291907727718353,0.17,0.5706904530525208,-0.27525705099105835,-0.08028795570135117,0.48052072525024414
10.893627166748047,0.10888240486383438,0.17,0.5577415227890015,-0.2827809453010559,-0.066611148416996,0.48216718435287476
10.913674354553223,0.106061652302742,0.17,0.5493839979171753,-0.28415948152542114,-0.06487526744604111,0.481891930103302
10.933852672576904,0.10431449860334396,0.17,0.5372917056083679,-0.28612855076789856,-0.055846862494945526,0.48349928855895996
10.95394492149353,0.10318159312009811,0.17,0.5244694352149963,-0.28036171197891235,-0.051544927060604095,0.4843038320541382
10.974013090133667,0.0974893793463707,0.17,0.5160462260246277,-0.288169264793396,-0.0379880890250206,0.4847108721733093
10.994066953659058,0.09880711138248444,0.17,0.5052744150161743,-0.28500697016716003,-0.02936842478811741,0.48330724239349365
11.014166593551636,0.09674457460641861,0.17,0.5081563591957092,-0.2781934142112732,-0.03024263121187687,0.4816994071006775
11.034279108047485,0.09490831941366196,0.17,0.5023404359817505,-0.266322523355484,-0.01686280407011509,0.4779564142227173
11.05436086654663,0.08754978328943253,-0.05953078344464302,0.5146980285644531,-0.2382151037454605,-0.0009275171905755997,0.46797144412994385
11.074399471282959,0.09736830741167068,-0.5999510884284973,0.5153502225875854,-0.14496482908725739,0.028007542714476585,0.46576571464538574
11.094534635543823,0.07892536371946335,-0.9243225455284119,0.5608956813812256,-0.09730987250804901,0.03056502901017666,0.458884060382843
11.114585876464844,0.024733250960707664,-1.4968935251235962,0.7073947191238403,-0.0868142694234848,0.025194277986884117,0.41329318284988403
11.134648323059082,-0.001303667202591896,-1.740837812423706,0.8163220882415771,-0.1007796972990036,0.038095735013484955,0.3941481113433838
11.154725313186646,-0.005128318443894386,-1.7999528646469116,0.8418195247650146,-0.04487885907292366,0.004668829962611198,0.3963259160518646
11.174787282943726,-0.004324907436966896,-1.86312735080719,0.8393917083740234,-0.0227748341858387,-0.002129809930920601,0.39280587434768677
11.194844961166382,-0.0067587438970804214,-1.9128303527832031,0.8498257398605347,-0.004547979682683945,-0.007985757663846016,0.39271509647369385
11.214922189712524,0.0006322022527456284,-1.8862601518630981,0.8739103078842163,-0.019185904413461685,-0.021092237904667854,0.3887442648410797
11.234988689422607,-0.001390630379319191,-1.837823510169983,0.8727147579193115,-0.055545661598443985,-0.004444660618901253,0.39119282364845276
11.255070209503174,-0.006269359961152077,-1.855712890625,0.8457932472229004,-0.025874290615320206,-0.006295615807175636,0.391773521900177
11.275109767913818,-0.008217448368668556,-1.9149019718170166,0.8444784879684448,-0.028532017022371292,0.00933450274169445,0.3885357081890106
11.295198917388916,-0.007219398394227028,-1.9307544231414795,0.8433431386947632,-0.03655983880162239,0.01243327371776104,0.3844761550426483
11.315274953842163,-0.006686234846711159,-1.9619977474212646,0.8482726812362671,-0.01994747295975685,0.003669923171401024,0.3840252161026001
11.33536982536316,-0.00785260833799839,-1.96482253074646,0.856201171875,-0.030425120145082474,0.011309927329421043,0.3845541477203369
11.355684280395508,-0.009841406717896461,-1.974160075187683,0.8577417135238647,-0.016742955893278122,0.007650410756468773,0.3870092034339905
11.37576937675476,-0.006855243816971779,-1.948112964630127,0.8679896593093872,-0.021816391497850418,2.2856518626213074e-05,0.38671398162841797
11.395836353302002,-0.004662686958909035,-1.8924493789672852,0.8746645450592041,-0.0448472835123539,0.003089470788836479,0.38793736696243286
11.415902137756348,-0.005822623148560524,-1.853850245475769,0.8618824481964111,-0.04283583536744118,6.421469151973724e-05,0.390918493270874
11.43599534034729,-0.006883556023240089,-1.857042908668518,0.85396409034729,-0.04052073881030083,0.0033843424171209335,0.3911910057067871
11.456060886383057,-0.0065444353967905045,-1.885913610458374,0.8476617336273193,-0.027193721383810043,0.000240204855799675,0.38901418447494507
11.476196765899658,-0.006905699148774147,-1.8933069705963135,0.8497761487960815,-0.031419675797224045,0.0033074524253606796,0.38844364881515503
11.49632215499878,-0.008612299337983131,-1.9037879705429077,0.8501248359680176,-0.025495905429124832,0.0061097051948308945,0.38910526037216187
11.516406536102295,-0.007566237822175026,-1.909913420677185,0.8515207767486572,-0.02353610470890999,0.0026066359132528305,0.38810062408447266
11.53648066520691,-0.007513726130127907,-1.9097812175750732,0.8547146320343018,-0.024169761687517166,0.0016246940940618515,0.3883938789367676
11.556528568267822,-0.006177568808197975,-1.8809212446212769,0.8640382289886475,-0.04323527589440346,0.005868216976523399,0.3884553909301758
11.576717615127563,-0.008193546906113625,-1.883053183555603,0.8548048734664917,-0.04050679877400398,0.00874287448823452,0.38950642943382263
11.596795320510864,-0.00851520337164402,-1.8656078577041626,0.8489276170730591,-0.03542355075478554,0.005215508863329887,0.39116156101226807
11.61684536933899,-0.0067287627607584,-1.8475619554519653,0.849389910697937,-0.03585724160075188,0.00023075006902217865,0.3913847506046295
11.637023210525513,-0.00496288575232029,-1.8279991149902344,0.8592158555984497,-0.046952757984399796,-0.0001227203756570816,0.39091771841049194
11.657166481018066,-0.006316954270005226,-1.8132928609848022,0.8550376892089844,-0.04533393308520317,0.0015322845429182053,0.39254361391067505
11.677200078964233,-0.006993615999817848,-1.8338348865509033,0.848538875579834,-0.039707478135824203,0.0024250801652669907,0.39139461517333984
11.697246551513672,0.1698101907968521,-1.7324717044830322,0.8650662899017334,0.23171766102313995,0.007333746179938316,0.5822862386703491
11.717357635498047,0.23884150385856628,-1.6318082809448242,0.8062349557876587,0.1575419157743454,-0.015287013724446297,0.5109240412712097
11.737401485443115,0.23168878257274628,-1.5229130983352661,0.7926775813102722,0.1217484176158905,-0.001171911135315895,0.5352212190628052
11.757455587387085,0.23557361960411072,-1.4507843255996704,0.7855954170227051,0.10972028970718384,9.21841710805893e-05,0.5416114330291748
11.777714252471924,0.23951846361160278,-1.3859978914260864,0.7799066305160522,0.09708645939826965,-0.0008812490850687027,0.5453851222991943
11.797860860824585,0.24312376976013184,-1.3470708131790161,0.7785352468490601,0.09182344377040863,-0.004549676552414894,0.5475018620491028
11.817950963973999,0.2402094006538391,-1.3234914541244507,0.7618427276611328,0.09241023659706116,-0.0010212752968072891,0.5510624051094055
11.83799409866333,0.24292773008346558,-1.2881566286087036,0.7531772255897522,0.09587420523166656,-0.005743661895394325,0.5548387169837952
11.858098983764648,0.24526384472846985,-1.2292380332946777,0.7548642158508301,0.07842940092086792,-0.002995545044541359,0.558171808719635
11.87818455696106,0.24786359071731567,-1.2056878805160522,0.7568035125732422,0.07943055033683777,-0.006848284974694252,0.5574756860733032
11.89827847480774,0.24763795733451843,-1.190665602684021,0.751434862613678,0.07480603456497192,-0.004657456651329994,0.5587853193283081
11.918317556381226,0.2483995258808136,-1.1765869855880737,0.751368522644043,0.06784948706626892,-0.0029465053230524063,0.5595027804374695
11.938565492630005,0.24954673647880554,-1.1519170999526978,0.7543237209320068,0.063523069024086,-0.0027406010776758194,0.5608372688293457
11.958728313446045,0.2521088421344757,-1.1212427616119385,0.7519848346710205,0.060912761837244034,-0.005795637145638466,0.5632569789886475
11.97878909111023,0.2562647759914398,-1.0823386907577515,0.7555974721908569,0.054691582918167114,-0.008479500189423561,0.5634085536003113
11.998836040496826,0.25933602452278137,-1.038939356803894,0.7482861280441284,0.05182186886668205,-0.011299440637230873,0.5656395554542542
12.018921375274658,0.2521538734436035,-1.037689447402954,0.7272224426269531,0.05733194947242737,-0.006364384666085243,0.5718528032302856
12.039016723632812,0.25627508759498596,-0.9582640528678894,0.7257319688796997,0.05059978365898132,-0.013323048129677773,0.5761356949806213
12.059104204177856,0.2652287781238556,-0.8749381303787231,0.7119013667106628,0.03810964897274971,-0.01650034822523594,0.5790205597877502
12.079144477844238,0.2640899419784546,-0.7799368500709534,0.7057681083679199,0.022815153002738953,-0.015640119090676308,0.5851171016693115
12.09935975074768,0.26978710293769836,-0.7026254534721375,0.6935275793075562,0.03801780194044113,-0.03206070512533188,0.5905994176864624
12.119447231292725,0.2814052104949951,-0.645990788936615,0.7003914713859558,0.007452603429555893,-0.02330867387354374,0.5899980664253235
12.139581203460693,0.2878480851650238,-0.5484443306922913,0.6973761320114136,-0.010808795690536499,-0.023956233635544777,0.5951803922653198
12.15960955619812,0.28860801458358765,-0.47008946537971497,0.6803390979766846,0.0027723871171474457,-0.0374755933880806,0.6019234657287598
12.17994213104248,0.2859745919704437,-0.4351557791233063,0.6647330522537231,0.007738485932350159,-0.04044007509946823,0.606505274772644
12.20003342628479,0.29080328345298767,-0.36000779271125793,0.6480534076690674,0.00725550577044487,-0.04722904413938522,0.611223578453064
12.220241785049438,0.28581005334854126,-0.3272988498210907,0.6341673135757446,0.001235179603099823,-0.04540323466062546,0.6136691570281982
12.240280389785767,0.2829611897468567,-0.3061688244342804,0.627693772315979,0.015960639342665672,-0.050652168691158295,0.6182202100753784
12.260390520095825,0.28943297266960144,-0.29257452487945557,0.6262264251708984,0.0036262962967157364,-0.0467941090464592,0.6181014776229858
12.280467748641968,0.29040801525115967,-0.27580684423446655,0.6220354437828064,0.00461004301905632,-0.04956851154565811,0.6194273233413696
12.300491094589233,0.29314297437667847,-0.2597416341304779,0.6188153028488159,0.007342088967561722,-0.054794542491436005,0.6220733523368835
12.320589065551758,0.29151979088783264,-0.2569900155067444,0.6166998147964478,0.012419819831848145,-0.059592001140117645,0.6233456134796143
12.340674638748169,0.2957089841365814,-0.24659675359725952,0.6174885630607605,0.00894264504313469,-0.05893396586179733,0.6246774792671204
12.360862255096436,0.2986616790294647,-0.22849363088607788,0.6179224252700806,-0.009716536849737167,-0.05278953164815903,0.6251141428947449
12.381059169769287,0.3064951002597809,-0.18710926175117493,0.6125802993774414,-0.007018391042947769,-0.055112577974796295,0.6291865110397339
12.401168584823608,0.30201077461242676,-0.17309781908988953,0.6081041097640991,0.008856387808918953,-0.06582074612379074,0.6332998275756836
12.421282291412354,0.31177034974098206,-0.14153023064136505,0.6022853255271912,-0.009402494877576828,-0.058054082095623016,0.6338315010070801
12.441331148147583,0.3126455843448639,-0.11400257050991058,0.6021891832351685,-0.025392185896635056,-0.05229387432336807,0.6336686015129089
12.461466073989868,0.30547386407852173,-0.12353584170341492,0.5867856740951538,0.019564444199204445,-0.07695775479078293,0.6381529569625854
12.481561660766602,0.30602777004241943,-0.10793708264827728,0.581122100353241,-0.012725736945867538,-0.06681663542985916,0.6358909606933594
12.501551628112793,0.312632292509079,-0.09990674257278442,0.58381187915802,-0.008837219327688217,-0.0636485144495964,0.6382885575294495
12.52161717414856,0.31511765718460083,-0.07297919690608978,0.5807638764381409,-0.0026657208800315857,-0.07062873989343643,0.6418405175209045
12.541723728179932,0.31735530495643616,-0.06990361213684082,0.5778442025184631,-0.013353962451219559,-0.06456632167100906,0.6410151124000549
12.561797618865967,0.3193739354610443,-0.057938892394304276,0.5823523998260498,-0.018236950039863586,-0.06559040397405624,0.6410619616508484
12.581917524337769,0.3282170295715332,-0.033099789172410965,0.5897153615951538,-0.037681449204683304,-0.0604240819811821,0.6407716274261475
12.602322101593018,0.3327367603778839,-0.02608518674969673,0.5839098691940308,-0.025724757462739944,-0.06643175333738327,0.6435549855232239
12.622475624084473,0.3003559410572052,-0.06574314832687378,0.5507596731185913,0.006165068596601486,-0.07018659263849258,0.6473726034164429
12.642585277557373,0.2984186112880707,-0.10012049973011017,0.5507738590240479,0.02532569132745266,-0.07787082344293594,0.6485481858253479
12.662635326385498,0.2932264506816864,-0.15510980784893036,0.5558230876922607,0.02607038989663124,-0.07545358687639236,0.6457391381263733
12.682721138000488,0.31114867329597473,-0.17561063170433044,0.5756813287734985,-0.004110010340809822,-0.06240656226873398,0.6407672166824341
12.702777624130249,0.31128308176994324,-0.24322910606861115,0.6026866436004639,-0.01418287307024002,-0.06015860289335251,0.6351229548454285
12.722846746444702,0.3078124225139618,-0.32373854517936707,0.6115034818649292,0.0004554726183414459,-0.06486419588327408,0.6321492195129395
12.742890119552612,0.3010862171649933,-0.388490229845047,0.6156980991363525,0.011650584638118744,-0.06741271167993546,0.6313754320144653
12.762981653213501,0.29185768961906433,-0.42215022444725037,0.6166071891784668,0.0478600338101387,-0.08561242371797562,0.6340458989143372
12.783055305480957,0.29449740052223206,-0.4674260914325714,0.6206846237182617,0.05457795411348343,-0.09079167991876602,0.6328805685043335
12.803131580352783,0.2963695526123047,-0.4799993932247162,0.6421695947647095,0.042599163949489594,-0.09298153966665268,0.6299225091934204
12.823208808898926,0.2956286370754242,-0.4947446286678314,0.64117431640625,0.03294596076011658,-0.08567122370004654,0.6298110485076904
12.843305826187134,0.2941891551017761,-0.4977704584598541,0.6405079364776611,0.030041774734854698,-0.08080420643091202,0.6311521530151367
12.863355159759521,0.29877832531929016,-0.49800339341163635,0.6322113871574402,0.03291594609618187,-0.08336853235960007,0.631982684135437
12.883413791656494,0.3085499107837677,-0.4750783145427704,0.648063063621521,0.018361523747444153,-0.08231211453676224,0.6320716142654419
12.903461694717407,0.31243082880973816,-0.4416153132915497,0.659091591835022,0.016058193519711494,-0.09175971895456314,0.6317137479782104
12.923550844192505,0.3042867183685303,-0.4457812011241913,0.6282640099525452,0.03643389791250229,-0.08914443105459213,0.6382763981819153
12.943669319152832,0.3133637309074402,-0.38233593106269836,0.6309880018234253,0.00044616684317588806,-0.07770144194364548,0.6394692659378052
12.963749170303345,0.3132304847240448,-0.3349297344684601,0.6307939291000366,0.00312182679772377,-0.08712729066610336,0.6412830948829651
12.983852863311768,0.31961098313331604,-0.30143728852272034,0.6171083450317383,0.018497420474886894,-0.09879357367753983,0.6458683609962463
13.003921031951904,0.3162340521812439,-0.2909247577190399,0.6165016889572144,0.01645461656153202,-0.10003214329481125,0.6467486619949341
13.024024724960327,0.318913072347641,-0.28245919942855835,0.611323356628418,0.012861771509051323,-0.09724434465169907,0.6486597061157227
13.04404902458191,0.3173966407775879,-0.28073909878730774,0.6092026233673096,0.016555169597268105,-0.10200449079275131,0.6499960422515869
13.064238786697388,0.31439316272735596,-0.2843819558620453,0.6043033599853516,0.038067776709795,-0.11477837711572647,0.6531886458396912
13.084331512451172,0.3189144432544708,-0.27492931485176086,0.6071946024894714,0.010489478707313538,-0.09733208268880844,0.6526408195495605
13.104432106018066,0.32127758860588074,-0.2684573233127594,0.6098008155822754,0.015611078590154648,-0.10656476765871048,0.6532395482063293
13.124475002288818,0.3204537034034729,-0.25338131189346313,0.6071842908859253,0.027052536606788635,-0.12009584158658981,0.65498286485672
13.144524812698364,0.33118805289268494,-0.23105396330356598,0.6070621013641357,0.003307085484266281,-0.10301197320222855,0.6568784713745117
13.16461181640625,0.3232709467411041,-0.2227020561695099,0.5996075868606567,0.009273086674511433,-0.1079656258225441,0.6588244438171387
13.18466329574585,0.3213726878166199,-0.22517770528793335,0.5931509137153625,0.019957613199949265,-0.1109093502163887,0.6610757112503052
13.20471477508545,0.32275792956352234,-0.23452143371105194,0.5905234813690186,0.01606421172618866,-0.10767484456300735,0.662574052810669
13.224777460098267,0.32263118028640747,-0.24525493383407593,0.5970896482467651,0.02911416068673134,-0.12245679646730423,0.6611245274543762
13.24497938156128,0.32078149914741516,-0.26227620244026184,0.5903185606002808,0.0400552973151207,-0.12391266971826553,0.6638191938400269
13.264966487884521,0.32906976342201233,-0.2585000693798065,0.5966980457305908,0.03103257715702057,-0.12107910960912704,0.6648908853530884
13.285045623779297,0.32849040627479553,-0.26333746314048767,0.5967175960540771,0.03319805487990379,-0.12617765367031097,0.6633435487747192
13.3051118850708,0.33646318316459656,-0.25322553515434265,0.6003895401954651,0.02519167959690094,-0.12368089705705643,0.6650171279907227
13.325174331665039,0.33316847681999207,-0.23607465624809265,0.6056278944015503,0.009648379869759083,-0.1192258670926094,0.665340006351471
13.345223188400269,0.332188218832016,-0.22620275616645813,0.6036162376403809,0.005241667851805687,-0.12586314976215363,0.6646028757095337
13.365599632263184,0.33126625418663025,-0.22667337954044342,0.599118709564209,0.024933604523539543,-0.13345392048358917,0.6690760254859924
13.385759353637695,0.32784923911094666,-0.23722220957279205,0.5929208993911743,0.027024034410715103,-0.13624683022499084,0.669995129108429
13.405879497528076,0.32798904180526733,-0.2531302571296692,0.5931335687637329,0.043202031403779984,-0.14140184223651886,0.6730214357376099
13.425859212875366,0.3331710398197174,-0.2652144134044647,0.5936553478240967,0.030604759231209755,-0.1339314877986908,0.6730164289474487
13.445951223373413,0.3306005895137787,-0.2764490246772766,0.5947949886322021,0.043044086545705795,-0.1463198959827423,0.6716477870941162
13.46598219871521,0.32780027389526367,-0.28684020042419434,0.5981292724609375,0.037608448415994644,-0.14266128838062286,0.6722341775894165
13.486051321029663,0.33994850516319275,-0.2721930146217346,0.5986328125,0.03073013573884964,-0.1388237327337265,0.6750001907348633
13.50623345375061,0.3375597298145294,-0.26259341835975647,0.5997219681739807,0.02845785766839981,-0.14228029549121857,0.6753622889518738
13.526392936706543,0.3439551889896393,-0.2516402304172516,0.5999962091445923,0.017683537676930428,-0.13752786815166473,0.6752005815505981
13.546434164047241,0.342446893453598,-0.2405698299407959,0.5997623205184937,0.009647799655795097,-0.14036467671394348,0.6752403378486633
13.566457986831665,0.33570989966392517,-0.2402755320072174,0.589788556098938,0.022331764921545982,-0.1387515813112259,0.6813744306564331
13.586611032485962,0.3409006893634796,-0.244381844997406,0.5861632823944092,0.029589787125587463,-0.1429850310087204,0.6835500001907349
13.606779336929321,0.34035518765449524,-0.24044710397720337,0.595801830291748,0.024359673261642456,-0.14564108848571777,0.682815670967102
13.62682056427002,0.34263408184051514,-0.2634793221950531,0.5903875827789307,0.03521762788295746,-0.1489948034286499,0.6839901208877563
13.646925926208496,0.3429408371448517,-0.2763829529285431,0.597916841506958,0.024456562474370003,-0.14428779482841492,0.6845070719718933
13.667087316513062,0.33959224820137024,-0.2935013771057129,0.5984362959861755,0.012881479226052761,-0.14258307218551636,0.682327151298523
13.687209367752075,0.3443838059902191,-0.2891702353954315,0.6010260581970215,0.020148910582065582,-0.14521856606006622,0.6857537031173706
13.707327604293823,0.34194913506507874,-0.28184637427330017,0.6016864776611328,0.02261325716972351,-0.15184758603572845,0.6868312358856201
13.727380514144897,0.34457263350486755,-0.27936607599258423,0.6012275218963623,0.011152535676956177,-0.15214823186397552,0.6859537959098816
13.747707843780518,0.34465792775154114,-0.2753908336162567,0.5981576442718506,0.026911702007055283,-0.15763331949710846,0.6904561519622803
13.767816066741943,0.3469160497188568,-0.2690424919128418,0.6005063652992249,0.015935176983475685,-0.15509742498397827,0.690908670425415
13.787924528121948,0.34782788157463074,-0.26794472336769104,0.5950610637664795,0.027170518413186073,-0.1596856415271759,0.6936733722686768
13.80794072151184,0.3461506962776184,-0.2788594961166382,0.5914416313171387,0.020593708381056786,-0.1563871055841446,0.6941713094711304
13.828000545501709,0.3402046263217926,-0.28428468108177185,0.5948303937911987,0.03611940145492554,-0.1665661334991455,0.6946670413017273
13.84818983078003,0.34252360463142395,-0.28347182273864746,0.5921145677566528,0.03672712668776512,-0.16588550806045532,0.6977593898773193
13.868284702301025,0.35033801198005676,-0.2836337983608246,0.5990561246871948,0.01090208999812603,-0.16052882373332977,0.6951214671134949
13.888298511505127,0.3582285940647125,-0.2758733034133911,0.59881591796875,-0.00017659924924373627,-0.15359261631965637,0.6971601247787476
13.908392667770386,0.34397661685943604,-0.28154176473617554,0.5942533016204834,0.02522897720336914,-0.16477353870868683,0.7015153169631958
13.928592205047607,0.3470849394798279,-0.28033527731895447,0.5905591249465942,0.036507949233055115,-0.16808241605758667,0.7065110206604004
13.948595762252808,0.34832632541656494,-0.272248774766922,0.5944539308547974,0.029553357511758804,-0.17252059280872345,0.706166684627533
13.968862056732178,0.3513844311237335,-0.2688245177268982,0.5898551940917969,0.029668351635336876,-0.17430758476257324,0.7084541320800781
13.989030122756958,0.35491371154785156,-0.2624680995941162,0.5916401147842407,0.02095726504921913,-0.16846641898155212,0.7085709571838379
14.009076118469238,0.35872992873191833,-0.2695032060146332,0.5921765565872192,0.020679740235209465,-0.1805790215730667,0.706425666809082
14.029133558273315,0.3480483591556549,-0.2713901698589325,0.5896215438842773,0.019392775371670723,-0.1727122813463211,0.7105085253715515
14.049256086349487,0.35364243388175964,-0.2674497961997986,0.5927762985229492,0.02160005271434784,-0.17296937108039856,0.7132387757301331
14.06934905052185,0.35871025919914246,-0.2487669587135315,0.5925025939941406,0.013382738456130028,-0.1762695163488388,0.7144309282302856
14.089418172836304,0.3528421223163605,-0.25027114152908325,0.5778958797454834,0.03240344673395157,-0.17884030938148499,0.7217428684234619
14.109528064727783,0.35869306325912476,-0.23958741128444672,0.5929374694824219,0.010772754438221455,-0.17623591423034668,0.7186912298202515
14.129644870758057,0.3684792220592499,-0.23297268152236938,0.5894825458526611,0.0037322472780942917,-0.1697067767381668,0.7232342958450317
14.149647235870361,0.35164111852645874,-0.24710556864738464,0.5731312036514282,0.004013493657112122,-0.1664402186870575,0.7242860794067383
14.169790983200073,0.3496374487876892,-0.281880259513855,0.567325234413147,0.03348148241639137,-0.18091002106666565,0.7272862792015076
14.189888954162598,0.35978609323501587,-0.28479519486427307,0.5859240293502808,0.0015908125787973404,-0.16855229437351227,0.7236906290054321
14.210077285766602,0.35727301239967346,-0.2962177097797394,0.5863425731658936,0.015142787247896194,-0.1771959513425827,0.7261701822280884
14.230163335800171,0.36403244733810425,-0.2912920117378235,0.5866625308990479,0.009496564045548439,-0.17034438252449036,0.7307248115539551
14.250268459320068,0.3603050410747528,-0.29000142216682434,0.5891658067703247,0.011489404365420341,-0.1755533665418625,0.7301658987998962
14.270296096801758,0.36352846026420593,-0.2733178436756134,0.5950136184692383,-0.009911168366670609,-0.17122358083724976,0.7319188117980957
14.290370464324951,0.361959308385849,-0.2642577886581421,0.5908792018890381,0.009777799248695374,-0.18435701727867126,0.7371615171432495
14.310467720031738,0.3642841577529907,-0.2427498698234558,0.586887001991272,0.01502411998808384,-0.18836672604084015,0.7444133758544922
14.330539226531982,0.3702828586101532,-0.22834141552448273,0.5849026441574097,-0.008045103400945663,-0.17573535442352295,0.7431927919387817
14.35068941116333,0.36705219745635986,-0.23939460515975952,0.5786656141281128,-0.0014526527374982834,-0.17702139914035797,0.747759222984314
14.370710611343384,0.3614552617073059,-0.27911317348480225,0.5805156230926514,0.008283184841275215,-0.18774880468845367,0.7475134134292603
14.390775442123413,0.35172972083091736,-0.33293822407722473,0.5787042379379272,0.008910179138183594,-0.1805228888988495,0.74857097864151
14.410908699035645,0.3562376797199249,-0.33458608388900757,0.5927127599716187,0.0062611401081085205,-0.18095803260803223,0.7498227953910828
14.430992841720581,0.3573627471923828,-0.33921974897384644,0.5927616357803345,0.007330155000090599,-0.18530984222888947,0.752082109451294
14.451066255569458,0.3605060279369354,-0.34817948937416077,0.589070200920105,0.017723198980093002,-0.19568230211734772,0.7544649839401245
14.471718549728394,0.35747745633125305,-0.3421803414821625,0.5933419466018677,0.011564711108803749,-0.19270873069763184,0.7587341070175171
14.4918372631073,0.37394580245018005,-0.31097838282585144,0.6036842465400696,-0.01589360460639,-0.18377655744552612,0.7586954832077026
14.511948823928833,0.36746713519096375,-0.29302850365638733,0.6004804968833923,-0.005758263170719147,-0.19508324563503265,0.763611912727356
14.532045364379883,0.3652135729789734,-0.27196428179740906,0.5856636762619019,0.0019047968089580536,-0.19759447872638702,0.7713631987571716
14.55211615562439,0.36959055066108704,-0.24884697794914246,0.584203839302063,-0.016994822770357132,-0.1882704347372055,0.7759550213813782
14.5722336769104,0.3591485023498535,-0.2538417875766754,0.5786993503570557,0.004825936630368233,-0.19802680611610413,0.7804142236709595
14.592274188995361,0.36520013213157654,-0.26226407289505005,0.5761702060699463,0.004365112632513046,-0.1962229162454605,0.7854334115982056
14.612447023391724,0.3679071366786957,-0.2627291977405548,0.574458122253418,-0.0065568238496780396,-0.18467256426811218,0.7909573912620544
14.632429838180542,0.363720566034317,-0.28770527243614197,0.5764007568359375,-0.013499565422534943,-0.18582670390605927,0.7902599573135376
14.65251874923706,0.36730778217315674,-0.29232722520828247,0.5766161680221558,-0.026221219450235367,-0.17538873851299286,0.791767954826355
14.67262315750122,0.3708370625972748,-0.29032814502716064,0.5861177444458008,-0.03413926064968109,-0.17857232689857483,0.7931975722312927
14.692662477493286,0.3790089190006256,-0.2623712122440338,0.5883712768554688,-0.04318660870194435,-0.17940807342529297,0.7977955937385559
14.712852001190186,0.37425681948661804,-0.25545671582221985,0.580270528793335,-0.023800991475582123,-0.18752631545066833,0.8045275211334229
14.733005046844482,0.36524084210395813,-0.2519119679927826,0.5698564052581787,-0.033871885389089584,-0.18026761710643768,0.8096356391906738
14.753127574920654,0.3610292971134186,-0.2722513675689697,0.5641605854034424,-0.024779628962278366,-0.18060798943042755,0.8159091472625732
14.773195266723633,0.34863176941871643,-0.33293160796165466,0.5547220706939697,-0.013925574719905853,-0.18201860785484314,0.8196043968200684
14.79330563545227,0.3618893325328827,-0.345533162355423,0.5761572122573853,-0.030992284417152405,-0.17926421761512756,0.816996693611145
14.813342571258545,0.37317726016044617,-0.3458697497844696,0.5851673483848572,-0.039861585944890976,-0.1818266063928604,0.8219325542449951
14.8335542678833,0.3693614900112152,-0.34396466612815857,0.5862135887145996,-0.04049841687083244,-0.18087981641292572,0.8297185897827148
14.853540182113647,0.3907815217971802,-0.295952171087265,0.6032875776290894,-0.03689071163535118,-0.20361362397670746,0.8333112597465515
14.873613119125366,0.38636085391044617,-0.266231507062912,0.5855588912963867,-0.0519140250980854,-0.19105257093906403,0.8420372605323792
14.893689155578613,0.37283819913864136,-0.18935061991214752,0.5824233293533325,-0.04551815614104271,-0.2028120905160904,0.8524584770202637
14.913752794265747,0.3800690472126007,-0.1411001980304718,0.563302755355835,-0.048728954046964645,-0.20543453097343445,0.8628876805305481
14.933807134628296,0.35932913422584534,-0.18671858310699463,0.5410812497138977,-0.05636109039187431,-0.18348470330238342,0.8722930550575256
14.953908920288086,0.32153746485710144,-0.2827305495738983,0.5118021965026855,-0.011876564472913742,-0.1797923743724823,0.8832193613052368
14.973963737487793,0.33439186215400696,-0.45076870918273926,0.5418808460235596,-0.005354233086109161,-0.1735338419675827,0.87837815284729
14.994038105010986,0.3334200382232666,-0.5888277888298035,0.5810139179229736,-0.013937544077634811,-0.17000851035118103,0.8712021112442017
