liuyurong129/humanoid-gym/humanoid/data/target_q_20250522-034348.csv
timestamp,joint_1,joint_2,joint_3,joint_4,joint_5,joint_6
5.1975250244140625e-05,0.0,0.0,0.0,0.0,0.0,0.0
0.020133256912231445,0.0,0.0,0.0,0.0,0.0,0.0
0.04021644592285156,0.0,0.0,0.0,0.0,0.0,0.0
0.060292720794677734,0.0,0.0,0.0,0.0,0.0,0.0
0.08037042617797852,0.0,0.0,0.0,0.0,0.0,0.0
0.10045528411865234,-1.3598082065582275,-1.059856653213501,0.7451690435409546,-0.2701461911201477,-0.1277342438697815,0.5547675490379333
0.1205286979675293,-1.403946042060852,-1.0408246517181396,0.7536894083023071,-0.2725564241409302,-0.12698258459568024,0.564558744430542
0.14075899124145508,-1.4265685081481934,-1.0312309265136719,0.7538278698921204,-0.2741468846797943,-0.12709304690361023,0.5688744783401489
0.16084909439086914,-1.47190523147583,-1.012488603591919,0.7494199872016907,-0.2776695489883423,-0.1280106157064438,0.5766058564186096
0.1814131736755371,-1.5169954299926758,-0.9935428500175476,0.7431232333183289,-0.2813229560852051,-0.12928001582622528,0.5838971734046936
0.20148730278015137,-1.5393954515457153,-0.9837611317634583,0.7398660778999329,-0.2831771969795227,-0.12994533777236938,0.587512195110321
0.2215576171875,-1.5838162899017334,-0.9638753533363342,0.7318688631057739,-0.28707391023635864,-0.131268709897995,0.5945518016815186
0.2417314052581787,-1.6058368682861328,-0.9539946913719177,0.7267200350761414,-0.2891470193862915,-0.1319257766008377,0.597902238368988
0.26176977157592773,-1.6494346857070923,-0.9338843822479248,0.7152928709983826,-0.293521523475647,-0.13310913741588593,0.6045017838478088
0.28186511993408203,-1.670981526374817,-0.9233440160751343,0.7095291614532471,-0.29577940702438354,-0.13364830613136292,0.6078227162361145
0.3019242286682129,-1.7133831977844238,-0.9010332226753235,0.6979085803031921,-0.30045613646507263,-0.1344345062971115,0.6146475672721863
0.32245635986328125,-1.754754900932312,-0.8771359920501709,0.6859891414642334,-0.30543869733810425,-0.1347818821668625,0.6217210292816162
0.3426179885864258,-1.7732470035552979,-0.8656790256500244,0.6804412007331848,-0.30782684683799744,-0.13480506837368011,0.6250317692756653
0.3626389503479004,-1.8051990270614624,-0.8445909023284912,0.6709250807762146,-0.31213483214378357,-0.1346929669380188,0.6309827566146851
0.38283777236938477,-1.8189343214035034,-0.8349341750144958,0.6670101881027222,-0.3140462636947632,-0.13460443913936615,0.6336478590965271
0.40282130241394043,-1.8423789739608765,-0.8174124360084534,0.6607139706611633,-0.3173973560333252,-0.13432520627975464,0.6384387016296387
0.4228854179382324,-1.8617945909500122,-0.8020690083503723,0.655620276927948,-0.32033008337020874,-0.1340140402317047,0.6425766348838806
0.4429788589477539,-1.8705366849899292,-0.7951048016548157,0.6533001661300659,-0.32168957591056824,-0.1339203417301178,0.6444171071052551
0.46305322647094727,-1.886245608329773,-0.7824594974517822,0.649135172367096,-0.32415810227394104,-0.13380581140518188,0.6477099657058716
0.48327183723449707,-1.8932180404663086,-0.7767478227615356,0.6473578810691833,-0.3252621293067932,-0.13377436995506287,0.6491794586181641
0.5033917427062988,-1.9051942825317383,-0.7665197849273682,0.6444242000579834,-0.3272666037082672,-0.1337047666311264,0.6518086791038513
0.5235755443572998,-1.9146673679351807,-0.7577916383743286,0.6421187520027161,-0.3290339708328247,-0.13354143500328064,0.6540840268135071
0.5436859130859375,-1.918736457824707,-0.753903329372406,0.6412160396575928,-0.3298155665397644,-0.1334645301103592,0.6550967693328857
0.5637385845184326,-1.9254248142242432,-0.7470241189002991,0.6397951245307922,-0.3311637043952942,-0.13322767615318298,0.656923770904541
0.5838360786437988,-1.9279648065567017,-0.7440289855003357,0.6393158435821533,-0.3317312002182007,-0.1330452412366867,0.6577502489089966
0.6039361953735352,-1.93161141872406,-0.7388587594032288,0.6384330987930298,-0.3327558636665344,-0.1324625313282013,0.6592691540718079
0.6240139007568359,-1.9342119693756104,-0.7345535755157471,0.6375004053115845,-0.33366847038269043,-0.13174572587013245,0.6606083512306213
0.644160270690918,-1.9353830814361572,-0.7326425313949585,0.6371170282363892,-0.3340538740158081,-0.13142862915992737,0.6612004637718201
0.6642153263092041,-1.937157154083252,-0.7292999029159546,0.6366618275642395,-0.33465632796287537,-0.13081474602222443,0.6622610092163086
0.6855459213256836,-1.9380455017089844,-0.7265999913215637,0.6362169981002808,-0.3351672291755676,-0.13010597229003906,0.6631961464881897
0.7057068347930908,-1.938417911529541,-0.7254278659820557,0.6359469890594482,-0.3354058861732483,-0.1297624260187149,0.6636107563972473
0.7257003784179688,-1.9393690824508667,-0.7233184576034546,0.6355099678039551,-0.3357895314693451,-0.12923285365104675,0.6643193960189819
0.7459304332733154,-1.939850091934204,-0.7223793864250183,0.635378897190094,-0.3359174430370331,-0.1290319859981537,0.6646189093589783
0.766063928604126,-1.940350890159607,-0.720781147480011,0.6350569725036621,-0.3361327648162842,-0.12857502698898315,0.6651566624641418
0.7861025333404541,-1.9402406215667725,-0.7195162177085876,0.6348950266838074,-0.33624956011772156,-0.1280689239501953,0.6656092405319214
0.8062229156494141,-1.9402334690093994,-0.7189570665359497,0.6349737644195557,-0.33626589179039,-0.1278955489397049,0.6657847166061401
0.8263421058654785,-1.940004825592041,-0.718022882938385,0.6353511214256287,-0.33621516823768616,-0.12753643095493317,0.6660893559455872
0.8466625213623047,-1.9387447834014893,-0.7174570560455322,0.6360521912574768,-0.3360881805419922,-0.12703852355480194,0.6663520336151123
0.8667640686035156,-1.9379429817199707,-0.7172855138778687,0.6363188624382019,-0.33604833483695984,-0.12672871351242065,0.666473925113678
0.8868334293365479,-1.9364022016525269,-0.7170625925064087,0.6368188858032227,-0.3359467387199402,-0.12612974643707275,0.6666756868362427
0.9073784351348877,-1.9356834888458252,-0.7169981002807617,0.6370618939399719,-0.3358898460865021,-0.12585411965847015,0.6667574644088745
0.9274888038635254,-1.9341442584991455,-0.7169947028160095,0.6372158527374268,-0.33580395579338074,-0.12520352005958557,0.6669265627861023
0.9476044178009033,-1.9324567317962646,-0.7171149849891663,0.6371428966522217,-0.3357120156288147,-0.12445610761642456,0.6670958995819092
0.9676535129547119,-1.931879997253418,-0.7171541452407837,0.6370042562484741,-0.3356771469116211,-0.12412308156490326,0.6671661138534546
0.987760066986084,-1.9311044216156006,-0.7171703577041626,0.6370294690132141,-0.3355080187320709,-0.1236228421330452,0.6672682762145996
1.0078248977661133,-1.9308751821517944,-0.7171537280082703,0.6370454430580139,-0.3354102075099945,-0.12342515587806702,0.6673085689544678
1.0279760360717773,-1.9305099248886108,-0.7171202301979065,0.6371070742607117,-0.3352181911468506,-0.12302543967962265,0.6673897504806519
1.048069953918457,-1.930057168006897,-0.717128336429596,0.6371720433235168,-0.3350398540496826,-0.1226133406162262,0.6674586534500122
1.068108320236206,-1.9297428131103516,-0.7171510457992554,0.6371603608131409,-0.3349560797214508,-0.12237998098134995,0.6674932837486267
1.0881872177124023,-1.9289534091949463,-0.7172389030456543,0.6373915672302246,-0.3347458243370056,-0.12195350974798203,0.6675425171852112
1.1085681915283203,-1.9278687238693237,-0.7174269556999207,0.6373791098594666,-0.33460211753845215,-0.12140993028879166,0.6675987839698792
1.1287970542907715,-1.9270892143249512,-0.7175846695899963,0.6373408436775208,-0.33454445004463196,-0.12107226252555847,0.6676329374313354
1.1493735313415527,-1.9249167442321777,-0.7180374264717102,0.6373454928398132,-0.33436545729637146,-0.12026289850473404,0.6677097678184509
1.1694812774658203,-1.923717737197876,-0.7182849049568176,0.6374606490135193,-0.33423250913619995,-0.11984484642744064,0.66774582862854
1.1895945072174072,-1.921323299407959,-0.7188172936439514,0.6377710103988647,-0.3339395821094513,-0.11901684105396271,0.6677998304367065
1.209754228591919,-1.9202208518981934,-0.7190880179405212,0.6378923058509827,-0.3337888717651367,-0.11862156540155411,0.6678155660629272
1.2297799587249756,-1.9178447723388672,-0.7196957468986511,0.6380294561386108,-0.3334980905056,-0.11775001883506775,0.6678487658500671
1.2500011920928955,-1.9155586957931519,-0.7202901244163513,0.6386750340461731,-0.3330670893192291,-0.11699406057596207,0.6678415536880493
1.2700963020324707,-1.914557933807373,-0.7205761075019836,0.639031708240509,-0.33286717534065247,-0.11666538566350937,0.6678216457366943
1.2901649475097656,-1.9128034114837646,-0.7211524248123169,0.6396486759185791,-0.33251434564590454,-0.11606122553348541,0.667761504650116
1.310227394104004,-1.911888599395752,-0.7214682102203369,0.6398707628250122,-0.33236390352249146,-0.11573710292577744,0.6677308678627014
1.3303184509277344,-1.910180926322937,-0.7220722436904907,0.640495777130127,-0.33201730251312256,-0.115175761282444,0.6676437854766846
1.350379228591919,-1.9086833000183105,-0.7226329445838928,0.6411536931991577,-0.33165934681892395,-0.11465580016374588,0.6675539612770081
1.3704602718353271,-1.9078971147537231,-0.7229265570640564,0.6412057876586914,-0.33155566453933716,-0.1143224760890007,0.667526125907898
1.3905255794525146,-1.906001329421997,-0.7235596179962158,0.6409631967544556,-0.3313993215560913,-0.11350031197071075,0.6674995422363281
1.410593032836914,-1.905004858970642,-0.723871111869812,0.6407701969146729,-0.3313215374946594,-0.11306209117174149,0.6674899458885193
1.4306907653808594,-1.9029314517974854,-0.7244827151298523,0.640522301197052,-0.3311237692832947,-0.11217597126960754,0.6674665212631226
1.4507594108581543,-1.9006105661392212,-0.7251052260398865,0.6406471729278564,-0.3308092951774597,-0.11128410696983337,0.6674348711967468
1.4708654880523682,-1.8993744850158691,-0.7254393100738525,0.6407504081726074,-0.33066126704216003,-0.11083322763442993,0.6674119234085083
1.4909641742706299,-1.897180199623108,-0.726060152053833,0.6412252187728882,-0.3302980959415436,-0.11007647961378098,0.6673164963722229
1.5110058784484863,-1.8957061767578125,-0.7265710830688477,0.6418360471725464,-0.329929381608963,-0.10954070836305618,0.6671651601791382
1.5311238765716553,-1.8951987028121948,-0.7267906069755554,0.6421589851379395,-0.32975608110427856,-0.10933791100978851,0.66707843542099
1.5511937141418457,-1.894364356994629,-0.7271945476531982,0.6426905393600464,-0.32942724227905273,-0.10896427929401398,0.6669067740440369
1.5718400478363037,-1.8935277462005615,-0.727599024772644,0.6428037881851196,-0.3291860520839691,-0.1084863618016243,0.66676926612854
1.5919289588928223,-1.8930991888046265,-0.7277950048446655,0.6427677273750305,-0.3290861248970032,-0.10822255164384842,0.6667095422744751
1.6119921207427979,-1.8918797969818115,-0.7282306551933289,0.6428025960922241,-0.328845351934433,-0.10761474072933197,0.6666180491447449
1.6320858001708984,-1.89104163646698,-0.7284861207008362,0.6427665948867798,-0.32874253392219543,-0.10722921788692474,0.6665913462638855
1.6522040367126465,-1.889107346534729,-0.7290307283401489,0.6426637768745422,-0.3284934163093567,-0.10637874156236649,0.6665522456169128
1.6722187995910645,-1.887053370475769,-0.7295625805854797,0.642480194568634,-0.32825174927711487,-0.10543851554393768,0.6665301322937012
1.69246506690979,-1.886101484298706,-0.7298076152801514,0.6424447298049927,-0.32812991738319397,-0.10501621663570404,0.6665061712265015
1.7124645709991455,-1.8843423128128052,-0.7302536368370056,0.6427477598190308,-0.3278201222419739,-0.10429366677999496,0.6664301753044128
1.7326076030731201,-1.8826438188552856,-0.7307096719741821,0.6427814960479736,-0.32756438851356506,-0.10353673994541168,0.6663596630096436
1.7527644634246826,-1.8819128274917603,-0.7309149503707886,0.6427924036979675,-0.3274238705635071,-0.10319655388593674,0.6663148999214172
1.7728025913238525,-1.8806633949279785,-0.7312844395637512,0.643129825592041,-0.32706916332244873,-0.10263600200414658,0.6662059426307678
1.7929377555847168,-1.8800688982009888,-0.7314751744270325,0.6434136629104614,-0.3268760144710541,-0.10239021480083466,0.6661501526832581
1.8129806518554688,-1.878858208656311,-0.7318928241729736,0.6438919305801392,-0.3265080451965332,-0.1018591970205307,0.6660596132278442
1.833033800125122,-1.8774423599243164,-0.7323945760726929,0.6440972685813904,-0.32616862654685974,-0.10118300467729568,0.6660146713256836
1.8531315326690674,-1.876771092414856,-0.7326474785804749,0.6441682577133179,-0.3260127305984497,-0.10085926204919815,0.665992021560669
1.8732314109802246,-1.8754152059555054,-0.733157753944397,0.6444187164306641,-0.32572823762893677,-0.10023503005504608,0.6659470200538635
1.8933558464050293,-1.8734936714172363,-0.7337595224380493,0.6447474956512451,-0.3254748582839966,-0.0994894802570343,0.6659343838691711
1.9134600162506104,-1.8724250793457031,-0.7340844869613647,0.6448262929916382,-0.325366348028183,-0.0990903228521347,0.6659301519393921
1.9335026741027832,-1.8702279329299927,-0.7347452044487,0.6449873447418213,-0.32517141103744507,-0.09828370809555054,0.6659052968025208
1.9536521434783936,-1.869119644165039,-0.7350698113441467,0.6451504826545715,-0.325065016746521,-0.09791392087936401,0.6658782362937927
1.9736840724945068,-1.8669310808181763,-0.7356836199760437,0.6455572843551636,-0.3248666524887085,-0.09720742702484131,0.6658163070678711
1.9938552379608154,-1.8648252487182617,-0.736271321773529,0.6455639004707336,-0.3247200846672058,-0.09643503278493881,0.6657890677452087
2.0140576362609863,-1.863908052444458,-0.736541748046875,0.6454242467880249,-0.32465705275535583,-0.09606599807739258,0.6657769680023193
2.03468656539917,-1.8625463247299194,-0.7369887232780457,0.6452023983001709,-0.324526846408844,-0.09544229507446289,0.6657383441925049
2.0548057556152344,-1.862000823020935,-0.7371792793273926,0.6451301574707031,-0.32444867491722107,-0.09518375992774963,0.6657161116600037
2.0749120712280273,-1.8606171607971191,-0.7375971078872681,0.6453277468681335,-0.32421568036079407,-0.09465844929218292,0.6656900644302368
2.095137119293213,-1.858798623085022,-0.7381170392036438,0.6457362174987793,-0.32390153408050537,-0.09404513239860535,0.6656906008720398
2.1152849197387695,-1.8577102422714233,-0.7384247183799744,0.6460276246070862,-0.3237157166004181,-0.09368470311164856,0.665696382522583
2.1353626251220703,-1.85579252243042,-0.739031195640564,0.6466127634048462,-0.32336461544036865,-0.09304778277873993,0.6656720042228699
2.155475378036499,-1.854770541191101,-0.7393491268157959,0.6468127369880676,-0.32320308685302734,-0.09267578274011612,0.665667712688446
2.1755318641662598,-1.852218747138977,-0.7400856018066406,0.6469174027442932,-0.32293540239334106,-0.09171342849731445,0.6656966209411621
2.1959831714630127,-1.8508968353271484,-0.7404599785804749,0.6468134522438049,-0.32283222675323486,-0.09118460863828659,0.6657134294509888
2.216095447540283,-1.8484549522399902,-0.7411559820175171,0.6465796232223511,-0.3225952982902527,-0.09017816185951233,0.665722668170929
2.236271858215332,-1.846032977104187,-0.7418127655982971,0.6462660431861877,-0.3223733901977539,-0.08917167782783508,0.6657192707061768
2.2563962936401367,-1.8449684381484985,-0.7420954704284668,0.6461817622184753,-0.3222505748271942,-0.0887252688407898,0.6657049655914307
2.276411294937134,-1.842923879623413,-0.7426421642303467,0.6461942791938782,-0.32196784019470215,-0.08790744841098785,0.6656590104103088
2.2964906692504883,-1.841875433921814,-0.7429173588752747,0.6462406516075134,-0.3218104839324951,-0.08749816566705704,0.6656343340873718
2.316581964492798,-1.8398854732513428,-0.743453860282898,0.646292507648468,-0.3214899003505707,-0.08670061081647873,0.6655780673027039
2.3373143672943115,-1.8378127813339233,-0.7440151572227478,0.646346390247345,-0.3211474120616913,-0.08585792779922485,0.6655328869819641
2.357436180114746,-1.836931586265564,-0.7442693114280701,0.6463913917541504,-0.3209678828716278,-0.08547185361385345,0.6655024290084839
2.377530813217163,-1.8350541591644287,-0.7448112368583679,0.6465156674385071,-0.3206086754798889,-0.08470223844051361,0.6654423475265503
2.3977017402648926,-1.8338907957077026,-0.7451325058937073,0.6465181112289429,-0.32044002413749695,-0.0842423364520073,0.6654317378997803
2.417801856994629,-1.8314117193222046,-0.7458124160766602,0.6465522050857544,-0.3200562596321106,-0.0832962766289711,0.6654224395751953
2.4384682178497314,-1.8284873962402344,-0.7465947866439819,0.6472525596618652,-0.31950536370277405,-0.08233510702848434,0.6654230356216431
2.4585647583007812,-1.8270493745803833,-0.7470024824142456,0.6476393938064575,-0.31922489404678345,-0.08187704533338547,0.6654191017150879
2.478635549545288,-1.8244587182998657,-0.7477981448173523,0.648383617401123,-0.31870630383491516,-0.08099778741598129,0.6654143929481506
2.499540328979492,-1.8232266902923584,-0.7482007145881653,0.6487328410148621,-0.31846269965171814,-0.08055459707975388,0.6654191613197327
2.519636392593384,-1.8210102319717407,-0.7489778995513916,0.6492089629173279,-0.31800615787506104,-0.07967496663331985,0.6654297113418579
2.5397181510925293,-1.8189525604248047,-0.7497285008430481,0.649520993232727,-0.3175863027572632,-0.07879742980003357,0.6654378175735474
2.559817314147949,-1.8180564641952515,-0.7500792145729065,0.6495220065116882,-0.31741827726364136,-0.07836474478244781,0.6654412150382996
2.5799052715301514,-1.8167388439178467,-0.7506862282752991,0.6494945287704468,-0.3171311616897583,-0.07762369513511658,0.6654160618782043
2.5999698638916016,-1.8151947259902954,-0.7513023614883423,0.6495789289474487,-0.31681039929389954,-0.07686416059732437,0.6653842329978943
2.6200673580169678,-1.8141345977783203,-0.7516559958457947,0.6496132612228394,-0.3166579008102417,-0.07640039175748825,0.6653770804405212
2.6401309967041016,-1.8119354248046875,-0.7523708343505859,0.64987713098526,-0.3163470923900604,-0.07550058513879776,0.6653378009796143
2.660207986831665,-1.8107541799545288,-0.7527409791946411,0.6501469612121582,-0.316177636384964,-0.07505879551172256,0.6653069257736206
2.680281639099121,-1.808312177658081,-0.7535033226013184,0.6507794857025146,-0.3158390522003174,-0.07416664063930511,0.6652237176895142
2.700364828109741,-1.8072378635406494,-0.7538582682609558,0.651123046875,-0.3156839907169342,-0.07375960797071457,0.6651644110679626
2.720468521118164,-1.805420160293579,-0.7545080184936523,0.6517582535743713,-0.3154175877571106,-0.07307706028223038,0.6650102138519287
2.7407429218292236,-1.8040637969970703,-0.755045473575592,0.6523025631904602,-0.31517690420150757,-0.07250740379095078,0.6648375988006592
2.760833501815796,-1.8034533262252808,-0.7552915215492249,0.6525365710258484,-0.31505483388900757,-0.07224589586257935,0.6647510528564453
2.7809035778045654,-1.8024135828018188,-0.755744218826294,0.6527301669120789,-0.3148439824581146,-0.07171571254730225,0.6645843982696533
2.800997495651245,-1.8020111322402954,-0.7559395432472229,0.6527592539787292,-0.3147541880607605,-0.07146889716386795,0.664497971534729
2.8211684226989746,-1.8008676767349243,-0.7563470602035522,0.6529325246810913,-0.3144926428794861,-0.07091230899095535,0.6643465757369995
2.8412067890167236,-1.7999237775802612,-0.7565968632698059,0.6530073881149292,-0.3143402934074402,-0.07052211463451385,0.6642955541610718
2.8614065647125244,-1.797511339187622,-0.7572119832038879,0.653139591217041,-0.3140295147895813,-0.0695779025554657,0.6642241477966309
2.8815293312072754,-1.794801950454712,-0.7579148411750793,0.6533504724502563,-0.3136829137802124,-0.06854411959648132,0.6641515493392944
2.901628017425537,-1.7934945821762085,-0.7582669854164124,0.653503954410553,-0.3134915828704834,-0.06805437803268433,0.66410231590271
2.9216604232788086,-1.7909438610076904,-0.7589759230613708,0.6537258625030518,-0.31316298246383667,-0.06710081547498703,0.6639906167984009
2.941739559173584,-1.789665937423706,-0.7593379616737366,0.6538301706314087,-0.3130147159099579,-0.06662315875291824,0.6639318466186523
2.9619812965393066,-1.7873233556747437,-0.7600486874580383,0.6542025208473206,-0.31267479062080383,-0.06575284153223038,0.6638033390045166
2.9820313453674316,-1.7849974632263184,-0.760775625705719,0.6546927690505981,-0.31227949261665344,-0.06490577012300491,0.6636781096458435
3.0021116733551025,-1.7838343381881714,-0.7611384391784668,0.6548710465431213,-0.3120827376842499,-0.06445354968309402,0.663625955581665
3.022230386734009,-1.7815639972686768,-0.7618547081947327,0.6551385521888733,-0.3117092251777649,-0.06351111084222794,0.6635411977767944
3.042476177215576,-1.7802244424819946,-0.762251079082489,0.6552092432975769,-0.31151413917541504,-0.06294050812721252,0.6635260581970215
3.0625743865966797,-1.7777154445648193,-0.7630143761634827,0.6553412675857544,-0.3110596239566803,-0.06181524693965912,0.6635011434555054
3.0829010009765625,-1.7757633924484253,-0.7636908888816833,0.6553625464439392,-0.31063932180404663,-0.0608534999191761,0.663440465927124
3.103104591369629,-1.7747896909713745,-0.7640302777290344,0.6553457379341125,-0.3104381859302521,-0.06037566065788269,0.6634117364883423
3.1231606006622314,-1.7727973461151123,-0.7647002935409546,0.6555290818214417,-0.30998530983924866,-0.05949736014008522,0.663343071937561
3.1433515548706055,-1.771770715713501,-0.7650499939918518,0.6558358669281006,-0.30973106622695923,-0.05911455303430557,0.6632959842681885
3.163372755050659,-1.770243763923645,-0.7656815052032471,0.6564382910728455,-0.3092896640300751,-0.058542124927043915,0.6631599068641663
3.1845266819000244,-1.768626093864441,-0.7663511633872986,0.6570735573768616,-0.30889126658439636,-0.05796342343091965,0.6630385518074036
3.2046360969543457,-1.7677366733551025,-0.7667112350463867,0.6573460698127747,-0.3087102174758911,-0.057650770992040634,0.6629884243011475
3.2247488498687744,-1.7658264636993408,-0.7674499750137329,0.6580478549003601,-0.30831798911094666,-0.056985266506671906,0.6629035472869873
3.244795083999634,-1.7649800777435303,-0.7678071856498718,0.6583513021469116,-0.3081486225128174,-0.05667724832892418,0.6628565788269043
3.264894962310791,-1.7632980346679688,-0.7685089707374573,0.6583741903305054,-0.3079374134540558,-0.05591432750225067,0.6628023386001587
3.285064697265625,-1.7623353004455566,-0.7688613533973694,0.6582697629928589,-0.30783072113990784,-0.05545998364686966,0.6627919673919678
3.305166006088257,-1.7602418661117554,-0.7695505619049072,0.6582868099212646,-0.3075578510761261,-0.054565154016017914,0.6627674698829651
3.3252670764923096,-1.7582229375839233,-0.7702049016952515,0.6583257913589478,-0.30726590752601624,-0.0537014976143837,0.6627311110496521
3.3453524112701416,-1.7573012113571167,-0.7705082893371582,0.6583155393600464,-0.30711767077445984,-0.0532926507294178,0.6627039313316345
3.365429639816284,-1.7551015615463257,-0.7711612582206726,0.65843665599823,-0.3067857623100281,-0.052409540861845016,0.6626569628715515
3.385836601257324,-1.7533316612243652,-0.7717369794845581,0.6586087942123413,-0.306461900472641,-0.05165712162852287,0.6625779867172241
3.406022548675537,-1.7526428699493408,-0.7719955444335938,0.6586634516716003,-0.30632397532463074,-0.05133751779794693,0.662526547908783
3.4260547161102295,-1.7513724565505981,-0.7724946737289429,0.6586419343948364,-0.3060787618160248,-0.05070583522319794,0.6624236702919006
3.4462075233459473,-1.75058913230896,-0.7727614045143127,0.6586281657218933,-0.30595090985298157,-0.0503566600382328,0.6623772382736206
3.466315984725952,-1.7484750747680664,-0.7733820676803589,0.6589823365211487,-0.3056442141532898,-0.04956036061048508,0.6623073816299438
3.4863638877868652,-1.7463208436965942,-0.774031937122345,0.6590892672538757,-0.30543413758277893,-0.048685379326343536,0.6622488498687744
3.50649094581604,-1.7451680898666382,-0.7743739485740662,0.6591338515281677,-0.305326908826828,-0.04821474850177765,0.662219762802124
3.5265426635742188,-1.742448091506958,-0.7751127481460571,0.6593142151832581,-0.305083304643631,-0.04716337099671364,0.6621821522712708
3.5466675758361816,-1.7411328554153442,-0.7754710912704468,0.6593497395515442,-0.3049582242965698,-0.04665358364582062,0.6621621251106262
3.5668137073516846,-1.7384408712387085,-0.7762051224708557,0.659416139125824,-0.3047030568122864,-0.045606207102537155,0.6621206402778625
3.5868523120880127,-1.7359275817871094,-0.7769181728363037,0.6592530608177185,-0.3044402301311493,-0.04455289989709854,0.6620749235153198
3.6069889068603516,-1.7349096536636353,-0.7772300243377686,0.6592504382133484,-0.304282009601593,-0.044122517108917236,0.6620291471481323
3.6271026134490967,-1.7332314252853394,-0.7777830958366394,0.6596155166625977,-0.30388131737709045,-0.04346826672554016,0.6618965268135071
3.6472463607788086,-1.7324446439743042,-0.7780554890632629,0.6597769260406494,-0.3036811053752899,-0.04315909370779991,0.6618319749832153
3.6673710346221924,-1.7303776741027832,-0.7787052392959595,0.6604217290878296,-0.30317968130111694,-0.04245539382100105,0.6617177724838257
3.6874589920043945,-1.728496789932251,-0.7793563604354858,0.6612026691436768,-0.3026113510131836,-0.04178154841065407,0.6616050601005554
3.7076356410980225,-1.7277038097381592,-0.7796709537506104,0.6616096496582031,-0.30233991146087646,-0.04149157553911209,0.6615428924560547
3.7276597023010254,-1.725874900817871,-0.7803605198860168,0.6622601747512817,-0.30182430148124695,-0.04079703614115715,0.6614598035812378
3.7477381229400635,-1.7247815132141113,-0.7807372808456421,0.6625490188598633,-0.3015689253807068,-0.04037361592054367,0.6614428758621216
3.767820119857788,-1.7223016023635864,-0.781557559967041,0.6629211902618408,-0.3010770082473755,-0.03939773514866829,0.6614546775817871
3.788337230682373,-1.7199145555496216,-0.7823582887649536,0.6628986597061157,-0.3006841242313385,-0.03834947943687439,0.661492645740509
3.808444023132324,-1.7185989618301392,-0.7827730178833008,0.6630362272262573,-0.3004826605319977,-0.03783412277698517,0.6615078449249268
3.8285443782806396,-1.7161686420440674,-0.7835713028907776,0.6633464694023132,-0.30011066794395447,-0.036860641092061996,0.661525547504425
3.848928928375244,-1.715155839920044,-0.7839378118515015,0.6635291576385498,-0.29995018243789673,-0.036454346030950546,0.6615137457847595
3.869075298309326,-1.7130712270736694,-0.7846822142601013,0.6640346646308899,-0.2996256351470947,-0.0356721505522728,0.6614737510681152
3.889117956161499,-1.7108726501464844,-0.785457968711853,0.6644667983055115,-0.2993336319923401,-0.03487362712621689,0.6614185571670532
3.9092020988464355,-1.7099493741989136,-0.7858200669288635,0.6646755933761597,-0.2992013394832611,-0.034528858959674835,0.6613739132881165
3.9292826652526855,-1.708184838294983,-0.7865246534347534,0.6649861931800842,-0.2989587187767029,-0.033829912543296814,0.6612843871116638
3.9500033855438232,-1.7056382894515991,-0.7873461246490479,0.6652883291244507,-0.29869478940963745,-0.0329049676656723,0.6612299084663391
3.9701247215270996,-1.7042295932769775,-0.7877779006958008,0.6654298305511475,-0.2985523045063019,-0.03239606320858002,0.6612040400505066
3.9902231693267822,-1.7014412879943848,-0.7886285781860352,0.6656142473220825,-0.29827457666397095,-0.03134683519601822,0.6611427068710327
4.010344982147217,-1.7000473737716675,-0.7890426516532898,0.6656888127326965,-0.29814159870147705,-0.03081953153014183,0.6611047387123108
4.030380725860596,-1.6974934339523315,-0.7897858023643494,0.6655614376068115,-0.2979011535644531,-0.029750987887382507,0.6610345840454102
4.050525903701782,-1.6963077783584595,-0.790124773979187,0.6654883623123169,-0.29776832461357117,-0.029232250526547432,0.6609927415847778
4.070643901824951,-1.6937720775604248,-0.7908074855804443,0.6652957201004028,-0.2974928617477417,-0.028142446652054787,0.6609182953834534
4.090732574462891,-1.6925874948501587,-0.7911325693130493,0.6652551889419556,-0.2973264455795288,-0.02764117158949375,0.6608692407608032
4.110823631286621,-1.6898910999298096,-0.7918395400047302,0.6653316020965576,-0.2969553470611572,-0.02656080201268196,0.6607831120491028
4.130886554718018,-1.6869653463363647,-0.7926099300384521,0.6655133366584778,-0.2965276539325714,-0.025405816733837128,0.6607117652893066
4.150979280471802,-1.6854681968688965,-0.7930225133895874,0.6656692028045654,-0.2962779998779297,-0.02481100708246231,0.6606748104095459
4.171045303344727,-1.6826099157333374,-0.7938594222068787,0.6660364270210266,-0.29579758644104004,-0.023675721138715744,0.660576581954956
4.191101312637329,-1.679760456085205,-0.7946997284889221,0.6664543151855469,-0.2953094244003296,-0.02252649888396263,0.6604862213134766
4.211199045181274,-1.678342580795288,-0.7951202988624573,0.6666049957275391,-0.29506415128707886,-0.02193804271519184,0.6604450345039368
4.231328248977661,-1.6761258840560913,-0.7958489656448364,0.6667120456695557,-0.2946121096611023,-0.02090945467352867,0.6603299379348755
4.251544713973999,-1.6742981672286987,-0.7964873313903809,0.6668965220451355,-0.2941562533378601,-0.02001342922449112,0.6601925492286682
4.271641731262207,-1.6732300519943237,-0.7968281507492065,0.6670228838920593,-0.29393091797828674,-0.019528362900018692,0.6601372361183167
4.291698694229126,-1.6708002090454102,-0.7975689172744751,0.6675055027008057,-0.29338786005973816,-0.018548766151070595,0.6600310206413269
4.311790704727173,-1.6695021390914917,-0.7979652881622314,0.6679176688194275,-0.2930848300457001,-0.018090132623910904,0.659966230392456
4.331870079040527,-1.6669807434082031,-0.7988003492355347,0.6685888767242432,-0.2925240993499756,-0.01713930442929268,0.6598341464996338
4.351953029632568,-1.6658483743667603,-0.7992111444473267,0.6688724756240845,-0.29228103160858154,-0.016694875434041023,0.6597591638565063
4.372157573699951,-1.6635867357254028,-0.8000297546386719,0.6694077849388123,-0.29183095693588257,-0.015764176845550537,0.6596279144287109
4.392123699188232,-1.6611526012420654,-0.8008514642715454,0.6697396039962769,-0.2914424538612366,-0.014740423299372196,0.6595330834388733
4.412293910980225,-1.6600285768508911,-0.8012363910675049,0.6698483228683472,-0.2912746071815491,-0.014252495020627975,0.65948086977005
4.432346820831299,-1.6585500240325928,-0.8018630743026733,0.6699457168579102,-0.2910006642341614,-0.013482310809195042,0.6593374013900757
4.4524617195129395,-1.6579595804214478,-0.8021343946456909,0.6700649261474609,-0.2908737063407898,-0.01315589714795351,0.6592549085617065
4.472535610198975,-1.6566076278686523,-0.8026639819145203,0.6701886653900146,-0.29067298769950867,-0.012423121370375156,0.659116268157959
4.492587566375732,-1.6550228595733643,-0.803207278251648,0.670195460319519,-0.2904963493347168,-0.01162054855376482,0.6589898467063904
4.512683629989624,-1.6542195081710815,-0.8034784197807312,0.6701400876045227,-0.2904086410999298,-0.011215126141905785,0.6589235663414001
4.532914638519287,-1.65223228931427,-0.804071843624115,0.6703891754150391,-0.29015642404556274,-0.010357829742133617,0.6587927937507629
4.552867412567139,-1.6509279012680054,-0.80442214012146,0.6706324815750122,-0.2899937629699707,-0.009866579435765743,0.6587358117103577
4.57300877571106,-1.6478990316390991,-0.805214524269104,0.6711910963058472,-0.28963902592658997,-0.008755040355026722,0.658635139465332
4.593034029006958,-1.645175576210022,-0.8059958815574646,0.6716820597648621,-0.2892841100692749,-0.007716912776231766,0.658505380153656
4.613186597824097,-1.6438205242156982,-0.8063874840736389,0.6718655824661255,-0.28910064697265625,-0.007196479942649603,0.6584433913230896
4.633279085159302,-1.6409939527511597,-0.8071696162223816,0.6721534132957458,-0.28870171308517456,-0.00610083295032382,0.6583467125892639
4.653457403182983,-1.6398290395736694,-0.8075187802314758,0.6722240447998047,-0.2885085344314575,-0.005610855761915445,0.6582894325256348
4.673534631729126,-1.637892723083496,-0.808150589466095,0.6721740961074829,-0.2881893813610077,-0.004716027062386274,0.6581568717956543
4.693682909011841,-1.6356751918792725,-0.8088156580924988,0.6722208261489868,-0.28784966468811035,-0.003746769391000271,0.6580418944358826
4.713850975036621,-1.6344497203826904,-0.8091691732406616,0.6722896695137024,-0.2876605689525604,-0.003250113921239972,0.6579892635345459
4.733874320983887,-1.6314442157745361,-0.8099698424339294,0.6727167367935181,-0.2872185707092285,-0.0021187826059758663,0.65790855884552
4.753948450088501,-1.6299177408218384,-0.8103842735290527,0.6730443835258484,-0.28698745369911194,-0.0015642710495740175,0.6578604578971863
4.774029016494751,-1.6271605491638184,-0.8111808896064758,0.6734169125556946,-0.28657346963882446,-0.00046695992932654917,0.657774031162262
4.7940754890441895,-1.624061107635498,-0.8120672106742859,0.673988938331604,-0.28606805205345154,0.0007074857712723315,0.6577190160751343
4.814159870147705,-1.6226320266723633,-0.8125032782554626,0.6742225885391235,-0.2858276069164276,0.0012687002308666706,0.6576899290084839
4.834223747253418,-1.620484709739685,-0.8132668733596802,0.6745325326919556,-0.285406231880188,0.002226494252681732,0.6576036810874939
4.854491472244263,-1.619515299797058,-0.813625693321228,0.67473304271698,-0.28518176078796387,0.0026722934562712908,0.6575564742088318
4.874640226364136,-1.6176037788391113,-0.8143396377563477,0.6748592257499695,-0.28477853536605835,0.003621750744059682,0.6574841737747192
4.894784688949585,-1.6156131029129028,-0.8150766491889954,0.6750324368476868,-0.28438159823417664,0.004611729644238949,0.6574121713638306
4.91482138633728,-1.6146339178085327,-0.8154330253601074,0.6750954985618591,-0.2841935455799103,0.005101975053548813,0.6573682427406311
4.934952259063721,-1.6124815940856934,-0.8161465525627136,0.6752501726150513,-0.28379353880882263,0.006149008870124817,0.6572980284690857
4.954971551895142,-1.60991632938385,-0.8169183135032654,0.675297737121582,-0.2833669185638428,0.007347621954977512,0.6572640538215637
4.975046873092651,-1.608506679534912,-0.8173237442970276,0.6752888560295105,-0.2831472158432007,0.007980316877365112,0.6572588682174683
4.99515175819397,-1.6055347919464111,-0.8181697130203247,0.6751939654350281,-0.28271710872650146,0.009322091937065125,0.6572644114494324
5.015575170516968,-1.6027913093566895,-0.8189879059791565,0.6751729249954224,-0.2823100984096527,0.010573125444352627,0.6572369337081909
5.035757303237915,-1.6015032529830933,-0.8193785548210144,0.6752140522003174,-0.2821216881275177,0.011168156750500202,0.6572141051292419
5.056100368499756,-1.5988446474075317,-0.8201671242713928,0.6754727363586426,-0.2817586660385132,0.01235806941986084,0.6571582555770874
5.076193809509277,-1.5974652767181396,-0.8205689191818237,0.6757205128669739,-0.28156816959381104,0.012925212271511555,0.6571182012557983
5.0963358879089355,-1.59470534324646,-0.8213752508163452,0.6761576533317566,-0.28124332427978516,0.014104744419455528,0.6570207476615906
5.116427421569824,-1.5932698249816895,-0.821782112121582,0.6764153242111206,-0.2810836732387543,0.014699596911668777,0.6569597125053406
5.136497974395752,-1.5901026725769043,-0.8226009011268616,0.6770006418228149,-0.2807733714580536,0.01603352092206478,0.6568624973297119
5.156585693359375,-1.5882718563079834,-0.8230466842651367,0.6772904396057129,-0.2806040644645691,0.016761763021349907,0.6568243503570557
5.176662445068359,-1.5842175483703613,-0.8240364789962769,0.6780291199684143,-0.28019198775291443,0.018283233046531677,0.6567515134811401
5.197368860244751,-1.5803674459457397,-0.8250325918197632,0.6784749627113342,-0.27982863783836365,0.01978921703994274,0.6566658020019531
5.217522621154785,-1.5784205198287964,-0.8255419135093689,0.6787320971488953,-0.2796473503112793,0.020535707473754883,0.6566211581230164
5.237688064575195,-1.5750564336776733,-0.8264971375465393,0.6791142821311951,-0.27930748462677,0.021842122077941895,0.6564915180206299
5.257683038711548,-1.5736786127090454,-0.826930582523346,0.6791614890098572,-0.27913087606430054,0.02242133766412735,0.6564124226570129
5.277836799621582,-1.5709322690963745,-0.8278085589408875,0.6792551875114441,-0.2787724733352661,0.023567331954836845,0.6562451720237732
5.298014163970947,-1.5684022903442383,-0.8286322951316833,0.6792414784431458,-0.2783884108066559,0.02469291165471077,0.6560807228088379
5.318202972412109,-1.5671448707580566,-0.8290327191352844,0.679307222366333,-0.2781931161880493,0.02523723989725113,0.6559881567955017
5.338258504867554,-1.5647869110107422,-0.8297939896583557,0.6793889403343201,-0.27779102325439453,0.02631920948624611,0.6557996869087219
5.358500242233276,-1.5625654458999634,-0.8304910659790039,0.6791994571685791,-0.27741876244544983,0.027452591806650162,0.6556216478347778
5.378626346588135,-1.5615653991699219,-0.8308120369911194,0.6791881322860718,-0.2772288918495178,0.027964536100625992,0.6555188894271851
5.398683786392212,-1.5594844818115234,-0.8314613103866577,0.6794487237930298,-0.27679404616355896,0.02893071062862873,0.655307412147522
5.419181823730469,-1.558447241783142,-0.831792414188385,0.6795674562454224,-0.27658337354660034,0.02941199764609337,0.6552004814147949
5.454244375228882,-1.5563324689865112,-0.8324768543243408,0.6800159811973572,-0.27611038088798523,0.030322106555104256,0.6549814343452454
5.474380016326904,-1.5539108514785767,-0.8330422043800354,0.680565595626831,-0.2757222652435303,0.031125113368034363,0.6549561023712158
5.49443244934082,-1.5441107749938965,-0.8352391719818115,0.6825448870658875,-0.27433106303215027,0.03402937948703766,0.6551566123962402
5.514493942260742,-1.5376331806182861,-0.8367966413497925,0.6845287084579468,-0.2733262777328491,0.03595106676220894,0.6553065180778503
5.534653902053833,-1.5246632099151611,-0.8401164412498474,0.6884400248527527,-0.27144336700439453,0.040227387100458145,0.6555570363998413
5.554700136184692,-1.512077808380127,-0.843433678150177,0.6915258169174194,-0.2697973847389221,0.044774897396564484,0.6556984782218933
5.574790000915527,-1.5059844255447388,-0.845102071762085,0.6928504109382629,-0.2689884305000305,0.04704359546303749,0.6557303071022034
5.5948426723480225,-1.4954477548599243,-0.8481632471084595,0.6949739456176758,-0.26751840114593506,0.05111801624298096,0.6556312441825867
5.614907264709473,-1.492418646812439,-0.8492701053619385,0.6955337524414062,-0.26701080799102783,0.05254790186882019,0.6554332375526428
5.635021686553955,-1.4902873039245605,-0.8507887125015259,0.6957563161849976,-0.2663857936859131,0.05415023863315582,0.6548012495040894
5.6550750732421875,-1.4908522367477417,-0.8517881631851196,0.6948868632316589,-0.2659876346588135,0.05462745577096939,0.6540669202804565
5.67516827583313,-1.4912506341934204,-0.852245569229126,0.6944313645362854,-0.2657364308834076,0.05471329391002655,0.6537311673164368
5.695277690887451,-1.4912346601486206,-0.8532245755195618,0.6942766904830933,-0.26510941982269287,0.05498436465859413,0.6531525254249573
5.716311693191528,-1.489727258682251,-0.8543019890785217,0.6940808296203613,-0.2645259499549866,0.055937036871910095,0.6527694463729858
5.736412763595581,-1.4887880086898804,-0.8548189997673035,0.6938424706459045,-0.2642652094364166,0.05655404180288315,0.6526138782501221
5.756538391113281,-1.4857637882232666,-0.8559187650680542,0.6938924789428711,-0.263724684715271,0.05825122818350792,0.652387261390686
5.7765796184539795,-1.48369562625885,-0.8565086126327515,0.6940031051635742,-0.2634603977203369,0.05934096500277519,0.6523138284683228
5.796655178070068,-1.4792016744613647,-0.8577082753181458,0.6943521499633789,-0.2629060745239258,0.061600375920534134,0.6521649360656738
5.816991329193115,-1.4744449853897095,-0.8589579463005066,0.695207417011261,-0.2622682750225067,0.06380725651979446,0.6519729495048523
5.837103366851807,-1.4721901416778564,-0.8595932722091675,0.6957418918609619,-0.2618975043296814,0.06477940827608109,0.6518446803092957
5.857176303863525,-1.4679628610610962,-0.8608853220939636,0.6966323256492615,-0.2611648440361023,0.0665452778339386,0.6515581011772156
5.877298355102539,-1.4662636518478394,-0.8614717125892639,0.6968216896057129,-0.26083287596702576,0.06732413917779922,0.6513943672180176
5.897420406341553,-1.4635510444641113,-0.8625370264053345,0.696934700012207,-0.2602303624153137,0.0686507448554039,0.6510259509086609
5.917581558227539,-1.4609543085098267,-0.8635407090187073,0.696986198425293,-0.25965920090675354,0.06995689868927002,0.650675356388092
5.937766790390015,-1.459769606590271,-0.864008367061615,0.6969218254089355,-0.259370356798172,0.07059693336486816,0.6505078077316284
5.9577836990356445,-1.457607388496399,-0.8648684620857239,0.6965585350990295,-0.2588180601596832,0.07190027087926865,0.6501966714859009
5.978155612945557,-1.4565725326538086,-0.8652640581130981,0.6963394284248352,-0.2585524022579193,0.07256638258695602,0.6500492691993713
5.998325347900391,-1.4539854526519775,-0.8661114573478699,0.6964360475540161,-0.25793299078941345,0.07398183643817902,0.6497978568077087
6.018324136734009,-1.450561285018921,-0.8671295642852783,0.6971144676208496,-0.2572380006313324,0.07551400363445282,0.6495893001556396
6.038407802581787,-1.4488781690597534,-0.8676546812057495,0.6974643468856812,-0.2569001615047455,0.07625139504671097,0.6494823694229126
6.0585243701934814,-1.4455422163009644,-0.8687136769294739,0.6980902552604675,-0.256305992603302,0.07774476706981659,0.6492698788642883
6.07858943939209,-1.442246913909912,-0.869785726070404,0.6987999081611633,-0.2557924687862396,0.07913964241743088,0.649034321308136
6.098726272583008,-1.4407062530517578,-0.870322585105896,0.6992143988609314,-0.2555447220802307,0.07974476367235184,0.6489013433456421
6.1187825202941895,-1.4371919631958008,-0.8714736104011536,0.6999877691268921,-0.2550809979438782,0.0811079666018486,0.6486701965332031
6.138917684555054,-1.435211181640625,-0.8720876574516296,0.7004009485244751,-0.25482720136642456,0.08187700062990189,0.6485766768455505
6.158954858779907,-1.4314924478530884,-0.8732782602310181,0.7008448839187622,-0.2543562948703766,0.08341339975595474,0.6483975648880005
6.179197549819946,-1.4277397394180298,-0.874475359916687,0.7013034224510193,-0.25384023785591125,0.08498473465442657,0.6482157707214355
6.199310541152954,-1.4258582592010498,-0.8750748634338379,0.7016116380691528,-0.25357672572135925,0.08575916290283203,0.6481192111968994
6.219374179840088,-1.4219173192977905,-0.8763324022293091,0.702614963054657,-0.2529356777667999,0.08733471482992172,0.6479445695877075
6.239476442337036,-1.4200191497802734,-0.8769569993019104,0.703093945980072,-0.2526121139526367,0.08810769021511078,0.6478527188301086
6.259557247161865,-1.4164891242980957,-0.8781593441963196,0.704059362411499,-0.2519691586494446,0.08959385007619858,0.6476349830627441
6.279629707336426,-1.41489577293396,-0.8787407279014587,0.704505980014801,-0.25165310502052307,0.09026586264371872,0.6475022435188293
6.2997047901153564,-1.4117798805236816,-0.8798750638961792,0.7053230404853821,-0.25105908513069153,0.09164492785930634,0.6472273468971252
6.319788694381714,-1.4099764823913574,-0.8804783821105957,0.7057048678398132,-0.2507569491863251,0.09242545813322067,0.6471032500267029
6.33986759185791,-1.4058685302734375,-0.8817522525787354,0.7062427401542664,-0.25013476610183716,0.09420087933540344,0.6468989253044128
6.360206365585327,-1.401070475578308,-0.8831319808959961,0.7069081664085388,-0.24941779673099518,0.09619298577308655,0.6467255353927612
6.380295753479004,-1.3985843658447266,-0.8838419914245605,0.7072152495384216,-0.24902942776679993,0.09723567217588425,0.64664626121521
6.400474786758423,-1.393194317817688,-0.8853715062141418,0.708082914352417,-0.24817168712615967,0.09945239871740341,0.6464934945106506
6.420500993728638,-1.3904300928115845,-0.8861653208732605,0.7085742950439453,-0.2477249801158905,0.10058076679706573,0.6464195847511292
6.440632343292236,-1.384872555732727,-0.8878024816513062,0.7098146677017212,-0.24677294492721558,0.10279510170221329,0.6462532877922058
6.46071982383728,-1.382192850112915,-0.8886368274688721,0.7105147242546082,-0.2462928593158722,0.10386175662279129,0.6461569666862488
6.4809041023254395,-1.3770713806152344,-0.8903185129165649,0.7118135690689087,-0.24537813663482666,0.10591625422239304,0.6459188461303711
6.500992298126221,-1.374474287033081,-0.8911863565444946,0.7125743627548218,-0.24490812420845032,0.10693219304084778,0.6457821130752563
6.521054267883301,-1.3696140050888062,-0.8928499817848206,0.7136334180831909,-0.24414891004562378,0.10897788405418396,0.645484447479248
6.541145086288452,-1.36729097366333,-0.8936485648155212,0.7140911221504211,-0.2438032478094101,0.10999629646539688,0.6453211307525635
6.561249494552612,-1.3623682260513306,-0.8952857255935669,0.7153931856155396,-0.24305802583694458,0.11207374185323715,0.6449770331382751
6.581291675567627,-1.3599849939346313,-0.8960807919502258,0.7158963680267334,-0.24271325767040253,0.11310797184705734,0.6447946429252625
6.601393222808838,-1.3553320169448853,-0.8976237177848816,0.7169666886329651,-0.2419925183057785,0.11511340737342834,0.6444004774093628
6.621531248092651,-1.3506300449371338,-0.8991693258285522,0.7181513905525208,-0.24120868742465973,0.11711016297340393,0.6439986228942871
6.641595840454102,-1.3482789993286133,-0.8999301195144653,0.718596875667572,-0.24083806574344635,0.11814232915639877,0.6438108086585999
6.6617209911346436,-1.3434432744979858,-0.9015103578567505,0.7200039625167847,-0.23997297883033752,0.1200999841094017,0.6434221267700195
6.681848764419556,-1.3407363891601562,-0.9023581147193909,0.7209120392799377,-0.23947879672050476,0.12114964425563812,0.6432498097419739
6.7019734382629395,-1.3353359699249268,-0.9040443897247314,0.7222622632980347,-0.23857980966567993,0.12333904951810837,0.6429409384727478
6.721992492675781,-1.329932689666748,-0.9057230949401855,0.7230378985404968,-0.23778095841407776,0.1256456971168518,0.6426616907119751
6.7420923709869385,-1.3272678852081299,-0.906549870967865,0.7234264016151428,-0.2373776137828827,0.12679702043533325,0.6425220370292664
6.7621519565582275,-1.3221737146377563,-0.9081381559371948,0.7240990400314331,-0.23658105731010437,0.12905538082122803,0.6422343254089355
6.782303094863892,-1.3197991847991943,-0.9088977575302124,0.7244296073913574,-0.23617535829544067,0.13014660775661469,0.6420865654945374
6.802356719970703,-1.3147716522216797,-0.9104549288749695,0.7249394655227661,-0.23531478643417358,0.13244563341140747,0.6418245434761047
6.822509765625,-1.3095721006393433,-0.9120637774467468,0.7257018089294434,-0.2342880666255951,0.134758859872818,0.6415526866912842
6.8426244258880615,-1.3068639039993286,-0.9129230380058289,0.7264483571052551,-0.23369735479354858,0.1358768492937088,0.6414024233818054
6.862672328948975,-1.3037582635879517,-0.9138656258583069,0.7274155020713806,-0.23304498195648193,0.1371200680732727,0.6412714719772339
6.8827595710754395,-1.297617793083191,-0.9157428741455078,0.7289693355560303,-0.23186007142066956,0.13967318832874298,0.6410171389579773
6.9029459953308105,-1.2909280061721802,-0.9177346229553223,0.7305029034614563,-0.2306763082742691,0.14239501953125,0.6407749056816101
6.923039674758911,-1.2876129150390625,-0.9187329411506653,0.7311465740203857,-0.2301252782344818,0.14375030994415283,0.6406368017196655
6.943265914916992,-1.2809587717056274,-0.9207375049591064,0.7324497699737549,-0.2290705144405365,0.1464744657278061,0.6403340697288513
6.963303804397583,-1.277658462524414,-0.9217339158058167,0.7332186102867126,-0.2285480797290802,0.14781951904296875,0.6401660442352295
6.9833691120147705,-1.2712390422821045,-0.9236677885055542,0.7343015670776367,-0.2275719940662384,0.15051762759685516,0.6398221850395203
7.003442764282227,-1.267768144607544,-0.9246768951416016,0.7349364757537842,-0.22702915966510773,0.15193088352680206,0.6396465301513672
7.023542642593384,-1.260975956916809,-0.926702082157135,0.7364778518676758,-0.22585414350032806,0.15465180575847626,0.639241099357605
7.0436012744903564,-1.2576488256454468,-0.9277254343032837,0.7374560832977295,-0.22522440552711487,0.15597684681415558,0.6390218734741211
7.063727378845215,-1.2501775026321411,-0.9299584031105042,0.7400731444358826,-0.22380298376083374,0.15885552763938904,0.638597309589386
7.083743572235107,-1.2422298192977905,-0.93235182762146,0.7431368827819824,-0.2222486436367035,0.16184808313846588,0.638148844242096
7.1038818359375,-1.2382495403289795,-0.9335650205612183,0.7445695996284485,-0.22146782279014587,0.16339607536792755,0.637916624546051
7.124021768569946,-1.230552315711975,-0.9360219240188599,0.7477936744689941,-0.21987736225128174,0.16639065742492676,0.6374251842498779
7.144243955612183,-1.2228777408599854,-0.9385604858398438,0.7512883543968201,-0.21826541423797607,0.16939595341682434,0.6369351744651794
7.1643640995025635,-1.218923568725586,-0.9398791790008545,0.7531569004058838,-0.21743924915790558,0.17091967165470123,0.6366872191429138
7.184473037719727,-1.2120094299316406,-0.9423173069953918,0.7559766173362732,-0.21600797772407532,0.17377984523773193,0.6361390352249146
7.20454740524292,-1.208949327468872,-0.943447470664978,0.7570266723632812,-0.21538276970386505,0.17514407634735107,0.6358476281166077
7.224659204483032,-1.2026268243789673,-0.9456794261932373,0.759040117263794,-0.21420124173164368,0.17800071835517883,0.6352784037590027
7.244709730148315,-1.1994088888168335,-0.9467645883560181,0.7598121166229248,-0.213649719953537,0.17948783934116364,0.6350139379501343
7.264794588088989,-1.192927598953247,-0.9488801956176758,0.761168360710144,-0.21256884932518005,0.18244905769824982,0.6344811916351318
7.28499174118042,-1.1860824823379517,-0.9509986042976379,0.7624688744544983,-0.21142004430294037,0.1854921132326126,0.6339614987373352
7.305147409439087,-1.1827739477157593,-0.951997697353363,0.7630390524864197,-0.21087482571601868,0.18703219294548035,0.6336998343467712
7.325185537338257,-1.175616979598999,-0.9541349411010742,0.7649692893028259,-0.20956140756607056,0.1901640146970749,0.633216917514801
7.345300674438477,-1.1716874837875366,-0.9552773237228394,0.7661280632019043,-0.20881399512290955,0.19179847836494446,0.6329939961433411
7.365353584289551,-1.163970708847046,-0.9575434327125549,0.768413782119751,-0.20731022953987122,0.1950206756591797,0.6325119733810425
7.385430097579956,-1.1566100120544434,-0.9597512483596802,0.7708254456520081,-0.20583753287792206,0.19814923405647278,0.6319671869277954
7.405553817749023,-1.153199553489685,-0.9607846140861511,0.7718254923820496,-0.20516911149024963,0.19969555735588074,0.6316851377487183
7.42564845085144,-1.1454273462295532,-0.9630329608917236,0.7742429971694946,-0.20365047454833984,0.2029607892036438,0.6311445832252502
7.4456915855407715,-1.1412498950958252,-0.9642189145088196,0.7756356000900269,-0.20284117758274078,0.20465975999832153,0.630872905254364
7.465831756591797,-1.133218765258789,-0.9665321111679077,0.7781556844711304,-0.2012886106967926,0.20801839232444763,0.6303107142448425
7.48586630821228,-1.1244860887527466,-0.9689826965332031,0.7811910510063171,-0.19958357512950897,0.21161137521266937,0.6297616958618164
7.50596809387207,-1.1201201677322388,-0.9702324271202087,0.7826745510101318,-0.1987137496471405,0.21340402960777283,0.6294792890548706
7.526076316833496,-1.110717535018921,-0.9728702306747437,0.7858708500862122,-0.19683213531970978,0.2172204703092575,0.6289201378822327
7.546101808547974,-1.102074384689331,-0.9753285646438599,0.7884418964385986,-0.19510936737060547,0.22100642323493958,0.6282915472984314
7.566193342208862,-1.0978119373321533,-0.9765152335166931,0.7894770503044128,-0.19425293803215027,0.2229633629322052,0.6279814839363098
7.586313247680664,-1.089128851890564,-0.9789202213287354,0.7915914058685303,-0.19242434203624725,0.22690905630588531,0.627368152141571
7.606396198272705,-1.0847800970077515,-0.9801468253135681,0.7924940586090088,-0.191456139087677,0.2288609892129898,0.6270734071731567
7.6264708042144775,-1.0760606527328491,-0.9826511740684509,0.7943501472473145,-0.18946467339992523,0.2326926589012146,0.6264896392822266
7.646591424942017,-1.0670642852783203,-0.985275387763977,0.7968069911003113,-0.18736645579338074,0.23651358485221863,0.6259048581123352
7.666714906692505,-1.0617820024490356,-0.9867923855781555,0.7988059520721436,-0.18611456453800201,0.23856401443481445,0.6256365180015564
7.686745643615723,-1.0507055521011353,-0.9900586009025574,0.803516149520874,-0.183400958776474,0.24263723194599152,0.6250650882720947
7.706840991973877,-1.0451122522354126,-0.9917659759521484,0.8060854077339172,-0.1819949448108673,0.24468731880187988,0.6247602701187134
7.726904392242432,-1.0326563119888306,-0.9956066012382507,0.8124994039535522,-0.17890270054340363,0.24898475408554077,0.624117910861969
7.746987342834473,-1.025402307510376,-0.9978259205818176,0.8165456652641296,-0.1770857870578766,0.25134819746017456,0.6237914562225342
7.767130136489868,-1.0101854801177979,-1.0025300979614258,0.8248428106307983,-0.1733240783214569,0.25643986463546753,0.6230977773666382
7.787652492523193,-0.9935353994369507,-1.0077557563781738,0.8343545198440552,-0.16914474964141846,0.2620578408241272,0.622347354888916
7.80774998664856,-0.9853335618972778,-1.0103857517242432,0.8388532996177673,-0.16714312136173248,0.2649869918823242,0.621927797794342
7.8278491497039795,-0.9677528142929077,-1.0159536600112915,0.8486499190330505,-0.16295067965984344,0.2713412046432495,0.6210184097290039
7.847937107086182,-0.9585441946983337,-1.0188721418380737,0.8537801504135132,-0.1607862412929535,0.2747027277946472,0.6205505132675171
7.868098735809326,-0.9403754472732544,-1.0246375799179077,0.8632222414016724,-0.15667054057121277,0.2817254662513733,0.6195712089538574
7.888237953186035,-0.9317883253097534,-1.027430772781372,0.867716908454895,-0.15475280582904816,0.28521743416786194,0.6190287470817566
7.9083030223846436,-0.9142545461654663,-1.0331640243530273,0.877165675163269,-0.15083757042884827,0.292276531457901,0.6179101467132568
7.928340911865234,-0.8972933888435364,-1.0388331413269043,0.8858563303947449,-0.14704379439353943,0.2992531955242157,0.6167600750923157
7.948435068130493,-0.8886480927467346,-1.041745901107788,0.8904638886451721,-0.14503875374794006,0.30276066064834595,0.616195559501648
7.968555212020874,-0.8723844885826111,-1.0474170446395874,0.8990697264671326,-0.141190305352211,0.30952131748199463,0.6150099039077759
7.988617658615112,-0.8646745681762695,-1.0501660108566284,0.9026614427566528,-0.1393478959798813,0.3128724694252014,0.6144269704818726
8.008750200271606,-0.8483238220214844,-1.0560033321380615,0.910925567150116,-0.13523991405963898,0.31965765357017517,0.6133650541305542
8.02878737449646,-0.8310576677322388,-1.0621318817138672,0.9193301200866699,-0.13069169223308563,0.32667994499206543,0.6124469637870789
8.048923015594482,-0.8212590217590332,-1.0654950141906738,0.9249968528747559,-0.12801438570022583,0.3303585946559906,0.6120223999023438
8.068976640701294,-0.8017255067825317,-1.0723021030426025,0.9359214305877686,-0.12253936380147934,0.3377891480922699,0.6112067103385925
8.089139699935913,-0.7916022539138794,-1.0758074522018433,0.9410561919212341,-0.11970413476228714,0.3417186737060547,0.6108478307723999
8.109232425689697,-0.7685084939002991,-1.0835243463516235,0.9536742568016052,-0.11300617456436157,0.3501890301704407,0.6102792620658875
8.129298686981201,-0.7435720562934875,-1.091666340827942,0.9675153493881226,-0.10565048456192017,0.3592410683631897,0.6096963286399841
8.149383544921875,-0.7299226522445679,-1.0959678888320923,0.97554612159729,-0.10158313065767288,0.3640254735946655,0.609387993812561
8.169509410858154,-0.7031399607658386,-1.1044726371765137,0.9909378886222839,-0.09362693876028061,0.37375879287719727,0.6086143255233765
8.189578294754028,-0.6899209022521973,-1.1086876392364502,0.9981164336204529,-0.08968453109264374,0.3787872791290283,0.6081543564796448
8.209671020507812,-0.6634104251861572,-1.1170997619628906,1.012564778327942,-0.0817272886633873,0.38898009061813354,0.6070718765258789
8.229743719100952,-0.6503392457962036,-1.121242642402649,1.0199939012527466,-0.07776360958814621,0.3940194547176361,0.6064453721046448
8.249880313873291,-0.6262547969818115,-1.1291364431381226,1.0331546068191528,-0.07029497623443604,0.4039456248283386,0.6049716472625732
8.269964933395386,-0.6046857833862305,-1.136595368385315,1.0453290939331055,-0.06346376240253448,0.4134341776371002,0.6032720804214478
8.290289163589478,-0.5953019857406616,-1.1401082277297974,1.0505009889602661,-0.06041548028588295,0.4180089831352234,0.602338433265686
8.310427188873291,-0.5781583189964294,-1.1468205451965332,1.0608428716659546,-0.054711028933525085,0.4267382323741913,0.6003422737121582
8.330546379089355,-0.5704039335250854,-1.1500415802001953,1.066146731376648,-0.05199071764945984,0.43075352907180786,0.5992974042892456
8.350620746612549,-0.5569891929626465,-1.1561734676361084,1.0760092735290527,-0.04711570590734482,0.4382922053337097,0.5970848202705383
8.37081241607666,-0.5513949394226074,-1.1591343879699707,1.0803159475326538,-0.04496723785996437,0.44181373715400696,0.5959649085998535
8.390792846679688,-0.5418924689292908,-1.164823293685913,1.088753581047058,-0.04124994948506355,0.44843125343322754,0.5936787128448486
8.41088604927063,-0.538551926612854,-1.1675220727920532,1.0915603637695312,-0.039757438004016876,0.4514690041542053,0.5925161838531494
8.43095350265503,-0.5336354374885559,-1.1726852655410767,1.0952460765838623,-0.03717887029051781,0.4570842385292053,0.5902653336524963
8.451042413711548,-0.5321666598320007,-1.1751108169555664,1.0960378646850586,-0.03614843264222145,0.45965999364852905,0.5891677141189575
8.471114873886108,-0.5319615006446838,-1.179461121559143,1.0941696166992188,-0.03503824770450592,0.46435657143592834,0.5869739651679993
8.491165399551392,-0.5338128209114075,-1.1830487251281738,1.0892508029937744,-0.03462721407413483,0.4683530628681183,0.5848357081413269
8.511295795440674,-0.5351613759994507,-1.1846199035644531,1.0862568616867065,-0.034502096474170685,0.47001588344573975,0.5838186144828796
8.531337976455688,-0.5376504063606262,-1.187361717224121,1.0810189247131348,-0.034239623695611954,0.4732692837715149,0.5819162726402283
8.552060842514038,-0.5400021076202393,-1.1896719932556152,1.076920986175537,-0.03397175669670105,0.4761843681335449,0.5801464319229126
8.572249412536621,-0.5409640073776245,-1.1907943487167358,1.0753966569900513,-0.03372959420084953,0.47748690843582153,0.5793482065200806
8.592273950576782,-0.5424946546554565,-1.1930032968521118,1.0733990669250488,-0.03302931413054466,0.47984302043914795,0.5779139399528503
8.612351179122925,-0.5431960821151733,-1.194111943244934,1.0730334520339966,-0.03258667141199112,0.4808654189109802,0.5772609710693359
8.63249659538269,-0.54426509141922,-1.196419596672058,1.0734152793884277,-0.03141666203737259,0.4827423095703125,0.5761154294013977
8.652515411376953,-0.5444682836532593,-1.1976420879364014,1.0738719701766968,-0.0306598711758852,0.4836292862892151,0.5756354331970215
8.672608852386475,-0.5443477630615234,-1.2002768516540527,1.074887752532959,-0.02882765792310238,0.4852396249771118,0.5748559236526489
8.692667245864868,-0.542940616607666,-1.2032638788223267,1.0770933628082275,-0.02633492648601532,0.48678749799728394,0.5743361711502075
8.712765216827393,-0.5419300198554993,-1.20482337474823,1.0786986351013184,-0.02501002326607704,0.4876050353050232,0.5741205215454102
8.732848167419434,-0.5390486121177673,-1.2079524993896484,1.0829862356185913,-0.022212520241737366,0.489572674036026,0.5737221240997314
8.752967834472656,-0.5373563170433044,-1.2095279693603516,1.0853607654571533,-0.020820535719394684,0.49069011211395264,0.5735284090042114
8.773078680038452,-0.53394615650177,-1.212634801864624,1.0900964736938477,-0.01820930279791355,0.4930867552757263,0.5731034874916077
8.793167114257812,-0.5311465859413147,-1.2156860828399658,1.0941227674484253,-0.01601051352918148,0.4955139458179474,0.5726401805877686
8.81324815750122,-0.5300048589706421,-1.2171422243118286,1.0961172580718994,-0.01508220937103033,0.4967203736305237,0.572375476360321
8.83338475227356,-0.527862548828125,-1.219908356666565,1.1000365018844604,-0.013323754072189331,0.4990566670894623,0.5718090534210205
8.853812217712402,-0.5260537266731262,-1.2227336168289185,1.1034263372421265,-0.01156486477702856,0.501017153263092,0.5712864995002747
8.873945236206055,-0.525293231010437,-1.2240984439849854,1.105122685432434,-0.010786439292132854,0.5020008683204651,0.571013331413269
8.894020795822144,-0.5239121913909912,-1.2269330024719238,1.1083014011383057,-0.00921019446104765,0.5037428140640259,0.5705387592315674
8.915077447891235,-0.5225213766098022,-1.2296627759933472,1.112091064453125,-0.0076013049110770226,0.5053120255470276,0.5700498819351196
8.935165405273438,-0.521806001663208,-1.2310426235198975,1.1139037609100342,-0.006779142655432224,0.506100058555603,0.569837749004364
8.955257177352905,-0.5203956365585327,-1.2338154315948486,1.1172053813934326,-0.00519303185865283,0.5076555609703064,0.5694559812545776
8.975685834884644,-0.5199694633483887,-1.2351033687591553,1.1186044216156006,-0.004542850889265537,0.5084264874458313,0.5692391991615295
8.995771169662476,-0.5194039344787598,-1.2376019954681396,1.121077060699463,-0.0032793073914945126,0.5099136233329773,0.5688228607177734
9.015850067138672,-0.5191941261291504,-1.24010169506073,1.1226797103881836,-0.0020600936841219664,0.511222243309021,0.5684810280799866
9.03594183921814,-0.5192922353744507,-1.2412785291671753,1.123302698135376,-0.0015418472466990352,0.5118571519851685,0.5683069229125977
9.056092262268066,-0.5197436213493347,-1.2435705661773682,1.1240057945251465,-0.000593970064073801,0.5130429267883301,0.567989706993103
9.076116800308228,-0.5206663608551025,-1.2457399368286133,1.1244648694992065,0.0002645000349730253,0.5139356255531311,0.5676736235618591
9.096196174621582,-0.5211812853813171,-1.2468456029891968,1.1246157884597778,0.0007762110326439142,0.5142372250556946,0.5675579905509949
9.116281032562256,-0.52208012342453,-1.249137282371521,1.124821424484253,0.0018509572837501764,0.5146767497062683,0.5674128532409668
9.136339664459229,-0.5223206877708435,-1.2502646446228027,1.1250625848770142,0.0024384818971157074,0.5149332880973816,0.5673673748970032
9.156428575515747,-0.5225001573562622,-1.2525198459625244,1.1257836818695068,0.0036945207975804806,0.5154659748077393,0.5673151016235352
9.176536321640015,-0.5220800042152405,-1.2548227310180664,1.1266688108444214,0.005137661937624216,0.5160987973213196,0.5673364996910095
9.19668436050415,-0.5216611623764038,-1.2559891939163208,1.12727952003479,0.005925259552896023,0.5164355039596558,0.5673621892929077
9.216797590255737,-0.5204862356185913,-1.2583760023117065,1.1284379959106445,0.0075273532420396805,0.5173640251159668,0.5674525499343872
9.23694658279419,-0.5190677642822266,-1.2607760429382324,1.1296923160552979,0.009099241346120834,0.5185441374778748,0.5675592422485352
9.257039308547974,-0.5184655785560608,-1.2618865966796875,1.1303555965423584,0.009798570536077023,0.5191757082939148,0.5675803422927856
9.27719521522522,-0.5169822573661804,-1.2640676498413086,1.1322304010391235,0.011271638795733452,0.5205090045928955,0.5676225423812866
9.297410726547241,-0.5160022974014282,-1.2651511430740356,1.1336268186569214,0.012103384360671043,0.5211709141731262,0.5676413774490356
9.31739091873169,-0.5139513611793518,-1.2673158645629883,1.136972188949585,0.013852879405021667,0.5223652720451355,0.5676400065422058
9.337456941604614,-0.5118881464004517,-1.2694580554962158,1.1409138441085815,0.015578027814626694,0.5236208438873291,0.5675808787345886
9.357585191726685,-0.5108638405799866,-1.270543098449707,1.1430705785751343,0.016402313485741615,0.524271547794342,0.5675373077392578
9.377704620361328,-0.5085851550102234,-1.2727670669555664,1.1479209661483765,0.018111415207386017,0.525684118270874,0.5674508213996887
9.397829055786133,-0.5073120594024658,-1.2740002870559692,1.1504358053207397,0.01905043236911297,0.5264140963554382,0.5674481391906738
9.417888402938843,-0.5048843622207642,-1.276503324508667,1.1553568840026855,0.020840805023908615,0.5279591083526611,0.5674408674240112
9.438612937927246,-0.5039557218551636,-1.2777270078659058,1.1574482917785645,0.02159889228641987,0.5287763476371765,0.5674223303794861
9.458673238754272,-0.5023465752601624,-1.280053973197937,1.1613041162490845,0.022966785356402397,0.5304096937179565,0.5673378705978394
9.478742599487305,-0.5014932155609131,-1.2820651531219482,1.1642521619796753,0.02408457174897194,0.5317143797874451,0.5671349167823792
9.498817682266235,-0.5013248324394226,-1.28292977809906,1.1655200719833374,0.02450983226299286,0.5323508977890015,0.5669868588447571
9.518895864486694,-0.501200795173645,-1.284598708152771,1.1676287651062012,0.02532619796693325,0.5335032939910889,0.566689133644104
9.539089441299438,-0.5018815994262695,-1.2861188650131226,1.1685892343521118,0.025932911783456802,0.5342894196510315,0.5663650035858154
9.559184789657593,-0.5023559927940369,-1.2869150638580322,1.1688127517700195,0.026271866634488106,0.5345238447189331,0.566232442855835
9.579322576522827,-0.5039646625518799,-1.2885810136795044,1.1681509017944336,0.02688945084810257,0.5346310138702393,0.5660450458526611
9.599690198898315,-0.5055400133132935,-1.2903941869735718,1.167229413986206,0.027498602867126465,0.5348211526870728,0.5659891366958618
9.619775772094727,-0.506144642829895,-1.2914042472839355,1.1667381525039673,0.027879536151885986,0.5349218249320984,0.5660238265991211
9.639846086502075,-0.5074903964996338,-1.293341875076294,1.1656193733215332,0.02868473529815674,0.5349594354629517,0.5661215782165527
9.659921884536743,-0.5081526637077332,-1.2942336797714233,1.1650851964950562,0.02905084379017353,0.5350199341773987,0.5661709308624268
9.680007696151733,-0.5092344880104065,-1.2958056926727295,1.1644484996795654,0.02970035746693611,0.535391628742218,0.5662501454353333
9.700187921524048,-0.509511411190033,-1.2973129749298096,1.1645467281341553,0.03043755330145359,0.5361420512199402,0.5663765072822571
9.720285892486572,-0.5094079971313477,-1.2980908155441284,1.1647957563400269,0.03091115690767765,0.5365322828292847,0.5664671659469604
9.740362405776978,-0.5089660286903381,-1.2994033098220825,1.1653956174850464,0.03189194202423096,0.5374619960784912,0.5666300654411316
9.760552644729614,-0.5085986852645874,-1.2999892234802246,1.1659727096557617,0.0323704332113266,0.5380120277404785,0.5666982531547546
9.780645847320557,-0.5076148509979248,-1.3013980388641357,1.1673462390899658,0.033579595386981964,0.5388914942741394,0.5668879151344299
9.800699949264526,-0.5067022442817688,-1.3028815984725952,1.1688530445098877,0.03487864509224892,0.5395650267601013,0.5670840740203857
9.820789098739624,-0.5062533617019653,-1.303585171699524,1.1698235273361206,0.03550901263952255,0.5399150252342224,0.5671684145927429
9.840866565704346,-0.5055050849914551,-1.3050329685211182,1.1720130443572998,0.03673557564616203,0.540544867515564,0.5673362016677856
9.860975980758667,-0.504904568195343,-1.3065717220306396,1.174482822418213,0.03793507069349289,0.5410464406013489,0.5675234794616699
9.88106393814087,-0.5046292543411255,-1.3074015378952026,1.1755571365356445,0.03859129175543785,0.5411831140518188,0.5676392912864685
9.901119947433472,-0.5044288635253906,-1.3088419437408447,1.1772290468215942,0.039636045694351196,0.5415303707122803,0.5678199529647827
9.92121696472168,-0.5043244361877441,-1.3095591068267822,1.1780107021331787,0.04014602303504944,0.541693389415741,0.5679147243499756
9.941317319869995,-0.5040068626403809,-1.3110016584396362,1.1791555881500244,0.04126783460378647,0.5419086217880249,0.5681192874908447
9.961362600326538,-0.5039231181144714,-1.3123308420181274,1.1795796155929565,0.04236532002687454,0.542023777961731,0.5683011412620544
9.98154091835022,-0.5037676095962524,-1.3130055665969849,1.1796205043792725,0.04294322431087494,0.5421119332313538,0.5683938264846802
10.001562356948853,-0.5035600066184998,-1.3142800331115723,1.1797903776168823,0.04401348531246185,0.5423917174339294,0.5685575604438782
10.022228956222534,-0.503135085105896,-1.3157297372817993,1.1804051399230957,0.04521288350224495,0.5427335500717163,0.5687719583511353
10.042304515838623,-0.5028644800186157,-1.3165521621704102,1.1807795763015747,0.04587097093462944,0.5428770184516907,0.5689036250114441
10.062365293502808,-0.502258837223053,-1.3184080123901367,1.1818901300430298,0.047252874821424484,0.5430927872657776,0.569216251373291
10.082452297210693,-0.5019266605377197,-1.3193916082382202,1.1825848817825317,0.04796501621603966,0.5431585311889648,0.5693852305412292
10.10254430770874,-0.5009787082672119,-1.3214106559753418,1.1841806173324585,0.04951465129852295,0.5432770848274231,0.5697473883628845
10.122589111328125,-0.49971187114715576,-1.3236169815063477,1.186011791229248,0.051272403448820114,0.543275773525238,0.5701700448989868
10.14279842376709,-0.4991739094257355,-1.3247281312942505,1.1868817806243896,0.0521307997405529,0.5432149171829224,0.5703770518302917
10.162806987762451,-0.4978727102279663,-1.3270673751831055,1.188730001449585,0.05387704819440842,0.5432052612304688,0.5708346962928772
10.182860851287842,-0.4971863627433777,-1.328145146369934,1.189735770225525,0.05471158027648926,0.5433176159858704,0.5710506439208984
10.203019857406616,-0.49571505188941956,-1.330214262008667,1.1917728185653687,0.05633163079619408,0.5437692403793335,0.5714735388755798
10.223080396652222,-0.49449416995048523,-1.3322986364364624,1.1938323974609375,0.05778687074780464,0.5442827939987183,0.571890115737915
10.243136882781982,-0.4940396547317505,-1.3333460092544556,1.1948195695877075,0.058460500091314316,0.5445182919502258,0.5721016526222229
10.263222694396973,-0.49371206760406494,-1.3351534605026245,1.196416974067688,0.05950446054339409,0.5449936389923096,0.5724600553512573
10.283312320709229,-0.4937093257904053,-1.336623191833496,1.1978940963745117,0.060462113469839096,0.5454389452934265,0.5727779865264893
10.303389310836792,-0.49381494522094727,-1.337327480316162,1.1984962224960327,0.06094067916274071,0.5455852746963501,0.5729336738586426
10.323471069335938,-0.4941245913505554,-1.3387761116027832,1.1995471715927124,0.06190039962530136,0.5457524657249451,0.5732539296150208
10.343599557876587,-0.49452918767929077,-1.3401981592178345,1.200452208518982,0.0627942904829979,0.5458323359489441,0.5735723376274109
10.36370325088501,-0.4947032928466797,-1.3409074544906616,1.2009485960006714,0.06323029100894928,0.5458343625068665,0.5737264156341553
10.383782863616943,-0.49502915143966675,-1.3422887325286865,1.20198655128479,0.06416846066713333,0.5457091927528381,0.5740113258361816
10.403862237930298,-0.4949972629547119,-1.3430659770965576,1.2025939226150513,0.06463266909122467,0.5457095503807068,0.5741630792617798
10.42404317855835,-0.4945734441280365,-1.3446218967437744,1.2037737369537354,0.06557752192020416,0.5458382368087769,0.5744622945785522
10.44410228729248,-0.49393168091773987,-1.3461412191390991,1.2052135467529297,0.06664758175611496,0.5459721684455872,0.5747383832931519
10.464311122894287,-0.4936778247356415,-1.3468729257583618,1.2059485912322998,0.06723125278949738,0.5459994077682495,0.5748647451400757
10.484347343444824,-0.49312955141067505,-1.3482531309127808,1.2076518535614014,0.0684511736035347,0.5461229681968689,0.5750923752784729
10.504516124725342,-0.4923993647098541,-1.3497718572616577,1.2094244956970215,0.06978696584701538,0.5463750958442688,0.5753543972969055
10.524622678756714,-0.4920305609703064,-1.350584626197815,1.210280179977417,0.07050330191850662,0.5464982986450195,0.575497031211853
10.544706583023071,-0.4915558099746704,-1.3521863222122192,1.211828351020813,0.07188917696475983,0.5467179417610168,0.5757812261581421
10.564850568771362,-0.49139323830604553,-1.3530547618865967,1.2124329805374146,0.07258940488100052,0.546772837638855,0.575946033000946
10.585001230239868,-0.49102479219436646,-1.3547202348709106,1.2136650085449219,0.07393117994070053,0.546908974647522,0.5762704610824585
10.605082035064697,-0.49082672595977783,-1.3554792404174805,1.2143641710281372,0.07452031224966049,0.5470449328422546,0.5764148831367493
10.625129222869873,-0.49041154980659485,-1.3570713996887207,1.2156685590744019,0.07577753812074661,0.5472075939178467,0.5767216682434082
10.645298957824707,-0.489877313375473,-1.3586832284927368,1.21699857711792,0.07700316607952118,0.5474305748939514,0.5770325064659119
10.665468692779541,-0.48951855301856995,-1.3595325946807861,1.217627763748169,0.07761929929256439,0.5475703477859497,0.5772000551223755
10.685574054718018,-0.4885214865207672,-1.3611938953399658,1.2191423177719116,0.07895683497190475,0.5478599667549133,0.5775315761566162
10.705703020095825,-0.4879961311817169,-1.361945629119873,1.2199013233184814,0.07962986081838608,0.5480166673660278,0.5776830911636353
10.725700378417969,-0.48696169257164,-1.363689661026001,1.2208137512207031,0.08112679421901703,0.5482535362243652,0.5780597925186157
10.745861768722534,-0.48654210567474365,-1.364620566368103,1.2210845947265625,0.08186088502407074,0.5483234524726868,0.5782586932182312
10.766023874282837,-0.48593905568122864,-1.3664627075195312,1.2210805416107178,0.08325927704572678,0.5484521985054016,0.5786848068237305
10.786133527755737,-0.4859965145587921,-1.3672183752059937,1.2207629680633545,0.08388371765613556,0.5484185218811035,0.5788751244544983
10.806284189224243,-0.4862334728240967,-1.3687139749526978,1.2201383113861084,0.08510185033082962,0.5482786297798157,0.5792701840400696
10.826336860656738,-0.48697805404663086,-1.3701461553573608,1.2190842628479004,0.08614490926265717,0.5480542778968811,0.5796633362770081
10.846430540084839,-0.48753342032432556,-1.3708529472351074,1.2185492515563965,0.08663281798362732,0.5478482246398926,0.5798543095588684
10.866499185562134,-0.48907336592674255,-1.372246503829956,1.2173240184783936,0.08758533000946045,0.5470726490020752,0.5802311897277832
10.886569023132324,-0.48985394835472107,-1.3728272914886475,1.216903567314148,0.08803543448448181,0.5466906428337097,0.5804007053375244
10.906647682189941,-0.4910790026187897,-1.3740839958190918,1.2166787385940552,0.08914666622877121,0.5458409190177917,0.5807608366012573
10.92690396308899,-0.4920528829097748,-1.375221848487854,1.217223882675171,0.09041289985179901,0.544891893863678,0.5810866951942444
10.947043895721436,-0.4923259913921356,-1.375725507736206,1.2179831266403198,0.09111762791872025,0.544457197189331,0.581234335899353
10.967143297195435,-0.49234405159950256,-1.3766953945159912,1.2201818227767944,0.09264211356639862,0.5438510179519653,0.5815322399139404
10.987221717834473,-0.49199798703193665,-1.3771721124649048,1.2215996980667114,0.09341885894536972,0.5438023805618286,0.581688642501831
11.007414817810059,-0.49105268716812134,-1.3779851198196411,1.2246057987213135,0.09490828216075897,0.5440935492515564,0.5819892883300781
11.027431726455688,-0.4901520907878876,-1.3787580728530884,1.2273998260498047,0.09625237435102463,0.5445950031280518,0.5822756886482239
11.047492980957031,-0.4897458553314209,-1.3792195320129395,1.228600025177002,0.09679526835680008,0.544902503490448,0.5824222564697266
11.067567348480225,-0.48923391103744507,-1.3801453113555908,1.2304139137268066,0.09766500443220139,0.5456553101539612,0.5827382802963257
11.08771562576294,-0.48919105529785156,-1.3806413412094116,1.230988621711731,0.09803241491317749,0.5459556579589844,0.5829141736030579
11.107874870300293,-0.4896594285964966,-1.3816195726394653,1.2314465045928955,0.09871652722358704,0.5462441444396973,0.5832911133766174
11.128081798553467,-0.49085187911987305,-1.3826968669891357,1.2311491966247559,0.09936418384313583,0.5459539890289307,0.5837004780769348
11.148197174072266,-0.49153026938438416,-1.3833277225494385,1.230889916419983,0.09969653189182281,0.5456543564796448,0.5839335322380066
11.1683030128479,-0.493050754070282,-1.3845603466033936,1.230196237564087,0.10041235387325287,0.5448417067527771,0.5844389200210571
11.188965320587158,-0.4948391020298004,-1.3859388828277588,1.2293994426727295,0.10128144174814224,0.5434833765029907,0.5850077271461487
11.20905327796936,-0.4957450330257416,-1.3865785598754883,1.2290499210357666,0.10175037384033203,0.5427598357200623,0.585295557975769
11.22912073135376,-0.49733659625053406,-1.3878737688064575,1.2287819385528564,0.10269399732351303,0.5413678288459778,0.5858715772628784
11.249263048171997,-0.497923880815506,-1.3885375261306763,1.2290229797363281,0.10319626331329346,0.5407332181930542,0.5861659049987793
11.26931643486023,-0.49850067496299744,-1.3897693157196045,1.2301483154296875,0.10429185628890991,0.5398266911506653,0.5867576599121094
11.289371013641357,-0.4983986020088196,-1.3908500671386719,1.2318990230560303,0.10557122528553009,0.5392290353775024,0.5873329639434814
11.309464931488037,-0.497822642326355,-1.3913639783859253,1.2330251932144165,0.10630370676517487,0.5391824245452881,0.5876238346099854
11.329561948776245,-0.4959160387516022,-1.392444133758545,1.2357501983642578,0.1078571230173111,0.5395216941833496,0.5882049202919006
11.349786520004272,-0.4947180449962616,-1.3929693698883057,1.2373651266098022,0.10864398628473282,0.5398298501968384,0.5884784460067749
11.369883060455322,-0.49225592613220215,-1.394043207168579,1.2403899431228638,0.11014601588249207,0.5405200719833374,0.5889950394630432
11.390058994293213,-0.48968663811683655,-1.3951618671417236,1.2431275844573975,0.11156433820724487,0.5413389801979065,0.5894674062728882
11.41005802154541,-0.48855194449424744,-1.3957160711288452,1.2442408800125122,0.11221309006214142,0.5417471528053284,0.5896919369697571
11.430171251296997,-0.48679736256599426,-1.3967682123184204,1.2461644411087036,0.11338363587856293,0.5424331426620483,0.590118408203125
11.450252056121826,-0.4863170087337494,-1.3972879648208618,1.2468334436416626,0.11392663419246674,0.5426243543624878,0.5903284549713135
11.470330715179443,-0.4862118363380432,-1.3983125686645508,1.2475087642669678,0.11487369984388351,0.5426325798034668,0.5907378792762756
11.490368127822876,-0.4866563379764557,-1.3994735479354858,1.2475842237472534,0.115677610039711,0.5423544049263,0.5911763906478882
11.510561466217041,-0.48721757531166077,-1.4000537395477295,1.247259259223938,0.1160954087972641,0.5419976711273193,0.5914139747619629
11.530579566955566,-0.4889169931411743,-1.4011989831924438,1.2464275360107422,0.11693516373634338,0.5409153699874878,0.5919252038002014
11.550664186477661,-0.48970070481300354,-1.4017950296401978,1.2461340427398682,0.1174059733748436,0.5403600931167603,0.5922077894210815
11.570755243301392,-0.4912647008895874,-1.4028780460357666,1.2457846403121948,0.11837877333164215,0.5392059683799744,0.5927700400352478
11.59082579612732,-0.49209535121917725,-1.4033044576644897,1.2455463409423828,0.11883074790239334,0.5386697053909302,0.593043327331543
11.610981464385986,-0.49353036284446716,-1.4040424823760986,1.2454408407211304,0.11967144906520844,0.5377565026283264,0.5935736298561096
11.631514310836792,-0.494446724653244,-1.4046802520751953,1.2456130981445312,0.12058506906032562,0.5370690226554871,0.5941020846366882
11.65161943435669,-0.49466559290885925,-1.4050649404525757,1.2457671165466309,0.12106690555810928,0.5368062257766724,0.594372034072876
11.67166543006897,-0.49525120854377747,-1.405773401260376,1.2458771467208862,0.1218370869755745,0.5363155603408813,0.594866931438446
11.69176959991455,-0.4956447184085846,-1.406101942062378,1.245784044265747,0.12211240828037262,0.5360642075538635,0.5950986742973328
11.711849689483643,-0.4961623251438141,-1.4068357944488525,1.2455421686172485,0.12274909764528275,0.5356117486953735,0.5955947637557983
11.73210883140564,-0.49626433849334717,-1.4076565504074097,1.2452672719955444,0.12373959273099899,0.5351355075836182,0.5961524844169617
11.752201318740845,-0.4964095950126648,-1.4080623388290405,1.2451224327087402,0.12431785464286804,0.5347768068313599,0.5964406132698059
11.772310733795166,-0.4965112507343292,-1.4089187383651733,1.244914174079895,0.12554831802845,0.5340954065322876,0.5970589518547058
11.792504072189331,-0.4965895414352417,-1.4093570709228516,1.244820475578308,0.12621811032295227,0.5337142944335938,0.5973899960517883
11.81259536743164,-0.49652111530303955,-1.4104193449020386,1.2451231479644775,0.12766733765602112,0.5328653454780579,0.5980760455131531
11.83335280418396,-0.49635863304138184,-1.411591649055481,1.2459721565246582,0.1291530430316925,0.5319910645484924,0.5987614989280701
11.853480100631714,-0.4962098002433777,-1.4122776985168457,1.2467246055603027,0.12987950444221497,0.5315791964530945,0.599112331867218
11.8734872341156,-0.4955880641937256,-1.4139539003372192,1.2485418319702148,0.13123387098312378,0.5309401750564575,0.5998573303222656
11.893758058547974,-0.4953930974006653,-1.4147868156433105,1.249457597732544,0.13185721635818481,0.5306233167648315,0.6002247929573059
11.91386342048645,-0.494754433631897,-1.4165557622909546,1.2516529560089111,0.13311561942100525,0.5301416516304016,0.6009666919708252
11.933928728103638,-0.4938816428184509,-1.4183794260025024,1.2539464235305786,0.13445159792900085,0.5297931432723999,0.6017177104949951
11.954016208648682,-0.49339255690574646,-1.419218897819519,1.2550084590911865,0.13516506552696228,0.5296726822853088,0.6020935773849487
11.974074125289917,-0.49274641275405884,-1.4207218885421753,1.2565717697143555,0.13652844727039337,0.5293915867805481,0.6028343439102173
11.994338989257812,-0.49259912967681885,-1.4218794107437134,1.2577110528945923,0.13774383068084717,0.5290366411209106,0.6035336852073669
12.014436483383179,-0.49248501658439636,-1.4224287271499634,1.2582964897155762,0.13838499784469604,0.5288594365119934,0.603888213634491
12.03451156616211,-0.49239906668663025,-1.4234895706176758,1.259137749671936,0.13956096768379211,0.5283997058868408,0.6045740246772766
12.054749727249146,-0.49221381545066833,-1.4240267276763916,1.2596207857131958,0.14008919894695282,0.5281761288642883,0.604905366897583
12.074751377105713,-0.49221670627593994,-1.425073504447937,1.260326862335205,0.14112932980060577,0.5275512933731079,0.6055709719657898
12.094832420349121,-0.49221670627593994,-1.4256832599639893,1.2608097791671753,0.14173667132854462,0.527151346206665,0.6059293150901794
12.114957094192505,-0.49233222007751465,-1.4269633293151855,1.2614474296569824,0.1429891437292099,0.5262554883956909,0.6066816449165344
12.135009288787842,-0.49233490228652954,-1.4277116060256958,1.2616080045700073,0.14367006719112396,0.5257561802864075,0.6070901155471802
12.15510630607605,-0.4923896789550781,-1.42922043800354,1.2617285251617432,0.14499768614768982,0.5247147083282471,0.6079338788986206
12.175170421600342,-0.4928613305091858,-1.4307061433792114,1.2614723443984985,0.1463298797607422,0.5235059261322021,0.6088083982467651
12.19530439376831,-0.4932815730571747,-1.431396484375,1.261199951171875,0.1470259130001068,0.5228291153907776,0.6092543601989746
12.21534776687622,-0.4940088987350464,-1.432682991027832,1.260757565498352,0.1485288441181183,0.5216295719146729,0.6101640462875366
12.235520839691162,-0.49427035450935364,-1.4333399534225464,1.260624885559082,0.14928992092609406,0.521089494228363,0.6106264591217041
12.255638122558594,-0.4943813383579254,-1.4347865581512451,1.2609435319900513,0.15086272358894348,0.5200892090797424,0.6115673780441284
12.275952816009521,-0.4939180314540863,-1.436234951019287,1.2620407342910767,0.15234775841236115,0.5192567706108093,0.6124488711357117
12.29606318473816,-0.4936160445213318,-1.436948537826538,1.2627263069152832,0.15314669907093048,0.5188217759132385,0.6128804683685303
12.316131114959717,-0.49241840839385986,-1.4383333921432495,1.264628291130066,0.15483322739601135,0.5182364583015442,0.6137430667877197
12.336257696151733,-0.4918060898780823,-1.439026951789856,1.2657006978988647,0.15568073093891144,0.5179417133331299,0.614173173904419
12.356316566467285,-0.4909624457359314,-1.4402681589126587,1.2678591012954712,0.15721945464611053,0.5172957181930542,0.6149904131889343
12.376469612121582,-0.49072760343551636,-1.4407830238342285,1.2688839435577393,0.15785259008407593,0.5169879794120789,0.6153753399848938
12.396514892578125,-0.49077513813972473,-1.4415078163146973,1.270411729812622,0.1591482162475586,0.516355574131012,0.61614590883255
12.416584014892578,-0.4911389648914337,-1.441798210144043,1.2709786891937256,0.15979832410812378,0.5159929394721985,0.616543173789978
12.436765432357788,-0.4925057291984558,-1.4421857595443726,1.2716840505599976,0.16098877787590027,0.5151398777961731,0.6173467040061951
12.457484245300293,-0.4943462908267975,-1.4424606561660767,1.272249698638916,0.16194850206375122,0.51422518491745,0.6181674599647522
12.477582931518555,-0.4954075515270233,-1.4425294399261475,1.2723476886749268,0.16236929595470428,0.5137344002723694,0.618588924407959
12.497685432434082,-0.4974006712436676,-1.4426605701446533,1.2726348638534546,0.16322061419487,0.5127574801445007,0.6194596290588379
12.517770290374756,-0.49847114086151123,-1.4427785873413086,1.2727526426315308,0.1637076437473297,0.5121377110481262,0.6199157238006592
12.537858009338379,-0.5004406571388245,-1.4432826042175293,1.2733618021011353,0.16462039947509766,0.510761022567749,0.6208692789077759
12.558510065078735,-0.5021599531173706,-1.4438165426254272,1.2741285562515259,0.16552437841892242,0.5094686150550842,0.6218830943107605
12.578656196594238,-0.5029790997505188,-1.4440746307373047,1.2743886709213257,0.16604557633399963,0.5087676644325256,0.6224216222763062
12.598692417144775,-0.5038688778877258,-1.444711685180664,1.2748534679412842,0.16737179458141327,0.5074133276939392,0.6235869526863098
12.619064569473267,-0.5042508244514465,-1.4455697536468506,1.2751007080078125,0.16874602437019348,0.5060800313949585,0.6248002052307129
12.639145135879517,-0.5043302178382874,-1.4460402727127075,1.2751356363296509,0.16938136518001556,0.5054885745048523,0.6254085898399353
12.659227848052979,-0.5044305324554443,-1.4467905759811401,1.2747339010238647,0.17053040862083435,0.5045695304870605,0.6265864372253418
12.679373502731323,-0.504500150680542,-1.4471741914749146,1.2743154764175415,0.17111188173294067,0.5041077136993408,0.6271674633026123
12.699441194534302,-0.5043972134590149,-1.4480112791061401,1.2735973596572876,0.17224673926830292,0.5032601952552795,0.6283003091812134
12.71959924697876,-0.4772581160068512,-1.42617666721344,1.2758429050445557,0.1549508273601532,0.5030584931373596,0.5969564914703369
12.739690065383911,-0.46363604068756104,-1.4155535697937012,1.2769966125488281,0.1463359147310257,0.5029760003089905,0.5811124444007874
12.759785890579224,-0.4363473653793335,-1.3949099779129028,1.2793893814086914,0.1292559951543808,0.5027951598167419,0.5489935278892517
12.779861211776733,-0.422691285610199,-1.3849138021469116,1.2806092500686646,0.12080537527799606,0.502657949924469,0.5326942205429077
12.800246953964233,-0.39539915323257446,-1.3655983209609985,1.2828912734985352,0.10404878854751587,0.5023306608200073,0.49959033727645874
12.820252418518066,-0.3818030059337616,-1.3562936782836914,1.2839857339859009,0.09571028500795364,0.5021673440933228,0.4827733039855957
12.840307474136353,-0.3549090623855591,-1.3384512662887573,1.2859667539596558,0.07904820889234543,0.5018051266670227,0.44847217202186584
12.860392570495605,-0.34174656867980957,-1.3299351930618286,1.2867780923843384,0.0706910640001297,0.5015711784362793,0.4309031665325165
12.88046908378601,-0.31607091426849365,-1.3137356042861938,1.287947416305542,0.05392233282327652,0.5011342763900757,0.3949144184589386
12.900555610656738,-0.30359894037246704,-1.3060880899429321,1.2883310317993164,0.04555170238018036,0.5009095072746277,0.3764563500881195
12.920638799667358,-0.27982765436172485,-1.2918221950531006,1.2889904975891113,0.028777748346328735,0.5002933144569397,0.3383903205394745
12.940698623657227,-0.2575925886631012,-1.2792186737060547,1.2897026538848877,0.012246236205101013,0.4993285536766052,0.2987459599971771
12.961021900177002,-0.2473898082971573,-1.2737478017807007,1.290045976638794,0.004283016547560692,0.49865245819091797,0.27853795886039734
12.981112480163574,-0.2388543039560318,-1.2693519592285156,1.2903409004211426,-0.0027217576280236244,0.49791789054870605,0.2599770426750183
13.001192808151245,-0.22663339972496033,-1.2632511854171753,1.2906794548034668,-0.014433281496167183,0.49612799286842346,0.22734393179416656
13.021284818649292,-0.22252453863620758,-1.261301875114441,1.2908060550689697,-0.01932455226778984,0.4950246810913086,0.21302086114883423
13.041362762451172,-0.2163884937763214,-1.2589435577392578,1.2908269166946411,-0.02739715948700905,0.49271196126937866,0.18782322108745575
13.061429500579834,-0.21413548290729523,-1.2583342790603638,1.2907770872116089,-0.030742257833480835,0.49157577753067017,0.17677561938762665
13.0815110206604,-0.2110435664653778,-1.2580012083053589,1.290626883506775,-0.036358751356601715,0.48930683732032776,0.15737284719944
13.101562976837158,-0.20890192687511444,-1.2585340738296509,1.2906372547149658,-0.04058912396430969,0.4870208501815796,0.14105762541294098
13.121664762496948,-0.20734654366970062,-1.2588969469070435,1.290799617767334,-0.0422658771276474,0.48611003160476685,0.1338822990655899
13.141764879226685,-0.20365388691425323,-1.2597846984863281,1.2913627624511719,-0.04480377212166786,0.48460668325424194,0.12122264504432678
13.161904335021973,-0.20178037881851196,-1.2602860927581787,1.2917436361312866,-0.04583318158984184,0.4840081036090851,0.11565122753381729
13.181982517242432,-0.1977154165506363,-1.2612130641937256,1.2921003103256226,-0.04762193560600281,0.48343250155448914,0.10584671050310135
13.202028751373291,-0.19576820731163025,-1.2616230249404907,1.2920409440994263,-0.04837633669376373,0.4833746552467346,0.10154946148395538
13.222212791442871,-0.19243790209293365,-1.262415885925293,1.291555643081665,-0.049660518765449524,0.48344171047210693,0.093955859541893
13.242387533187866,-0.19080901145935059,-1.2627215385437012,1.291139006614685,-0.05023894086480141,0.483651727437973,0.09060322493314743
13.262508869171143,-0.18836835026741028,-1.2633376121520996,1.2902092933654785,-0.05122197046875954,0.48401200771331787,0.08464860916137695
13.282886981964111,-0.1869492530822754,-1.264014482498169,1.2893434762954712,-0.051975179463624954,0.4841384291648865,0.07954226434230804
13.303010702133179,-0.18675631284713745,-1.264427661895752,1.289007306098938,-0.052249353379011154,0.4840075969696045,0.07725557684898376
13.323081731796265,-0.18662188947200775,-1.2653372287750244,1.2888723611831665,-0.052634697407484055,0.48348474502563477,0.07313144952058792
13.34362268447876,-0.18725137412548065,-1.266416072845459,1.2890480756759644,-0.05292125791311264,0.4826103448867798,0.0695849061012268
13.3638014793396,-0.18774184584617615,-1.2669737339019775,1.2891755104064941,-0.05304867401719093,0.48211321234703064,0.06801610440015793
13.383843898773193,-0.18918666243553162,-1.2681324481964111,1.289204478263855,-0.05323321372270584,0.4809553027153015,0.06523075699806213
13.403925657272339,-0.1897902637720108,-1.2686861753463745,1.2891932725906372,-0.05327609181404114,0.48038235306739807,0.06399141252040863
13.4240403175354,-0.19070091843605042,-1.2696748971939087,1.2890677452087402,-0.053363196551799774,0.4793887138366699,0.06179394572973251
13.444114446640015,-0.19109919667243958,-1.2704393863677979,1.288831353187561,-0.05345030874013901,0.4786872863769531,0.0599297471344471
13.464301824569702,-0.19118517637252808,-1.2707538604736328,1.2887523174285889,-0.05350058525800705,0.4783977270126343,0.059100281447172165
13.484323263168335,-0.19120803475379944,-1.2712363004684448,1.2886595726013184,-0.05353786051273346,0.4779651165008545,0.05762563273310661
13.504462718963623,-0.19137994945049286,-1.2714594602584839,1.288688063621521,-0.0535925067961216,0.4777485728263855,0.056964211165905
13.524527311325073,-0.19161514937877655,-1.2718092203140259,1.2887601852416992,-0.05367259681224823,0.477424681186676,0.05578509345650673
13.544631958007812,-0.19265815615653992,-1.272252082824707,1.2886747121810913,-0.05371332913637161,0.4768640398979187,0.05477265641093254
13.564716577529907,-0.19341543316841125,-1.2725074291229248,1.2886136770248413,-0.05369710177183151,0.4764712154865265,0.05432143434882164
13.584805011749268,-0.19593341648578644,-1.2732017040252686,1.2882428169250488,-0.05373699590563774,0.4752914309501648,0.05349775776267052
13.604886054992676,-0.19741882383823395,-1.273626685142517,1.2880349159240723,-0.05374740809202194,0.4745325446128845,0.05311844125390053
13.624961614608765,-0.20041126012802124,-1.2745097875595093,1.2874912023544312,-0.05373488366603851,0.4728926122188568,0.052459970116615295
13.6452054977417,-0.2036461979150772,-1.2754149436950684,1.2871284484863281,-0.053847625851631165,0.4710735082626343,0.051898833364248276
13.665344953536987,-0.20550639927387238,-1.275855541229248,1.2869691848754883,-0.05402028560638428,0.4701475501060486,0.05166628956794739
13.685401201248169,-0.20839054882526398,-1.276520013809204,1.2868050336837769,-0.05436495691537857,0.46862271428108215,0.05129469931125641
13.705464601516724,-0.20937399566173553,-1.2767372131347656,1.2868399620056152,-0.05454479902982712,0.4680365324020386,0.05114924907684326
13.725566148757935,-0.2108442187309265,-1.2770735025405884,1.2869946956634521,-0.054954685270786285,0.4670119881629944,0.05088139325380325
13.74566102027893,-0.21185573935508728,-1.2772908210754395,1.287150263786316,-0.05549994856119156,0.4662238359451294,0.05063693970441818
13.765738248825073,-0.21229396760463715,-1.2773895263671875,1.2871336936950684,-0.05578557029366493,0.4658844470977783,0.05052939057350159
13.785871505737305,-0.21296018362045288,-1.27752685546875,1.2870808839797974,-0.05633530020713806,0.46530359983444214,0.050345033407211304
13.806256771087646,-0.21383146941661835,-1.27768874168396,1.286979079246521,-0.056939028203487396,0.4646472930908203,0.050161249935626984
13.826424837112427,-0.21454951167106628,-1.277787446975708,1.2868494987487793,-0.057268913835287094,0.4642558991909027,0.05007758364081383
13.84647822380066,-0.21638166904449463,-1.2780214548110962,1.2866272926330566,-0.05792088434100151,0.463355153799057,0.049931298941373825
13.866542339324951,-0.21740850806236267,-1.2781482934951782,1.2864952087402344,-0.05823548510670662,0.46286454796791077,0.049869656562805176
13.886616230010986,-0.21953928470611572,-1.278369426727295,1.2864283323287964,-0.05882071703672409,0.4617948830127716,0.04975182190537453
13.90758466720581,-0.22211311757564545,-1.2787187099456787,1.286473035812378,-0.059368427842855453,0.4603880047798157,0.04959678277373314
13.927675008773804,-0.22344285249710083,-1.2789074182510376,1.2864789962768555,-0.05962878838181496,0.4596475660800934,0.04952581226825714
13.947768926620483,-0.22601318359375,-1.2793266773223877,1.2866233587265015,-0.06011601537466049,0.45807239413261414,0.04937908425927162
13.96792483329773,-0.22725020349025726,-1.2795331478118896,1.2867060899734497,-0.06036242097616196,0.4572909474372864,0.0493144653737545
13.988014698028564,-0.22975905239582062,-1.2799596786499023,1.286624550819397,-0.060859888792037964,0.45576560497283936,0.04921402409672737
14.008149147033691,-0.23095205426216125,-1.280146837234497,1.2865713834762573,-0.0611143633723259,0.45503759384155273,0.04917166009545326
14.028369665145874,-0.2330547720193863,-1.2804218530654907,1.2863798141479492,-0.06160139665007591,0.4537310302257538,0.049091219902038574
14.04847526550293,-0.23499390482902527,-1.2806251049041748,1.2860804796218872,-0.06207519397139549,0.4525304138660431,0.04899860545992851
14.06856369972229,-0.23589780926704407,-1.2807013988494873,1.2859612703323364,-0.062315355986356735,0.45196333527565,0.048947256058454514
14.088659286499023,-0.23759160935878754,-1.280788779258728,1.2855768203735352,-0.06285195052623749,0.4509650468826294,0.0488475076854229
14.10892653465271,-0.23929843306541443,-1.28085196018219,1.2852153778076172,-0.06336268037557602,0.4499514400959015,0.04871908202767372
14.129030466079712,-0.24051934480667114,-1.2809388637542725,1.2850645780563354,-0.06362032890319824,0.449307918548584,0.04864891991019249
14.149148941040039,-0.24276608228683472,-1.2810512781143188,1.2848310470581055,-0.06412084400653839,0.4481275975704193,0.048536915332078934
14.16924262046814,-0.24388690292835236,-1.2811040878295898,1.2848026752471924,-0.06434647738933563,0.44752049446105957,0.04849117621779442
14.189316034317017,-0.24623169004917145,-1.2812652587890625,1.284718632698059,-0.06480130553245544,0.4461977779865265,0.048387374728918076
14.209352016448975,-0.2490999698638916,-1.2814664840698242,1.2844547033309937,-0.06519025564193726,0.444736123085022,0.04831116273999214
14.229451656341553,-0.2505052983760834,-1.2815697193145752,1.2843538522720337,-0.06535254418849945,0.44398629665374756,0.04827819764614105
14.24968147277832,-0.25305771827697754,-1.2817614078521729,1.2840428352355957,-0.06576172262430191,0.44255873560905457,0.04821701720356941
14.269636869430542,-0.2554022967815399,-1.2819253206253052,1.2836660146713257,-0.06624875962734222,0.4411931037902832,0.04814469814300537
14.28975248336792,-0.2565091848373413,-1.2819786071777344,1.2833988666534424,-0.06649255007505417,0.4405706524848938,0.04811452329158783
14.309970140457153,-0.25855210423469543,-1.2820184230804443,1.2828587293624878,-0.06697867065668106,0.43942996859550476,0.04806648567318916
14.330052137374878,-0.2596760392189026,-1.2820360660552979,1.2826482057571411,-0.0672399029135704,0.4388420283794403,0.04804107919335365
14.35009479522705,-0.2618286609649658,-1.2820508480072021,1.2823446989059448,-0.06788063049316406,0.43768447637557983,0.04794890433549881
14.370174407958984,-0.2630676031112671,-1.282077670097351,1.2821104526519775,-0.06819846481084824,0.4370366036891937,0.047886259853839874
14.390249252319336,-0.26612019538879395,-1.2821670770645142,1.2815649509429932,-0.06878542900085449,0.43558716773986816,0.047765787690877914
14.410428047180176,-0.2678457796573639,-1.2822492122650146,1.2812632322311401,-0.06910312920808792,0.43474817276000977,0.04768583923578262
14.430529594421387,-0.2716207504272461,-1.2824718952178955,1.2806169986724854,-0.06981706619262695,0.4328959584236145,0.047479111701250076
14.450602293014526,-0.27600839734077454,-1.2827980518341064,1.2799339294433594,-0.07058260589838028,0.4307153522968292,0.047217320650815964
14.47067141532898,-0.2782686948776245,-1.2829492092132568,1.2795865535736084,-0.07087334990501404,0.42960265278816223,0.04710877314209938
14.490739107131958,-0.282579630613327,-1.283217191696167,1.2791317701339722,-0.0714707151055336,0.4273701012134552,0.04690280929207802
14.511391162872314,-0.2859504520893097,-1.2833285331726074,1.2789783477783203,-0.07212185114622116,0.4254321753978729,0.04670394957065582
14.531481504440308,-0.28730878233909607,-1.2833456993103027,1.2789487838745117,-0.0724065750837326,0.42456117272377014,0.04660777002573013
14.551560640335083,-0.28951242566108704,-1.2833364009857178,1.2788459062576294,-0.07293442636728287,0.4230063557624817,0.04641936719417572
14.571666479110718,-0.2905209958553314,-1.2833000421524048,1.2788095474243164,-0.07321945577859879,0.4223184287548065,0.04632784426212311
14.591817617416382,-0.29197263717651367,-1.2830793857574463,1.27860689163208,-0.07388070970773697,0.42129722237586975,0.046131763607263565
14.611852407455444,-0.2932463586330414,-1.2828153371810913,1.2782210111618042,-0.0745895728468895,0.4204126000404358,0.045860253274440765
14.631918668746948,-0.2938613295555115,-1.2827043533325195,1.277955412864685,-0.07493745535612106,0.4199807345867157,0.04569575935602188
14.651992082595825,-0.29604557156562805,-1.282548427581787,1.277401328086853,-0.07588520646095276,0.4189596176147461,0.0453401654958725
14.672185182571411,-0.29776009917259216,-1.28249192237854,1.2770894765853882,-0.07638959586620331,0.41830557584762573,0.04516005516052246
14.692256927490234,-0.30187907814979553,-1.2824450731277466,1.2765625715255737,-0.07723759114742279,0.41659560799598694,0.04476089030504227
