liuyurong129/humanoid-gym/humanoid/data/target_q_20250522-053933.csv
timestamp,joint_1,joint_2,joint_3,joint_4,joint_5,joint_6
0.0002009868621826172,0.0,0.0,0.0,0.0,0.0,0.0
0.02028942108154297,0.0,0.0,0.0,0.0,0.0,0.0
0.04033780097961426,0.0,0.0,0.0,0.0,0.0,0.0
0.06041240692138672,0.0,0.0,0.0,0.0,0.0,0.0
0.08048105239868164,-0.23421989381313324,-0.3846033811569214,0.5693916082382202,0.5991576910018921,-0.4093913435935974,0.020664744079113007
0.10052871704101562,-0.5793837904930115,-0.5649138689041138,0.5921850204467773,0.7235690355300903,-0.4261443018913269,0.008023474365472794
0.12084126472473145,-0.6674385666847229,-0.6444483995437622,0.5494273900985718,0.6688871383666992,-0.3482828736305237,0.017303552478551865
0.14092350006103516,-0.6798815727233887,-0.6721885204315186,0.5165500044822693,0.6417186260223389,-0.3322458863258362,0.021756883710622787
0.16099882125854492,-0.6869866251945496,-0.7130544781684875,0.46068790555000305,0.6015439033508301,-0.31404921412467957,0.03021816909313202
0.18105053901672363,-0.6849882006645203,-0.7267711758613586,0.4522831439971924,0.5896463990211487,-0.30747196078300476,0.03325619176030159
0.2011406421661377,-0.6767419576644897,-0.7415125966072083,0.45714855194091797,0.5791187882423401,-0.30017736554145813,0.03609932214021683
0.22124266624450684,-0.6685603260993958,-0.7429133653640747,0.46897992491722107,0.5805606245994568,-0.29905861616134644,0.036006342619657516
0.24127864837646484,-0.6628904342651367,-0.7396851778030396,0.45643317699432373,0.5816670656204224,-0.30159422755241394,0.03606349974870682
0.2613673210144043,-0.661424458026886,-0.7388742566108704,0.44504570960998535,0.5808990001678467,-0.30323362350463867,0.036354128271341324
0.2814302444458008,-0.6574679017066956,-0.7384222745895386,0.4314264953136444,0.5793849229812622,-0.3037087917327881,0.03719967603683472
0.30150651931762695,-0.6520966291427612,-0.7384377717971802,0.4363603889942169,0.5799704790115356,-0.30293598771095276,0.037265170365571976
0.32163238525390625,-0.6491474509239197,-0.7378252744674683,0.44320499897003174,0.5812040567398071,-0.3029506802558899,0.03677380457520485
0.341724157333374,-0.6473627090454102,-0.737112283706665,0.4500059187412262,0.5820441246032715,-0.3049454092979431,0.035253655165433884
0.36179637908935547,-0.6488045454025269,-0.7373795509338379,0.4489894211292267,0.5823692679405212,-0.30644649267196655,0.03436710312962532
0.3818361759185791,-0.647212564945221,-0.7373378276824951,0.44842779636383057,0.5830963850021362,-0.3067482113838196,0.0341920480132103
0.4018988609313965,-0.6459029316902161,-0.7371519804000854,0.44837525486946106,0.5831066370010376,-0.3073037266731262,0.03392377123236656
0.42197561264038086,-0.6449336409568787,-0.7370384335517883,0.4550063908100128,0.5838189125061035,-0.30809539556503296,0.03283171355724335
0.4420204162597656,-0.6435290575027466,-0.7357983589172363,0.4605793356895447,0.5859081149101257,-0.3083168864250183,0.0319245420396328
0.4621009826660156,-0.6404947638511658,-0.7344326972961426,0.4624415338039398,0.5881617069244385,-0.30823105573654175,0.03207530453801155
0.4822540283203125,-0.6346002221107483,-0.7317924499511719,0.46039047837257385,0.5907732844352722,-0.3101387023925781,0.03204510360956192
0.5022528171539307,-0.6306115388870239,-0.7304415702819824,0.4581126272678375,0.5908256769180298,-0.31174755096435547,0.03171944245696068
0.5223128795623779,-0.6284133195877075,-0.7304255962371826,0.45545756816864014,0.5899069309234619,-0.31309452652931213,0.03118077665567398
0.5424847602844238,-0.6275257468223572,-0.7305572032928467,0.4531116485595703,0.58902907371521,-0.313654363155365,0.030895382165908813
0.5625021457672119,-0.625379741191864,-0.7307685613632202,0.45318377017974854,0.5898603200912476,-0.31469422578811646,0.030399296432733536
0.5825672149658203,-0.6237600445747375,-0.7302144765853882,0.4520404040813446,0.5911287665367126,-0.3150717616081238,0.02989416942000389
0.6027748584747314,-0.6237491965293884,-0.7303847074508667,0.45237937569618225,0.5917876958847046,-0.3161342144012451,0.029398679733276367
0.6228811740875244,-0.6266982555389404,-0.7315873503684998,0.44675934314727783,0.5902013778686523,-0.31756335496902466,0.028437435626983643
0.642927885055542,-0.6303268074989319,-0.7343794107437134,0.44569694995880127,0.5873750448226929,-0.3174746036529541,0.02771385759115219
0.6630628108978271,-0.6297109127044678,-0.7348460555076599,0.44621509313583374,0.5877805948257446,-0.3165295720100403,0.027875889092683792
0.683107852935791,-0.6217333078384399,-0.7331414222717285,0.4497223496437073,0.5904178619384766,-0.31515783071517944,0.02847902476787567
0.7032325267791748,-0.6104795336723328,-0.7281873822212219,0.4548816382884979,0.5953994989395142,-0.3160836100578308,0.02816295251250267
0.7233157157897949,-0.6069020628929138,-0.7262054085731506,0.4558905363082886,0.5966050624847412,-0.3177420198917389,0.027528222650289536
0.7433834075927734,-0.6032284498214722,-0.7241694927215576,0.45710697770118713,0.5982280373573303,-0.32107558846473694,0.026260726153850555
0.763434886932373,-0.6025148034095764,-0.7246648073196411,0.45617902278900146,0.5989870429039001,-0.3238253891468048,0.02554536983370781
0.783515453338623,-0.6019867658615112,-0.7249610424041748,0.45505082607269287,0.5990757346153259,-0.3251640498638153,0.025174569338560104
0.8036515712738037,-0.6026372909545898,-0.7253162860870361,0.4578116238117218,0.6004167795181274,-0.32691362500190735,0.024043940007686615
0.8237996101379395,-0.6068807244300842,-0.7261438965797424,0.45931103825569153,0.6002217531204224,-0.3274005055427551,0.022689320147037506
0.8437895774841309,-0.6097952127456665,-0.7270578145980835,0.4610593020915985,0.5988773107528687,-0.32582080364227295,0.021878745406866074
0.8638763427734375,-0.6088298559188843,-0.7269384264945984,0.4598071873188019,0.5985898971557617,-0.3252822160720825,0.021876782178878784
0.8839788436889648,-0.6010470986366272,-0.7250028848648071,0.4602956771850586,0.6009602546691895,-0.32542741298675537,0.022353049367666245
0.9040131568908691,-0.5919294953346252,-0.7217177748680115,0.4631668031215668,0.605252742767334,-0.3282565772533417,0.022345032542943954
0.9241209030151367,-0.5893581509590149,-0.720175564289093,0.46397942304611206,0.6069891452789307,-0.33115506172180176,0.021700695157051086
0.9441993236541748,-0.5890407562255859,-0.720104455947876,0.464673787355423,0.6072628498077393,-0.33169832825660706,0.021397218108177185
0.9644360542297363,-0.5890901684761047,-0.7208037376403809,0.4581279158592224,0.605965793132782,-0.33244678378105164,0.021184898912906647
0.9844660758972168,-0.5862322449684143,-0.7204912900924683,0.45629221200942993,0.6062430739402771,-0.33182114362716675,0.02105000987648964
1.0044770240783691,-0.5837279558181763,-0.7197127938270569,0.4571138024330139,0.6065242290496826,-0.3314434587955475,0.020872432738542557
1.0247175693511963,-0.5811389088630676,-0.7183715105056763,0.46018725633621216,0.6060155034065247,-0.3314177393913269,0.019642692059278488
1.044748067855835,-0.5814388990402222,-0.7187986969947815,0.46267640590667725,0.6037446856498718,-0.33236002922058105,0.01798085868358612
1.0647780895233154,-0.5837907195091248,-0.720255434513092,0.46636494994163513,0.6036219596862793,-0.3323359489440918,0.016896046698093414
1.0850551128387451,-0.5821793675422668,-0.7196410894393921,0.46828365325927734,0.604701042175293,-0.3311466872692108,0.016864411532878876
1.1051764488220215,-0.5729944109916687,-0.7152656316757202,0.4728217124938965,0.6103378534317017,-0.33083871006965637,0.016791820526123047
1.1253480911254883,-0.5625532865524292,-0.7097795009613037,0.472704142332077,0.6158519983291626,-0.3347676396369934,0.016026340425014496
1.1454720497131348,-0.5588598847389221,-0.707783043384552,0.4713399112224579,0.6181866526603699,-0.33820998668670654,0.015342779457569122
1.165522575378418,-0.5527790188789368,-0.7051377892494202,0.46889781951904297,0.6209067106246948,-0.34300583600997925,0.014458823949098587
1.1856489181518555,-0.5492319464683533,-0.7036417722702026,0.46430861949920654,0.6198977828025818,-0.34583476185798645,0.01321442797780037
1.2057373523712158,-0.5497064590454102,-0.7042226791381836,0.46481454372406006,0.6193033456802368,-0.34597674012184143,0.0127045176923275
1.2258036136627197,-0.5550414323806763,-0.7070237398147583,0.4654814600944519,0.6162365674972534,-0.3450618088245392,0.011311784386634827
1.2464911937713623,-0.561107873916626,-0.7105495929718018,0.469386488199234,0.6166068911552429,-0.34350860118865967,0.010555841028690338
1.2666151523590088,-0.5620864033699036,-0.7112886905670166,0.46930867433547974,0.6172901391983032,-0.34376710653305054,0.010308351367712021
1.2867026329040527,-0.5592069029808044,-0.7110354900360107,0.4681819677352905,0.6206848621368408,-0.34529775381088257,0.010563336312770844
1.306828498840332,-0.5511928796768188,-0.7088794708251953,0.4686986207962036,0.6223662495613098,-0.34700292348861694,0.01073724776506424
1.326913833618164,-0.5464751124382019,-0.7074325084686279,0.469294011592865,0.6230223774909973,-0.34770527482032776,0.010702341794967651
1.3469865322113037,-0.5407335758209229,-0.7052284479141235,0.46788227558135986,0.6226126551628113,-0.3501523435115814,0.009779255837202072
1.3670437335968018,-0.542431116104126,-0.7052179574966431,0.46592268347740173,0.6230592727661133,-0.35310670733451843,0.008438803255558014
1.3871536254882812,-0.5446577072143555,-0.705838680267334,0.46750587224960327,0.623399019241333,-0.3526827394962311,0.008072081953287125
1.407442331314087,-0.5449392795562744,-0.7063561081886292,0.4739149510860443,0.624968409538269,-0.35133469104766846,0.007760290056467056
1.427382230758667,-0.5389650464057922,-0.7043423652648926,0.4789234399795532,0.627404510974884,-0.3505319356918335,0.007685370743274689
1.4474732875823975,-0.5352646708488464,-0.702714204788208,0.47997111082077026,0.6286565065383911,-0.3517748713493347,0.007300775498151779
1.4676482677459717,-0.5307688117027283,-0.6998596787452698,0.4806070923805237,0.6312949657440186,-0.3547172546386719,0.006335236132144928
1.4878132343292236,-0.5304054617881775,-0.6990161538124084,0.47780388593673706,0.6316425204277039,-0.3581446707248688,0.005137011408805847
1.5078785419464111,-0.5303604602813721,-0.700000524520874,0.4734637141227722,0.6305928230285645,-0.3589351177215576,0.0047347284853458405
1.5280139446258545,-0.529930830001831,-0.700600802898407,0.4693674147129059,0.6298185586929321,-0.3594430685043335,0.004684951156377792
1.5480883121490479,-0.5248414278030396,-0.7002357840538025,0.4726479649543762,0.6308229565620422,-0.35742929577827454,0.005003545433282852
1.5681462287902832,-0.5205214023590088,-0.6991056203842163,0.472292959690094,0.6317305564880371,-0.3580775260925293,0.004704318940639496
1.5882337093353271,-0.5196540951728821,-0.6986500024795532,0.4733365774154663,0.6316002607345581,-0.358097106218338,0.004170794039964676
1.6083018779754639,-0.5191028118133545,-0.6984568238258362,0.47031325101852417,0.6319335699081421,-0.3595401644706726,0.0032069534063339233
1.628404140472412,-0.5171622037887573,-0.6972168684005737,0.4757615327835083,0.6343786716461182,-0.3600313663482666,0.00202285498380661
1.6484782695770264,-0.5156975388526917,-0.695288360118866,0.48369747400283813,0.6371142268180847,-0.3610989451408386,0.0006033293902873993
1.6685969829559326,-0.5144085884094238,-0.694442868232727,0.4897555708885193,0.6382369995117188,-0.36110398173332214,8.020177483558655e-05
1.688654899597168,-0.5091937780380249,-0.6920692920684814,0.49145370721817017,0.6393595337867737,-0.3622913956642151,-0.00044265016913414
1.7086963653564453,-0.5014541745185852,-0.6897067427635193,0.4892269968986511,0.6401097178459167,-0.3649667799472809,-0.000771842896938324
1.7287952899932861,-0.4989141821861267,-0.6885648369789124,0.4860154688358307,0.6403607130050659,-0.367429256439209,-0.0012876912951469421
1.7488563060760498,-0.49421370029449463,-0.6867539882659912,0.48662373423576355,0.6432706713676453,-0.36981528997421265,-0.0016557574272155762
1.768937110900879,-0.49355703592300415,-0.6854684352874756,0.48271846771240234,0.6449844241142273,-0.371304988861084,-0.002219453454017639
1.789191722869873,-0.4931473135948181,-0.6849735379219055,0.48005104064941406,0.644820511341095,-0.3717470169067383,-0.00297580286860466
1.8092834949493408,-0.49238038063049316,-0.6851223707199097,0.47923609614372253,0.6447814702987671,-0.3715779185295105,-0.00310429185628891
1.8293981552124023,-0.49297404289245605,-0.6861602067947388,0.48104429244995117,0.6444320678710938,-0.3729754686355591,-0.004248339682817459
1.849445104598999,-0.49693942070007324,-0.6889585852622986,0.4826633930206299,0.6432703137397766,-0.3742722272872925,-0.005199018865823746
1.8695180416107178,-0.4982861876487732,-0.690071702003479,0.48432257771492004,0.6429166793823242,-0.3744712769985199,-0.005491074174642563
1.8895845413208008,-0.4952846169471741,-0.6905179023742676,0.48738357424736023,0.6433945894241333,-0.37374699115753174,-0.005073782056570053
1.909644603729248,-0.48652228713035583,-0.6875364780426025,0.4938901662826538,0.6466453671455383,-0.3724845051765442,-0.004519052803516388
1.9297707080841064,-0.4795410931110382,-0.683819055557251,0.4964875280857086,0.650384783744812,-0.374500572681427,-0.004969954490661621
1.9499244689941406,-0.4759174883365631,-0.6820024251937866,0.5041186213493347,0.6533225774765015,-0.3748791217803955,-0.005315236747264862
1.9700655937194824,-0.4702988266944885,-0.6787424683570862,0.5024205446243286,0.6543834805488586,-0.3781196177005768,-0.0062585026025772095
1.9900879859924316,-0.46405255794525146,-0.6756492853164673,0.4988211989402771,0.6530649662017822,-0.3788520097732544,-0.007180601358413696
2.010176420211792,-0.46221694350242615,-0.6746753454208374,0.4978645145893097,0.6527267098426819,-0.37957578897476196,-0.007884111255407333
2.0302329063415527,-0.46070119738578796,-0.6728015542030334,0.5031840801239014,0.655206561088562,-0.3799436688423157,-0.009320192039012909
2.050307512283325,-0.46206650137901306,-0.6726737022399902,0.5068503022193909,0.6570246815681458,-0.3812817931175232,-0.01038440689444542
2.0704877376556396,-0.45873603224754333,-0.6722903251647949,0.5035249590873718,0.6566627621650696,-0.381571888923645,-0.010491404682397842
2.090583086013794,-0.4558956027030945,-0.6718558073043823,0.5013028979301453,0.6565036773681641,-0.38240018486976624,-0.010636117309331894
2.110649347305298,-0.44947749376296997,-0.6694452166557312,0.5037334561347961,0.6578776836395264,-0.3840951919555664,-0.011701177805662155
2.1307151317596436,-0.4450637698173523,-0.6666216850280762,0.511133074760437,0.6621598601341248,-0.3868449926376343,-0.013004466891288757
2.1507883071899414,-0.4430258572101593,-0.6651341915130615,0.5189278721809387,0.6657007932662964,-0.387307345867157,-0.013540595769882202
2.1708736419677734,-0.4406057596206665,-0.6627660393714905,0.5241672992706299,0.6702325344085693,-0.390028715133667,-0.014505036175251007
2.190965175628662,-0.4430042803287506,-0.6623347997665405,0.5223740339279175,0.6696189641952515,-0.3932200074195862,-0.016235720366239548
2.2116031646728516,-0.44753560423851013,-0.6640416383743286,0.5172710418701172,0.6645702719688416,-0.3934643566608429,-0.017787117511034012
2.2316792011260986,-0.4501311182975769,-0.6654444932937622,0.5134585499763489,0.6616504192352295,-0.39351776242256165,-0.01843227818608284
2.2517712116241455,-0.4504801630973816,-0.6668767929077148,0.5149562954902649,0.6624808311462402,-0.39212942123413086,-0.018590986728668213
2.2718076705932617,-0.44538503885269165,-0.6666765809059143,0.5137702822685242,0.6659566164016724,-0.3937545120716095,-0.018088746815919876
2.29189133644104,-0.4418703019618988,-0.6660969257354736,0.5122554898262024,0.6672552227973938,-0.39471542835235596,-0.017831671983003616
2.311958074569702,-0.4333066940307617,-0.6637939810752869,0.5078516602516174,0.6653649806976318,-0.39525118470191956,-0.018015190958976746
2.332036256790161,-0.42300575971603394,-0.6591762900352478,0.5142259001731873,0.6670684814453125,-0.39383465051651,-0.018573865294456482
2.3521976470947266,-0.4152032434940338,-0.6532602906227112,0.5227750539779663,0.6732218265533447,-0.3944571018218994,-0.019482553005218506
2.372281551361084,-0.41370874643325806,-0.6513047814369202,0.5299395322799683,0.677844762802124,-0.39657628536224365,-0.020352330058813095
2.3923397064208984,-0.41265982389450073,-0.6486670970916748,0.5321441888809204,0.6803830862045288,-0.4008275270462036,-0.022242281585931778
2.412396192550659,-0.4115748703479767,-0.6475300788879395,0.5348020792007446,0.6802301406860352,-0.403600811958313,-0.023953355848789215
2.4324796199798584,-0.4120618999004364,-0.647526204586029,0.5321825742721558,0.6793285012245178,-0.4054206609725952,-0.024568133056163788
2.452630043029785,-0.4128183126449585,-0.6486069560050964,0.5297328233718872,0.6810564398765564,-0.40823066234588623,-0.024767573922872543
2.472665548324585,-0.4124194383621216,-0.6500418782234192,0.5239751935005188,0.681718647480011,-0.41037771105766296,-0.024733882397413254
2.492792844772339,-0.4082677364349365,-0.6504570841789246,0.5222021341323853,0.6815688014030457,-0.41106748580932617,-0.024782564491033554
2.512911319732666,-0.40590375661849976,-0.6504138708114624,0.5263964533805847,0.6826156377792358,-0.4110053479671478,-0.024968184530735016
2.5329742431640625,-0.4039345979690552,-0.6498203277587891,0.5269812345504761,0.6814100742340088,-0.4111180007457733,-0.02583889290690422
2.5530779361724854,-0.3996330499649048,-0.6478887796401978,0.5300305485725403,0.6815640926361084,-0.41058528423309326,-0.026713762432336807
2.5736083984375,-0.3997322618961334,-0.6470771431922913,0.5268270373344421,0.6809220314025879,-0.412295937538147,-0.02753400430083275
2.593761682510376,-0.39833730459213257,-0.6453847289085388,0.5331236124038696,0.682518482208252,-0.4129806160926819,-0.028669673949480057
2.6138570308685303,-0.4003921151161194,-0.6439287662506104,0.5381451845169067,0.6829984188079834,-0.4135552644729614,-0.03036758303642273
2.6338918209075928,-0.4001951217651367,-0.6419894695281982,0.5429461598396301,0.6849379539489746,-0.4130067825317383,-0.031393952667713165
2.6539762020111084,-0.3989720344543457,-0.6416347622871399,0.5464757084846497,0.6879693865776062,-0.4135396480560303,-0.03143584355711937
2.6740782260894775,-0.3949788808822632,-0.6408206224441528,0.5396978259086609,0.6896488666534424,-0.4159495532512665,-0.031171999871730804
2.6941535472869873,-0.38826680183410645,-0.6402344703674316,0.5321090817451477,0.6870885491371155,-0.4173843264579773,-0.031223759055137634
2.7142295837402344,-0.3835792541503906,-0.6390417814254761,0.5238946676254272,0.6845908164978027,-0.41791412234306335,-0.03140593692660332
2.7343151569366455,-0.3774781823158264,-0.6384332180023193,0.5200020670890808,0.6829904317855835,-0.4195140600204468,-0.03217029571533203
2.7551422119140625,-0.37199556827545166,-0.6370335817337036,0.5241208076477051,0.6850141286849976,-0.420205295085907,-0.032801222056150436
2.775221824645996,-0.3702525198459625,-0.6364657878875732,0.5349029898643494,0.6879132986068726,-0.420626163482666,-0.03345286473631859
2.7953484058380127,-0.3664196729660034,-0.6329989433288574,0.5460578799247742,0.6921426057815552,-0.4218512177467346,-0.03461286053061485
2.8153436183929443,-0.3688291013240814,-0.6311781406402588,0.551962673664093,0.695574164390564,-0.4252578318119049,-0.03611193969845772
2.8354086875915527,-0.3725530207157135,-0.6310824155807495,0.5455800294876099,0.6956745386123657,-0.42754995822906494,-0.036590076982975006
2.855496406555176,-0.37489813566207886,-0.6317504644393921,0.5463512539863586,0.6975305080413818,-0.4279481768608093,-0.03684474155306816
2.875565528869629,-0.3700641393661499,-0.6308081746101379,0.541914701461792,0.6973399519920349,-0.42872485518455505,-0.03711872547864914
2.8956217765808105,-0.3628382086753845,-0.6286141276359558,0.5404395461082458,0.699189305305481,-0.42921286821365356,-0.03710314258933067
2.9157228469848633,-0.36028438806533813,-0.6277071237564087,0.5446208119392395,0.7012311220169067,-0.42897117137908936,-0.03718479722738266
2.9357798099517822,-0.3537275195121765,-0.6239112019538879,0.5536233186721802,0.7031896710395813,-0.42621710896492004,-0.03743556886911392
2.955839157104492,-0.34575456380844116,-0.6192334294319153,0.5592041611671448,0.7034175395965576,-0.42617112398147583,-0.038874030113220215
2.975961446762085,-0.3430445194244385,-0.6166908740997314,0.5559159517288208,0.7013705372810364,-0.4275543987751007,-0.039905596524477005
2.9959990978240967,-0.3411315679550171,-0.6145209074020386,0.5612421631813049,0.7038263082504272,-0.43139761686325073,-0.04171237349510193
3.016056537628174,-0.3403638005256653,-0.612864077091217,0.5677148699760437,0.7056689858436584,-0.43301922082901,-0.04285749793052673
3.036137819290161,-0.33817291259765625,-0.6125096678733826,0.5772024393081665,0.7100535035133362,-0.4332980215549469,-0.0430663526058197
3.0562198162078857,-0.33736905455589294,-0.6118993163108826,0.5761739015579224,0.7131450176239014,-0.43713638186454773,-0.04377184063196182
3.0763235092163086,-0.33765265345573425,-0.6119047999382019,0.5726065039634705,0.7153558135032654,-0.44047021865844727,-0.044469237327575684
3.096355676651001,-0.33737820386886597,-0.6112162470817566,0.5641081929206848,0.713019073009491,-0.4406118094921112,-0.045418884605169296
3.116511344909668,-0.3357977867126465,-0.6105506420135498,0.5570341944694519,0.7091110348701477,-0.440493106842041,-0.045984119176864624
3.1367671489715576,-0.3309743404388428,-0.6095541715621948,0.5518546104431152,0.7075091600418091,-0.4403281807899475,-0.046586938202381134
3.1568315029144287,-0.32723772525787354,-0.6090120077133179,0.5482926368713379,0.708740234375,-0.441331684589386,-0.04715295508503914
3.1768579483032227,-0.32506150007247925,-0.6088833808898926,0.5524135231971741,0.7106867432594299,-0.44181138277053833,-0.04773470014333725
3.1969707012176514,-0.3222714066505432,-0.6076861619949341,0.5614660978317261,0.7113029956817627,-0.44204002618789673,-0.0492820143699646
3.2171597480773926,-0.3215862810611725,-0.6061767935752869,0.5783333778381348,0.7146160006523132,-0.4436458647251129,-0.05052824690937996
3.23714542388916,-0.32190898060798645,-0.6049041748046875,0.5876245498657227,0.7195030450820923,-0.44610655307769775,-0.0506669282913208
3.257181167602539,-0.3223552703857422,-0.6040471792221069,0.5794399976730347,0.7187584638595581,-0.4491393566131592,-0.05088680610060692
3.27724289894104,-0.3184005916118622,-0.6026241183280945,0.579928457736969,0.7191161513328552,-0.4509360194206238,-0.051428813487291336
3.2973110675811768,-0.3148607015609741,-0.600168764591217,0.583748996257782,0.7217969298362732,-0.4517662525177002,-0.05196097493171692
3.3173742294311523,-0.31116557121276855,-0.5983358025550842,0.5921972393989563,0.7261420488357544,-0.44999605417251587,-0.05179935693740845
3.3374760150909424,-0.3047163784503937,-0.5933135151863098,0.5901188850402832,0.7272674441337585,-0.4492470622062683,-0.052444957196712494
3.3576061725616455,-0.297453910112381,-0.5894383192062378,0.5809538960456848,0.7253372669219971,-0.45009490847587585,-0.0535149984061718
3.3776304721832275,-0.2941705584526062,-0.5885205268859863,0.5744602680206299,0.7240062355995178,-0.4523963928222656,-0.054870568215847015
3.397749423980713,-0.2960473597049713,-0.5887142419815063,0.5707416534423828,0.7218585014343262,-0.4546094238758087,-0.05597589164972305
3.4178595542907715,-0.3019338846206665,-0.5909453630447388,0.5737578272819519,0.7221307158470154,-0.4579858183860779,-0.057806700468063354
3.437852621078491,-0.31019818782806396,-0.5943792462348938,0.5729434490203857,0.720996618270874,-0.46107614040374756,-0.0595097616314888
3.457930088043213,-0.3110676407814026,-0.5960583090782166,0.5738986730575562,0.7214033603668213,-0.4610220789909363,-0.059880807995796204
3.4780352115631104,-0.3070612847805023,-0.5968214869499207,0.5677688121795654,0.7202614545822144,-0.4599871337413788,-0.06004774570465088
3.4980902671813965,-0.2979137897491455,-0.5946460962295532,0.5679863691329956,0.7217323780059814,-0.4589783549308777,-0.05968339368700981
3.5181825160980225,-0.28907787799835205,-0.5913088917732239,0.5686399936676025,0.7252370119094849,-0.45867687463760376,-0.058673687279224396
3.538311004638672,-0.2862962782382965,-0.5894003510475159,0.5669593214988708,0.7252117395401001,-0.45980364084243774,-0.058636605739593506
3.5584704875946045,-0.2799776494503021,-0.585654079914093,0.5683072209358215,0.7238349318504333,-0.45951977372169495,-0.05914390832185745
3.578627586364746,-0.27729904651641846,-0.5830358266830444,0.5732470154762268,0.7222045660018921,-0.4598240256309509,-0.061254993081092834
3.5986616611480713,-0.27686288952827454,-0.5821136236190796,0.5749894976615906,0.7222415208816528,-0.46022820472717285,-0.062374047935009
3.6187973022460938,-0.2786383032798767,-0.5810783505439758,0.5729221701622009,0.7269411087036133,-0.46368229389190674,-0.06415389478206635
3.638827085494995,-0.2834201157093048,-0.5818895697593689,0.5660739541053772,0.7301295399665833,-0.46849381923675537,-0.06584689766168594
3.6588900089263916,-0.28929591178894043,-0.5845935940742493,0.5637404322624207,0.7282124757766724,-0.47041094303131104,-0.06747885048389435
3.6790385246276855,-0.29070234298706055,-0.5864000916481018,0.5723679661750793,0.7285839319229126,-0.4696236252784729,-0.06781187653541565
3.6990585327148438,-0.28801900148391724,-0.5866864323616028,0.5816622376441956,0.7280980348587036,-0.4674634337425232,-0.06738343834877014
3.7191269397735596,-0.28115999698638916,-0.584827184677124,0.5779228806495667,0.7281126976013184,-0.46830689907073975,-0.06676304340362549
3.7391998767852783,-0.27629128098487854,-0.5830985903739929,0.5749168395996094,0.727832019329071,-0.46821337938308716,-0.066856250166893
3.759300708770752,-0.2662612795829773,-0.578938364982605,0.5758782625198364,0.7273165583610535,-0.4677305817604065,-0.06742608547210693
3.7794954776763916,-0.25839847326278687,-0.5738847851753235,0.5769617557525635,0.7276614904403687,-0.46637141704559326,-0.06818550825119019
3.799504518508911,-0.25408661365509033,-0.5699244141578674,0.5714855194091797,0.7282570600509644,-0.4687727391719818,-0.07006344199180603
3.8195502758026123,-0.2515462040901184,-0.5685427188873291,0.5737099647521973,0.7294437885284424,-0.46876615285873413,-0.07103385031223297
3.8396341800689697,-0.2480153888463974,-0.5662802457809448,0.5824966430664062,0.7349891662597656,-0.4705994129180908,-0.07293146848678589
3.859678268432617,-0.2486216276884079,-0.5644448399543762,0.5950226783752441,0.7422221899032593,-0.47381821274757385,-0.07422691583633423
3.8797836303710938,-0.25073838233947754,-0.5626686215400696,0.591996967792511,0.742096483707428,-0.47574466466903687,-0.07511931657791138
3.899883508682251,-0.25546154379844666,-0.5618307590484619,0.5931605696678162,0.7408681511878967,-0.47830212116241455,-0.07691378891468048
3.9199867248535156,-0.2578542232513428,-0.5616544485092163,0.5917074084281921,0.7376800775527954,-0.4774355888366699,-0.07811559736728668
3.9400253295898438,-0.25774919986724854,-0.5622285604476929,0.5906796455383301,0.7386165261268616,-0.4776320457458496,-0.07834653556346893
3.9601049423217773,-0.25542521476745605,-0.5622286796569824,0.5951327681541443,0.7415083646774292,-0.4768993854522705,-0.07820430397987366
3.9801838397979736,-0.2528575658798218,-0.5610781311988831,0.5853587985038757,0.7431759834289551,-0.47950732707977295,-0.078846275806427
4.000235557556152,-0.25147324800491333,-0.5601629018783569,0.5731465220451355,0.7438624501228333,-0.4812552332878113,-0.08060979843139648
4.020277261734009,-0.2514066696166992,-0.5599768757820129,0.5594691634178162,0.7420254945755005,-0.48210471868515015,-0.0827183723449707
4.040366888046265,-0.2496955543756485,-0.5593234896659851,0.5534774661064148,0.7399322390556335,-0.48087525367736816,-0.08326859772205353
4.060499429702759,-0.2467699497938156,-0.5589575171470642,0.5539126396179199,0.7411080002784729,-0.48082274198532104,-0.08435362577438354
4.080498695373535,-0.24514470994472504,-0.5572319030761719,0.5700204968452454,0.746842086315155,-0.4798048138618469,-0.0852038562297821
4.100620269775391,-0.24286122620105743,-0.556456983089447,0.5848873853683472,0.7514392733573914,-0.47966650128364563,-0.08552910387516022
4.120654106140137,-0.23884354531764984,-0.5530304312705994,0.5960421562194824,0.7530071139335632,-0.48025089502334595,-0.0859965980052948
4.140726327896118,-0.23363547027111053,-0.5504003167152405,0.5981981754302979,0.7504687905311584,-0.48310407996177673,-0.08665786683559418
4.160878658294678,-0.23300425708293915,-0.5486966371536255,0.5919924974441528,0.7447449564933777,-0.48416849970817566,-0.08860670030117035
4.18096137046814,-0.2350596934556961,-0.5480782985687256,0.5825504660606384,0.7403936386108398,-0.48566997051239014,-0.08996877074241638
4.201070070266724,-0.23708908259868622,-0.547578752040863,0.5719040036201477,0.7364791035652161,-0.48482024669647217,-0.09197540581226349
4.221105575561523,-0.23863570392131805,-0.5486162304878235,0.5633095502853394,0.7395361661911011,-0.48604029417037964,-0.09287974238395691
4.24122428894043,-0.23791031539440155,-0.5487710237503052,0.560411274433136,0.7410991787910461,-0.48526281118392944,-0.09330777823925018
4.261309623718262,-0.2366415113210678,-0.5493823289871216,0.5489830374717712,0.7427700757980347,-0.4864059388637543,-0.09484824538230896
4.281361818313599,-0.23160649836063385,-0.548265814781189,0.554024338722229,0.7470748424530029,-0.4852621555328369,-0.09589648246765137
4.3015666007995605,-0.2220602035522461,-0.5440536141395569,0.5749123692512512,0.7544625401496887,-0.4833188056945801,-0.09602987766265869
4.321621417999268,-0.2169935554265976,-0.5406833291053772,0.5820058584213257,0.754379153251648,-0.4834616184234619,-0.09629946947097778
4.341793775558472,-0.2082897573709488,-0.5340874195098877,0.5875024199485779,0.7542644143104553,-0.48461437225341797,-0.09767520427703857
4.361862659454346,-0.20657455921173096,-0.5309871435165405,0.5878481864929199,0.7539373636245728,-0.48850762844085693,-0.10005839169025421
4.382138967514038,-0.21445009112358093,-0.5303362011909485,0.5770884156227112,0.7552333474159241,-0.49276861548423767,-0.1022685319185257
4.402223348617554,-0.21852444112300873,-0.5316817760467529,0.573631763458252,0.7581257820129395,-0.49375471472740173,-0.10315699875354767
4.422288417816162,-0.22473841905593872,-0.5345308184623718,0.5545337796211243,0.7557076215744019,-0.49505385756492615,-0.10535836219787598
4.442336320877075,-0.22395017743110657,-0.5378174781799316,0.5468803644180298,0.7507040500640869,-0.49506330490112305,-0.10708129405975342
4.462417125701904,-0.22442923486232758,-0.538241446018219,0.5393030047416687,0.7453700304031372,-0.4960106611251831,-0.10804876685142517
4.482483863830566,-0.22054262459278107,-0.5380061268806458,0.5450844168663025,0.7411091923713684,-0.4942293167114258,-0.10925869643688202
4.5025951862335205,-0.21453185379505157,-0.5352210998535156,0.5502416491508484,0.7414752244949341,-0.4919910132884979,-0.11041760444641113
4.522648096084595,-0.2085479199886322,-0.5322636365890503,0.5543293952941895,0.7481343746185303,-0.4932509660720825,-0.11100785434246063
4.54273533821106,-0.20523379743099213,-0.5307818651199341,0.55793297290802,0.7513558864593506,-0.49329501390457153,-0.11150979995727539
4.562790870666504,-0.20232363045215607,-0.5281709432601929,0.5511135458946228,0.7534394860267639,-0.4960275888442993,-0.11287105083465576
4.582982778549194,-0.20102928578853607,-0.5262975096702576,0.5432002544403076,0.7513734698295593,-0.4956941604614258,-0.11448206007480621
4.602941989898682,-0.1988292634487152,-0.524496853351593,0.5408129692077637,0.749908447265625,-0.4934486150741577,-0.11607158184051514
4.6230247020721436,-0.19717349112033844,-0.5233374834060669,0.5416719913482666,0.7497581243515015,-0.4920903444290161,-0.11710985004901886
4.643152236938477,-0.1965746134519577,-0.5216491222381592,0.5418955683708191,0.7514594793319702,-0.4927396774291992,-0.11989960074424744
4.663196086883545,-0.19985684752464294,-0.5212445855140686,0.5339784026145935,0.7542827129364014,-0.49613162875175476,-0.12260472774505615
4.683448791503906,-0.20256271958351135,-0.5214513540267944,0.5238717198371887,0.7557035088539124,-0.49754098057746887,-0.12495872378349304
4.703524589538574,-0.20415548980236053,-0.5217723250389099,0.5140017867088318,0.7559934258460999,-0.49870872497558594,-0.12625469267368317
4.723618030548096,-0.2091236561536789,-0.5237606763839722,0.5021640658378601,0.7549222111701965,-0.5008666515350342,-0.12908746302127838
4.743655204772949,-0.21529223024845123,-0.5259628295898438,0.4965308606624603,0.7532625198364258,-0.5008473992347717,-0.13145552575588226
4.763749837875366,-0.21595148742198944,-0.5272203683853149,0.5030962228775024,0.7542223334312439,-0.4999544322490692,-0.13244657218456268
4.783810615539551,-0.21386992931365967,-0.5270712971687317,0.5143446326255798,0.7567581534385681,-0.4978618025779724,-0.133378803730011
4.803871154785156,-0.20617811381816864,-0.5248361229896545,0.53190678358078,0.7603040337562561,-0.49862444400787354,-0.133652925491333
4.824039936065674,-0.19785799086093903,-0.520274817943573,0.547217845916748,0.7627495527267456,-0.4990383982658386,-0.1335155963897705
4.844152212142944,-0.19213397800922394,-0.5167334079742432,0.5515458583831787,0.7612801790237427,-0.4983675479888916,-0.13362231850624084
4.864271879196167,-0.18078158795833588,-0.5094014406204224,0.5622656941413879,0.7630678415298462,-0.4963257312774658,-0.1345515102148056
4.884274005889893,-0.17288143932819366,-0.5031133890151978,0.5619694590568542,0.7649641036987305,-0.49644070863723755,-0.1361156851053238
4.904627084732056,-0.1716892123222351,-0.500715970993042,0.5540754795074463,0.7640841603279114,-0.4968949854373932,-0.13755691051483154
4.924727201461792,-0.16946105659008026,-0.4977680444717407,0.5337879061698914,0.75804603099823,-0.49490636587142944,-0.14135394990444183
4.944786548614502,-0.1723380833864212,-0.49893277883529663,0.51358562707901,0.7534303665161133,-0.4949638843536377,-0.14691162109375
4.964803695678711,-0.18018777668476105,-0.502693235874176,0.5025343894958496,0.7552874088287354,-0.4977318048477173,-0.1519143283367157
4.984905958175659,-0.18445904552936554,-0.5045332908630371,0.5010711550712585,0.7593356370925903,-0.4988975524902344,-0.1535552740097046
5.004988193511963,-0.19289246201515198,-0.5074809789657593,0.48742470145225525,0.759813666343689,-0.5001506805419922,-0.15641526877880096
5.025074481964111,-0.19849742949008942,-0.5113560557365417,0.47101742029190063,0.7590518593788147,-0.5020992159843445,-0.15842197835445404
5.0451836585998535,-0.19862954318523407,-0.5144664645195007,0.46814316511154175,0.7604734897613525,-0.5026407837867737,-0.15942935645580292
5.065289258956909,-0.19776536524295807,-0.514308750629425,0.466258704662323,0.7595223188400269,-0.5032640695571899,-0.1596711426973343
5.085340976715088,-0.18426699936389923,-0.5099685192108154,0.4902745485305786,0.7616492509841919,-0.4983084797859192,-0.1591576635837555
5.105362415313721,-0.16300062835216522,-0.5013039112091064,0.5164368152618408,0.7600842714309692,-0.49299606680870056,-0.15828806161880493
5.125621318817139,-0.1391250491142273,-0.4914435148239136,0.5460051894187927,0.7598109245300293,-0.48925966024398804,-0.15754534304141998
5.145704746246338,-0.1265086978673935,-0.48669934272766113,0.561636209487915,0.7632625699043274,-0.4880484938621521,-0.1570596992969513
5.165904998779297,-0.10506796091794968,-0.47607821226119995,0.5808918476104736,0.7664655447006226,-0.48638927936553955,-0.15742923319339752
5.18593692779541,-0.09377944469451904,-0.46694034337997437,0.5879279971122742,0.7698546051979065,-0.487291157245636,-0.15934836864471436
5.20603346824646,-0.09520834684371948,-0.46296679973602295,0.5790612697601318,0.7671130299568176,-0.4887581169605255,-0.1614808887243271
5.2260847091674805,-0.10534339398145676,-0.46067655086517334,0.5656525492668152,0.769296407699585,-0.49210330843925476,-0.1678830087184906
5.246158838272095,-0.12375637143850327,-0.4641980528831482,0.542819619178772,0.7725681066513062,-0.4951394200325012,-0.17684628069400787
5.266286611557007,-0.1479632705450058,-0.4728041887283325,0.516027569770813,0.7783432006835938,-0.4980955123901367,-0.1866382211446762
5.286380052566528,-0.16039533913135529,-0.47857457399368286,0.5089817643165588,0.7860138416290283,-0.4996221661567688,-0.1912660300731659
5.30646824836731,-0.18852980434894562,-0.48872315883636475,0.47698700428009033,0.7909523248672485,-0.5023941993713379,-0.19915367662906647
5.326562166213989,-0.21172024309635162,-0.4986056089401245,0.44286397099494934,0.792662501335144,-0.5042886137962341,-0.20429417490959167
5.346707820892334,-0.2247375100851059,-0.505174458026886,0.4141586720943451,0.7885407209396362,-0.5041202306747437,-0.20646733045578003
5.366828203201294,-0.22659124433994293,-0.5062804222106934,0.4047366976737976,0.7844281196594238,-0.5042036175727844,-0.20639550685882568
5.386880874633789,-0.2148895114660263,-0.5045713782310486,0.4080495834350586,0.7763968706130981,-0.5003076195716858,-0.20511583983898163
5.406942129135132,-0.18762163817882538,-0.49896687269210815,0.4290648102760315,0.7699769735336304,-0.49306127429008484,-0.20295630395412445
5.427022933959961,-0.1555195301771164,-0.4905611276626587,0.45659199357032776,0.7666726112365723,-0.4845884144306183,-0.201503187417984
5.447153806686401,-0.1400313824415207,-0.48534882068634033,0.47463586926460266,0.7685045599937439,-0.48131561279296875,-0.20088931918144226
5.467229843139648,-0.11646605283021927,-0.47386693954467773,0.503061830997467,0.7716270685195923,-0.4777395725250244,-0.20044350624084473
5.4872887134552,-0.10428888350725174,-0.46489208936691284,0.5144497156143188,0.7728644609451294,-0.47786349058151245,-0.20081721246242523
5.507334470748901,-0.09764943271875381,-0.4605759382247925,0.5075405240058899,0.7659928798675537,-0.4751887321472168,-0.20315499603748322
5.52745246887207,-0.09563220292329788,-0.46012890338897705,0.5016205310821533,0.7614370584487915,-0.47335734963417053,-0.2049349844455719
5.547587633132935,-0.09091202169656754,-0.45955026149749756,0.49888354539871216,0.753212571144104,-0.4679044783115387,-0.2093646228313446
5.567610740661621,-0.08951981365680695,-0.45669299364089966,0.507478654384613,0.7473115921020508,-0.46285098791122437,-0.21433953940868378
5.587671279907227,-0.09054853767156601,-0.4534754753112793,0.5173860788345337,0.7426853179931641,-0.45955008268356323,-0.2173989713191986
5.607782363891602,-0.10011086612939835,-0.44592761993408203,0.5386150479316711,0.7352330684661865,-0.45656973123550415,-0.22398963570594788
5.627815008163452,-0.12258944660425186,-0.4364127516746521,0.5564777851104736,0.7229101657867432,-0.45482075214385986,-0.23299817740917206
5.648045301437378,-0.15871550142765045,-0.4292399287223816,0.5552325248718262,0.706030011177063,-0.457182914018631,-0.2452385574579239
5.66826868057251,-0.1748725324869156,-0.42722541093826294,0.543178379535675,0.6988391876220703,-0.4566364288330078,-0.25138744711875916
5.688260793685913,-0.20337697863578796,-0.43365478515625,0.48302218317985535,0.6921072602272034,-0.4622294306755066,-0.2634662389755249
5.708296537399292,-0.21262039244174957,-0.45038801431655884,0.391765832901001,0.7020052671432495,-0.46747899055480957,-0.2722892165184021
5.728380918502808,-0.20938487350940704,-0.4594411253929138,0.34695523977279663,0.7135559916496277,-0.46813884377479553,-0.27483439445495605
5.748441457748413,-0.18590493500232697,-0.46773195266723633,0.3088245689868927,0.7496273517608643,-0.461980402469635,-0.2779487371444702
5.768542528152466,-0.14327548444271088,-0.46147388219833374,0.33403635025024414,0.7816036939620972,-0.43976831436157227,-0.28042125701904297
5.78873610496521,-0.1187807247042656,-0.4546961188316345,0.36560481786727905,0.7952924370765686,-0.428539514541626,-0.2822035253047943
5.808840751647949,-0.06618368625640869,-0.4371277093887329,0.43444979190826416,0.8133350610733032,-0.4052364230155945,-0.28489771485328674
5.8289031982421875,-0.0201457217335701,-0.4191216230392456,0.513624906539917,0.8332229852676392,-0.3979727029800415,-0.28610149025917053
5.848952054977417,-0.00875116977840662,-0.4010867476463318,0.5815644860267639,0.8324347734451294,-0.40222036838531494,-0.28832677006721497
5.869065523147583,-0.027469832450151443,-0.3933102488517761,0.6088661551475525,0.8212519884109497,-0.4101167917251587,-0.2919725477695465
5.88912296295166,-0.10868314653635025,-0.3812325596809387,0.6319963932037354,0.7860196828842163,-0.42970114946365356,-0.3036564290523529
5.9092090129852295,-0.2260909527540207,-0.3827401399612427,0.6051964163780212,0.7605822086334229,-0.45508772134780884,-0.3181922733783722
5.92977237701416,-0.33799007534980774,-0.4010363817214966,0.5085381865501404,0.7566102147102356,-0.479430615901947,-0.32787856459617615
5.949879884719849,-0.37980735301971436,-0.4141343832015991,0.43624046444892883,0.7598749995231628,-0.4889475107192993,-0.3289279639720917
5.970199823379517,-0.41789549589157104,-0.4355943202972412,0.302570104598999,0.7805803418159485,-0.49576497077941895,-0.3243316113948822
5.990630149841309,-0.39707010984420776,-0.44247525930404663,0.24533793330192566,0.8119016289710999,-0.48703432083129883,-0.3162741959095001
6.01080584526062,-0.371395468711853,-0.4408472776412964,0.24764475226402283,0.8247483372688293,-0.4777831733226776,-0.3134232461452484
6.030828952789307,-0.3019482493400574,-0.4305676221847534,0.2923683524131775,0.839387834072113,-0.4513956606388092,-0.3122625946998596
6.050872564315796,-0.21258561313152313,-0.41231340169906616,0.3671436607837677,0.847614049911499,-0.4159691333770752,-0.31449419260025024
6.070958614349365,-0.16694007813930511,-0.40226465463638306,0.41063782572746277,0.854586124420166,-0.4012855887413025,-0.315544068813324
6.091047525405884,-0.07375309616327286,-0.3824946880340576,0.4996115565299988,0.880677342414856,-0.3829139769077301,-0.31458497047424316
6.111087083816528,-0.013396446593105793,-0.37053483724594116,0.5359814167022705,0.8858559727668762,-0.3810790479183197,-0.31376752257347107
6.131165027618408,-0.001818832941353321,-0.36848634481430054,0.5362136363983154,0.8765475749969482,-0.3815467357635498,-0.3157278597354889
6.151325941085815,-0.03516682982444763,-0.3758106231689453,0.49831223487854004,0.8276402354240417,-0.3892342746257782,-0.32662346959114075
6.171386241912842,-0.13709427416324615,-0.39603400230407715,0.4457516670227051,0.7822898030281067,-0.4172624945640564,-0.34406599402427673
6.191415548324585,-0.2337309718132019,-0.4159424304962158,0.3781159222126007,0.7766689658164978,-0.44395679235458374,-0.3533266484737396
6.211499214172363,-0.26803553104400635,-0.4226747155189514,0.3480069637298584,0.7864974737167358,-0.4574755132198334,-0.3546716570854187
6.231614112854004,-0.26903587579727173,-0.42311567068099976,0.30239084362983704,0.8183304071426392,-0.46006834506988525,-0.35032033920288086
6.251654863357544,-0.21776027977466583,-0.4143407344818115,0.31396597623825073,0.8513357639312744,-0.4435040354728699,-0.349183589220047
6.271744251251221,-0.1822267323732376,-0.40709757804870605,0.34040743112564087,0.8635641932487488,-0.42651742696762085,-0.35058683156967163
6.291812419891357,-0.0952400267124176,-0.388816773891449,0.42436346411705017,0.8939226865768433,-0.38430553674697876,-0.35225698351860046
6.311866521835327,0.0030207065865397453,-0.3707019090652466,0.5237897634506226,0.92540442943573,-0.3352556824684143,-0.3516598641872406
6.33193564414978,0.04045378789305687,-0.36459648609161377,0.5599173307418823,0.9328562617301941,-0.3140128254890442,-0.35143518447875977
6.352020740509033,0.07108278572559357,-0.35776853561401367,0.6074091196060181,0.9242666363716125,-0.2882078289985657,-0.3554944694042206
6.372088670730591,0.03217529132962227,-0.3590282201766968,0.6059699058532715,0.9033964276313782,-0.30347734689712524,-0.36575937271118164
6.392158269882202,-0.05607067421078682,-0.36735039949417114,0.5609842538833618,0.9013783931732178,-0.36855512857437134,-0.3750123679637909
6.412224769592285,-0.10989902168512344,-0.3705851137638092,0.5226848721504211,0.9048373699188232,-0.40713053941726685,-0.3764286935329437
6.432294607162476,-0.22629117965698242,-0.3769863247871399,0.4326997399330139,0.8952521085739136,-0.46304750442504883,-0.37874695658683777
6.452380657196045,-0.2684548497200012,-0.38563960790634155,0.35405078530311584,0.8792768716812134,-0.46409615874290466,-0.3784925043582916
6.47251033782959,-0.2308807522058487,-0.3939845561981201,0.2875184118747711,0.8776358962059021,-0.4433424472808838,-0.37481388449668884
6.492603063583374,-0.1899513155221939,-0.39705705642700195,0.27574047446250916,0.8871684074401855,-0.42994487285614014,-0.3730528652667999
6.5126752853393555,-0.10858841985464096,-0.4032708406448364,0.27346041798591614,0.9022189974784851,-0.39796575903892517,-0.3735131323337555
6.532737970352173,-0.02141439914703369,-0.4056164622306824,0.3283633589744568,0.9195732474327087,-0.3460060656070709,-0.3774482309818268
6.55321192741394,0.02742927148938179,-0.40337812900543213,0.3702475130558014,0.9318737983703613,-0.3111567199230194,-0.3789048194885254
6.573364734649658,0.10466129332780838,-0.39743471145629883,0.47836533188819885,0.9590644836425781,-0.25759661197662354,-0.3823792040348053
6.593396902084351,0.1403319388628006,-0.391482949256897,0.570178747177124,0.9727462530136108,-0.23159927129745483,-0.3852687478065491
6.613490104675293,0.12512145936489105,-0.3865758776664734,0.6220771670341492,0.9677962064743042,-0.23664867877960205,-0.39045265316963196
6.633540391921997,0.09673329442739487,-0.38580837845802307,0.6252340078353882,0.9621376991271973,-0.2552149295806885,-0.3941662013530731
6.653607606887817,0.015047739259898663,-0.38629454374313354,0.5861092805862427,0.9531534910202026,-0.3173423409461975,-0.39994192123413086
6.673673629760742,-0.09284433722496033,-0.3878067135810852,0.5075916647911072,0.9446336030960083,-0.400543212890625,-0.40066009759902954
6.693838119506836,-0.19399352371692657,-0.38544535636901855,0.4507027566432953,0.9311900734901428,-0.4506118595600128,-0.4011983275413513
6.713963508605957,-0.21663184463977814,-0.3829358220100403,0.430774986743927,0.9251964092254639,-0.45300376415252686,-0.4008654057979584
6.734062194824219,-0.18397007882595062,-0.37863031029701233,0.4016938805580139,0.9219008088111877,-0.43051260709762573,-0.3984261751174927
6.754125595092773,-0.052708979696035385,-0.3774867653846741,0.3788960576057434,0.9355500340461731,-0.3776310682296753,-0.3936316967010498
6.7741968631744385,0.019805673509836197,-0.3808223605155945,0.3872888386249542,0.9443873167037964,-0.34237027168273926,-0.394445538520813
6.794253349304199,0.1246364489197731,-0.38848036527633667,0.4546043574810028,0.9574884176254272,-0.2613968849182129,-0.4007798135280609
6.814309120178223,0.15488354861736298,-0.39324188232421875,0.552470326423645,0.9635369181632996,-0.19550523161888123,-0.40969669818878174
6.834413290023804,0.137907937169075,-0.39154893159866333,0.6245911121368408,0.9734048843383789,-0.16890086233615875,-0.41794148087501526
6.85459303855896,0.11580003052949905,-0.391689658164978,0.637334942817688,0.9773393869400024,-0.17931734025478363,-0.4224780797958374
6.874593019485474,0.04913767799735069,-0.3939718008041382,0.6089254021644592,0.9832585453987122,-0.24052643775939941,-0.4295967221260071
6.8946709632873535,-0.04658804088830948,-0.3942917585372925,0.5300695896148682,0.9799813628196716,-0.33727705478668213,-0.4313911497592926
6.914777517318726,-0.13982610404491425,-0.3881698250770569,0.46525269746780396,0.9689064025878906,-0.4121055006980896,-0.4281412661075592
6.934909820556641,-0.17323124408721924,-0.3845458924770355,0.4482327699661255,0.960003674030304,-0.42665550112724304,-0.4277207553386688
6.955021381378174,-0.18445420265197754,-0.378592848777771,0.4286409616470337,0.9466327428817749,-0.41755542159080505,-0.42676857113838196
6.975027084350586,-0.10363534837961197,-0.37562793493270874,0.41070911288261414,0.9492011070251465,-0.3731936812400818,-0.4231565296649933
6.995144844055176,-0.04665220156311989,-0.37716925144195557,0.4072408378124237,0.9559605121612549,-0.3432203531265259,-0.4223528802394867
7.015249013900757,0.0274980328977108,-0.3852742910385132,0.4507950246334076,0.9656773209571838,-0.28597724437713623,-0.42945465445518494
7.035329341888428,0.00853420328348875,-0.39095234870910645,0.5310121774673462,0.9564608335494995,-0.25668463110923767,-0.4449053406715393
7.055374383926392,-0.06213292106986046,-0.38482895493507385,0.6024996638298035,0.9495930671691895,-0.261438250541687,-0.4595186412334442
7.075585842132568,-0.10353724658489227,-0.37900733947753906,0.6220112442970276,0.9504234790802002,-0.27738386392593384,-0.4640561640262604
7.095675230026245,-0.1969943642616272,-0.3675271272659302,0.6066620349884033,0.9519696235656738,-0.33448395133018494,-0.46571534872055054
7.1156907081604,-0.2799645960330963,-0.3556661009788513,0.5382559895515442,0.951288104057312,-0.3911411166191101,-0.45952072739601135
7.135794162750244,-0.3076181411743164,-0.35112839937210083,0.4939911365509033,0.9514168500900269,-0.4099363684654236,-0.45524856448173523
7.155916929244995,-0.3099115788936615,-0.3462437093257904,0.3915238678455353,0.957233190536499,-0.42152661085128784,-0.44472482800483704
7.17598295211792,-0.2323826253414154,-0.3506208062171936,0.28488123416900635,0.9729076623916626,-0.40683144330978394,-0.4327709674835205
7.196011543273926,-0.0992092415690422,-0.366310179233551,0.2119310200214386,0.9929101467132568,-0.36675843596458435,-0.42513570189476013
7.216120958328247,-0.023988086730241776,-0.3772282600402832,0.19889727234840393,1.0029758214950562,-0.3311145007610321,-0.4243760406970978
7.236236095428467,0.10821562260389328,-0.3989735543727875,0.2561880052089691,1.0247782468795776,-0.23178759217262268,-0.4309260845184326
7.2563157081604,0.1810048222541809,-0.41355663537979126,0.38178372383117676,1.0406901836395264,-0.12606465816497803,-0.4416828155517578
7.276348829269409,0.18356655538082123,-0.42367488145828247,0.5041424036026001,1.0478770732879639,-0.07746287435293198,-0.4542880058288574
7.29643177986145,0.16336017847061157,-0.42765629291534424,0.545366108417511,1.0483636856079102,-0.08963553607463837,-0.4608776867389679
7.316541433334351,0.10087791830301285,-0.42919254302978516,0.5697317123413086,1.0414408445358276,-0.15988659858703613,-0.4694593548774719
7.336597681045532,0.019092600792646408,-0.4221791625022888,0.5380128026008606,1.0257728099822998,-0.249845951795578,-0.4717458188533783
7.356656551361084,-0.022839773446321487,-0.4172142744064331,0.5133832693099976,1.0158677101135254,-0.2889423370361328,-0.4709409773349762
7.376738548278809,-0.10190261900424957,-0.4081079363822937,0.47198712825775146,0.9979469776153564,-0.34932297468185425,-0.46773117780685425
7.3968505859375,-0.17005352675914764,-0.39756885170936584,0.4686059355735779,0.9834235310554504,-0.3777172565460205,-0.46626877784729004
7.416972398757935,-0.1817149519920349,-0.3842303156852722,0.47662705183029175,0.9823685884475708,-0.36955201625823975,-0.4629685580730438
7.437059164047241,-0.1574755162000656,-0.3786389231681824,0.4731876850128174,0.9887762069702148,-0.35462072491645813,-0.45999160408973694
7.457110166549683,-0.07087136805057526,-0.37452566623687744,0.4633924067020416,1.0073374509811401,-0.31334513425827026,-0.45744606852531433
7.477181434631348,-0.0222211591899395,-0.38166558742523193,0.4731120467185974,1.0125356912612915,-0.28368064761161804,-0.46409112215042114
7.497272491455078,-0.030262555927038193,-0.3863328695297241,0.4876275658607483,1.0089213848114014,-0.2802256941795349,-0.4697013199329376
7.517357110977173,-0.09657284617424011,-0.39040523767471313,0.5126021504402161,0.9950196743011475,-0.2939356863498688,-0.480050653219223
7.5375213623046875,-0.19453410804271698,-0.3846089839935303,0.5295502543449402,0.9751366972923279,-0.3217272460460663,-0.48756155371665955
7.55759334564209,-0.2714621424674988,-0.3734758496284485,0.5071477293968201,0.9600120186805725,-0.3460904359817505,-0.48750030994415283
7.5776636600494385,-0.28501883149147034,-0.3686411380767822,0.47250035405158997,0.960144579410553,-0.35387057065963745,-0.48365819454193115
7.597910642623901,-0.2407739907503128,-0.3620554804801941,0.3566180169582367,0.9792686104774475,-0.35718005895614624,-0.46862927079200745
7.617862939834595,-0.12045396119356155,-0.3680601716041565,0.23389297723770142,1.0108935832977295,-0.3386083245277405,-0.45424559712409973
7.638087272644043,-0.04949677363038063,-0.3761996030807495,0.19768229126930237,1.0284249782562256,-0.316511869430542,-0.4506509304046631
7.658160209655762,0.0754818543791771,-0.3991795778274536,0.2063942551612854,1.053123116493225,-0.2387041449546814,-0.4540684223175049
7.678220272064209,0.15067248046398163,-0.42034393548965454,0.31846562027931213,1.0693259239196777,-0.1301603615283966,-0.4656134843826294
7.698328971862793,0.1668129414319992,-0.42816752195358276,0.3947574198246002,1.072853684425354,-0.0722346305847168,-0.4725643992424011
7.718424558639526,0.16885069012641907,-0.4378613829612732,0.547592043876648,1.0804133415222168,0.0045225173234939575,-0.4863416850566864
7.738465309143066,0.13816575706005096,-0.44527316093444824,0.6339475512504578,1.0875591039657593,-0.0071891844272613525,-0.4976516664028168
7.758622646331787,0.1114974096417427,-0.4480491280555725,0.6380236744880676,1.08478581905365,-0.043899163603782654,-0.5016288161277771
7.778656482696533,0.03605498746037483,-0.44733190536499023,0.5807741284370422,1.0660734176635742,-0.14941367506980896,-0.5046544671058655
7.798694372177124,-0.054837826639413834,-0.43759381771087646,0.48256146907806396,1.03739333152771,-0.25750502943992615,-0.5002448558807373
7.818774700164795,-0.09524770826101303,-0.43109917640686035,0.4450381100177765,1.0268690586090088,-0.29957666993141174,-0.4960990846157074
7.838840961456299,-0.17368550598621368,-0.4182336926460266,0.42333629727363586,1.0073518753051758,-0.35511475801467896,-0.49146363139152527
7.8589324951171875,-0.19973216950893402,-0.40033793449401855,0.47240909934043884,1.0095714330673218,-0.35363292694091797,-0.48856696486473083
7.878991365432739,-0.13630342483520508,-0.3863811492919922,0.500124454498291,1.0267246961593628,-0.3012610375881195,-0.48101308941841125
7.899113655090332,-0.07834570854902267,-0.3850346505641937,0.5074067711830139,1.0368601083755493,-0.2606441378593445,-0.4786629378795624
7.919275522232056,0.004365171305835247,-0.3947654664516449,0.513787031173706,1.044682502746582,-0.19641414284706116,-0.48242154717445374
7.939284563064575,0.006858210079371929,-0.40845686197280884,0.5275008678436279,1.0424189567565918,-0.1760713905096054,-0.4924033582210541
7.9593634605407715,-0.04236099496483803,-0.414523184299469,0.5115014314651489,1.0374507904052734,-0.2039749175310135,-0.49758902192115784
7.979441404342651,-0.07099290937185287,-0.41437405347824097,0.49782678484916687,1.0316104888916016,-0.22292280197143555,-0.4986818730831146
7.999513387680054,-0.13590200245380402,-0.41059410572052,0.48119938373565674,1.0168006420135498,-0.26842451095581055,-0.5003714561462402
8.019723653793335,-0.2000720500946045,-0.40005987882614136,0.48269012570381165,1.0042575597763062,-0.30734243988990784,-0.4997202754020691
8.039898872375488,-0.21597251296043396,-0.3927489221096039,0.48154181241989136,1.0033499002456665,-0.31731778383255005,-0.4969872832298279
8.060019731521606,-0.18219904601573944,-0.38072070479393005,0.4393176734447479,1.0188403129577637,-0.3107798993587494,-0.4843114912509918
8.080222368240356,-0.09662105143070221,-0.3828481435775757,0.3847506046295166,1.036864995956421,-0.28116273880004883,-0.47677919268608093
8.100246667861938,-0.05748992785811424,-0.39667701721191406,0.3861510753631592,1.0349304676055908,-0.253352552652359,-0.4808274209499359
8.12034010887146,-0.06381437927484512,-0.4047011733055115,0.42557647824287415,1.0267202854156494,-0.24364235997200012,-0.4873635470867157
8.140376806259155,-0.10428640246391296,-0.4123139977455139,0.5246268510818481,1.0089699029922485,-0.2288176715373993,-0.499341756105423
8.16047215461731,-0.15367470681667328,-0.40228402614593506,0.6055232286453247,0.9977439641952515,-0.22105509042739868,-0.5060879588127136
8.180527448654175,-0.17879442870616913,-0.39313310384750366,0.6283518671989441,0.9952081441879272,-0.22322000563144684,-0.5071555376052856
8.200655937194824,-0.23006244003772736,-0.3722498118877411,0.6476099491119385,0.9982579946517944,-0.24734312295913696,-0.5055162906646729
8.220874309539795,-0.2757301926612854,-0.3569958806037903,0.6047699451446533,1.0019654035568237,-0.2890136241912842,-0.49754297733306885
8.240864038467407,-0.3203278183937073,-0.3498653769493103,0.4983731508255005,0.9985928535461426,-0.34021443128585815,-0.48591235280036926
8.260950088500977,-0.3307190239429474,-0.3492201566696167,0.43133920431137085,0.9943739771842957,-0.35512879490852356,-0.4795762896537781
8.281012058258057,-0.3122071325778961,-0.3532100021839142,0.31780239939689636,0.9942134618759155,-0.36260539293289185,-0.46810588240623474
8.30105996131897,-0.2253808230161667,-0.3619891107082367,0.24770301580429077,1.0073126554489136,-0.3309393525123596,-0.4587897062301636
8.321129083633423,-0.09151783585548401,-0.3780345916748047,0.23939114809036255,1.0320401191711426,-0.25184720754623413,-0.4577188193798065
8.341220617294312,-0.024222496896982193,-0.3889380693435669,0.2714483439922333,1.0479741096496582,-0.2011178433895111,-0.4615325629711151
8.361286640167236,0.07660224288702011,-0.41139668226242065,0.3639349043369293,1.074048399925232,-0.0949472039937973,-0.47210219502449036
8.381331443786621,0.1247561126947403,-0.43034201860427856,0.48063114285469055,1.0881768465042114,-0.02214309573173523,-0.48304155468940735
8.401420831680298,0.12944768369197845,-0.43624770641326904,0.5326379537582397,1.0899693965911865,-0.004788920283317566,-0.48770320415496826
8.421509742736816,0.10744983702898026,-0.44071799516677856,0.6106187701225281,1.092052936553955,-0.01544300839304924,-0.4959746301174164
8.441568374633789,0.05312765762209892,-0.4386119246482849,0.6241133809089661,1.0868468284606934,-0.07801270484924316,-0.5018410682678223
8.46161413192749,-0.02373342588543892,-0.43332916498184204,0.5677465200424194,1.0719640254974365,-0.17352895438671112,-0.5028587579727173
8.48169732093811,-0.06470031291246414,-0.42822933197021484,0.5256735682487488,1.0618233680725098,-0.22079378366470337,-0.5008140206336975
8.501763343811035,-0.14577318727970123,-0.4165552854537964,0.4556991457939148,1.039064884185791,-0.29650306701660156,-0.49569472670555115
8.521813154220581,-0.204444020986557,-0.4051727056503296,0.4339183568954468,1.0256328582763672,-0.32976680994033813,-0.4927590787410736
8.541878938674927,-0.2012011557817459,-0.39232534170150757,0.43622326850891113,1.035393238067627,-0.32834914326667786,-0.486444890499115
8.561983585357666,-0.16856028139591217,-0.38825827836990356,0.436786025762558,1.0460270643234253,-0.3133026659488678,-0.4826221764087677
8.582062005996704,-0.07379940152168274,-0.38947778940200806,0.4405202567577362,1.0621371269226074,-0.2645856738090515,-0.4789181053638458
8.602191925048828,-0.0265941359102726,-0.40210461616516113,0.48981526494026184,1.0543162822723389,-0.21045830845832825,-0.4877408444881439
8.62218689918518,-0.06271353363990784,-0.40969568490982056,0.5657826662063599,1.0384678840637207,-0.19462475180625916,-0.5013861060142517
8.642271518707275,-0.10264284163713455,-0.4088289737701416,0.5946597456932068,1.0288419723510742,-0.2048407942056656,-0.5072051882743835
8.662445783615112,-0.18846860527992249,-0.3990694284439087,0.6087194681167603,1.0168535709381104,-0.24266695976257324,-0.5104809999465942
8.682435989379883,-0.26837021112442017,-0.3855655789375305,0.5802592039108276,1.003617763519287,-0.2897569537162781,-0.5073952078819275
8.702545166015625,-0.301164448261261,-0.37904584407806396,0.5524823665618896,0.9981650114059448,-0.31156080961227417,-0.5036274194717407
8.722620964050293,-0.3392353653907776,-0.3689550757408142,0.4765869975090027,0.9928791522979736,-0.3426620364189148,-0.4939965605735779
8.742670059204102,-0.32671642303466797,-0.3646088242530823,0.3739653527736664,1.0002214908599854,-0.3546304404735565,-0.48079797625541687
8.762752771377563,-0.29382455348968506,-0.36462974548339844,0.321245014667511,1.0088515281677246,-0.3507815897464752,-0.47334519028663635
8.782817840576172,-0.19112999737262726,-0.37174367904663086,0.24685028195381165,1.0283352136611938,-0.3237752914428711,-0.4629996120929718
8.802961826324463,-0.05926607921719551,-0.3878319263458252,0.24411273002624512,1.0513603687286377,-0.2522239685058594,-0.4628365635871887
8.822962284088135,0.049962881952524185,-0.4082643985748291,0.3194158971309662,1.0753048658370972,-0.14572113752365112,-0.47120201587677
8.843139886856079,0.08655820041894913,-0.4179993271827698,0.3769819140434265,1.0850472450256348,-0.08949673175811768,-0.476785272359848
8.86320424079895,0.11919320374727249,-0.43431615829467773,0.5087081789970398,1.099065899848938,-0.011814869940280914,-0.48900720477104187
8.883219003677368,0.10413911193609238,-0.4446026086807251,0.5998089909553528,1.101912260055542,-0.004295632243156433,-0.4991212785243988
8.903318166732788,0.05854923650622368,-0.4465961456298828,0.6209567189216614,1.0937564373016357,-0.052984267473220825,-0.5053718090057373
8.923372030258179,0.028567563742399216,-0.44542747735977173,0.604649543762207,1.0869791507720947,-0.08986610174179077,-0.5068036913871765
8.94355320930481,-0.04082096740603447,-0.43982696533203125,0.547242283821106,1.0699506998062134,-0.17629963159561157,-0.5066922307014465
8.96352767944336,-0.11243292689323425,-0.4289969801902771,0.4793383777141571,1.0526683330535889,-0.2568347454071045,-0.5015447735786438
8.983713865280151,-0.14886640012264252,-0.42355239391326904,0.45684435963630676,1.041542649269104,-0.28830862045288086,-0.4996984004974365
9.003866910934448,-0.19939665496349335,-0.41045379638671875,0.4544394612312317,1.0311825275421143,-0.3170987069606781,-0.4968357980251312
9.023909091949463,-0.2034357786178589,-0.3977932035923004,0.4663138687610626,1.0360605716705322,-0.31183725595474243,-0.492451012134552
9.044104099273682,-0.14348816871643066,-0.39243853092193604,0.4570371210575104,1.0557899475097656,-0.277221143245697,-0.48491939902305603
9.064168453216553,-0.10622946172952652,-0.39438578486442566,0.45402079820632935,1.061238169670105,-0.2545490860939026,-0.48410677909851074
9.084285497665405,-0.06394514441490173,-0.4045454263687134,0.4771292507648468,1.0605425834655762,-0.21620698273181915,-0.4901502728462219
9.10430121421814,-0.09202367067337036,-0.4118434190750122,0.5250915288925171,1.0448565483093262,-0.2104817032814026,-0.5014973878860474
9.12447452545166,-0.12939874827861786,-0.4119263291358948,0.5401077270507812,1.0334054231643677,-0.22125598788261414,-0.5062772035598755
9.144611835479736,-0.22545865178108215,-0.4045202136039734,0.5512669682502747,1.0083471536636353,-0.26035743951797485,-0.5123212337493896
9.164689779281616,-0.31001976132392883,-0.39164209365844727,0.5160912871360779,0.9922336935997009,-0.30383795499801636,-0.5092049837112427
9.184805870056152,-0.3445659577846527,-0.3800872564315796,0.43715405464172363,0.9916811585426331,-0.3329717218875885,-0.4982357919216156
9.204919576644897,-0.33784031867980957,-0.3766103982925415,0.385793000459671,0.9967693090438843,-0.34144604206085205,-0.4909752309322357
9.224945306777954,-0.2872459292411804,-0.37386637926101685,0.282940149307251,1.0129430294036865,-0.3497125804424286,-0.47607964277267456
9.245014429092407,-0.1952730268239975,-0.37720322608947754,0.23020292818546295,1.0335665941238403,-0.33311888575553894,-0.4660912752151489
9.265084981918335,-0.14288000762462616,-0.38257187604904175,0.22405609488487244,1.0409297943115234,-0.3095213770866394,-0.4651618003845215
9.285179853439331,-0.03531495854258537,-0.39921170473098755,0.28167635202407837,1.058103084564209,-0.22343724966049194,-0.4713327884674072
9.305281400680542,0.045751165598630905,-0.4175637364387512,0.3985508978366852,1.0772641897201538,-0.11448875814676285,-0.48252055048942566
9.325340509414673,0.08749658614397049,-0.4318646788597107,0.537890613079071,1.0953240394592285,-0.03420938923954964,-0.49354052543640137
9.345527648925781,0.09675977379083633,-0.43546152114868164,0.5974898338317871,1.1022619009017944,-0.0116158127784729,-0.4968683123588562
9.3655686378479,0.08065719157457352,-0.438834011554718,0.6573508977890015,1.102097511291504,-0.014188695698976517,-0.5025415420532227
9.385624885559082,0.03187500312924385,-0.4391658902168274,0.6454457640647888,1.0915968418121338,-0.06408024579286575,-0.5073509812355042
9.405998229980469,-0.006700416095554829,-0.43966948986053467,0.6144645810127258,1.0812737941741943,-0.10646846890449524,-0.5094873905181885
9.426076650619507,-0.09338400512933731,-0.4339250922203064,0.5297266244888306,1.0612614154815674,-0.20343825221061707,-0.5081170797348022
9.446186304092407,-0.17100419104099274,-0.42067474126815796,0.45304518938064575,1.0416998863220215,-0.2840854227542877,-0.5010403990745544
9.466241598129272,-0.21572355926036835,-0.4086138606071472,0.42145368456840515,1.026393175125122,-0.31482893228530884,-0.49557968974113464
9.48631763458252,-0.21281905472278595,-0.40388554334640503,0.4171391725540161,1.0269250869750977,-0.3104584217071533,-0.4921119511127472
9.506397485733032,-0.15858078002929688,-0.40017879009246826,0.42999905347824097,1.040772795677185,-0.27230316400527954,-0.48653897643089294
9.526485681533813,-0.06861066073179245,-0.4038604199886322,0.4627073109149933,1.06156587600708,-0.2116793841123581,-0.4838672876358032
9.546515464782715,-0.03335527703166008,-0.4118613004684448,0.528631865978241,1.0627658367156982,-0.15862280130386353,-0.4924035966396332
9.566676139831543,-0.06463540345430374,-0.41183900833129883,0.6046847105026245,1.0563081502914429,-0.14733165502548218,-0.5033930540084839
9.586758375167847,-0.10057038813829422,-0.40972256660461426,0.6283636689186096,1.0511300563812256,-0.16646310687065125,-0.5077545046806335
9.606858015060425,-0.18257346749305725,-0.4002606272697449,0.6216829419136047,1.038635492324829,-0.22648288309574127,-0.5086414217948914
9.626985788345337,-0.2708635628223419,-0.38866716623306274,0.5533658266067505,1.0170907974243164,-0.2942870855331421,-0.5030757188796997
9.647031545639038,-0.3062162697315216,-0.3828808069229126,0.5082565546035767,1.007510781288147,-0.3200581669807434,-0.49824267625808716
9.667124271392822,-0.34079262614250183,-0.3744250535964966,0.4161797761917114,1.0009214878082275,-0.3498789668083191,-0.487000972032547
9.687157154083252,-0.31242239475250244,-0.37237876653671265,0.3245692849159241,1.0072039365768433,-0.3491300642490387,-0.4747982919216156
9.707278966903687,-0.22566917538642883,-0.37791702151298523,0.26076897978782654,1.023542046546936,-0.3218986988067627,-0.46541252732276917
9.727375745773315,-0.17106486856937408,-0.38393905758857727,0.25249820947647095,1.0314404964447021,-0.2950235605239868,-0.46483364701271057
9.74747920036316,-0.05119409039616585,-0.40013986825942993,0.2911710739135742,1.0569838285446167,-0.2102522850036621,-0.46896877884864807
9.767512321472168,0.052314478904008865,-0.4178975224494934,0.3945537805557251,1.0868513584136963,-0.0987740010023117,-0.47715654969215393
9.78769063949585,0.11254893243312836,-0.4347327947616577,0.5169076919555664,1.1076412200927734,-0.00990285724401474,-0.4860484004020691
9.807780742645264,0.133565753698349,-0.43929553031921387,0.5711676478385925,1.1166918277740479,0.025663651525974274,-0.4878288805484772
9.827909469604492,0.12981559336185455,-0.4461866021156311,0.6469389200210571,1.119351863861084,0.048435814678668976,-0.494539737701416
9.84791898727417,0.08693753182888031,-0.4498246908187866,0.6615734100341797,1.1124895811080933,0.018027007579803467,-0.5021401643753052
9.868131399154663,0.04873299226164818,-0.45410168170928955,0.6417123079299927,1.1036229133605957,-0.024616755545139313,-0.5067785382270813
9.888248920440674,-0.039145637303590775,-0.4550042152404785,0.5581047534942627,1.0815784931182861,-0.14345404505729675,-0.5087319612503052
9.908362627029419,-0.12080080062150955,-0.44122976064682007,0.470435231924057,1.058539867401123,-0.24998891353607178,-0.5016371607780457
9.928386926651001,-0.17947272956371307,-0.42620301246643066,0.43993961811065674,1.0374741554260254,-0.2989274561405182,-0.49668648838996887
9.94850206375122,-0.19554884731769562,-0.41967737674713135,0.45116978883743286,1.0337586402893066,-0.30350321531295776,-0.49588462710380554
9.968552112579346,-0.1941467821598053,-0.40817898511886597,0.4794768989086151,1.0369027853012085,-0.2892935276031494,-0.4929673671722412
9.988630294799805,-0.14054860174655914,-0.40248024463653564,0.4986189901828766,1.0528370141983032,-0.2476758360862732,-0.4885460436344147
10.008779525756836,-0.08559445291757584,-0.40625280141830444,0.5050889253616333,1.059276819229126,-0.1958497017621994,-0.489646315574646
10.028846740722656,-0.07730136066675186,-0.4111982583999634,0.5073332190513611,1.058785319328308,-0.18184347450733185,-0.49286705255508423
10.048904418945312,-0.10550903528928757,-0.42020732164382935,0.4895686209201813,1.0489245653152466,-0.19089731574058533,-0.49962934851646423
10.068981647491455,-0.17600516974925995,-0.4225744605064392,0.4488917887210846,1.0284199714660645,-0.24010330438613892,-0.503287672996521
10.089110374450684,-0.23748381435871124,-0.4149020314216614,0.4264782667160034,1.0146667957305908,-0.2871840000152588,-0.5008691549301147
10.109185934066772,-0.24342034757137299,-0.4086381793022156,0.41803088784217834,1.0176972150802612,-0.29750972986221313,-0.49556368589401245
10.12935209274292,-0.18483223021030426,-0.3989146947860718,0.41473743319511414,1.0402514934539795,-0.28493231534957886,-0.48260360956192017
10.149335861206055,-0.0592200942337513,-0.40108662843704224,0.43423378467559814,1.0677400827407837,-0.21711620688438416,-0.4753757417201996
10.169448614120483,-0.02216474339365959,-0.40846163034439087,0.46319472789764404,1.0681674480438232,-0.18284524977207184,-0.47956374287605286
10.189554214477539,-0.0033697085455060005,-0.41937756538391113,0.5512458682060242,1.0606858730316162,-0.12163174897432327,-0.49227258563041687
10.209609746932983,-0.059685368090867996,-0.4203032851219177,0.6229484677314758,1.044759750366211,-0.11808254569768906,-0.5060194134712219
10.229650974273682,-0.1324235200881958,-0.4140392541885376,0.6323352456092834,1.0365186929702759,-0.16230839490890503,-0.5102556347846985
10.249753952026367,-0.17641039192676544,-0.41142165660858154,0.6068967580795288,1.0300922393798828,-0.20023630559444427,-0.5097317695617676
10.26980996131897,-0.2613208591938019,-0.4009653925895691,0.5281195640563965,1.0171611309051514,-0.28106963634490967,-0.502356767654419
10.289880275726318,-0.3163626790046692,-0.3879910111427307,0.4476909637451172,1.0047361850738525,-0.33320796489715576,-0.4917219579219818
10.309980392456055,-0.30527380108833313,-0.38014790415763855,0.37573710083961487,1.009425401687622,-0.34063345193862915,-0.4799540340900421
10.330100774765015,-0.27211400866508484,-0.37955886125564575,0.33738553524017334,1.0180145502090454,-0.3306586742401123,-0.473431259393692
10.350159168243408,-0.16912175714969635,-0.3856581449508667,0.2845650613307953,1.041379451751709,-0.2913232147693634,-0.46519264578819275
10.370237588882446,-0.106081523001194,-0.39229702949523926,0.28119733929634094,1.0547025203704834,-0.2575611472129822,-0.464476615190506
10.390303134918213,0.018997814506292343,-0.4107661843299866,0.33924487233161926,1.0835402011871338,-0.16007483005523682,-0.46947047114372253
10.410367012023926,0.10592053085565567,-0.42946404218673706,0.46470150351524353,1.1074432134628296,-0.05060531944036484,-0.4785177707672119
10.430885076522827,0.1280406415462494,-0.4440670609474182,0.5967153310775757,1.113675594329834,0.012244090437889099,-0.4885375201702118
10.451005220413208,0.1225576251745224,-0.4466366767883301,0.639618992805481,1.11214017868042,0.026281699538230896,-0.4919034242630005
10.471165180206299,0.09023693948984146,-0.4477570652961731,0.6843875646591187,1.1066243648529053,0.013181284070014954,-0.4984038174152374
10.491225719451904,0.03278353437781334,-0.4516066312789917,0.6523478031158447,1.0934152603149414,-0.04671338200569153,-0.5045760869979858
10.511285781860352,-0.010410388000309467,-0.4543502926826477,0.6131913661956787,1.0844348669052124,-0.10175241529941559,-0.5064727663993835
10.531341314315796,-0.09991774708032608,-0.4475581645965576,0.5095886588096619,1.0640645027160645,-0.21818673610687256,-0.5019448399543762
10.551393032073975,-0.17968526482582092,-0.43224626779556274,0.43638476729393005,1.0429097414016724,-0.30105915665626526,-0.49380627274513245
10.571459293365479,-0.20789577066898346,-0.418071448802948,0.4352400004863739,1.0340321063995361,-0.31303146481513977,-0.4896685481071472
10.59155821800232,-0.20129062235355377,-0.41264259815216064,0.4526245594024658,1.0369607210159302,-0.3001776337623596,-0.4885944426059723
10.611644506454468,-0.14086730778217316,-0.4064588248729706,0.4819961190223694,1.0557003021240234,-0.24958592653274536,-0.48381462693214417
10.631768941879272,-0.07668460160493851,-0.4111402630805969,0.5066422820091248,1.062476396560669,-0.1903611421585083,-0.48561426997184753
10.651793479919434,-0.07305150479078293,-0.4196363091468811,0.5341938138008118,1.0526518821716309,-0.1599874496459961,-0.49523866176605225
10.67187786102295,-0.09281358867883682,-0.4216005802154541,0.5471490621566772,1.046408772468567,-0.16100798547267914,-0.5003629922866821
10.69193983078003,-0.17582470178604126,-0.4209892749786377,0.5433379411697388,1.0293247699737549,-0.21161185204982758,-0.5079750418663025
10.711996078491211,-0.2835574448108673,-0.4109697937965393,0.4974319338798523,1.0058261156082153,-0.28788718581199646,-0.5071552991867065
10.732115030288696,-0.35828331112861633,-0.39631474018096924,0.4192870259284973,0.9932711124420166,-0.344502329826355,-0.4964035153388977
10.752198696136475,-0.37128758430480957,-0.3901471793651581,0.37572377920150757,0.9935111999511719,-0.36198127269744873,-0.4892030656337738
10.772301197052002,-0.33795201778411865,-0.38191837072372437,0.29304951429367065,1.003926396369934,-0.36958304047584534,-0.47331753373146057
10.792340517044067,-0.2594078481197357,-0.3824161887168884,0.26180922985076904,1.0178797245025635,-0.34883883595466614,-0.4645162522792816
10.812443017959595,-0.20903043448925018,-0.38639718294143677,0.266387015581131,1.0240217447280884,-0.3206605613231659,-0.46384355425834656
10.8325355052948,-0.10126469284296036,-0.3987971544265747,0.3286389708518982,1.045982837677002,-0.23538222908973694,-0.46937188506126404
10.852644681930542,-0.008147177286446095,-0.4127337336540222,0.4331797957420349,1.07243013381958,-0.13691048324108124,-0.47784343361854553
10.872690200805664,0.04355387017130852,-0.42457491159439087,0.5625221729278564,1.0904604196548462,-0.07110735774040222,-0.48646363615989685
10.892850160598755,0.053557995706796646,-0.4264301657676697,0.6184762716293335,1.0919930934906006,-0.04985526204109192,-0.4890521764755249
10.912942171096802,0.05022874101996422,-0.4231418967247009,0.6925691366195679,1.0882656574249268,-0.031283341348171234,-0.49202272295951843
10.932954549789429,0.017714526504278183,-0.42006736993789673,0.693851888179779,1.0821634531021118,-0.04469071328639984,-0.4950162172317505
10.953007698059082,-0.0550825335085392,-0.42654889822006226,0.6258933544158936,1.0691108703613281,-0.12072703242301941,-0.49998122453689575
10.973117589950562,-0.10185480862855911,-0.42707985639572144,0.5765891671180725,1.0604933500289917,-0.17539094388484955,-0.5001264810562134
10.99316930770874,-0.1915299892425537,-0.4176172614097595,0.4682466387748718,1.0399999618530273,-0.27687644958496094,-0.4928368628025055
11.013319492340088,-0.23312601447105408,-0.40537357330322266,0.3978061079978943,1.026739478111267,-0.31729990243911743,-0.483108788728714
11.0336012840271,-0.19284062087535858,-0.4005083441734314,0.38065776228904724,1.033582329750061,-0.2920459508895874,-0.4762548506259918
11.053691864013672,-0.14518575370311737,-0.40092724561691284,0.3904194235801697,1.046246886253357,-0.2608431577682495,-0.4737043082714081
11.073755502700806,-0.04123355820775032,-0.4094281792640686,0.4559348225593567,1.0689897537231445,-0.18693871796131134,-0.4746006727218628
11.09382438659668,-0.0029630111530423164,-0.4208945035934448,0.5474625825881958,1.066896915435791,-0.1320376992225647,-0.48330968618392944
11.113923072814941,-0.010336128063499928,-0.42234110832214355,0.597821056842804,1.0583555698394775,-0.11366201937198639,-0.48935768008232117
11.134086608886719,-0.056769389659166336,-0.4154236316680908,0.6639493107795715,1.0471564531326294,-0.11106711626052856,-0.49844303727149963
11.154138803482056,-0.11856589466333389,-0.4075028896331787,0.6679435968399048,1.0438306331634521,-0.15378443896770477,-0.5016303062438965
11.174194097518921,-0.19837535917758942,-0.4039897918701172,0.5934932827949524,1.0342930555343628,-0.23718635737895966,-0.4987131953239441
11.194381952285767,-0.23900745809078217,-0.39965885877609253,0.5392862558364868,1.0270259380340576,-0.28089478611946106,-0.4940551221370697
11.214404821395874,-0.29971784353256226,-0.39005768299102783,0.4307113587856293,1.0117430686950684,-0.3417361378669739,-0.48262178897857666
11.234487295150757,-0.2850559949874878,-0.3850020170211792,0.3434400260448456,1.014388918876648,-0.34496331214904785,-0.47058096528053284
11.2547128200531,-0.19813422858715057,-0.38924622535705566,0.2843059301376343,1.0319792032241821,-0.30645546317100525,-0.46216845512390137
11.274851560592651,-0.13589812815189362,-0.3942025899887085,0.2745201885700226,1.0466686487197876,-0.27281227707862854,-0.46045854687690735
11.294893741607666,-0.02217217907309532,-0.40978121757507324,0.30743327736854553,1.0708332061767578,-0.19285652041435242,-0.46462586522102356
11.314976692199707,0.057169508188962936,-0.42752087116241455,0.4057057201862335,1.0887752771377563,-0.10261839628219604,-0.47390472888946533
11.335230112075806,0.07647233456373215,-0.4355977177619934,0.46580517292022705,1.092067837715149,-0.06697636842727661,-0.47949108481407166
11.355316877365112,0.08636590093374252,-0.4459507465362549,0.5817333459854126,1.0950684547424316,-0.026579685509204865,-0.48903393745422363
11.375434875488281,0.06268859654664993,-0.4460078477859497,0.6463188529014587,1.092484951019287,-0.03262250870466232,-0.49511730670928955
11.395469665527344,0.01600651815533638,-0.4444084167480469,0.6446213126182556,1.085054874420166,-0.07985688000917435,-0.49950090050697327
11.41559100151062,-0.018400821834802628,-0.4444037675857544,0.6188974380493164,1.0796669721603394,-0.1199459508061409,-0.5005568265914917
11.435635566711426,-0.09998439252376556,-0.43956416845321655,0.5411254167556763,1.0618195533752441,-0.21547265350818634,-0.49865660071372986
11.455708026885986,-0.18018542230129242,-0.4279232621192932,0.4647105634212494,1.0407143831253052,-0.2921379804611206,-0.4923924505710602
11.475833415985107,-0.20737041532993317,-0.4214364290237427,0.44120579957962036,1.0326781272888184,-0.30974042415618896,-0.48961198329925537
11.495893001556396,-0.22232194244861603,-0.41080546379089355,0.42223474383354187,1.0329113006591797,-0.3160422444343567,-0.4845229387283325
11.515985250473022,-0.17461711168289185,-0.4053526520729065,0.4170512557029724,1.0497926473617554,-0.2875593602657318,-0.4787609577178955
11.536014318466187,-0.13520026206970215,-0.40582066774368286,0.42224428057670593,1.0595380067825317,-0.26747533679008484,-0.4767601490020752
11.556157112121582,-0.06856387108564377,-0.4129178524017334,0.4675731062889099,1.0653947591781616,-0.21780934929847717,-0.4796747863292694
11.57621955871582,-0.0640365406870842,-0.418474018573761,0.5563191771507263,1.0520652532577515,-0.17868730425834656,-0.4908495247364044
11.596269130706787,-0.1231963261961937,-0.41227662563323975,0.6375442147254944,1.0324747562408447,-0.17440886795520782,-0.5031098127365112
11.616457223892212,-0.16199485957622528,-0.4053947627544403,0.6602259874343872,1.0261101722717285,-0.1870076209306717,-0.5060282945632935
11.636574983596802,-0.25347334146499634,-0.39273369312286377,0.6514714360237122,1.0096391439437866,-0.23923978209495544,-0.5070620775222778
11.657278299331665,-0.34148356318473816,-0.38138166069984436,0.5758235454559326,0.9943848848342896,-0.3055104613304138,-0.4989657700061798
11.677359104156494,-0.3702528178691864,-0.37601327896118164,0.5205495953559875,0.990612268447876,-0.32978954911231995,-0.4919948875904083
11.697446823120117,-0.3835371136665344,-0.36791664361953735,0.4186351001262665,0.9949138164520264,-0.3557181656360626,-0.4775754511356354
11.717573165893555,-0.3632996678352356,-0.3658994436264038,0.3756979703903198,1.0016956329345703,-0.3548985421657562,-0.47052615880966187
11.737586498260498,-0.277182936668396,-0.3698837161064148,0.3204408586025238,1.0161665678024292,-0.32369697093963623,-0.4614771604537964
11.757652521133423,-0.15362654626369476,-0.3821408748626709,0.30448466539382935,1.0370742082595825,-0.2551347613334656,-0.45976948738098145
11.777766704559326,-0.02523175999522209,-0.4007917046546936,0.3484637439250946,1.0682318210601807,-0.158674955368042,-0.46457639336586
11.797943592071533,-0.4669339656829834,-0.5906338691711426,0.22250822186470032,1.051120400428772,-0.2509487271308899,-0.32872816920280457
11.817960977554321,-0.7179659008979797,-0.6952679753303528,0.2712365388870239,0.9573392868041992,-0.2207489311695099,-0.2446659952402115
11.838032960891724,-0.746588945388794,-0.742293655872345,0.3633202910423279,0.9280246496200562,-0.16948366165161133,-0.2386472523212433
11.858101606369019,-0.7475658059120178,-0.7495552897453308,0.39438584446907043,0.9304479360580444,-0.16058199107646942,-0.24098430573940277
11.878188371658325,-0.7671151161193848,-0.7441437244415283,0.405747652053833,0.9401088953018188,-0.17100045084953308,-0.2457330822944641
11.89829707145691,-0.817823588848114,-0.7327327132225037,0.3765987157821655,0.9512840509414673,-0.20725074410438538,-0.24279974400997162
11.918400049209595,-0.8741781115531921,-0.7251205444335938,0.3212595283985138,0.9457828998565674,-0.23227453231811523,-0.23456163704395294
11.938432216644287,-0.892295777797699,-0.7256914377212524,0.2999272644519806,0.9401818513870239,-0.23430302739143372,-0.22977465391159058
11.958491802215576,-0.8995156288146973,-0.7340432405471802,0.2894599139690399,0.9298149347305298,-0.22089500725269318,-0.2237612009048462
11.978580474853516,-0.8767586946487427,-0.7454140186309814,0.30178913474082947,0.9213627576828003,-0.19403019547462463,-0.22507652640342712
11.998786926269531,-0.8604032397270203,-0.7501736283302307,0.31489986181259155,0.9218937754631042,-0.18428847193717957,-0.22738569974899292
12.018866300582886,-0.8328940272331238,-0.7533308267593384,0.3318202495574951,0.9286748766899109,-0.17982646822929382,-0.23221264779567719
12.038997173309326,-0.8256564736366272,-0.749659538269043,0.3418007791042328,0.9378901124000549,-0.19315870106220245,-0.23560702800750732
12.059065103530884,-0.8358489274978638,-0.7439436316490173,0.33278581500053406,0.9408849477767944,-0.20884212851524353,-0.2356087863445282
12.079314947128296,-0.8406992554664612,-0.7427146434783936,0.3254438042640686,0.9396796822547913,-0.21182385087013245,-0.23477548360824585
12.099436044692993,-0.8414872288703918,-0.7440263032913208,0.31203988194465637,0.9360374212265015,-0.21026381850242615,-0.23298387229442596
12.119624614715576,-0.834844172000885,-0.7477676868438721,0.3108609616756439,0.9337106347084045,-0.2047533094882965,-0.23323503136634827
12.139731884002686,-0.8297110795974731,-0.7498490810394287,0.32017531991004944,0.9349727630615234,-0.2049112617969513,-0.2350553572177887
12.159893035888672,-0.8270633816719055,-0.7499881386756897,0.3220215141773224,0.9363672733306885,-0.20523130893707275,-0.23520095646381378
12.17992639541626,-0.8189244270324707,-0.7500944137573242,0.3257254660129547,0.9393895864486694,-0.2055433690547943,-0.2354680299758911
12.199975490570068,-0.8089337944984436,-0.7500867247581482,0.3228909969329834,0.9425621032714844,-0.20620223879814148,-0.2350744903087616
12.220226526260376,-0.8052604794502258,-0.7502109408378601,0.3238031566143036,0.94356369972229,-0.20759037137031555,-0.23567980527877808
12.240236043930054,-0.8019718527793884,-0.7506498098373413,0.31982794404029846,0.9436618089675903,-0.21012145280838013,-0.23612752556800842
12.260327577590942,-0.7955068945884705,-0.7523527145385742,0.3150753676891327,0.9423441290855408,-0.20897261798381805,-0.23631733655929565
12.280528783798218,-0.788534939289093,-0.7535147666931152,0.3150825798511505,0.943851113319397,-0.20730209350585938,-0.235804945230484
12.300611734390259,-0.7768308520317078,-0.7541704773902893,0.32387229800224304,0.9484808444976807,-0.20876383781433105,-0.2370162457227707
12.32071042060852,-0.7698429822921753,-0.7530597448348999,0.3341941237449646,0.9532490372657776,-0.21281585097312927,-0.2382337599992752
12.340744495391846,-0.7659357786178589,-0.7520442008972168,0.33221811056137085,0.9540044665336609,-0.21536943316459656,-0.239074245095253
12.360855102539062,-0.7617269158363342,-0.752382218837738,0.3295307159423828,0.9542654752731323,-0.2144988477230072,-0.23891882598400116
12.3809175491333,-0.7517074346542358,-0.7535111904144287,0.3320292532444,0.9574352502822876,-0.21384935081005096,-0.2392888069152832
12.400973320007324,-0.7404834032058716,-0.7539068460464478,0.33308565616607666,0.9620319604873657,-0.2154814600944519,-0.23932363092899323
12.421061754226685,-0.7341429591178894,-0.7540850639343262,0.33602771162986755,0.9643517732620239,-0.21664397418498993,-0.2398669272661209
12.441119909286499,-0.724179208278656,-0.7542104721069336,0.3371373116970062,0.9663800001144409,-0.21878314018249512,-0.2412591427564621
12.461167573928833,-0.7167280316352844,-0.7547830939292908,0.3451995849609375,0.9678769111633301,-0.21994070708751678,-0.24303746223449707
12.481224060058594,-0.709597647190094,-0.7551799416542053,0.3487413227558136,0.9699592590332031,-0.22114181518554688,-0.24367578327655792
12.50131630897522,-0.7050284147262573,-0.7554293870925903,0.3527778089046478,0.9715267419815063,-0.22156065702438354,-0.2441786527633667
12.521379947662354,-0.6979184746742249,-0.7554138898849487,0.351314902305603,0.9740573763847351,-0.22334477305412292,-0.24485981464385986
12.541435718536377,-0.691027045249939,-0.7557195425033569,0.34367266297340393,0.9757264852523804,-0.22453638911247253,-0.24493595957756042
12.5614914894104,-0.6881515383720398,-0.7560727596282959,0.33481770753860474,0.9754985570907593,-0.22527000308036804,-0.2447194755077362
12.581623554229736,-0.6841394901275635,-0.7578893899917603,0.3194972276687622,0.9724538326263428,-0.2266010046005249,-0.2448940873146057
12.601670980453491,-0.6822968125343323,-0.7605966925621033,0.3116530478000641,0.9691766500473022,-0.22804859280586243,-0.2454892098903656
12.621723890304565,-0.6787461638450623,-0.7629995942115784,0.31838569045066833,0.9701442718505859,-0.22915610671043396,-0.24605675041675568
12.641829013824463,-0.6754632592201233,-0.7637611031532288,0.3267078101634979,0.9720300436019897,-0.2296103537082672,-0.24652662873268127
12.661926507949829,-0.6636821627616882,-0.764227032661438,0.3439163267612457,0.9782956838607788,-0.22973650693893433,-0.24721455574035645
12.682027578353882,-0.6488385796546936,-0.7638821601867676,0.3567321002483368,0.9840696454048157,-0.22877362370491028,-0.24811507761478424
12.702117443084717,-0.6408565640449524,-0.7635880708694458,0.35839611291885376,0.9866733551025391,-0.2282421588897705,-0.24851137399673462
12.722164154052734,-0.6268090009689331,-0.7633615732192993,0.36617428064346313,0.9923895597457886,-0.22853198647499084,-0.24946635961532593
12.74225115776062,-0.6136072278022766,-0.7634463906288147,0.3672804832458496,0.9970025420188904,-0.22908158600330353,-0.2501060664653778
12.762304067611694,-0.6070283055305481,-0.7640575170516968,0.37043696641921997,0.998993992805481,-0.2294175922870636,-0.2504933476448059
12.782376766204834,-0.5914415717124939,-0.7655438780784607,0.36790207028388977,1.000654935836792,-0.22810238599777222,-0.2513728141784668
12.802484035491943,-0.5761706233024597,-0.7673250436782837,0.3616451621055603,1.0022692680358887,-0.22816592454910278,-0.25205954909324646
12.82273817062378,-0.5665854215621948,-0.7680752873420715,0.3546718955039978,1.0040069818496704,-0.2268957793712616,-0.2515886127948761
12.84293532371521,-0.5499228239059448,-0.7698865532875061,0.3537907898426056,1.009115219116211,-0.2268444001674652,-0.251615047454834
12.862997770309448,-0.5257337093353271,-0.7720656991004944,0.36197835206985474,1.0171527862548828,-0.2237139642238617,-0.25216689705848694
12.88301396369934,-0.4936649203300476,-0.7746603488922119,0.3799670934677124,1.0282984972000122,-0.2183728665113449,-0.25358280539512634
12.90309453010559,-0.4804142117500305,-0.776235818862915,0.39059776067733765,1.0319651365280151,-0.21844206750392914,-0.2559525668621063
12.923160076141357,-0.44815725088119507,-0.77933669090271,0.4152143597602844,1.0433037281036377,-0.21430206298828125,-0.2587551772594452
12.94324541091919,-0.415576696395874,-0.7824916839599609,0.4474461078643799,1.0568890571594238,-0.21096926927566528,-0.261100709438324
12.963990449905396,-0.36580389738082886,-0.7866188883781433,0.5070980787277222,1.0793118476867676,-0.20066553354263306,-0.26175031065940857
12.98408842086792,-0.32535386085510254,-0.7883138060569763,0.5518819093704224,1.0966827869415283,-0.1873559206724167,-0.26060786843299866
13.004191637039185,-0.23972491919994354,-0.7891609072685242,0.6611390113830566,1.134016752243042,-0.1598723977804184,-0.260262668132782
13.024477005004883,-0.16625462472438812,-0.7821567058563232,0.7675842642784119,1.1705348491668701,-0.13556917011737823,-0.25911664962768555
13.044456720352173,-0.15052956342697144,-0.7793012261390686,0.7989358305931091,1.1800651550292969,-0.13322854042053223,-0.2593521177768707
13.0645592212677,-0.14589549601078033,-0.7719018459320068,0.8418072462081909,1.1861854791641235,-0.13338376581668854,-0.2576053738594055
13.08466386795044,-0.1715313047170639,-0.7757049202919006,0.8339846134185791,1.1656749248504639,-0.1319635957479477,-0.2613257169723511
13.104714393615723,-0.19195646047592163,-0.781672477722168,0.8172603845596313,1.153340458869934,-0.13347689807415009,-0.26409849524497986
13.12483024597168,-0.27270638942718506,-0.797465443611145,0.7268546223640442,1.1160720586776733,-0.17093157768249512,-0.27081337571144104
13.14494252204895,-0.38024523854255676,-0.7985303401947021,0.6228513717651367,1.0828049182891846,-0.23524361848831177,-0.2687399387359619
13.165002822875977,-0.4566577672958374,-0.7899029850959778,0.5641564130783081,1.0656930208206177,-0.26228439807891846,-0.2617247998714447
13.185110807418823,-0.4713894724845886,-0.7881499528884888,0.5491011738777161,1.0627775192260742,-0.2556450664997101,-0.25932666659355164
13.20518708229065,-0.45037853717803955,-0.7899369597434998,0.5750274062156677,1.0823185443878174,-0.22571316361427307,-0.253837525844574
13.225251913070679,-0.3913516402244568,-0.7894781827926636,0.6207164525985718,1.1224181652069092,-0.21200329065322876,-0.24610154330730438
13.245368957519531,-0.3538435697555542,-0.785456657409668,0.6496398448944092,1.144894003868103,-0.20804475247859955,-0.24117882549762726
13.265454769134521,-0.30390122532844543,-0.7818391919136047,0.6588330268859863,1.1675058603286743,-0.2045862078666687,-0.23775236308574677
13.285529136657715,-0.278402715921402,-0.7882029414176941,0.6535775065422058,1.1671998500823975,-0.18911464512348175,-0.24161818623542786
13.305651664733887,-0.2895256578922272,-0.8006588220596313,0.639557957649231,1.157422423362732,-0.18620434403419495,-0.24662521481513977
13.32573127746582,-0.316426545381546,-0.8071625232696533,0.6168115735054016,1.1425827741622925,-0.19561870396137238,-0.25029870867729187
13.345821857452393,-0.3734915256500244,-0.814014196395874,0.594781219959259,1.1202324628829956,-0.21336638927459717,-0.25216421484947205
13.365849494934082,-0.4304437041282654,-0.8157405853271484,0.5872952342033386,1.1016786098480225,-0.23706141114234924,-0.2493157684803009
13.386023998260498,-0.4463074803352356,-0.8163350820541382,0.6000217199325562,1.0980486869812012,-0.24344980716705322,-0.2458615005016327
13.406051397323608,-0.46679866313934326,-0.8210042119026184,0.611329972743988,1.085599660873413,-0.2566077709197998,-0.2389271855354309
13.426121711730957,-0.43845391273498535,-0.8365743160247803,0.6307449340820312,1.072519302368164,-0.2319258153438568,-0.23539508879184723
13.446301698684692,-0.41031527519226074,-0.8472069501876831,0.6377012729644775,1.0662577152252197,-0.20593518018722534,-0.23622781038284302
13.466318130493164,-0.3224777579307556,-0.8733165860176086,0.6597311496734619,1.0691871643066406,-0.11084243655204773,-0.244165301322937
13.48640775680542,-0.23922549188137054,-0.8980677127838135,0.6907113790512085,1.0833919048309326,-0.005058646202087402,-0.2585504353046417
13.506448745727539,-0.21159404516220093,-0.9083077907562256,0.7001234292984009,1.0903689861297607,0.03630951792001724,-0.26507705450057983
13.526511192321777,-0.20367120206356049,-0.9243923425674438,0.7058838605880737,1.0959725379943848,0.060702547430992126,-0.2727322280406952
13.54662799835205,-0.25201189517974854,-0.9290604591369629,0.6706360578536987,1.0832107067108154,0.022787079215049744,-0.2721627354621887
13.566841840744019,-0.33460795879364014,-0.9214767217636108,0.618674099445343,1.0540554523468018,-0.05272836610674858,-0.26495954394340515
13.586984157562256,-0.3794463872909546,-0.914334774017334,0.5986493229866028,1.0365139245986938,-0.09210686385631561,-0.26005494594573975
13.607107639312744,-0.4452802538871765,-0.9007924795150757,0.6015889048576355,1.011175274848938,-0.15288078784942627,-0.24822372198104858
13.627134323120117,-0.4495876431465149,-0.8931969404220581,0.6458800435066223,1.009375810623169,-0.18133749067783356,-0.23263484239578247
13.64722990989685,-0.4215949773788452,-0.8913261294364929,0.6700404286384583,1.0177173614501953,-0.17426267266273499,-0.2238345742225647
13.66742205619812,-0.3265734910964966,-0.8959610462188721,0.6944467425346375,1.045238733291626,-0.1164553314447403,-0.21406862139701843
13.687398195266724,-0.24035803973674774,-0.9079797863960266,0.7094180583953857,1.0671613216400146,-0.0231376513838768,-0.21981680393218994
13.70748519897461,-0.21884652972221375,-0.9166476726531982,0.7169244885444641,1.074920654296875,0.010059341788291931,-0.22469782829284668
13.727595567703247,-0.23686861991882324,-0.9289318919181824,0.6992247104644775,1.071695327758789,0.016056090593338013,-0.23065879940986633
13.74768590927124,-0.30586951971054077,-0.9335058927536011,0.6429780721664429,1.0507400035858154,-0.04307074844837189,-0.22690759599208832
13.767740249633789,-0.3855840861797333,-0.9265751838684082,0.5905850529670715,1.0175610780715942,-0.11843498051166534,-0.21766041219234467
13.787844181060791,-0.4112597107887268,-0.922664999961853,0.5948835015296936,1.0060983896255493,-0.14432165026664734,-0.21254271268844604
13.808005332946777,-0.4177147150039673,-0.9170866012573242,0.6445292830467224,1.0004113912582397,-0.17041590809822083,-0.20039936900138855
13.828150033950806,-0.3680187463760376,-0.9128584861755371,0.7067233324050903,1.0134100914001465,-0.15751409530639648,-0.18724985420703888
13.848241806030273,-0.33120179176330566,-0.9111073017120361,0.7222617864608765,1.020620584487915,-0.1277930587530136,-0.1840122640132904
13.868295192718506,-0.2802332043647766,-0.915618360042572,0.7305566072463989,1.0322206020355225,-0.05777427554130554,-0.18723925948143005
13.888532876968384,-0.29905465245246887,-0.925646185874939,0.6896825432777405,1.0274856090545654,-0.03627747669816017,-0.19395345449447632
13.908620595932007,-0.34197139739990234,-0.9328406453132629,0.6526938676834106,1.0162485837936401,-0.0657627061009407,-0.19512613117694855
13.92876386642456,-0.44691556692123413,-0.9345985651016235,0.5673657059669495,0.9812158942222595,-0.14431661367416382,-0.1887376308441162
13.948793888092041,-0.5058234333992004,-0.9330615401268005,0.5502005219459534,0.9631373882293701,-0.20524126291275024,-0.17338256537914276
13.969273805618286,-0.5048225522041321,-0.9302575588226318,0.5622265338897705,0.9602594375610352,-0.21685148775577545,-0.1646484136581421
13.989407300949097,-0.45368462800979614,-0.9262742400169373,0.6142861247062683,0.9657993316650391,-0.21358375251293182,-0.15037304162979126
14.009492874145508,-0.3427186906337738,-0.9260764122009277,0.6801614761352539,0.9815500378608704,-0.13078613579273224,-0.14700937271118164
14.029523372650146,-0.23091597855091095,-0.9307798147201538,0.761130690574646,1.0156993865966797,-0.020169071853160858,-0.1547084003686905
14.049623727798462,-0.19777125120162964,-0.9337540864944458,0.7934350967407227,1.0324195623397827,0.020726770162582397,-0.1595541089773178
14.069679975509644,-0.21314308047294617,-0.9412753582000732,0.7963572144508362,1.0439505577087402,0.013995364308357239,-0.16638894379138947
14.089795589447021,-0.3172891139984131,-0.9430671334266663,0.7179470658302307,1.0127215385437012,-0.07899665832519531,-0.16653519868850708
14.109843254089355,-0.4495748281478882,-0.9349814653396606,0.6097538471221924,0.9643223285675049,-0.18503603339195251,-0.15944290161132812
14.129904747009277,-0.49852246046066284,-0.9322214126586914,0.5767130255699158,0.9480492472648621,-0.2157498598098755,-0.15390470623970032
14.149987697601318,-0.5269706845283508,-0.9344482421875,0.5673065781593323,0.9336758852005005,-0.22016258537769318,-0.14312967658042908
14.170061588287354,-0.4815594553947449,-0.9412782788276672,0.6014751195907593,0.9420140981674194,-0.18786191940307617,-0.13489170372486115
14.19011402130127,-0.3960837721824646,-0.945864200592041,0.640360951423645,0.9579387903213501,-0.12864020466804504,-0.13357122242450714
14.210197687149048,-0.3397662043571472,-0.9480845332145691,0.6620773077011108,0.9731935262680054,-0.08681179583072662,-0.1340026706457138
14.230304479598999,-0.2378639131784439,-0.9542455673217773,0.7279371023178101,1.0090588331222534,-0.01131373643875122,-0.14007143676280975
14.250321388244629,-0.20145158469676971,-0.9578335285186768,0.7857940196990967,1.0324606895446777,0.0017566680908203125,-0.1436561942100525
14.270414590835571,-0.2151806354522705,-0.9549635648727417,0.7950843572616577,1.0301973819732666,-0.015658985823392868,-0.14362652599811554
14.290477991104126,-0.2795528769493103,-0.9451661109924316,0.7751822471618652,1.005453109741211,-0.07001186162233353,-0.14046040177345276
14.310539245605469,-0.370086669921875,-0.9383651614189148,0.726615309715271,0.9688502550125122,-0.13414472341537476,-0.13728462159633636
14.330705881118774,-0.426008403301239,-0.9359709620475769,0.7036316990852356,0.94853276014328,-0.17157351970672607,-0.1365080177783966
14.35082459449768,-0.5175554156303406,-0.9330660104751587,0.6468831300735474,0.9172455072402954,-0.21481065452098846,-0.13179416954517365
14.370939254760742,-0.5584729909896851,-0.9390168190002441,0.5999560952186584,0.9074333906173706,-0.22674718499183655,-0.12349501252174377
14.390944004058838,-0.5411005616188049,-0.9480248689651489,0.5697222948074341,0.9148216247558594,-0.2160441279411316,-0.11403921246528625
14.411041021347046,-0.5198459029197693,-0.9510188102722168,0.5648331642150879,0.9199082255363464,-0.2074456512928009,-0.11054587364196777
14.43110966682434,-0.4603034555912018,-0.9562044143676758,0.5728904008865356,0.9302804470062256,-0.17323172092437744,-0.10735341906547546
14.45117735862732,-0.3607289493083954,-0.9639707803726196,0.6088963747024536,0.9471861720085144,-0.09541559964418411,-0.10944122076034546
14.471226930618286,-0.22452817857265472,-0.9727903604507446,0.6922977566719055,0.986799418926239,0.010437741875648499,-0.11763070523738861
