liuyurong129/humanoid-gym/humanoid/data/target_q_20250521-050845.csv
timestamp,joint_1,joint_2,joint_3,joint_4,joint_5,joint_6
6.031990051269531e-05,0.0,0.0,0.0,0.0,0.0,0.0
0.02013874053955078,0.0,0.0,0.0,0.0,0.0,0.0
0.04021477699279785,0.0,0.0,0.0,0.0,0.0,0.0
0.060266733169555664,0.0,0.0,0.0,0.0,0.0,0.0
0.08034110069274902,0.0,0.0,0.0,0.0,0.0,0.0
0.10043835639953613,0.6303914785385132,-0.5106496810913086,0.8750396966934204,-0.3522014617919922,0.12239597737789154,0.02745826169848442
0.12061429023742676,0.5938289165496826,-0.5144941806793213,0.8784958720207214,-0.32972708344459534,0.1232207715511322,0.023442978039383888
0.14072346687316895,0.558960497379303,-0.5269818305969238,0.8545754551887512,-0.3191017508506775,0.12479190528392792,0.022414810955524445
0.16084980964660645,0.5498329997062683,-0.523213803768158,0.8761584758758545,-0.32292670011520386,0.12016338109970093,0.023077523335814476
0.180863618850708,0.5619857311248779,-0.5264784097671509,0.8735100626945496,-0.32309460639953613,0.12218520045280457,0.021842073649168015
0.20095443725585938,0.5597501993179321,-0.5175709128379822,0.8915432691574097,-0.3278626799583435,0.1092737466096878,0.02142016589641571
0.22102808952331543,0.5483594536781311,-0.5281118750572205,0.8640874028205872,-0.3190265893936157,0.1190122663974762,0.022779500111937523
0.24109172821044922,0.5609350800514221,-0.5288592576980591,0.8632231950759888,-0.3141647279262543,0.12179030478000641,0.02278943918645382
0.2612147331237793,0.559222936630249,-0.5305245518684387,0.8641124963760376,-0.31656113266944885,0.12367239594459534,0.023104026913642883
0.2812941074371338,0.5450650453567505,-0.5251182317733765,0.8637985587120056,-0.3200320899486542,0.11640897393226624,0.024601837620139122
0.30133962631225586,0.546614408493042,-0.5281208157539368,0.862777590751648,-0.32072997093200684,0.11408649384975433,0.0236798245459795
0.3214268684387207,0.5633983612060547,-0.5231876373291016,0.8818291425704956,-0.32515567541122437,0.11550728976726532,0.02378268539905548
0.3414950370788574,0.5484485626220703,-0.5279360413551331,0.8698899745941162,-0.322008341550827,0.11404004693031311,0.023314539343118668
0.36156725883483887,0.5417618751525879,-0.5302746295928955,0.8576118350028992,-0.3165278434753418,0.11238230764865875,0.023988718166947365
0.3816547393798828,0.5535622239112854,-0.523929238319397,0.8720982074737549,-0.3184274137020111,0.11187712848186493,0.024998070672154427
0.401721715927124,0.5520137548446655,-0.5279295444488525,0.8713130354881287,-0.3189099133014679,0.11314468085765839,0.02482512593269348
0.4217801094055176,0.5381414294242859,-0.5266843438148499,0.8678941130638123,-0.3181201219558716,0.10615770518779755,0.024972643703222275
0.44187211990356445,0.5516749620437622,-0.5275379419326782,0.8709075450897217,-0.3162633776664734,0.11104066669940948,0.025660473853349686
0.46201324462890625,0.5479987263679504,-0.5307596921920776,0.8637709617614746,-0.3140851557254791,0.11050419509410858,0.02614162676036358
0.48201894760131836,0.5447529554367065,-0.5324989557266235,0.8635138273239136,-0.3156556487083435,0.10841444134712219,0.025628214702010155
0.5023748874664307,0.552156925201416,-0.5260324478149414,0.87813800573349,-0.3256380558013916,0.10558570921421051,0.02619480900466442
0.5224635601043701,0.5466490387916565,-0.527234673500061,0.8766772747039795,-0.3230254650115967,0.10236603021621704,0.02588772214949131
0.5425207614898682,0.5457082986831665,-0.5289777517318726,0.8716377019882202,-0.32206112146377563,0.1051880270242691,0.027197200804948807
0.5626206398010254,0.5412881374359131,-0.5304260849952698,0.870250403881073,-0.3230239450931549,0.10470293462276459,0.027289291843771935
0.5827021598815918,0.5407209396362305,-0.5306925773620605,0.8742436170578003,-0.32419779896736145,0.10292638838291168,0.026842063292860985
0.6027839183807373,0.5285109877586365,-0.5313031673431396,0.8672771453857422,-0.3193720579147339,0.09984171390533447,0.027986746281385422
0.6232788562774658,0.5393476486206055,-0.5322093963623047,0.8649768829345703,-0.31708237528800964,0.10077737271785736,0.027720507234334946
0.6433372497558594,0.534205436706543,-0.5316824913024902,0.8710145950317383,-0.3211350440979004,0.10049737989902496,0.02875496633350849
0.663449764251709,0.5508413314819336,-0.5292269587516785,0.8835753798484802,-0.32586026191711426,0.10022608935832977,0.028508849442005157
0.6834695339202881,0.5506826043128967,-0.5318453311920166,0.8828911781311035,-0.32631486654281616,0.10142454504966736,0.028007885441184044
0.7035558223724365,0.5390323400497437,-0.5369522571563721,0.873634934425354,-0.3260014057159424,0.10114236176013947,0.027729369699954987
0.723623514175415,0.5291532278060913,-0.5395891666412354,0.8672337532043457,-0.3193923532962799,0.10074244439601898,0.029003001749515533
0.7437088489532471,0.5341167449951172,-0.5378592610359192,0.8640141487121582,-0.32019883394241333,0.0994512289762497,0.029614316299557686
0.763761043548584,0.5411683917045593,-0.5333894491195679,0.8706585168838501,-0.3224295973777771,0.09739828109741211,0.029917540028691292
0.7838490009307861,0.5328259468078613,-0.5364589691162109,0.8730547428131104,-0.32003527879714966,0.0963304191827774,0.030057698488235474
0.8039226531982422,0.5342843532562256,-0.5394397974014282,0.8677937984466553,-0.3194345235824585,0.09879831969738007,0.030302638188004494
0.8240056037902832,0.5268547534942627,-0.5418883562088013,0.8667199611663818,-0.3183659017086029,0.09631544351577759,0.030607998371124268
0.8440988063812256,0.5311436653137207,-0.5353087186813354,0.8813276290893555,-0.3246253728866577,0.09248493611812592,0.031134920194745064
0.8641712665557861,0.5366891622543335,-0.538587212562561,0.8731598258018494,-0.31458449363708496,0.09392185509204865,0.031246565282344818
0.8842427730560303,0.5343437194824219,-0.5426138639450073,0.8692845106124878,-0.319640576839447,0.09430740773677826,0.030364027246832848
0.9044466018676758,0.5241180062294006,-0.5376228094100952,0.8812205791473389,-0.32970893383026123,0.08776871860027313,0.03073645941913128
0.9244413375854492,0.5303125977516174,-0.5375233888626099,0.8853297233581543,-0.33007651567459106,0.08859920501708984,0.03165390342473984
0.9444894790649414,0.529416561126709,-0.5406327247619629,0.8685531616210938,-0.3227531909942627,0.09160204231739044,0.032769814133644104
0.9645848274230957,0.5223516225814819,-0.5381426811218262,0.8779887557029724,-0.327705442905426,0.08635634183883667,0.03264407441020012
0.9846584796905518,0.5354043245315552,-0.54045569896698,0.8725051283836365,-0.3229891061782837,0.09066194295883179,0.03278142958879471
1.0047099590301514,0.5160499811172485,-0.5411456227302551,0.8680658936500549,-0.3221043348312378,0.08483025431632996,0.032933857291936874
1.0247986316680908,0.5074141621589661,-0.5427242517471313,0.8675855994224548,-0.3187338709831238,0.08339813351631165,0.033845897763967514
1.0448894500732422,0.5265063047409058,-0.5434948205947876,0.8747292757034302,-0.32033655047416687,0.08845750987529755,0.034336939454078674
1.0649657249450684,0.5193133354187012,-0.5422403812408447,0.8851138949394226,-0.3262197971343994,0.07980188727378845,0.03233937919139862
1.0850813388824463,0.5325281023979187,-0.5441495776176453,0.8731040954589844,-0.32797592878341675,0.08763270080089569,0.03458321839570999
1.1051623821258545,0.5271240472793579,-0.5490430593490601,0.8731942772865295,-0.32639646530151367,0.09010076522827148,0.03413987532258034
1.1252555847167969,0.5164732933044434,-0.546673059463501,0.8730295896530151,-0.32639560103416443,0.08375853300094604,0.03457318991422653
1.1453521251678467,0.5106196403503418,-0.5477949380874634,0.8684527277946472,-0.32450538873672485,0.08282271027565002,0.0351664237678051
1.1654469966888428,0.525546133518219,-0.5464746952056885,0.8728988766670227,-0.324348121881485,0.08517448604106903,0.03587045520544052
1.1855194568634033,0.5199621915817261,-0.5452098250389099,0.8729068040847778,-0.32715630531311035,0.08162820339202881,0.03657744079828262
1.2055726051330566,0.5257720351219177,-0.5453441143035889,0.8793914318084717,-0.32072049379348755,0.07873757183551788,0.036421261727809906
1.225687026977539,0.5068137049674988,-0.5525161027908325,0.8629662394523621,-0.3173144459724426,0.07979682087898254,0.03623158484697342
1.24576735496521,0.5008978247642517,-0.5491491556167603,0.8729376196861267,-0.32949990034103394,0.0718909204006195,0.035533320158720016
1.2658512592315674,0.5199476480484009,-0.5489266514778137,0.8747090101242065,-0.3318498730659485,0.07757817208766937,0.03694869577884674
1.2859125137329102,0.5167155861854553,-0.5533610582351685,0.8734869956970215,-0.32332974672317505,0.0789160281419754,0.03617718815803528
1.3060007095336914,0.49863770604133606,-0.5543313026428223,0.8599096536636353,-0.32752999663352966,0.07766646146774292,0.03868468478322029
1.3260817527770996,0.496750146150589,-0.5509084463119507,0.8662097454071045,-0.32613176107406616,0.06895361840724945,0.03757231682538986
1.346238136291504,0.5083016157150269,-0.5533901453018188,0.8661797046661377,-0.3232255280017853,0.07256080210208893,0.03825119510293007
1.3663506507873535,0.5093560218811035,-0.5520254373550415,0.8759126663208008,-0.3243046998977661,0.06813172996044159,0.0371522381901741
1.3864774703979492,0.5110080242156982,-0.5521905422210693,0.8779096603393555,-0.321338415145874,0.06874524056911469,0.03809865936636925
1.4064602851867676,0.5193219780921936,-0.5543109774589539,0.8760133981704712,-0.3280763328075409,0.0744110643863678,0.0398126095533371
1.4265575408935547,0.516657829284668,-0.5549109578132629,0.8804215788841248,-0.3290131092071533,0.0715266764163971,0.03858964145183563
1.4466276168823242,0.5181086659431458,-0.5547845959663391,0.8850317001342773,-0.33159971237182617,0.0716325044631958,0.039036646485328674
1.4666786193847656,0.5173479318618774,-0.5539007186889648,0.888572633266449,-0.3318941593170166,0.07163478434085846,0.04039212316274643
1.486781358718872,0.4865710437297821,-0.557488203048706,0.8513336181640625,-0.32562196254730225,0.06057708337903023,0.03932058438658714
1.506859540939331,0.4929383099079132,-0.5555942058563232,0.8658450245857239,-0.32609665393829346,0.06122985854744911,0.041966602206230164
1.5270187854766846,0.5116872787475586,-0.5547893047332764,0.8830792903900146,-0.32579952478408813,0.05766447260975838,0.04022514820098877
1.5476465225219727,0.5078439712524414,-0.557709276676178,0.8750773072242737,-0.31879281997680664,0.06024693325161934,0.04141731560230255
1.5677320957183838,0.4982132613658905,-0.56307053565979,0.8799861669540405,-0.3262059688568115,0.06485176086425781,0.04077979177236557
1.5878057479858398,0.4960658848285675,-0.5639032125473022,0.8656981587409973,-0.32600167393684387,0.0672643780708313,0.04308474063873291
1.607923984527588,0.4702490270137787,-0.5670346021652222,0.8588505387306213,-0.3229696750640869,0.05751699581742287,0.04217202961444855
1.6280169486999512,0.503201961517334,-0.5575249195098877,0.8937826156616211,-0.3300371468067169,0.05768921598792076,0.04298260062932968
1.6480677127838135,0.5001792907714844,-0.559464693069458,0.8906012773513794,-0.3283768892288208,0.057027433067560196,0.04444839805364609
1.668175220489502,0.4691983461380005,-0.5684242248535156,0.8392456769943237,-0.31722795963287354,0.051718804985284805,0.042282834649086
1.688239574432373,0.48173072934150696,-0.5660057663917542,0.8698697090148926,-0.3240087032318115,0.054658737033605576,0.044176459312438965
1.7082922458648682,0.48326900601387024,-0.5677307844161987,0.8677239418029785,-0.32550400495529175,0.05370369926095009,0.044464968144893646
1.728546142578125,0.4813217222690582,-0.5672085285186768,0.8776323795318604,-0.33054372668266296,0.049957919865846634,0.04407885670661926
1.748657464981079,0.4919818937778473,-0.5644282102584839,0.8888448476791382,-0.33297380805015564,0.044371310621500015,0.04486928880214691
1.7687101364135742,0.5039399862289429,-0.5661291480064392,0.8938179016113281,-0.33471715450286865,0.04859277978539467,0.045908112078905106
1.7888703346252441,0.502932071685791,-0.5678137540817261,0.8872353434562683,-0.3290126919746399,0.051770422607660294,0.04558973014354706
1.808952808380127,0.47183045744895935,-0.5765968561172485,0.8639481663703918,-0.3280617296695709,0.05149979516863823,0.04455114156007767
1.8290035724639893,0.4714614450931549,-0.5748805999755859,0.8807460069656372,-0.3245307207107544,0.045562494546175,0.04427505284547806
1.8490722179412842,0.4604630470275879,-0.5778679847717285,0.8546043634414673,-0.31638699769973755,0.04839489981532097,0.046565279364585876
1.8691601753234863,0.47257962822914124,-0.565718412399292,0.9028737545013428,-0.328814834356308,0.035394418984651566,0.046414993703365326
1.8892338275909424,0.48314961791038513,-0.5685588717460632,0.8925131559371948,-0.33472776412963867,0.043784063309431076,0.049347735941410065
1.909327745437622,0.4877300560474396,-0.5704987049102783,0.8905538320541382,-0.3297746181488037,0.04074980691075325,0.04772122576832771
1.9293930530548096,0.46167078614234924,-0.5759471654891968,0.8644908666610718,-0.32927587628364563,0.0356939323246479,0.04790346324443817
1.949463129043579,0.46554476022720337,-0.5740917921066284,0.8761332035064697,-0.32674264907836914,0.03173675015568733,0.04860099032521248
1.9696063995361328,0.48611727356910706,-0.5763521194458008,0.8883855938911438,-0.3246324062347412,0.04000762477517128,0.049368202686309814
1.9897165298461914,0.4496600925922394,-0.5828732252120972,0.858066976070404,-0.32521092891693115,0.03764042630791664,0.04939935356378555
2.0097460746765137,0.45533981919288635,-0.5827103853225708,0.8785940408706665,-0.32919466495513916,0.034701842814683914,0.04925556480884552
2.0297999382019043,0.43915095925331116,-0.587224543094635,0.8603336811065674,-0.32582247257232666,0.03202344849705696,0.049734920263290405
2.0498931407928467,0.47790417075157166,-0.5745429992675781,0.9151480197906494,-0.33743545413017273,0.02658628299832344,0.05026061087846756
2.069974899291992,0.4583272635936737,-0.5751150846481323,0.9109483957290649,-0.33524343371391296,0.019576478749513626,0.05190082639455795
2.0900213718414307,0.4689863920211792,-0.5753015279769897,0.9044716358184814,-0.32445067167282104,0.02533191815018654,0.05411801487207413
2.110114812850952,0.4260707199573517,-0.5876119136810303,0.8417071104049683,-0.3167635500431061,0.019991200417280197,0.05365588888525963
2.13018536567688,0.4568611681461334,-0.5857951641082764,0.8829231858253479,-0.33005082607269287,0.01967223361134529,0.05183231830596924
2.1502790451049805,0.4618368148803711,-0.5893784165382385,0.8735148310661316,-0.3310588002204895,0.025954533368349075,0.05490382760763168
2.1703476905822754,0.4470416009426117,-0.586308479309082,0.8977466821670532,-0.33222487568855286,0.017213676124811172,0.05289410799741745
2.190432548522949,0.47038695216178894,-0.5907759666442871,0.8786515593528748,-0.3314553499221802,0.029330242425203323,0.05709625780582428
2.210505485534668,0.4597356617450714,-0.5925357937812805,0.8988159894943237,-0.3347342014312744,0.016654279083013535,0.05249275639653206
2.230595588684082,0.43891844153404236,-0.5958175659179688,0.8716468811035156,-0.3311389684677124,0.015213076025247574,0.054577380418777466
2.25068736076355,0.43015486001968384,-0.5930377244949341,0.8874024152755737,-0.3342078924179077,0.005393419414758682,0.05488397926092148
2.270753860473633,0.42665404081344604,-0.594271183013916,0.8972572088241577,-0.33354470133781433,-0.0027994923293590546,0.05599138140678406
2.2909345626831055,0.4597874581813812,-0.5915274620056152,0.9307752847671509,-0.3391640782356262,-0.0020297877490520477,0.0560939759016037
2.3110427856445312,0.3964773416519165,-0.6087684631347656,0.8425168395042419,-0.3185461759567261,0.006803702563047409,0.05590204894542694
2.3311054706573486,0.3790285885334015,-0.6076934337615967,0.8251612186431885,-0.31565481424331665,0.00040576979517936707,0.05842570960521698
2.3511667251586914,0.38047918677330017,-0.6117469072341919,0.8071698546409607,-0.3299112617969513,0.0031260140240192413,0.06266773492097855
2.3712730407714844,0.44817420840263367,-0.592278003692627,0.8897970914840698,-0.33252057433128357,0.010803122073411942,0.06675300747156143
2.3913486003875732,0.41703861951828003,-0.5950839519500732,0.865363597869873,-0.3287056088447571,0.006601396948099136,0.07102543115615845
2.411400318145752,0.3387385606765747,-0.6058422327041626,0.793409526348114,-0.3269769549369812,-0.01158144697546959,0.07282200455665588
2.431485652923584,0.46882501244544983,-0.6094905734062195,0.9088115096092224,-0.3431701958179474,-0.006283063441514969,0.07903250306844711
2.4515578746795654,0.44275423884391785,-0.6081769466400146,0.9203557372093201,-0.34581589698791504,-0.017875690013170242,0.08063318580389023
2.4716150760650635,0.45942872762680054,-0.6158303022384644,0.9280043840408325,-0.3386363685131073,-0.0161370150744915,0.07995354384183884
2.491703510284424,0.3454206585884094,-0.6441365480422974,0.7983793020248413,-0.32533103227615356,-0.02323387935757637,0.07778634876012802
2.5117743015289307,0.4094317853450775,-0.6416420936584473,0.8592991232872009,-0.33220958709716797,-0.02062549814581871,0.07944022119045258
2.5318446159362793,0.42175647616386414,-0.6590648889541626,0.8364285230636597,-0.33563095331192017,-0.0084870345890522,0.08967158198356628
2.5520427227020264,0.3676794171333313,-0.6411570310592651,0.8730798959732056,-0.34992361068725586,-0.037046026438474655,0.083966925740242
2.572068929672241,0.3669584095478058,-0.6639769077301025,0.8063234090805054,-0.3394578993320465,-0.019959982484579086,0.09520749747753143
2.592125654220581,0.3146635591983795,-0.6981009244918823,0.7784903645515442,-0.32827794551849365,-0.03406205400824547,0.1063900962471962
2.6123063564300537,0.3596588671207428,-0.6886495351791382,0.8190252184867859,-0.33317112922668457,-0.029557380825281143,0.1117917075753212
2.6324074268341064,0.2861374318599701,-0.6969051361083984,0.8207789659500122,-0.33420926332473755,-0.058661770075559616,0.11966224014759064
2.6525075435638428,0.2973949611186981,-0.7078690528869629,0.8315432071685791,-0.3336634337902069,-0.05415361002087593,0.13590008020401
2.6727631092071533,0.24727897346019745,-0.7454261779785156,0.7970985770225525,-0.33208680152893066,-0.06436213850975037,0.15079395473003387
2.6928582191467285,0.20724673569202423,-0.7660897970199585,0.8781237602233887,-0.34732094407081604,-0.09047503769397736,0.16051022708415985
2.712980270385742,0.2604195475578308,-0.814777135848999,0.8763937950134277,-0.33425629138946533,-0.0706624984741211,0.17408476769924164
2.733025074005127,0.23512229323387146,-0.8882205486297607,0.8735291361808777,-0.307771235704422,-0.057959724217653275,0.19305521249771118
2.75311541557312,0.26569944620132446,-0.8906424045562744,0.8668450713157654,-0.3065813183784485,-0.05399562790989876,0.1914045661687851
2.773205041885376,0.28381943702697754,-0.8831634521484375,0.8794798254966736,-0.313850998878479,-0.06334158778190613,0.19061453640460968
2.7932472229003906,0.302052766084671,-0.882839560508728,0.8985832929611206,-0.3273604214191437,-0.07075905799865723,0.19195346534252167
2.8133370876312256,0.30252140760421753,-0.9144289493560791,0.9520476460456848,-0.3625554144382477,-0.08808062970638275,0.19802646338939667
2.833405017852783,0.3214428722858429,-0.8579376935958862,0.9934917688369751,-0.3447020947933197,-0.11527423560619354,0.18841077387332916
2.8534743785858154,0.28753146529197693,-0.7880837917327881,0.9647042751312256,-0.28274980187416077,-0.15242823958396912,0.16669872403144836
2.8735413551330566,0.2576494812965393,-0.741466760635376,1.025450587272644,-0.26770082116127014,-0.18084155023097992,0.14520171284675598
2.893627405166626,0.21381036937236786,-0.7314662933349609,1.0909522771835327,-0.3114457130432129,-0.2211078554391861,0.14104720950126648
2.9137051105499268,0.1918429732322693,-0.7430386543273926,1.0990278720855713,-0.3527860939502716,-0.21779195964336395,0.13892537355422974
2.9341394901275635,0.14447961747646332,-0.7434093952178955,1.056662678718567,-0.35757094621658325,-0.1911986619234085,0.14521825313568115
2.954227924346924,0.19507570564746857,-0.761867880821228,0.9714524745941162,-0.3688541054725647,-0.16474485397338867,0.15455658733844757
2.9742889404296875,0.19752945005893707,-0.7563141584396362,0.9631906151771545,-0.37647271156311035,-0.12589207291603088,0.14957495033740997
2.994359016418457,0.12983468174934387,-0.7697756290435791,1.055230736732483,-0.356661319732666,-0.14288398623466492,0.138666570186615
3.0144596099853516,0.07489427924156189,-0.7767093181610107,1.080827236175537,-0.3438687324523926,-0.16134412586688995,0.138741135597229
3.034485340118408,0.08827241510152817,-0.7851288318634033,1.106195330619812,-0.33972838521003723,-0.16584230959415436,0.13136322796344757
3.0545501708984375,0.11274602264165878,-0.7620387077331543,1.12562096118927,-0.34794387221336365,-0.1727328598499298,0.1290273368358612
3.074716806411743,0.11241056770086288,-0.7569239139556885,1.134924292564392,-0.34181204438209534,-0.17142057418823242,0.12864291667938232
3.094813346862793,0.11014740914106369,-0.7583142518997192,1.1399059295654297,-0.338888943195343,-0.17445658147335052,0.12621353566646576
3.1148769855499268,0.0995003804564476,-0.7611778974533081,1.143677830696106,-0.3344477117061615,-0.18095597624778748,0.12556882202625275
3.13578200340271,0.07626266032457352,-0.7577465772628784,1.1424973011016846,-0.33259278535842896,-0.1841839700937271,0.12782230973243713
3.155881404876709,0.10675488412380219,-0.755928635597229,1.1311185359954834,-0.3334423303604126,-0.168470099568367,0.1282310038805008
3.1759696006774902,0.10270113497972488,-0.7564166784286499,1.130544662475586,-0.33721408247947693,-0.1708187609910965,0.1286969780921936
3.1960103511810303,0.09485932439565659,-0.7537764310836792,1.1378706693649292,-0.33663150668144226,-0.17635929584503174,0.12843431532382965
3.216099739074707,0.11591518670320511,-0.762122631072998,1.126863718032837,-0.34036070108413696,-0.1617671400308609,0.12829647958278656
3.236189603805542,0.12277375906705856,-0.7586767673492432,1.1293984651565552,-0.33836814761161804,-0.1672801822423935,0.1266695261001587
3.256467580795288,0.15373381972312927,-0.7693444490432739,1.1173791885375977,-0.33707356452941895,-0.14280541241168976,0.1273471862077713
3.276554822921753,0.18101152777671814,-0.7676780223846436,1.1124439239501953,-0.33450067043304443,-0.12670204043388367,0.1269637644290924
3.2967605590820312,0.1864253282546997,-0.7835670709609985,1.104970932006836,-0.33372676372528076,-0.11213913559913635,0.1281844526529312
3.316876173019409,0.17332923412322998,-0.7798634767532349,1.1217609643936157,-0.337695837020874,-0.13084129989147186,0.12735918164253235
3.337040901184082,0.18267248570919037,-0.7883815765380859,1.1124365329742432,-0.3386338949203491,-0.11892533302307129,0.1269093155860901
3.357057809829712,0.19944553077220917,-0.7825459241867065,1.108520269393921,-0.33211609721183777,-0.11007826030254364,0.12719887495040894
3.3771138191223145,0.17000214755535126,-0.7881747484207153,1.1141921281814575,-0.33589252829551697,-0.12372203171253204,0.1267501711845398
3.397188425064087,0.16738742589950562,-0.8053475618362427,1.104553461074829,-0.3283666670322418,-0.1147407740354538,0.12717942893505096
3.417719602584839,0.22924405336380005,-0.802354097366333,1.0796695947647095,-0.3274622857570648,-0.0757916271686554,0.12960661947727203
3.437809467315674,0.16356758773326874,-0.8093903064727783,1.1029152870178223,-0.3074038624763489,-0.10950982570648193,0.1288457214832306
3.457876443862915,0.20603831112384796,-0.805022120475769,1.084865927696228,-0.3168659508228302,-0.08084776997566223,0.13040752708911896
3.4780054092407227,0.2085249274969101,-0.8510303497314453,1.0463995933532715,-0.304762601852417,-0.04145776107907295,0.13223668932914734
3.498100519180298,0.140892893075943,-0.8228985071182251,1.073520302772522,-0.28261080384254456,-0.10009093582630157,0.13124588131904602
3.518181562423706,0.2047334760427475,-0.8506102561950684,1.031872034072876,-0.2886868119239807,-0.05440036579966545,0.13510778546333313
3.5382628440856934,0.24085091054439545,-0.8101545572280884,1.059258222579956,-0.29069483280181885,-0.05831262469291687,0.1379212737083435
3.558340311050415,0.20842306315898895,-0.8168662786483765,1.073815107345581,-0.28174254298210144,-0.06986977159976959,0.1404648721218109
3.5784265995025635,0.20815806090831757,-0.8061856031417847,1.035336971282959,-0.2993006408214569,-0.055592380464076996,0.14677536487579346
3.598464250564575,0.2655094563961029,-0.8331040143966675,1.0722875595092773,-0.28547051548957825,-0.062210433185100555,0.14109034836292267
3.6185712814331055,0.20344170928001404,-0.8273516893386841,1.054969310760498,-0.27025094628334045,-0.07619282603263855,0.14529554545879364
3.638634204864502,0.25510966777801514,-0.7783681154251099,1.0172417163848877,-0.3199349045753479,-0.05687339976429939,0.15559007227420807
3.65871000289917,0.06443064659833908,-0.8506650924682617,1.0347471237182617,-0.27897122502326965,-0.09475095570087433,0.16096045076847076
3.6787819862365723,0.21253915131092072,-0.748281717300415,1.0709267854690552,-0.30591467022895813,-0.08272743970155716,0.15860499441623688
3.698887348175049,0.20034123957157135,-0.8153319358825684,1.0244208574295044,-0.31215131282806396,-0.055959612131118774,0.16370120644569397
3.7189550399780273,0.17373451590538025,-0.8260548114776611,1.0115110874176025,-0.30377450585365295,-0.07699199765920639,0.16941536962985992
3.7390806674957275,0.3802352249622345,-0.7828500270843506,1.0743306875228882,-0.3303474187850952,-0.05173802748322487,0.16031183302402496
3.759192705154419,0.12169436365365982,-0.8391523361206055,1.0531892776489258,-0.3016899824142456,-0.11168549954891205,0.17088474333286285
3.779301166534424,0.3404720723628998,-0.7932846546173096,1.0347518920898438,-0.341305136680603,-0.04224903881549835,0.17153646051883698
3.7997519969940186,0.18250973522663116,-0.8012979030609131,1.025234580039978,-0.3103455901145935,-0.07777638733386993,0.18241076171398163
3.819838047027588,0.23418758809566498,-0.7878873348236084,0.9955319166183472,-0.3195306658744812,-0.05221761763095856,0.18787658214569092
3.8399362564086914,0.24271605908870697,-0.8076590299606323,1.019239068031311,-0.31776630878448486,-0.062041789293289185,0.18959549069404602
3.859980583190918,0.22281770408153534,-0.7194541692733765,0.9982565641403198,-0.34189385175704956,-0.08313380181789398,0.2020217925310135
3.880080223083496,0.19254888594150543,-0.7915459871292114,1.0049760341644287,-0.3576306998729706,-0.09213332831859589,0.1995527595281601
3.900151014328003,0.20391391217708588,-0.7883062362670898,1.0284130573272705,-0.3170963525772095,-0.08838413655757904,0.2024308741092682
3.9203274250030518,0.25581490993499756,-0.7863568067550659,1.027446985244751,-0.3317701518535614,-0.08256244659423828,0.20418278872966766
3.940408706665039,0.12820838391780853,-0.7644636631011963,1.0300354957580566,-0.35006582736968994,-0.13769347965717316,0.20970843732357025
3.9604744911193848,0.239004448056221,-0.7681119441986084,0.9846882820129395,-0.365206241607666,-0.08287908136844635,0.2197873294353485
3.980538845062256,0.1808456927537918,-0.7983673810958862,1.0129733085632324,-0.32241517305374146,-0.0892038643360138,0.22479462623596191
4.000621557235718,0.07989286631345749,-0.7550582885742188,1.027303695678711,-0.3273278772830963,-0.1378173828125,0.2299870252609253
4.020695209503174,0.26808467507362366,-0.8000544309616089,0.9838976263999939,-0.3588687777519226,-0.05610736086964607,0.23203441500663757
4.040769577026367,0.15428122878074646,-0.7306315898895264,1.0496684312820435,-0.3402654528617859,-0.14730876684188843,0.23310770094394684
4.061070203781128,0.24353665113449097,-0.7530548572540283,1.0279735326766968,-0.379275918006897,-0.10409952700138092,0.23710376024246216
4.081171274185181,0.18269072473049164,-0.7744238376617432,1.0155190229415894,-0.356559157371521,-0.11659611761569977,0.2398846596479416
4.101224660873413,0.30568793416023254,-0.7706937789916992,0.994147539138794,-0.3708561658859253,-0.06568854302167892,0.2434052675962448
4.121321439743042,0.07834398746490479,-0.7682914733886719,0.9958419799804688,-0.3703762888908386,-0.13792486488819122,0.2547543942928314
4.1414008140563965,0.19922882318496704,-0.7355986833572388,0.9214766621589661,-0.3847869038581848,-0.06371627002954483,0.2653535306453705
4.161479234695435,0.3530653119087219,-0.7643750905990601,1.0755404233932495,-0.3749835193157196,-0.03760379180312157,0.2541641592979431
4.181546211242676,0.22533480823040009,-0.788612961769104,1.0364887714385986,-0.354750394821167,-0.06998556107282639,0.2612982392311096
4.20163631439209,0.26545798778533936,-0.7451919317245483,0.9868935346603394,-0.38623595237731934,-0.10084342956542969,0.26601630449295044
4.221710681915283,0.24985380470752716,-0.7530341148376465,0.9656909108161926,-0.4115629196166992,-0.0830349326133728,0.27467790246009827
4.241798400878906,0.24469108879566193,-0.738579511642456,1.0171754360198975,-0.3792996108531952,-0.10507690906524658,0.27874311804771423
4.262355327606201,0.10372263938188553,-0.736558198928833,0.9989551305770874,-0.36210280656814575,-0.1438424289226532,0.2812477648258209
4.282457590103149,0.3302404582500458,-0.7503271102905273,0.9840046167373657,-0.39810818433761597,-0.05102544277906418,0.27692148089408875
4.302584409713745,0.19834598898887634,-0.7785816192626953,0.9437426328659058,-0.3706517815589905,-0.07234551012516022,0.29131415486335754
4.322852849960327,0.3560393750667572,-0.7679184675216675,1.0197888612747192,-0.41554659605026245,-0.04478231072425842,0.28585633635520935
4.342953443527222,0.3288179934024811,-0.8060176372528076,0.998084306716919,-0.40250349044799805,-0.03511200100183487,0.28999266028404236
4.363027334213257,0.2687501311302185,-0.7535154819488525,0.9994970560073853,-0.410869300365448,-0.06920304149389267,0.29839569330215454
4.383099555969238,0.19272570312023163,-0.7501024007797241,0.9857010245323181,-0.40500009059906006,-0.11132420599460602,0.3043685257434845
4.403175354003906,0.17189541459083557,-0.7112481594085693,1.0014262199401855,-0.4204220771789551,-0.14200137555599213,0.3093269169330597
4.423253774642944,0.2699882686138153,-0.7901053428649902,1.0085530281066895,-0.3875020146369934,-0.08568555861711502,0.3065774738788605
4.443328380584717,0.10615167766809464,-0.7282146215438843,1.0104527473449707,-0.39770418405532837,-0.17632853984832764,0.30703791975975037
4.463582515716553,0.23816338181495667,-0.7286891937255859,0.9618549346923828,-0.42160317301750183,-0.09692657738924026,0.3178876042366028
4.483670949935913,0.20134636759757996,-0.7581257820129395,0.959449291229248,-0.40807926654815674,-0.09531931579113007,0.32029998302459717
4.50374174118042,0.30369144678115845,-0.7881661653518677,0.970930814743042,-0.41823649406433105,-0.030813423916697502,0.3182072937488556
4.523987293243408,0.25572335720062256,-0.8024699687957764,0.9786115884780884,-0.4111717939376831,-0.04504534229636192,0.3244911730289459
4.544069290161133,0.23979471623897552,-0.7559100389480591,0.9825631380081177,-0.4233134686946869,-0.08292843401432037,0.3245351314544678
4.564128160476685,0.3366965353488922,-0.7754068374633789,0.984476625919342,-0.44396212697029114,-0.0386226586997509,0.32774609327316284
4.584259510040283,0.2687458097934723,-0.7124199867248535,0.9935154914855957,-0.4485514163970947,-0.07931876182556152,0.33614885807037354
4.604342699050903,0.41499394178390503,-0.766758918762207,0.9970523118972778,-0.4422299861907959,-0.02924235165119171,0.3261432945728302
4.624413728713989,0.20857283473014832,-0.7296820878982544,1.0220465660095215,-0.39254432916641235,-0.12637275457382202,0.32760295271873474
4.644477367401123,0.272300660610199,-0.7611157894134521,0.9663285613059998,-0.4248894155025482,-0.07258865237236023,0.3363499641418457
4.664563894271851,0.1657855361700058,-0.7426362037658691,0.9994128346443176,-0.4144618511199951,-0.12111890316009521,0.3402426540851593
4.68462610244751,0.28809836506843567,-0.7502193450927734,0.9297834634780884,-0.4220917224884033,-0.047534968703985214,0.34435388445854187
4.704765319824219,0.22909313440322876,-0.7549210786819458,1.0446008443832397,-0.4167124629020691,-0.10008358955383301,0.344072550535202
4.724862575531006,0.19440683722496033,-0.7570325136184692,0.9859145283699036,-0.40387362241744995,-0.10644175112247467,0.34726762771606445
4.74494481086731,0.39207223057746887,-0.7714118957519531,0.9356450438499451,-0.45718246698379517,-0.008211283013224602,0.35149428248405457
4.765054941177368,0.35533568263053894,-0.7778540849685669,0.9808882474899292,-0.441013365983963,-0.022646110504865646,0.3531840145587921
4.785146474838257,0.21470196545124054,-0.7687920331954956,0.9859975576400757,-0.4461463689804077,-0.08549241721630096,0.35411736369132996
4.805242300033569,0.2802567780017853,-0.7538250684738159,0.9880608916282654,-0.4521248936653137,-0.06731583923101425,0.3556815981864929
4.825288772583008,0.13158439099788666,-0.7382349967956543,0.9953492879867554,-0.4235706329345703,-0.1314823031425476,0.36123207211494446
4.845380783081055,0.08038666099309921,-0.712494969367981,0.9807043075561523,-0.41166967153549194,-0.16077251732349396,0.3610782325267792
4.865448474884033,0.23612311482429504,-0.7370189428329468,0.977656900882721,-0.4403778612613678,-0.09577345848083496,0.3666054308414459
4.885504245758057,0.20584295690059662,-0.7634267807006836,0.987722635269165,-0.40381401777267456,-0.09854083508253098,0.36559930443763733
4.905582427978516,0.21562054753303528,-0.7554831504821777,0.98703932762146,-0.434972882270813,-0.10357148945331573,0.3642086088657379
4.925675868988037,0.40311524271965027,-0.7900943756103516,0.9578450918197632,-0.4607943296432495,0.0018194913864135742,0.3714340329170227
4.945780992507935,0.31072798371315,-0.7656114101409912,0.9737340211868286,-0.4707984924316406,-0.043272290378808975,0.37439998984336853
4.965876340866089,0.3027501106262207,-0.7633607387542725,0.9803004264831543,-0.46382179856300354,-0.05347589775919914,0.37642666697502136
4.985965013504028,0.16987772285938263,-0.7163442373275757,0.9845540523529053,-0.4654272198677063,-0.11368119716644287,0.3829258680343628
5.0060272216796875,0.27808859944343567,-0.7838220596313477,0.9930000305175781,-0.43650156259536743,-0.07339146733283997,0.3773100674152374
5.026198387145996,0.24119925498962402,-0.7582745552062988,0.9941626787185669,-0.43332481384277344,-0.0890929102897644,0.37896332144737244
5.046216011047363,0.22274397313594818,-0.7172093391418457,0.9603307247161865,-0.44766685366630554,-0.10218940675258636,0.38633859157562256
5.0662901401519775,0.23528777062892914,-0.7591549158096313,0.9705695509910583,-0.43755480647087097,-0.08197127282619476,0.38725462555885315
5.086472272872925,0.24713675677776337,-0.7724807262420654,0.9747741222381592,-0.45085573196411133,-0.07001557946205139,0.3883052170276642
5.106562376022339,0.2663869559764862,-0.7731674909591675,0.9749413728713989,-0.4497379660606384,-0.07144224643707275,0.387947678565979
5.126631259918213,0.2964048683643341,-0.7688872814178467,0.9883655309677124,-0.4682912826538086,-0.06467786431312561,0.394137978553772
5.14677619934082,0.1689767986536026,-0.7282896041870117,0.9793910980224609,-0.47176530957221985,-0.11015006899833679,0.3995875418186188
5.166922330856323,0.3832918703556061,-0.7736191749572754,0.9467246532440186,-0.46426090598106384,-0.0105584766715765,0.3920278251171112
5.187005519866943,0.337924987077713,-0.7834821939468384,0.9924581050872803,-0.45020297169685364,-0.03671983256936073,0.3954867720603943
5.207036972045898,0.24083147943019867,-0.7461347579956055,0.9818885326385498,-0.45089179277420044,-0.09192977100610733,0.39973166584968567
5.227129220962524,0.24847732484340668,-0.7525362968444824,0.9623172283172607,-0.4613306522369385,-0.08382555842399597,0.40053507685661316
5.247192144393921,0.2848999500274658,-0.7685912847518921,0.9890726804733276,-0.46121180057525635,-0.055692289024591446,0.40351131558418274
5.267271280288696,0.14348240196704865,-0.7304065227508545,0.9755743145942688,-0.4631977379322052,-0.12050901353359222,0.406771183013916
5.287352085113525,0.3969830274581909,-0.7704894542694092,0.9537785053253174,-0.45694494247436523,-0.01186215877532959,0.3985374867916107
5.307445764541626,0.31352654099464417,-0.7789764404296875,0.9821616411209106,-0.4600660502910614,-0.03993581607937813,0.40664583444595337
5.327527761459351,0.2470330148935318,-0.7548321485519409,0.9976811408996582,-0.47588789463043213,-0.08315582573413849,0.4078817665576935
5.348237991333008,0.26807740330696106,-0.7339903116226196,0.9607746005058289,-0.47178155183792114,-0.07489974051713943,0.4122330844402313
5.36838436126709,0.2884041965007782,-0.7577462196350098,0.9846726059913635,-0.47514158487319946,-0.0670374184846878,0.4107881784439087
5.388425588607788,0.07836691290140152,-0.7386374473571777,0.9853001832962036,-0.4459936022758484,-0.15357670187950134,0.4119844138622284
5.40864896774292,0.2172488123178482,-0.7375136613845825,0.96021568775177,-0.45499640703201294,-0.10058429837226868,0.4165804982185364
5.42874002456665,0.3445437252521515,-0.8001420497894287,0.9639379382133484,-0.4484543800354004,-0.013321248814463615,0.411447137594223
5.448854446411133,0.2650962769985199,-0.785581111907959,0.9847064018249512,-0.44788050651550293,-0.05690672993659973,0.41368627548217773
5.468886852264404,0.29162999987602234,-0.7827068567276001,0.9681906700134277,-0.4831172227859497,-0.059342171996831894,0.41637638211250305
5.488977909088135,0.1690041720867157,-0.7427273988723755,0.9540386199951172,-0.4807165265083313,-0.11119908094406128,0.4240051507949829
5.509104013442993,0.3970147669315338,-0.7827078104019165,0.9860004782676697,-0.49624690413475037,-0.01883181929588318,0.4211379885673523
5.5291807651519775,0.26817405223846436,-0.7486388683319092,1.0173135995864868,-0.4704515337944031,-0.07836762815713882,0.42077019810676575
5.549281120300293,0.1905776709318161,-0.754533052444458,0.9838939309120178,-0.4489084780216217,-0.12359929084777832,0.41317018866539
5.569333791732788,0.3239732086658478,-0.7578599452972412,0.9731491804122925,-0.46729952096939087,-0.0629005879163742,0.4186282455921173
5.589414119720459,0.049283914268016815,-0.7626469135284424,0.9950129985809326,-0.43197470903396606,-0.15739509463310242,0.4223780333995819
5.609465599060059,0.17077629268169403,-0.7274236679077148,0.9348698854446411,-0.45622768998146057,-0.09535659104585648,0.4283754825592041
5.629549741744995,0.3781953454017639,-0.7805122137069702,0.9756869077682495,-0.47575345635414124,-0.015045542269945145,0.42479416728019714
5.6496405601501465,0.293235719203949,-0.8076680898666382,1.0075849294662476,-0.45939409732818604,-0.046575091779232025,0.4229234755039215
5.669712543487549,0.2865802049636841,-0.7825576066970825,1.0012292861938477,-0.46187058091163635,-0.06207192316651344,0.42081040143966675
5.6897900104522705,0.21794401109218597,-0.7429546117782593,0.9870282411575317,-0.49014711380004883,-0.09813037514686584,0.4296085238456726
5.70988392829895,0.3499118983745575,-0.756087064743042,0.9576680064201355,-0.4910586476325989,-0.030748888850212097,0.43193328380584717
5.730988025665283,0.0863708034157753,-0.7654101848602295,0.9968881607055664,-0.4402013123035431,-0.14097513258457184,0.42424485087394714
5.751093864440918,0.22792978584766388,-0.7317841053009033,0.9781337976455688,-0.4565156102180481,-0.08996286988258362,0.4258924722671509
5.771211624145508,0.21584279835224152,-0.757670521736145,0.9655809998512268,-0.4554681181907654,-0.08997879922389984,0.42969369888305664
5.791310548782349,0.2887500822544098,-0.7796920537948608,0.9693849682807922,-0.4507686495780945,-0.05698926001787186,0.4297454059123993
5.8113508224487305,0.2706843316555023,-0.7777256965637207,0.972215473651886,-0.46967095136642456,-0.0641370415687561,0.4316268265247345
5.831451416015625,0.23613382875919342,-0.7396847009658813,0.9852957129478455,-0.47655242681503296,-0.09962150454521179,0.432176798582077
5.8515214920043945,0.36648598313331604,-0.7854030132293701,1.0013267993927002,-0.4770238995552063,-0.037574656307697296,0.43282172083854675
5.87164568901062,0.17938737571239471,-0.7586437463760376,1.0219981670379639,-0.4839796721935272,-0.12115304172039032,0.4331839382648468
5.891709566116333,0.2546350657939911,-0.7561941146850586,0.9653478860855103,-0.47393834590911865,-0.08662059903144836,0.4337206184864044
5.911787271499634,0.252044141292572,-0.7686469554901123,0.9927672147750854,-0.4702910780906677,-0.08533289283514023,0.4358528256416321
5.9319374561309814,0.16753247380256653,-0.7548991441726685,0.9811961054801941,-0.4605036973953247,-0.12146629393100739,0.4364650547504425
5.952057123184204,0.3033178150653839,-0.7703143358230591,0.9514796733856201,-0.47087180614471436,-0.05147824063897133,0.43838709592819214
5.972161769866943,0.14305423200130463,-0.7761608362197876,0.9774324893951416,-0.449785441160202,-0.11444242298603058,0.44029274582862854
5.992352247238159,0.34783872961997986,-0.804275631904602,0.9643811583518982,-0.48112428188323975,-0.01929185539484024,0.43717002868652344
6.012438774108887,0.32102200388908386,-0.8045142889022827,0.9943763017654419,-0.47752687335014343,-0.0427173487842083,0.4380696713924408
6.032506465911865,0.21218234300613403,-0.7595292329788208,1.022064208984375,-0.4815961718559265,-0.11442826688289642,0.4381198287010193
6.052566766738892,0.29577675461769104,-0.7671557664871216,0.9647175073623657,-0.4844890832901001,-0.0681416317820549,0.44108545780181885
6.072746992111206,0.3170726001262665,-0.7966333627700806,0.9526804685592651,-0.48464280366897583,-0.03540125861763954,0.44340789318084717
6.092780351638794,0.12873046100139618,-0.7181718349456787,0.9869146347045898,-0.46390002965927124,-0.14445017278194427,0.4418609142303467
6.112834692001343,0.23446400463581085,-0.7629352807998657,0.9547489881515503,-0.4757402837276459,-0.07875214517116547,0.44811660051345825
6.132925033569336,0.3099592626094818,-0.787883996963501,0.9708951115608215,-0.4706502854824066,-0.045593902468681335,0.4436524212360382
6.153027057647705,0.15132294595241547,-0.7586194276809692,0.990588903427124,-0.46794044971466064,-0.12248305976390839,0.4468602240085602
6.17306923866272,0.30819791555404663,-0.7897095680236816,0.9558581113815308,-0.4866236448287964,-0.042842842638492584,0.44745588302612305
6.193164587020874,0.30433741211891174,-0.7858395576477051,0.9907903671264648,-0.4846085011959076,-0.059662628918886185,0.44730496406555176
6.213245153427124,0.10254461318254471,-0.7402018308639526,1.0156338214874268,-0.48105108737945557,-0.15892569720745087,0.44559308886528015
6.233325719833374,0.21054677665233612,-0.7391679286956787,0.9882371425628662,-0.48479393124580383,-0.11777789890766144,0.44804444909095764
6.2534191608428955,0.28438225388526917,-0.7674432992935181,0.9723633527755737,-0.48032262921333313,-0.06563249975442886,0.4507255554199219
6.2735021114349365,0.13815592229366302,-0.7530667781829834,0.986583948135376,-0.46057742834091187,-0.13439451158046722,0.44902947545051575
6.293550252914429,0.3190075159072876,-0.7761297225952148,0.9413975477218628,-0.47810977697372437,-0.041934240609407425,0.45086702704429626
6.313642263412476,0.34386852383613586,-0.8173372745513916,0.9623892307281494,-0.47450143098831177,-0.019711509346961975,0.45055443048477173
6.333739280700684,0.17483682930469513,-0.7543699741363525,0.9833109378814697,-0.46883541345596313,-0.11411239206790924,0.45181339979171753
6.353804349899292,0.41543546319007874,-0.8437058925628662,0.9980235695838928,-0.4862850308418274,0.006670814007520676,0.4461382031440735
6.374446868896484,0.35527345538139343,-0.8095575571060181,1.0086690187454224,-0.48347967863082886,-0.024411801248788834,0.44624412059783936
6.394532680511475,0.33163824677467346,-0.7977279424667358,1.0161809921264648,-0.4874846339225769,-0.04209425672888756,0.44536352157592773
6.414608955383301,0.17799627780914307,-0.7494450807571411,0.9958565831184387,-0.4900820255279541,-0.11238795518875122,0.449197918176651
6.434682369232178,0.3199363648891449,-0.7563762664794922,0.9488571882247925,-0.49148255586624146,-0.04135515168309212,0.45194318890571594
6.454774618148804,0.31153634190559387,-0.7941300868988037,0.9919906854629517,-0.4625414311885834,-0.04849062114953995,0.4447413980960846
6.4748311042785645,0.10872309654951096,-0.7265638113021851,0.9771151542663574,-0.4642409682273865,-0.13982214033603668,0.4479725658893585
6.494938850402832,0.2564617097377777,-0.7876291275024414,0.9758606553077698,-0.4667477309703827,-0.07274052500724792,0.4496181607246399
6.515008926391602,0.17392359673976898,-0.7580142021179199,1.0055769681930542,-0.4670313596725464,-0.12040296196937561,0.44991564750671387
6.535083293914795,0.3214918375015259,-0.7824045419692993,0.9769291281700134,-0.48621755838394165,-0.04577285423874855,0.4494985044002533
6.555135011672974,0.27578645944595337,-0.7921206951141357,1.013640284538269,-0.48695874214172363,-0.0661432221531868,0.4512694478034973
6.575228691101074,0.2869769036769867,-0.7725629806518555,1.006866455078125,-0.48348885774612427,-0.07177925109863281,0.45171207189559937
6.5952959060668945,0.23057329654693604,-0.7497820854187012,0.9857434630393982,-0.4898025393486023,-0.10073241591453552,0.4563215374946594
6.615361213684082,0.28343915939331055,-0.777188777923584,0.9600143432617188,-0.4817354083061218,-0.058785680681467056,0.45575305819511414
6.635448932647705,0.2321799099445343,-0.786380410194397,0.9645171165466309,-0.47702446579933167,-0.07193875312805176,0.4549002945423126
6.65553617477417,0.1510496884584427,-0.7438631057739258,0.9695452451705933,-0.46838125586509705,-0.11997167766094208,0.4551490247249603
6.675581455230713,0.3196900188922882,-0.8149310350418091,0.9665213823318481,-0.47781720757484436,-0.029969636350870132,0.4554869532585144
6.695688247680664,0.24433381855487823,-0.7909634113311768,0.9925482869148254,-0.46420055627822876,-0.07503445446491241,0.4558179974555969
6.715773820877075,0.28657135367393494,-0.7762707471847534,0.9708841443061829,-0.4837425947189331,-0.0634303092956543,0.45638537406921387
6.736051797866821,0.2819514572620392,-0.7792694568634033,0.9990536570549011,-0.4981510639190674,-0.06308816373348236,0.4583710730075836
6.756144285202026,0.15121282637119293,-0.7504664659500122,1.002379298210144,-0.487824022769928,-0.12939490377902985,0.4549185037612915
6.776222229003906,0.25852224230766296,-0.7618309259414673,0.9927892088890076,-0.48479345440864563,-0.08485789597034454,0.4554722309112549
6.796908855438232,0.22665981948375702,-0.7734402418136597,0.9820307493209839,-0.4724639058113098,-0.09381691366434097,0.4544934630393982
6.817018985748291,0.165101557970047,-0.754523515701294,0.9719141721725464,-0.4652981460094452,-0.12379240989685059,0.45503005385398865
6.837149143218994,0.30748364329338074,-0.7830474376678467,0.9530372023582458,-0.46819835901260376,-0.04881877079606056,0.4570000171661377
6.857205629348755,0.25522103905677795,-0.7873313426971436,0.9911055564880371,-0.4766051471233368,-0.07174642384052277,0.45749661326408386
6.877267837524414,0.13839279115200043,-0.7570244073867798,0.9868921041488647,-0.4731016755104065,-0.1343468576669693,0.4555736780166626
6.89733624458313,0.3616173267364502,-0.7853718996047974,0.9983610510826111,-0.49166253209114075,-0.04272378981113434,0.4573434293270111
6.917399168014526,0.21197472512722015,-0.7732831239700317,1.013261318206787,-0.48803219199180603,-0.10508613288402557,0.4562240540981293
6.937503337860107,0.20194198191165924,-0.7451432943344116,1.0055943727493286,-0.48403942584991455,-0.1138213723897934,0.45889249444007874
6.957616090774536,0.3076091706752777,-0.7938945293426514,0.9803267121315002,-0.47204333543777466,-0.06163860484957695,0.4554859399795532
6.977672815322876,0.05167888104915619,-0.7284044027328491,0.9868369102478027,-0.4663769006729126,-0.17177481949329376,0.4574570655822754
6.997763395309448,0.2683870494365692,-0.7467606067657471,0.9323090314865112,-0.4715208411216736,-0.07152348756790161,0.45615270733833313
7.017827987670898,0.23236165940761566,-0.7757059335708618,1.0204044580459595,-0.47750911116600037,-0.08683302998542786,0.4607480466365814
7.037928581237793,0.2803477942943573,-0.779564380645752,0.9257760643959045,-0.4847453832626343,-0.05061877518892288,0.45840927958488464
7.057984113693237,0.3945107161998749,-0.8156983852386475,0.9696164727210999,-0.48451435565948486,-0.005556043237447739,0.4580436050891876
7.078058481216431,0.28467875719070435,-0.797897458076477,0.9820597171783447,-0.47853410243988037,-0.05123738944530487,0.45866355299949646
7.098119497299194,0.23981337249279022,-0.7578001022338867,0.9774121046066284,-0.5078184604644775,-0.08138348162174225,0.46285006403923035
7.118204593658447,0.24380190670490265,-0.7500245571136475,1.0421503782272339,-0.484882116317749,-0.11982245743274689,0.4542276859283447
7.138283014297485,0.24257461726665497,-0.7865145206451416,0.9784749150276184,-0.475955605506897,-0.07651428878307343,0.4607783257961273
7.1583311557769775,0.1974945217370987,-0.7236015796661377,0.975963830947876,-0.4766029715538025,-0.11364948749542236,0.4597748816013336
7.1784443855285645,0.21157249808311462,-0.7537050247192383,0.9844385981559753,-0.4743080139160156,-0.1180030107498169,0.4590938687324524
7.198491096496582,0.27411845326423645,-0.7900282144546509,0.9825164675712585,-0.46293845772743225,-0.06693905591964722,0.4584207832813263
7.218607187271118,0.20236864686012268,-0.7769770622253418,0.9956137537956238,-0.48074665665626526,-0.10673224925994873,0.46010443568229675
7.238735198974609,0.43543171882629395,-0.8155725002288818,0.9605451822280884,-0.4920414686203003,0.0151527039706707,0.460968941450119
7.258834362030029,0.30719807744026184,-0.8158918619155884,1.0687587261199951,-0.47781404852867126,-0.07325343787670135,0.45404917001724243
7.278922080993652,0.2966478168964386,-0.8006076812744141,0.9493794441223145,-0.5034766793251038,-0.037726614624261856,0.46110838651657104
7.299109220504761,0.2676179111003876,-0.7538241147994995,0.995216965675354,-0.5011031031608582,-0.08059819042682648,0.4645587205886841
7.319194793701172,0.2707831561565399,-0.7720180749893188,0.9618977308273315,-0.48780301213264465,-0.04980812221765518,0.4681012034416199
7.33927845954895,0.16813971102237701,-0.771938681602478,0.9791285991668701,-0.46224522590637207,-0.09689861536026001,0.4595414698123932
7.359325885772705,0.3407822251319885,-0.781522274017334,0.9592918157577515,-0.45413273572921753,-0.03487703949213028,0.45146793127059937
7.3794169425964355,0.3054365813732147,-0.8291609287261963,0.9585539698600769,-0.46291786432266235,-0.032160088419914246,0.4545673727989197
7.399483919143677,0.24369072914123535,-0.7777961492538452,0.9851467609405518,-0.4543880820274353,-0.0880504846572876,0.45689982175827026
7.419564247131348,0.28559571504592896,-0.7767132520675659,0.9872150421142578,-0.4860769510269165,-0.0666177049279213,0.45966625213623047
7.439899682998657,0.2436990588903427,-0.7699977159500122,1.020448923110962,-0.5001923441886902,-0.09347593784332275,0.4592134356498718
7.4599785804748535,0.08490154147148132,-0.7297166585922241,1.0236254930496216,-0.49012425541877747,-0.17210905253887177,0.4561161398887634
7.480076313018799,0.23256424069404602,-0.765811562538147,0.9897369146347046,-0.4912028908729553,-0.09756682813167572,0.4611946642398834
7.500869035720825,0.14285613596439362,-0.7548536062240601,0.975890040397644,-0.45819246768951416,-0.1340942680835724,0.45603886246681213
7.520985841751099,0.33311939239501953,-0.7902896404266357,0.9335004091262817,-0.46714073419570923,-0.023045793175697327,0.4565064013004303
7.541078567504883,0.2704381048679352,-0.795817494392395,0.9748668670654297,-0.4624180793762207,-0.06355775892734528,0.45919838547706604
7.561135292053223,0.22704316675662994,-0.762574315071106,0.9657246470451355,-0.48969995975494385,-0.08658307790756226,0.46431201696395874
7.581256151199341,0.3692096769809723,-0.7949261665344238,0.9717720150947571,-0.48958784341812134,-0.024674739688634872,0.45771268010139465
7.601345062255859,0.3276110589504242,-0.8106241226196289,1.0162155628204346,-0.49603068828582764,-0.03252744302153587,0.45957455039024353
7.621431827545166,0.23060324788093567,-0.7610107660293579,1.0334234237670898,-0.48723119497299194,-0.11509954929351807,0.4561125934123993
7.641485929489136,0.09633628278970718,-0.7351608276367188,0.9918885827064514,-0.4859882593154907,-0.16143298149108887,0.45816200971603394
7.661555767059326,0.24328048527240753,-0.7549301385879517,0.9917035102844238,-0.4913170337677002,-0.09998343884944916,0.4619658291339874
7.681643486022949,0.14426271617412567,-0.7741167545318604,0.9873498678207397,-0.45865917205810547,-0.12220464646816254,0.4574992060661316
7.7017412185668945,0.22689485549926758,-0.7823954820632935,0.9041513204574585,-0.46415793895721436,-0.06141642481088638,0.46096494793891907
7.721811771392822,0.2841416299343109,-0.8025813102722168,1.0364452600479126,-0.4601200819015503,-0.07598182559013367,0.4574742317199707
7.741878509521484,0.23331378400325775,-0.7618228197097778,0.9454845786094666,-0.4825602173805237,-0.0842549204826355,0.46750345826148987
7.762031316757202,0.3409939706325531,-0.8237462043762207,1.0512213706970215,-0.48383238911628723,-0.046583451330661774,0.45243996381759644
7.782119274139404,0.20500688254833221,-0.7823593616485596,1.006619930267334,-0.4900941848754883,-0.08182157576084137,0.4632452726364136
7.802252531051636,0.382758766412735,-0.7762132883071899,0.996954083442688,-0.4997474253177643,-0.044082414358854294,0.4562563896179199
7.822268486022949,0.3182116448879242,-0.8029805421829224,1.0059163570404053,-0.4751591086387634,-0.06446027755737305,0.45359018445014954
7.842345952987671,0.12133084982633591,-0.739596962928772,1.0134365558624268,-0.4739261567592621,-0.15670642256736755,0.45447033643722534
7.862401008605957,0.2405039519071579,-0.7604814767837524,0.998779296875,-0.47390562295913696,-0.0987110584974289,0.4595014452934265
7.882457256317139,0.18801972270011902,-0.7688112258911133,0.9894044399261475,-0.46925991773605347,-0.11142352223396301,0.4595041871070862
7.9025490283966064,0.3128831684589386,-0.7944717407226562,0.93757563829422,-0.467912495136261,-0.030688699334859848,0.4581097364425659
7.922614574432373,0.2784045338630676,-0.8185993432998657,0.9754149913787842,-0.4572450518608093,-0.043866176158189774,0.46198680996894836
7.942688226699829,0.2683781385421753,-0.7888668775558472,0.9801322221755981,-0.4755728840827942,-0.06322048604488373,0.46047624945640564
7.962769269943237,0.2947041988372803,-0.7985161542892456,0.9995215535163879,-0.5039268732070923,-0.05079374089837074,0.45952916145324707
7.98288106918335,0.2072691172361374,-0.7407532930374146,1.0142778158187866,-0.5024885535240173,-0.11188375949859619,0.46192580461502075
8.003100633621216,0.36047235131263733,-0.7739701271057129,0.9675790071487427,-0.4977893829345703,-0.033177636563777924,0.46077820658683777
8.02311658859253,0.15138526260852814,-0.7592306137084961,1.0304268598556519,-0.48347288370132446,-0.1329905390739441,0.4568766951560974
8.043179035186768,0.20310021936893463,-0.752773642539978,0.9770042300224304,-0.46137166023254395,-0.10913614928722382,0.45796966552734375
8.063238382339478,0.23931987583637238,-0.7691894769668579,0.9755425453186035,-0.47030380368232727,-0.08592762798070908,0.4582880437374115
8.083325624465942,0.2528708279132843,-0.7938535213470459,0.9750303626060486,-0.4603956937789917,-0.06605733186006546,0.45969751477241516
8.103394269943237,0.2315947264432907,-0.7721536159515381,0.9714242219924927,-0.4812583327293396,-0.07936075329780579,0.4622966945171356
8.123898267745972,0.33912393450737,-0.8212343454360962,1.0052082538604736,-0.48653000593185425,-0.02778783068060875,0.4597807228565216
8.144007444381714,0.2702952027320862,-0.795142650604248,1.0113152265548706,-0.47931766510009766,-0.07102586328983307,0.4566406309604645
8.164090156555176,0.29126420617103577,-0.7715104818344116,1.012822151184082,-0.4979388117790222,-0.07673415541648865,0.45753148198127747
8.184135675430298,0.15472300350666046,-0.7385736703872681,0.9752436876296997,-0.48760610818862915,-0.12130166590213776,0.4619189202785492
8.204230785369873,0.2261827141046524,-0.7506082057952881,0.9597733020782471,-0.4838848114013672,-0.08772838115692139,0.4608682096004486
8.224339962005615,0.233830988407135,-0.7737092971801758,1.0085642337799072,-0.466195285320282,-0.09060375392436981,0.456861287355423
8.24438762664795,0.20953808724880219,-0.7650941610336304,0.9639283418655396,-0.4647417366504669,-0.0914607048034668,0.4580361247062683
8.264488220214844,0.3632270097732544,-0.7965008020401001,0.9703209400177002,-0.4748819172382355,-0.02534376084804535,0.45517125725746155
8.28456997871399,0.2678029239177704,-0.8082281351089478,0.9819005727767944,-0.44932788610458374,-0.05771267041563988,0.4591333568096161
8.304635524749756,0.3539538085460663,-0.7796604633331299,1.024637222290039,-0.5099950432777405,-0.05200352892279625,0.45556217432022095
8.324755191802979,0.2111096829175949,-0.7725646495819092,1.0242869853973389,-0.5154481530189514,-0.10526973009109497,0.45370134711265564
8.344834566116333,0.41100451350212097,-0.7712185382843018,0.9777321815490723,-0.503326952457428,-0.015780657529830933,0.4601251780986786
8.364891529083252,0.2379583865404129,-0.7711669206619263,1.0184911489486694,-0.479789137840271,-0.09404683113098145,0.454485148191452
8.3849778175354,0.130320206284523,-0.7451386451721191,1.0057053565979004,-0.4683186709880829,-0.14180651307106018,0.4551364481449127
8.405057907104492,0.1972709745168686,-0.7499542236328125,0.9739492535591125,-0.468188613653183,-0.10743087530136108,0.4577963650226593
8.42514944076538,0.3212892711162567,-0.823768138885498,0.9535204172134399,-0.4641507863998413,-0.010435082018375397,0.45566678047180176
8.445215225219727,0.22249554097652435,-0.8012003898620605,1.0100549459457397,-0.4610896706581116,-0.07979419082403183,0.4553320109844208
8.465306282043457,0.3043653964996338,-0.7787768840789795,0.9611250162124634,-0.47156640887260437,-0.052230171859264374,0.45589879155158997
8.485359907150269,0.2590731680393219,-0.7884401082992554,1.0171151161193848,-0.49087411165237427,-0.06378142535686493,0.45875799655914307
8.505431890487671,0.34810420870780945,-0.7691744565963745,0.9915382862091064,-0.5032774806022644,-0.025186464190483093,0.4631345570087433
8.525517225265503,0.16506797075271606,-0.7525333166122437,1.0122648477554321,-0.50838702917099,-0.11214213073253632,0.45855098962783813
8.545557022094727,0.25026756525039673,-0.7315860986709595,0.9785502552986145,-0.48159053921699524,-0.09081590175628662,0.45672881603240967
8.565635204315186,0.21819008886814117,-0.7559056282043457,0.9926498532295227,-0.4727027416229248,-0.1046757698059082,0.45557916164398193
8.585715293884277,0.15917572379112244,-0.7481639385223389,0.9594326019287109,-0.44772711396217346,-0.1168549507856369,0.45179346203804016
8.605771780014038,0.3298470079898834,-0.819811224937439,0.9654314517974854,-0.4595179557800293,-0.021955456584692,0.4539622962474823
8.625854015350342,0.21391665935516357,-0.7874287366867065,1.0426985025405884,-0.4591178297996521,-0.1071804016828537,0.4530078172683716
8.645922660827637,0.31175002455711365,-0.7817775011062622,0.9115962982177734,-0.47425681352615356,-0.03403541073203087,0.45804694294929504
8.665988206863403,0.2988797426223755,-0.8085265159606934,1.0153412818908691,-0.47616225481033325,-0.058641962707042694,0.45391160249710083
8.686078548431396,0.35914885997772217,-0.7969322204589844,0.9978284239768982,-0.493440181016922,-0.02756626158952713,0.4565328061580658
8.70613980293274,0.26252123713493347,-0.746590256690979,1.011688232421875,-0.4961123466491699,-0.09229877591133118,0.4585722088813782
8.726183414459229,0.30438798666000366,-0.8053205013275146,0.9778246879577637,-0.47743290662765503,-0.04204745590686798,0.4556909501552582
8.746370792388916,0.1635376214981079,-0.770116925239563,0.9943627119064331,-0.4674301743507385,-0.11805424094200134,0.45221441984176636
8.766521453857422,0.24320146441459656,-0.7572567462921143,0.9726528525352478,-0.46766427159309387,-0.09160862863063812,0.45341411232948303
8.786574602127075,0.22846530377864838,-0.7818728685379028,0.9747897386550903,-0.46618685126304626,-0.07835273444652557,0.4570147693157196
8.806639194488525,0.2373865395784378,-0.7734103202819824,0.9823366403579712,-0.46936291456222534,-0.07842302322387695,0.45731320977211
8.826723575592041,0.2765081226825714,-0.7795788049697876,0.9715570211410522,-0.48048123717308044,-0.06258577108383179,0.4579959809780121
8.846804141998291,0.3034105598926544,-0.7801395654678345,1.0042715072631836,-0.4835391044616699,-0.06375997513532639,0.4562568664550781
8.867143392562866,0.15100184082984924,-0.7479914426803589,0.9951737523078918,-0.4905925393104553,-0.1270201951265335,0.4587702751159668
8.88722562789917,0.29419395327568054,-0.7536367177963257,0.9564504623413086,-0.4957934319972992,-0.061185017228126526,0.46171703934669495
8.907307863235474,0.16513651609420776,-0.76938796043396,1.015740990638733,-0.480904757976532,-0.10956443846225739,0.46125367283821106
8.927390098571777,0.24247026443481445,-0.7353260517120361,0.9228335618972778,-0.47311681509017944,-0.07204046100378036,0.4592571556568146
8.947484731674194,0.19739574193954468,-0.770864725112915,0.9651541709899902,-0.4797855019569397,-0.09620700776576996,0.46169114112854004
8.967574119567871,0.3212130665779114,-0.8011139631271362,0.9785708785057068,-0.44535568356513977,-0.03776594623923302,0.4529290497303009
8.98768949508667,0.27614882588386536,-0.7943547964096069,1.0078707933425903,-0.4749371111392975,-0.06309966742992401,0.457028865814209
9.007792949676514,0.2905971109867096,-0.7907381057739258,0.9931433200836182,-0.4780903458595276,-0.06778434664011002,0.4543404281139374
9.027853965759277,0.24093730747699738,-0.7620593309402466,0.984347939491272,-0.5050232410430908,-0.08160035312175751,0.46439507603645325
9.048236846923828,0.2702319622039795,-0.7557345628738403,0.9801713228225708,-0.4957926869392395,-0.07520325481891632,0.46104058623313904
9.068333864212036,0.2873506247997284,-0.7865638732910156,0.9863852262496948,-0.4824749827384949,-0.05779195576906204,0.45815861225128174
9.088420391082764,0.08529145270586014,-0.7416155338287354,0.9876550436019897,-0.4604700803756714,-0.160429447889328,0.45560207962989807
9.108485698699951,0.27138233184814453,-0.7942299842834473,0.9655807018280029,-0.474168062210083,-0.06166224181652069,0.4615514874458313
9.128633499145508,0.14809252321720123,-0.762378454208374,0.9997707605361938,-0.4501427412033081,-0.1308174580335617,0.4603009819984436
9.148686647415161,0.21332480013370514,-0.7659145593643188,0.9682638049125671,-0.47135525941848755,-0.09877396374940872,0.4591212868690491
9.168750524520874,0.34628716111183167,-0.8008085489273071,1.0083045959472656,-0.48577746748924255,-0.05130710080265999,0.45611050724983215
9.188830137252808,0.27228498458862305,-0.7956582307815552,1.0069599151611328,-0.48583754897117615,-0.07424712926149368,0.4615343511104584
9.208922147750854,0.31300267577171326,-0.7724466323852539,0.9934674501419067,-0.4952128827571869,-0.06709592044353485,0.4612342417240143
9.22900676727295,0.1365094631910324,-0.7598733901977539,0.9914015531539917,-0.4983164370059967,-0.12014755606651306,0.46635618805885315
9.2490553855896,0.17695105075836182,-0.7329660654067993,0.9849724173545837,-0.4941214323043823,-0.11331287026405334,0.4667082726955414
9.269170045852661,0.2228143960237503,-0.7637009620666504,0.9668461680412292,-0.4863872826099396,-0.08644042909145355,0.46549180150032043
9.289236307144165,0.27215054631233215,-0.8047512769699097,0.9920165538787842,-0.46889662742614746,-0.06234600767493248,0.46059781312942505
9.30934476852417,0.2035762518644333,-0.7635821104049683,0.9809338450431824,-0.47471916675567627,-0.10339419543743134,0.4643770456314087
9.329502820968628,0.3496246635913849,-0.7928171157836914,0.9682592749595642,-0.48329442739486694,-0.03572008013725281,0.45855090022087097
9.34952425956726,0.2985946834087372,-0.8220745325088501,1.027940273284912,-0.48793184757232666,-0.05578824505209923,0.45796623826026917
9.36960768699646,0.22732169926166534,-0.7671298980712891,0.9906443357467651,-0.5045844316482544,-0.10271984338760376,0.46083661913871765
9.389703512191772,0.19116787612438202,-0.7347339391708374,0.9956170320510864,-0.528191864490509,-0.11867180466651917,0.4628632962703705
9.409755945205688,0.3604176342487335,-0.7995414733886719,1.0079094171524048,-0.5068110823631287,-0.030495338141918182,0.46165308356285095
9.429860591888428,0.10177252441644669,-0.7679181098937988,1.0102508068084717,-0.4812313914299011,-0.13862915337085724,0.45977872610092163
9.449974060058594,0.18026675283908844,-0.7396872043609619,0.977556586265564,-0.47282007336616516,-0.11902841925621033,0.4607374966144562
9.470041275024414,0.24888072907924652,-0.7838081121444702,0.9502711296081543,-0.46734410524368286,-0.05993562936782837,0.4610203802585602
9.490126848220825,0.3435172140598297,-0.8220028877258301,0.9681804180145264,-0.46088045835494995,-0.013573918491601944,0.4552002251148224
9.510219812393188,0.23475860059261322,-0.7937920093536377,0.9910699129104614,-0.46310609579086304,-0.07955822348594666,0.45670557022094727
9.530277729034424,0.32118460536003113,-0.7715858221054077,0.9828686714172363,-0.5135884284973145,-0.058294959366321564,0.4601738750934601
9.550371170043945,0.36211010813713074,-0.7913944721221924,1.0390416383743286,-0.5002672672271729,-0.05224898084998131,0.4558269679546356
9.570514440536499,0.22760628163814545,-0.739937424659729,0.9876986742019653,-0.49998539686203003,-0.0731370821595192,0.467724084854126
9.590539693832397,0.28165897727012634,-0.7910629510879517,0.9809658527374268,-0.4833948314189911,-0.04906877502799034,0.45986899733543396
9.610630989074707,0.20129971206188202,-0.7675604820251465,1.001058578491211,-0.4604646861553192,-0.1065261960029602,0.4580213725566864
9.630707740783691,0.25850436091423035,-0.7499207258224487,0.9637810587882996,-0.4645397663116455,-0.08083096146583557,0.45548543334007263
9.650797605514526,0.20361976325511932,-0.765013575553894,1.0147876739501953,-0.4593011736869812,-0.1106635332107544,0.4575505256652832
9.670866012573242,0.16101515293121338,-0.773358941078186,0.9727650284767151,-0.4601377248764038,-0.11524882912635803,0.4571640193462372
9.690942287445068,0.4069482088088989,-0.8323640823364258,1.0077331066131592,-0.4836949408054352,-0.004675555974245071,0.45390865206718445
9.711007595062256,0.30680617690086365,-0.8009412288665771,0.9928874969482422,-0.4729759395122528,-0.04983815550804138,0.45624014735221863
9.731093168258667,0.257718563079834,-0.764035701751709,1.0323840379714966,-0.49412697553634644,-0.09716528654098511,0.4579649865627289
9.751174449920654,0.29470738768577576,-0.7507995367050171,0.959939181804657,-0.5015916228294373,-0.06589394807815552,0.4622577726840973
9.77157735824585,0.14151215553283691,-0.7686545848846436,1.0264873504638672,-0.4901127815246582,-0.1172398179769516,0.46112582087516785
9.791652917861938,0.016907213255763054,-0.7319748401641846,0.9824058413505554,-0.4786559045314789,-0.161047101020813,0.46134859323501587
9.811721324920654,0.12047544866800308,-0.7463221549987793,0.9673246145248413,-0.4652027189731598,-0.13676325976848602,0.46147027611732483
9.831850290298462,0.2977580726146698,-0.8162194490432739,0.9621493220329285,-0.46209126710891724,-0.033321887254714966,0.46000561118125916
9.851938724517822,0.20868566632270813,-0.7833993434906006,1.0332415103912354,-0.4693531095981598,-0.10371112823486328,0.4584323465824127
9.87210202217102,0.32138895988464355,-0.7969076633453369,0.8795167207717896,-0.48283880949020386,-0.013673432171344757,0.46328920125961304
9.89213514328003,0.33784425258636475,-0.8115402460098267,0.9913990497589111,-0.4971546232700348,-0.035722292959690094,0.4605671167373657
9.912206888198853,0.3555808365345001,-0.8013559579849243,0.9922887682914734,-0.5020281076431274,-0.021961741149425507,0.462488055229187
9.932291746139526,0.24130898714065552,-0.7701236009597778,1.0132408142089844,-0.5003144145011902,-0.07833251357078552,0.462247759103775
9.95236086845398,0.28077539801597595,-0.7532587051391602,0.9801424741744995,-0.49237698316574097,-0.0689166933298111,0.46331164240837097
9.9724440574646,0.34472355246543884,-0.8100197315216064,0.9584748148918152,-0.47397029399871826,-0.007858920842409134,0.4589437246322632
9.992519617080688,0.18630634248256683,-0.7451739311218262,0.9713749289512634,-0.45296093821525574,-0.10775439441204071,0.45257386565208435
10.012619018554688,0.3163517415523529,-0.8051618337631226,0.9657343626022339,-0.4668959975242615,-0.033939555287361145,0.4546957314014435
10.032703876495361,0.25939634442329407,-0.793746829032898,0.989263653755188,-0.47885262966156006,-0.057323988527059555,0.461285799741745
10.052832841873169,0.23401620984077454,-0.7551151514053345,0.9701731204986572,-0.47650110721588135,-0.08968451619148254,0.4606649577617645
10.072853803634644,0.31969377398490906,-0.7903447151184082,1.0063904523849487,-0.4828885793685913,-0.05651724711060524,0.45753273367881775
10.093164443969727,0.19267413020133972,-0.770575761795044,1.0139774084091187,-0.4821513891220093,-0.1128583699464798,0.4591000974178314
10.113256692886353,0.3983057737350464,-0.7793209552764893,0.9427356719970703,-0.48880550265312195,-0.005847308784723282,0.4563204348087311
10.133290767669678,0.3275126814842224,-0.7977942228317261,0.996730625629425,-0.4890707731246948,-0.03927414119243622,0.4600732922554016
10.153456926345825,0.10868934541940689,-0.7284673452377319,0.9659000039100647,-0.48613783717155457,-0.13787300884723663,0.46342894434928894
10.17354154586792,0.25433802604675293,-0.7432907819747925,0.9503558874130249,-0.4912237226963043,-0.07609736174345016,0.4648398160934448
10.193614482879639,0.23420830070972443,-0.7778147459030151,1.003859519958496,-0.4768768548965454,-0.08231119811534882,0.46330514550209045
10.213972806930542,0.21020862460136414,-0.7615246772766113,0.9705526828765869,-0.473116010427475,-0.1013193279504776,0.45836442708969116
10.234068870544434,0.4250198304653168,-0.8180373907089233,0.964766263961792,-0.4800912141799927,0.013315562158823013,0.4542970359325409
10.254171371459961,0.3725719153881073,-0.8235478401184082,0.9812058806419373,-0.476777046918869,0.0017041303217411041,0.46089455485343933
10.274224281311035,0.3424690067768097,-0.8064678907394409,1.0016028881072998,-0.49886736273765564,-0.020468968898057938,0.45908793807029724
10.29431414604187,0.3080177307128906,-0.7846025228500366,1.0120785236358643,-0.5034772157669067,-0.05296763405203819,0.45863643288612366
10.314413070678711,0.13805325329303741,-0.7523763179779053,0.9824857711791992,-0.5012011528015137,-0.10963056981563568,0.4620822072029114
10.334470987319946,0.25814518332481384,-0.7378662824630737,0.970548152923584,-0.48606163263320923,-0.07361564040184021,0.46088218688964844
10.354556798934937,0.2215179055929184,-0.7650418281555176,0.9761682748794556,-0.4762122631072998,-0.08395808935165405,0.45911499857902527
10.374631404876709,0.18391244113445282,-0.754612922668457,0.9697788953781128,-0.4542706608772278,-0.10495787858963013,0.4543508291244507
10.394694328308105,0.36035415530204773,-0.8240779638290405,0.9889726042747498,-0.46765226125717163,-0.01583987846970558,0.45270994305610657
10.414780139923096,0.3027516305446625,-0.8150471448898315,0.9970998764038086,-0.46210524439811707,-0.04509536921977997,0.45454713702201843
10.434849262237549,0.29166069626808167,-0.7793911695480347,0.9843604564666748,-0.4816495180130005,-0.05528818443417549,0.4592828154563904
10.454907894134521,0.2174188643693924,-0.7612751722335815,1.012393593788147,-0.505420982837677,-0.09802527725696564,0.45827919244766235
10.474976062774658,0.205485999584198,-0.735334038734436,1.0048948526382446,-0.5126988887786865,-0.10480165481567383,0.4622407853603363
10.495064496994019,0.2899051904678345,-0.7979849576950073,0.9736323356628418,-0.48127371072769165,-0.05470303073525429,0.4567275941371918
10.51511836051941,0.188781276345253,-0.7571734189987183,0.9789797067642212,-0.47128385305404663,-0.10950177907943726,0.4555357098579407
10.535262823104858,0.3358677625656128,-0.791159987449646,0.9614965319633484,-0.4726969599723816,-0.028010282665491104,0.4540395140647888
10.555367469787598,0.28659841418266296,-0.8073446750640869,0.9794470071792603,-0.47438108921051025,-0.04464080557227135,0.45709022879600525
10.575441122055054,0.2620139718055725,-0.7683449983596802,0.9802325963973999,-0.47569864988327026,-0.0751102864742279,0.456697553396225
10.595492601394653,0.30710384249687195,-0.7901343107223511,0.9814890623092651,-0.4880271852016449,-0.04343625530600548,0.4589621424674988
10.615587711334229,0.16892105340957642,-0.7602349519729614,0.9972162246704102,-0.49265629053115845,-0.1072782427072525,0.45924893021583557
10.635669231414795,0.34894344210624695,-0.7791786193847656,0.9862655401229858,-0.4952172636985779,-0.04041380435228348,0.45667487382888794
10.655728816986084,0.2274482399225235,-0.7753075361251831,0.9970146417617798,-0.47865772247314453,-0.08000963926315308,0.4575117230415344
10.675808668136597,0.22163715958595276,-0.7538319826126099,1.001952886581421,-0.4737872779369354,-0.10782675445079803,0.4534750282764435
10.6961088180542,0.25218674540519714,-0.7733029127120972,0.9445445537567139,-0.47354254126548767,-0.069708913564682,0.4567684531211853
10.715987205505371,0.29004785418510437,-0.7898156642913818,1.0138025283813477,-0.47589588165283203,-0.05815094709396362,0.45697715878486633
10.73610544204712,0.1748901754617691,-0.773662805557251,0.9943121671676636,-0.46770334243774414,-0.10455073416233063,0.4577103555202484
10.756180763244629,0.3528211712837219,-0.7712751626968384,0.9541677832603455,-0.4960324168205261,-0.03284095600247383,0.4550878703594208
10.776354312896729,0.30020686984062195,-0.8058038949966431,1.0105916261672974,-0.47882673144340515,-0.05358712375164032,0.4548066258430481
10.796510934829712,0.29885223507881165,-0.7844635248184204,1.0089813470840454,-0.4768511652946472,-0.06124448776245117,0.4543652832508087
10.816527843475342,0.13104628026485443,-0.7237298488616943,0.9822654724121094,-0.48611894249916077,-0.13576045632362366,0.45926007628440857
10.836619853973389,0.25081220269203186,-0.7667591571807861,0.9922842979431152,-0.48005005717277527,-0.08434385061264038,0.46102890372276306
10.856685161590576,0.05731625854969025,-0.754543662071228,0.9720773696899414,-0.4719897508621216,-0.1457163244485855,0.46096929907798767
10.87677788734436,0.15765129029750824,-0.7587007284164429,0.9566527605056763,-0.4665740728378296,-0.11383441090583801,0.45932719111442566
10.89684247970581,0.3603624403476715,-0.8327890634536743,0.9623550176620483,-0.46514999866485596,-0.0045480877161026,0.4558127224445343
10.917246341705322,0.26553261280059814,-0.7849445343017578,0.9432411193847656,-0.4682268500328064,-0.04306178539991379,0.4622347950935364
10.937311887741089,0.4202439785003662,-0.8182294368743896,0.9779671430587769,-0.48382654786109924,0.006982091814279556,0.4577835202217102
10.957387924194336,0.33088645339012146,-0.8121522665023804,1.0038762092590332,-0.47732704877853394,-0.032730963081121445,0.4568922519683838
10.97746205329895,0.2773772180080414,-0.7682474851608276,0.993147611618042,-0.5018954873085022,-0.06454351544380188,0.46129634976387024
10.997569799423218,0.24743308126926422,-0.7634718418121338,0.9406498670578003,-0.514739453792572,-0.07203495502471924,0.4636025130748749
11.01767635345459,0.2787838280200958,-0.7538862228393555,1.044224739074707,-0.4850355386734009,-0.09898564219474792,0.45647481083869934
11.037728309631348,0.03313668072223663,-0.7281707525253296,0.9270479679107666,-0.45127221941947937,-0.1553877890110016,0.4579680860042572
11.057806730270386,0.16569280624389648,-0.7139146327972412,0.9531362056732178,-0.46853938698768616,-0.12708696722984314,0.45719531178474426
11.077885150909424,0.21594464778900146,-0.7639873027801514,0.930438756942749,-0.4633452296257019,-0.08449059724807739,0.46390727162361145
11.097928285598755,0.307427316904068,-0.8070085048675537,1.0221723318099976,-0.46541541814804077,-0.05462959036231041,0.45878881216049194
11.118042230606079,0.14705166220664978,-0.7529597282409668,0.9639955759048462,-0.4792516827583313,-0.12928816676139832,0.4666321277618408
11.138174057006836,0.3358481228351593,-0.7620588541030884,0.9129531383514404,-0.5080797076225281,-0.042023204267024994,0.4690069556236267
11.158249378204346,0.3477448523044586,-0.7744965553283691,0.9971116185188293,-0.5200473070144653,-0.04109564051032066,0.47079142928123474
11.178584814071655,0.2492661327123642,-0.7566455602645874,1.0090131759643555,-0.5117347240447998,-0.08312240242958069,0.47102105617523193
11.19866681098938,0.1554652899503708,-0.721166729927063,1.0024274587631226,-0.47086650133132935,-0.14963306486606598,0.4564801752567291
11.218719244003296,0.19976209104061127,-0.7550581693649292,1.0020543336868286,-0.46400612592697144,-0.1277657002210617,0.4564105272293091
11.23892855644226,0.264460027217865,-0.8011022806167603,0.968563437461853,-0.46536117792129517,-0.07003621757030487,0.4596984386444092
11.259054899215698,0.2251448929309845,-0.793961763381958,0.9720134139060974,-0.464179664850235,-0.08295374363660812,0.46288594603538513
11.279104471206665,0.2620624601840973,-0.7835108041763306,0.9737739562988281,-0.4767541289329529,-0.07942172884941101,0.4617939591407776
11.299182415008545,0.311483234167099,-0.8017137050628662,0.9962948560714722,-0.5002967119216919,-0.0421249084174633,0.46562644839286804
11.319247007369995,0.239097461104393,-0.7866709232330322,1.0095455646514893,-0.49084991216659546,-0.08344018459320068,0.46325740218162537
11.339320659637451,0.3034811317920685,-0.7668254375457764,0.9775598049163818,-0.4976164400577545,-0.06922552734613419,0.46187904477119446
11.359410047531128,0.17313440144062042,-0.7605466842651367,1.0267572402954102,-0.49822044372558594,-0.12521934509277344,0.46414270997047424
11.37955927848816,0.10808908194303513,-0.7377558946609497,0.9942450523376465,-0.4894067645072937,-0.14475376904010773,0.4641425311565399
11.399586200714111,0.18370749056339264,-0.7550579309463501,0.9809952974319458,-0.4768536388874054,-0.1121319979429245,0.4668891131877899
11.41966462135315,0.32055047154426575,-0.8320642709732056,0.9644289612770081,-0.4685083031654358,-0.015174288302659988,0.46314921975135803
11.439934730529785,0.20689472556114197,-0.7621196508407593,0.9584815502166748,-0.4727504551410675,-0.09111820161342621,0.4656165540218353
11.460013389587402,0.2746184766292572,-0.7807302474975586,0.9539806246757507,-0.48466357588768005,-0.05616316571831703,0.46834176778793335
11.480104923248291,0.32004275918006897,-0.8235162496566772,1.0282740592956543,-0.484231561422348,-0.033331241458654404,0.46486181020736694
11.500166893005371,0.3291953206062317,-0.7848665714263916,0.990037202835083,-0.4991980791091919,-0.04304923489689827,0.4628583788871765
11.520256519317627,0.33841100335121155,-0.7922766208648682,1.0085408687591553,-0.5194833278656006,-0.048840414732694626,0.45956841111183167
11.540331363677979,0.19879643619060516,-0.7431033849716187,1.0005488395690918,-0.4998292922973633,-0.10629190504550934,0.46678149700164795
11.560384511947632,0.2221805900335312,-0.7830625772476196,0.9538702964782715,-0.47514617443084717,-0.07353760302066803,0.4630862772464752
11.58049750328064,0.15731322765350342,-0.7652448415756226,0.981509268283844,-0.4646761417388916,-0.1095624715089798,0.46096310019493103
11.600576639175415,0.3153981566429138,-0.8205287456512451,0.9402827620506287,-0.4728183150291443,-0.0099819116294384,0.45974037051200867
11.620645761489868,0.25885993242263794,-0.7843090295791626,0.9680370092391968,-0.4701119065284729,-0.056959956884384155,0.46218937635421753
11.640780448913574,0.31113195419311523,-0.8020918369293213,0.9866423606872559,-0.49089929461479187,-0.03620043024420738,0.4638533294200897
11.66086745262146,0.2768983840942383,-0.7880924940109253,0.9950048923492432,-0.48832881450653076,-0.057949621230363846,0.4626671075820923
11.680954933166504,0.2968076169490814,-0.7694686651229858,0.975040078163147,-0.5003788471221924,-0.044941991567611694,0.4665799140930176
11.701002836227417,0.2511345446109772,-0.762803316116333,1.0127980709075928,-0.49857378005981445,-0.08254273235797882,0.4655618965625763
11.721088647842407,0.09849623590707779,-0.7335926294326782,1.012620449066162,-0.5008989572525024,-0.14400522410869598,0.46515384316444397
11.74117398262024,0.14118421077728271,-0.7460612058639526,0.9864395260810852,-0.47345975041389465,-0.137799471616745,0.4620724022388458
11.761291265487671,0.21247154474258423,-0.7618682384490967,0.9521605372428894,-0.46940892934799194,-0.08838337659835815,0.46235355734825134
11.781367301940918,0.22501203417778015,-0.7841216325759888,0.9469781517982483,-0.46219468116760254,-0.0732124000787735,0.464678019285202
11.801424264907837,0.3022054135799408,-0.8007667064666748,0.9875088334083557,-0.4683373272418976,-0.0375870019197464,0.4673398733139038
11.82216191291809,0.18745917081832886,-0.7544753551483154,0.9973033666610718,-0.48713749647140503,-0.11380690336227417,0.4653789699077606
11.842252969741821,0.34834787249565125,-0.7899997234344482,0.9511860609054565,-0.5031170845031738,-0.027591947466135025,0.4603026807308197
11.862309455871582,0.35346588492393494,-0.8008871078491211,1.0346661806106567,-0.5064665079116821,-0.03708363696932793,0.4629698693752289
11.882364988327026,0.20593009889125824,-0.7655434608459473,1.0103241205215454,-0.509307324886322,-0.09857380390167236,0.4631218910217285
11.902474164962769,0.20852620899677277,-0.7324815988540649,1.019418478012085,-0.5107702016830444,-0.11718140542507172,0.46198469400405884
11.922562599182129,0.25068292021751404,-0.7793625593185425,0.991083025932312,-0.4725039303302765,-0.08624963462352753,0.45871782302856445
11.942618370056152,0.21062316000461578,-0.767508864402771,0.9785449504852295,-0.463534414768219,-0.09456022083759308,0.4588870108127594
11.962698936462402,0.1759117692708969,-0.7629588842391968,0.9701753854751587,-0.46466559171676636,-0.10744985938072205,0.4590577781200409
11.982755422592163,0.3770878314971924,-0.8174196481704712,0.9636539220809937,-0.4728063941001892,0.003394145518541336,0.4577057957649231
12.002837657928467,0.3151405155658722,-0.7977709770202637,0.9712485074996948,-0.4855673909187317,-0.02034856379032135,0.46356743574142456
12.022919416427612,0.3298617899417877,-0.7842541933059692,1.0130175352096558,-0.4922787547111511,-0.04829254001379013,0.46135708689689636
12.042994022369385,-1.2943352460861206,-1.0138057470321655,0.7340127825737,-0.8814013004302979,-0.26592719554901123,0.13401411473751068
12.063043117523193,-1.3195120096206665,-0.6881352663040161,0.6554943323135376,-0.8825902938842773,-0.11937014758586884,0.04103846102952957
12.08315896987915,-1.384340524673462,-0.665397047996521,0.6601260304450989,-0.8714532256126404,-0.14085066318511963,0.035650186240673065
12.103219509124756,-1.4225881099700928,-0.6386609077453613,0.6509943008422852,-0.8678537607192993,-0.14218567311763763,0.032779261469841
12.12331485748291,-1.390494704246521,-0.6581555008888245,0.6403697729110718,-0.8742141723632812,-0.12767790257930756,0.03780335187911987
12.143388032913208,-1.3898818492889404,-0.6578621864318848,0.6372472643852234,-0.8762376308441162,-0.12510284781455994,0.038516566157341
12.163490772247314,-1.380779504776001,-0.6592139005661011,0.6279938220977783,-0.8835647106170654,-0.12070643901824951,0.03672237694263458
12.183557033538818,-1.3475637435913086,-0.6711128950119019,0.6407477855682373,-0.8810617327690125,-0.11531060934066772,0.03754328191280365
12.203625440597534,-1.3380779027938843,-0.6733119487762451,0.6456851959228516,-0.8809374570846558,-0.11317199468612671,0.03781869262456894
12.223721742630005,-1.3491389751434326,-0.6713778972625732,0.644615888595581,-0.8779031038284302,-0.11767423152923584,0.03644923120737076
12.243786334991455,-1.3423829078674316,-0.6729319095611572,0.6397509574890137,-0.8788354992866516,-0.11300507187843323,0.035784244537353516
12.26387071609497,-1.3682641983032227,-0.6635663509368896,0.6400713324546814,-0.8785032033920288,-0.12047146260738373,0.03576740622520447
12.283992290496826,-1.3733909130096436,-0.6618978977203369,0.6379543542861938,-0.8790132403373718,-0.12166823446750641,0.03561457246541977
12.304054021835327,-1.3742194175720215,-0.6626492738723755,0.6441715359687805,-0.8727483749389648,-0.12448000907897949,0.03656972944736481
12.324349164962769,-1.3680901527404785,-0.6624940037727356,0.6495339870452881,-0.8735430240631104,-0.12365107238292694,0.03631264716386795
12.344537496566772,-1.3501238822937012,-0.6682178974151611,0.6464604139328003,-0.8772500157356262,-0.1171368658542633,0.035913750529289246
12.364543676376343,-1.3214433193206787,-0.6761068105697632,0.6527496576309204,-0.8766952753067017,-0.11060735583305359,0.035379558801651
12.384796142578125,-1.3335821628570557,-0.6745800971984863,0.6436885595321655,-0.8807064294815063,-0.10946276783943176,0.035370975732803345
12.404902935028076,-1.3279751539230347,-0.6759989857673645,0.6407637596130371,-0.8772501945495605,-0.10768739879131317,0.03524616360664368
12.425023794174194,-1.3443090915679932,-0.6727448105812073,0.6410949230194092,-0.8769028186798096,-0.1134338527917862,0.034020259976387024
12.445080995559692,-1.3655314445495605,-0.6648553609848022,0.6463973522186279,-0.8747661113739014,-0.12213632464408875,0.033460892736911774
12.465190410614014,-1.3559495210647583,-0.6660701036453247,0.6452959775924683,-0.8747838735580444,-0.11624521017074585,0.034886278212070465
12.485280752182007,-1.3551304340362549,-0.6678459644317627,0.6513915061950684,-0.8743254542350769,-0.11982317268848419,0.03437361121177673
12.505347967147827,-1.350451946258545,-0.6725687980651855,0.6491519212722778,-0.872064471244812,-0.1177632063627243,0.034685470163822174
12.525438785552979,-1.3435722589492798,-0.6718976497650146,0.6449835300445557,-0.8769855499267578,-0.11199183762073517,0.0349600613117218
12.545527458190918,-1.3413704633712769,-0.6717437505722046,0.644628643989563,-0.8777478933334351,-0.11178600788116455,0.03451322019100189
12.565542459487915,-1.3418340682983398,-0.6742759943008423,0.6454294323921204,-0.8772270679473877,-0.11360912024974823,0.03389354795217514
12.58585000038147,-1.3249900341033936,-0.6752150058746338,0.6434219479560852,-0.876245379447937,-0.10650874674320221,0.033598750829696655
12.605944156646729,-1.3501524925231934,-0.6736516952514648,0.6479296684265137,-0.873131275177002,-0.11834791302680969,0.0329110324382782
12.626044034957886,-1.350982427597046,-0.6707290410995483,0.6474291086196899,-0.8754346370697021,-0.1166875958442688,0.03319035470485687
12.64606761932373,-1.3264955282211304,-0.6751539707183838,0.6443619728088379,-0.8766188621520996,-0.10663603246212006,0.033640868961811066
12.66622519493103,-1.3296422958374023,-0.6773996353149414,0.6458806991577148,-0.8760746717453003,-0.1091703474521637,0.0332619845867157
12.686245441436768,-1.3077517747879028,-0.6813869476318359,0.6430470943450928,-0.8765290975570679,-0.10062366724014282,0.03260728716850281
12.706343173980713,-1.3205461502075195,-0.6778143644332886,0.6483362913131714,-0.8744475841522217,-0.10517425835132599,0.03313098102807999
12.726449489593506,-1.3144316673278809,-0.680119514465332,0.6566013693809509,-0.8732466101646423,-0.1084846556186676,0.03150836378335953
12.74654221534729,-1.343374490737915,-0.6737531423568726,0.6520090103149414,-0.8733903169631958,-0.11484731733798981,0.031540945172309875
12.766543865203857,-1.3176906108856201,-0.6770650148391724,0.6458340883255005,-0.8741604685783386,-0.1029982715845108,0.032056763768196106
12.786625623703003,-1.3320953845977783,-0.6772162914276123,0.6489511132240295,-0.8728361129760742,-0.11207230389118195,0.03047155775129795
12.806797504425049,-1.3269089460372925,-0.6776092052459717,0.6485400199890137,-0.8734801411628723,-0.10852225124835968,0.03094256855547428
12.826784610748291,-1.3203346729278564,-0.6797703504562378,0.6476032137870789,-0.87674880027771,-0.1032559871673584,0.03158889710903168
12.846874713897705,-1.3315844535827637,-0.677184522151947,0.6496866941452026,-0.8729579448699951,-0.11001265048980713,0.030849570408463478
12.866968154907227,-1.3255890607833862,-0.6751225590705872,0.6538734436035156,-0.8738837242126465,-0.10865305364131927,0.030203232541680336
12.887013912200928,-1.3160719871520996,-0.6794954538345337,0.6534297466278076,-0.8736124038696289,-0.10641595721244812,0.029554979875683784
12.907111167907715,-1.324399471282959,-0.6798361539840698,0.6521186232566833,-0.8744449615478516,-0.10882304608821869,0.02938866801559925
12.927180528640747,-1.3099710941314697,-0.6816343069076538,0.6485049724578857,-0.8722182512283325,-0.10156533122062683,0.029903287068009377
12.947271347045898,-1.3190044164657593,-0.6796852350234985,0.6493706703186035,-0.8760222792625427,-0.10461947321891785,0.02910705842077732
12.96735429763794,-1.3163107633590698,-0.6797460317611694,0.652222216129303,-0.8736062049865723,-0.10506443679332733,0.029157960787415504
12.987435817718506,-1.3022525310516357,-0.683579683303833,0.648073673248291,-0.8744773268699646,-0.09829764068126678,0.029257403686642647
13.007545232772827,-1.309449315071106,-0.6807317733764648,0.6546618938446045,-0.8746179938316345,-0.10424986481666565,0.02770308591425419
13.027617692947388,-1.3042500019073486,-0.683771014213562,0.6574221849441528,-0.8718793392181396,-0.10335631668567657,0.028237739577889442
13.047760486602783,-1.3028309345245361,-0.6832869648933411,0.6524027585983276,-0.8716951012611389,-0.10106590390205383,0.028036588802933693
13.067800283432007,-1.3082151412963867,-0.6826801300048828,0.6507079601287842,-0.8735035061836243,-0.10019142925739288,0.028327839449048042
13.087871074676514,-1.3161096572875977,-0.6814895272254944,0.6521965265274048,-0.8742399215698242,-0.1046699732542038,0.027341971173882484
13.107961416244507,-1.288541555404663,-0.6862391233444214,0.6487062573432922,-0.8721710443496704,-0.09278745949268341,0.02822672761976719
13.128057479858398,-1.2925478219985962,-0.6889005899429321,0.6507835388183594,-0.8711106777191162,-0.09625706821680069,0.027716318145394325
13.148131370544434,-1.3055170774459839,-0.6864670515060425,0.6554622650146484,-0.8718295693397522,-0.10227696597576141,0.02717251516878605
13.168193578720093,-1.311479091644287,-0.6817067861557007,0.6587380170822144,-0.8690999150276184,-0.10456287860870361,0.02714703418314457
13.188264608383179,-1.3017932176589966,-0.684870719909668,0.6577674150466919,-0.8694151639938354,-0.10066016018390656,0.027202920988202095
13.208401203155518,-1.2978068590164185,-0.6864814758300781,0.6547722816467285,-0.8696967363357544,-0.09805923700332642,0.02733047492802143
13.228484869003296,-1.289567470550537,-0.6870468854904175,0.651583194732666,-0.8715424537658691,-0.09467445313930511,0.026305856183171272
13.248563289642334,-1.30582857131958,-0.685252845287323,0.6541534662246704,-0.8720744848251343,-0.1002061665058136,0.026462839916348457
13.268927812576294,-1.2900488376617432,-0.687841534614563,0.652140736579895,-0.8712931871414185,-0.09331757575273514,0.026814350858330727
13.289015531539917,-1.2912094593048096,-0.6890646815299988,0.6530886292457581,-0.8703280687332153,-0.0951857715845108,0.026424283161759377
13.309107065200806,-1.28743577003479,-0.6902332305908203,0.6624025106430054,-0.8668273687362671,-0.0996055006980896,0.024782637134194374
13.329267024993896,-1.2888883352279663,-0.6926678419113159,0.6572884321212769,-0.8689269423484802,-0.096302330493927,0.025097379460930824
13.349396228790283,-1.2922135591506958,-0.6889803409576416,0.6552457809448242,-0.8685942888259888,-0.09548242390155792,0.025431135669350624
13.36949896812439,-1.2888269424438477,-0.6877520084381104,0.6544507741928101,-0.8709489107131958,-0.09371858835220337,0.02524886466562748
13.389654159545898,-1.2878977060317993,-0.6913435459136963,0.6558589935302734,-0.8682883977890015,-0.09545460343360901,0.024380499497056007
13.409754276275635,-1.2714951038360596,-0.692832350730896,0.6537482738494873,-0.866256594657898,-0.08620139956474304,0.025863440707325935
13.429826021194458,-1.2937705516815186,-0.6885827779769897,0.6569579839706421,-0.8687109351158142,-0.09485971927642822,0.02555597759783268
13.450190305709839,-1.2989238500595093,-0.6858004927635193,0.6604050397872925,-0.8681917190551758,-0.09800697863101959,0.02514985390007496
13.470267295837402,-1.2888438701629639,-0.6877819895744324,0.6615830659866333,-0.8679438233375549,-0.09510922431945801,0.02496141381561756
13.490363359451294,-1.2803165912628174,-0.6942827701568604,0.6589445471763611,-0.8694830536842346,-0.092776820063591,0.024387294426560402
13.510647535324097,-1.270460844039917,-0.694526195526123,0.6553577184677124,-0.8688086271286011,-0.08714938163757324,0.024191053584218025
13.530740022659302,-1.2823456525802612,-0.6935875415802002,0.6577654480934143,-0.8675742149353027,-0.09298785030841827,0.02343611605465412
13.55081558227539,-1.28061842918396,-0.6924749612808228,0.6576814651489258,-0.869543194770813,-0.0909915640950203,0.02350400574505329
13.570890426635742,-1.2632770538330078,-0.6950974464416504,0.6549860835075378,-0.8704883456230164,-0.08345837891101837,0.02354602701961994
13.590999364852905,-1.2736189365386963,-0.6941487789154053,0.6600990295410156,-0.8678961396217346,-0.08918784558773041,0.022913115099072456
13.611051321029663,-1.2753815650939941,-0.6962248086929321,0.6608715057373047,-0.8674817681312561,-0.09161636233329773,0.021612437441945076
13.631120681762695,-1.267549991607666,-0.6946103572845459,0.6653497219085693,-0.868119478225708,-0.08898375928401947,0.021495932713150978
13.651215553283691,-1.275444746017456,-0.6935230493545532,0.6578686237335205,-0.86844801902771,-0.08893652260303497,0.021233530715107918
13.671302080154419,-1.2769681215286255,-0.6965452432632446,0.6593430638313293,-0.8673880100250244,-0.09052316099405289,0.02150009013712406
13.691372632980347,-1.27299964427948,-0.6931129693984985,0.6586589813232422,-0.8685216903686523,-0.08786460757255554,0.02122594602406025
13.711445093154907,-1.2667489051818848,-0.6977416276931763,0.6589136719703674,-0.867257833480835,-0.08648248016834259,0.021264227107167244
13.731498718261719,-1.2640650272369385,-0.6984241008758545,0.6586970090866089,-0.8701946139335632,-0.08577625453472137,0.020040931180119514
13.751621961593628,-1.2668198347091675,-0.6974954605102539,0.6596423983573914,-0.8674683570861816,-0.08576607704162598,0.020813489332795143
13.771709203720093,-1.2702727317810059,-0.6953555345535278,0.6629130840301514,-0.8675997257232666,-0.08850301802158356,0.02030945010483265
13.791780710220337,-1.254457950592041,-0.6989792585372925,0.6609797477722168,-0.8676232099533081,-0.08290961384773254,0.019773269072175026
13.811853647232056,-1.2458300590515137,-0.7021043300628662,0.6606857776641846,-0.8671540021896362,-0.07979702949523926,0.019216926768422127
13.831955432891846,-1.2641098499298096,-0.7002578973770142,0.6616418361663818,-0.8648040294647217,-0.0871550440788269,0.01879214681684971
13.852058172225952,-1.2621842622756958,-0.6991078853607178,0.6614120602607727,-0.8672133684158325,-0.08531515300273895,0.018906505778431892
13.872103214263916,-1.2557287216186523,-0.7030616998672485,0.6612006425857544,-0.8670855164527893,-0.08198842406272888,0.01930762268602848
13.892208814620972,-1.2466477155685425,-0.7011418342590332,0.6596011519432068,-0.8689002394676208,-0.07801742851734161,0.018614644184708595
13.912277460098267,-1.2498159408569336,-0.705138087272644,0.6615175008773804,-0.8661296367645264,-0.08033868670463562,0.017717013135552406
13.932331800460815,-1.2557573318481445,-0.7027062177658081,0.6623547077178955,-0.8652076721191406,-0.08305516839027405,0.016841890290379524
13.952425718307495,-1.2511605024337769,-0.7003278732299805,0.6611925959587097,-0.8658130168914795,-0.07873551547527313,0.017450997605919838
13.972508192062378,-1.2513601779937744,-0.699628472328186,0.6611348986625671,-0.8671082258224487,-0.07969095557928085,0.01679997332394123
13.992577075958252,-1.2324868440628052,-0.704808235168457,0.6739835143089294,-0.8616896867752075,-0.08001595735549927,0.015733012929558754
14.012635469436646,-1.2345235347747803,-0.709070086479187,0.6663084030151367,-0.860336422920227,-0.07606552541255951,0.01698472537100315
14.03273057937622,-1.2456094026565552,-0.7014580965042114,0.6646634340286255,-0.8677412271499634,-0.07801482081413269,0.01584535278379917
14.05281138420105,-1.2432911396026611,-0.7021195888519287,0.6678494215011597,-0.8640357255935669,-0.0790337473154068,0.016331465914845467
14.072908163070679,-1.2345292568206787,-0.705825924873352,0.6617007255554199,-0.8667758703231812,-0.07413029670715332,0.015844160690903664
14.092994689941406,-1.2356693744659424,-0.7057498693466187,0.6626752614974976,-0.8657318949699402,-0.07576446235179901,0.015260891988873482
14.11306881904602,-1.2515316009521484,-0.7050625085830688,0.6660624742507935,-0.8646108508110046,-0.08279739320278168,0.014823706820607185
14.133187055587769,-1.2391057014465332,-0.7043060064315796,0.6636252403259277,-0.8642030954360962,-0.0757698267698288,0.01559017039835453
14.153278827667236,-1.2468643188476562,-0.7038897275924683,0.6648571491241455,-0.8660181760787964,-0.07859554886817932,0.015304485335946083
14.1734778881073,-1.2376042604446411,-0.7069021463394165,0.6641597151756287,-0.8667725920677185,-0.07668404281139374,0.014059627428650856
14.193456649780273,-1.2238062620162964,-0.7079776525497437,0.6626232862472534,-0.8653784990310669,-0.07076999545097351,0.014131912961602211
14.213547706604004,-1.2366055250167847,-0.7081986665725708,0.665184736251831,-0.8633896708488464,-0.07601119577884674,0.014345848932862282
14.233621597290039,-1.2412168979644775,-0.7056361436843872,0.6658405065536499,-0.8647556900978088,-0.07772385329008102,0.013907196000218391
14.253697395324707,-1.2273931503295898,-0.7090468406677246,0.6642615795135498,-0.8648865222930908,-0.07237724959850311,0.014014409855008125
14.27406620979309,-1.2305618524551392,-0.7080005407333374,0.6680063605308533,-0.8642447590827942,-0.07417929172515869,0.013857493177056313
14.294152975082397,-1.222768783569336,-0.707553505897522,0.6754553914070129,-0.8607215881347656,-0.07397708296775818,0.013503530994057655
14.3142249584198,-1.236628770828247,-0.7087903022766113,0.6677590012550354,-0.8616843223571777,-0.0758446455001831,0.013717355206608772
14.334367036819458,-1.2152444124221802,-0.7112139463424683,0.6643915176391602,-0.8651223182678223,-0.06728703528642654,0.012947523966431618
14.354465246200562,-1.2284876108169556,-0.710524320602417,0.6699662804603577,-0.8640094995498657,-0.07425554096698761,0.012597376480698586
14.374532461166382,-1.2221102714538574,-0.7102240324020386,0.6690468192100525,-0.861397922039032,-0.07013881206512451,0.01321251131594181
14.394591569900513,-1.2176119089126587,-0.712230920791626,0.6662981510162354,-0.8631148934364319,-0.06809024512767792,0.012574354186654091
14.414681673049927,-1.2206344604492188,-0.7111905813217163,0.667260468006134,-0.8632185459136963,-0.06956544518470764,0.012317383661866188
14.434760570526123,-1.217703104019165,-0.7140486240386963,0.6678602695465088,-0.8624118566513062,-0.06842146813869476,0.011977063491940498
14.454838275909424,-1.2193068265914917,-0.7134518623352051,0.6688007116317749,-0.8608879446983337,-0.06961838901042938,0.011358918622136116
14.474942207336426,-1.2098500728607178,-0.7131811380386353,0.6668777465820312,-0.8626278638839722,-0.06320980191230774,0.011836739256978035
14.495017290115356,-1.2148196697235107,-0.715813398361206,0.6691924333572388,-0.8600299954414368,-0.06985960900783539,0.009448805823922157
14.515082120895386,-1.207881212234497,-0.7144593000411987,0.6676837205886841,-0.8641377687454224,-0.06478255987167358,0.009495953097939491
14.53529405593872,-1.2145280838012695,-0.7131226062774658,0.6686110496520996,-0.8609094023704529,-0.06742042303085327,0.009485350921750069
