liuyurong129/humanoid-gym/humanoid/data/target_q_20250522-035003.csv
timestamp,joint_1,joint_2,joint_3,joint_4,joint_5,joint_6
5.078315734863281e-05,0.0,0.0,0.0,0.0,0.0,0.0
0.02013254165649414,0.0,0.0,0.0,0.0,0.0,0.0
0.04020428657531738,0.0,0.0,0.0,0.0,0.0,0.0
0.060283660888671875,0.0,0.0,0.0,0.0,0.0,0.0
0.08036446571350098,0.0,0.0,0.0,0.0,0.0,0.0
0.10055661201477051,0.7694573998451233,-0.496579110622406,0.3422093391418457,-0.48881983757019043,0.06828393042087555,-0.4188989996910095
0.12067866325378418,0.7706980109214783,-0.5104881525039673,0.3287453055381775,-0.4814252257347107,0.0766683965921402,-0.43002280592918396
0.1408686637878418,0.761918306350708,-0.531968891620636,0.29741278290748596,-0.46798786520957947,0.08929355442523956,-0.4496714174747467
0.1609814167022705,0.7583726048469543,-0.541001558303833,0.28550809621810913,-0.4624820649623871,0.09480352699756622,-0.4576444923877716
0.18102002143859863,0.7482587099075317,-0.5519510507583618,0.26983460783958435,-0.45227134227752686,0.09942547231912613,-0.4709491431713104
0.2011580467224121,0.7362562417984009,-0.5594102144241333,0.2565111815929413,-0.4450976252555847,0.10178891569375992,-0.48098286986351013
0.22125005722045898,0.7317190766334534,-0.5633196830749512,0.2502714693546295,-0.4410761594772339,0.10305184125900269,-0.4849264621734619
0.24135422706604004,0.7232022881507874,-0.5703808069229126,0.23646806180477142,-0.4345071315765381,0.10563220083713531,-0.49120020866394043
0.26143813133239746,0.7168389558792114,-0.5725664496421814,0.2283872365951538,-0.43142181634902954,0.10592208802700043,-0.49373096227645874
0.28153467178344727,0.7102024555206299,-0.5769210457801819,0.22189423441886902,-0.42695581912994385,0.1064402312040329,-0.4978298246860504
0.30165886878967285,0.7058577537536621,-0.5797745585441589,0.21981540322303772,-0.4242756962776184,0.1066507026553154,-0.5009198188781738
0.3217031955718994,0.7049383521080017,-0.5817608833312988,0.21897190809249878,-0.42223039269447327,0.10695649683475494,-0.5021749138832092
0.3417856693267822,0.6985151171684265,-0.5822967290878296,0.21846610307693481,-0.4223062992095947,0.10515343397855759,-0.5042385458946228
0.36195874214172363,0.6939562559127808,-0.5833725333213806,0.22009554505348206,-0.4230746924877167,0.10359396785497665,-0.5056419968605042
0.3820784091949463,0.6953551769256592,-0.5845679044723511,0.22379449009895325,-0.42199084162712097,0.10300666093826294,-0.5061936974525452
0.40214991569519043,0.6910182237625122,-0.58609539270401,0.2217453122138977,-0.41964566707611084,0.10153092443943024,-0.5069857835769653
0.4222226142883301,0.6872473359107971,-0.5857705473899841,0.22278694808483124,-0.4198381006717682,0.09959132224321365,-0.5073177218437195
0.44232845306396484,0.6844478249549866,-0.5865896940231323,0.2232670933008194,-0.4198770225048065,0.09775961935520172,-0.5076343417167664
0.4624006748199463,0.6833537220954895,-0.5877307057380676,0.2240302860736847,-0.42013370990753174,0.0964469164609909,-0.5077095627784729
0.48247551918029785,0.6815666556358337,-0.5883406400680542,0.22331774234771729,-0.4202062487602234,0.09577418863773346,-0.5076538324356079
0.5025954246520996,0.679319441318512,-0.5886694192886353,0.22663453221321106,-0.4212395250797272,0.09353380650281906,-0.5076025724411011
0.5226137638092041,0.6806935667991638,-0.590696394443512,0.22939833998680115,-0.4218590259552002,0.09318490326404572,-0.507320761680603
0.5427403450012207,0.6801133155822754,-0.5919584035873413,0.22887234389781952,-0.42109978199005127,0.09304431825876236,-0.5071749687194824
0.5630879402160645,0.6762375235557556,-0.5918264985084534,0.22979071736335754,-0.42196160554885864,0.09080437570810318,-0.5070453882217407
0.5832200050354004,0.67372065782547,-0.5913826823234558,0.23208819329738617,-0.42377519607543945,0.08910895884037018,-0.5069379210472107
0.6033685207366943,0.6728898286819458,-0.592949390411377,0.23235920071601868,-0.42449599504470825,0.08833861351013184,-0.5065069794654846
0.623549222946167,0.6729752421379089,-0.5938077569007874,0.2330702543258667,-0.4246693551540375,0.08795489370822906,-0.5063498616218567
0.6436059474945068,0.6689969301223755,-0.5936853289604187,0.23480510711669922,-0.4250195324420929,0.08527752757072449,-0.5061588287353516
0.6646935939788818,0.6653863787651062,-0.59388267993927,0.23777899146080017,-0.42535701394081116,0.08242948353290558,-0.5058223009109497
0.6848907470703125,0.6637758612632751,-0.5938982963562012,0.24009163677692413,-0.42634886503219604,0.08088717609643936,-0.5056257843971252
0.7049121856689453,0.662316083908081,-0.5951786637306213,0.2398194968700409,-0.42784082889556885,0.08011125028133392,-0.5050185918807983
0.7249953746795654,0.6577657461166382,-0.5945061445236206,0.2384585291147232,-0.4287669062614441,0.07844940572977066,-0.5047882795333862
0.7450757026672363,0.6551328301429749,-0.5947842001914978,0.23994937539100647,-0.429424524307251,0.0763610303401947,-0.5043005347251892
0.7651302814483643,0.6513462066650391,-0.5950981974601746,0.24263617396354675,-0.42997172474861145,0.0736200287938118,-0.5038553476333618
0.7852215766906738,0.6516597270965576,-0.5958307981491089,0.24376752972602844,-0.43058618903160095,0.07317870855331421,-0.5035519599914551
0.8054008483886719,0.6511945724487305,-0.5960147976875305,0.2475540041923523,-0.43239638209342957,0.071097731590271,-0.5031805038452148
0.8253893852233887,0.6486891508102417,-0.5965702533721924,0.251253604888916,-0.43455225229263306,0.06869001686573029,-0.5029423832893372
0.845484733581543,0.6484530568122864,-0.5969030857086182,0.25476735830307007,-0.43583327531814575,0.06740400940179825,-0.5028162002563477
0.8656260967254639,0.6459376215934753,-0.597344160079956,0.2589397728443146,-0.43798309564590454,0.06473453342914581,-0.5025070905685425
0.88568115234375,0.6428331136703491,-0.598056435585022,0.26193779706954956,-0.4386196434497833,0.06228579208254814,-0.502098798751831
0.9057748317718506,0.6402410268783569,-0.5983489751815796,0.2616032660007477,-0.43896859884262085,0.0612906850874424,-0.501859724521637
0.9258339405059814,0.6391366720199585,-0.5990368127822876,0.2672036588191986,-0.4412509799003601,0.05861848592758179,-0.501531720161438
0.9459514617919922,0.6381754875183105,-0.5989215970039368,0.27135512232780457,-0.44270485639572144,0.05667475610971451,-0.5014164447784424
0.966012716293335,0.6350303292274475,-0.5989826321601868,0.2767890989780426,-0.4445726275444031,0.05327862873673439,-0.5010358691215515
0.9863405227661133,0.6320667266845703,-0.5992579460144043,0.28162872791290283,-0.4460175335407257,0.0501440167427063,-0.5006114840507507
1.0064234733581543,0.6280130743980408,-0.600080668926239,0.2782686948776245,-0.4457838237285614,0.04962044954299927,-0.5002405643463135
1.0264744758605957,0.6241911053657532,-0.601353645324707,0.27874428033828735,-0.4461381435394287,0.047574836760759354,-0.4996626377105713
1.0465636253356934,0.6239467859268188,-0.6010459065437317,0.28408610820770264,-0.44779664278030396,0.04531630873680115,-0.49961912631988525
1.0666797161102295,0.6230165958404541,-0.603143036365509,0.2880793809890747,-0.4485541582107544,0.04374521225690842,-0.49905091524124146
1.0867185592651367,0.6137984395027161,-0.602712094783783,0.28219765424728394,-0.447584331035614,0.04206322878599167,-0.49870654940605164
1.1068265438079834,0.6081658601760864,-0.6032601594924927,0.2850038707256317,-0.4498481750488281,0.03886406868696213,-0.4981822669506073
1.1268551349639893,0.6032560467720032,-0.6029301881790161,0.28964927792549133,-0.45215627551078796,0.034944429993629456,-0.49769794940948486
1.1469829082489014,0.6064420938491821,-0.6035271883010864,0.2974604666233063,-0.4534006416797638,0.0331280454993248,-0.4975311756134033
1.167036533355713,0.6021566390991211,-0.6042068004608154,0.299685537815094,-0.4527720510959625,0.030207715928554535,-0.496901273727417
1.187143087387085,0.5988713502883911,-0.6046178340911865,0.3045300543308258,-0.4550665616989136,0.026769014075398445,-0.4964207410812378
1.2072575092315674,0.5938444137573242,-0.605940043926239,0.2994658350944519,-0.45523786544799805,0.027054114267230034,-0.49584412574768066
1.2273201942443848,0.5902217626571655,-0.6064469814300537,0.30381160974502563,-0.45748886466026306,0.02404848113656044,-0.4953888952732086
1.2474873065948486,0.5959159135818481,-0.6076521277427673,0.3157799243927002,-0.4583788514137268,0.02191256545484066,-0.4953937530517578
1.267648696899414,0.589986264705658,-0.6086708307266235,0.3168984651565552,-0.46044474840164185,0.01977892406284809,-0.4947907030582428
1.2876367568969727,0.5841256380081177,-0.6087925434112549,0.3205270767211914,-0.46326783299446106,0.016227658838033676,-0.4943278431892395
1.3077452182769775,0.577246904373169,-0.6101272106170654,0.3139458894729614,-0.46177852153778076,0.01649833470582962,-0.4936792850494385
1.3278818130493164,0.5749701261520386,-0.6109286546707153,0.31936782598495483,-0.46045154333114624,0.013427973724901676,-0.4932115375995636
1.347919225692749,0.5817227959632874,-0.6116901636123657,0.3306635320186615,-0.4635971486568451,0.011656531132757664,-0.4932645857334137
1.3680622577667236,0.57533860206604,-0.6117765307426453,0.33502137660980225,-0.46485286951065063,0.00807873159646988,-0.49298399686813354
1.3881464004516602,0.5699887275695801,-0.6120728254318237,0.33897796273231506,-0.46681201457977295,0.00480304891243577,-0.4927634000778198
1.4082543849945068,0.5595847368240356,-0.6117249727249146,0.3344917297363281,-0.4661523401737213,0.002940711099654436,-0.4924955666065216
1.4283814430236816,0.5540763139724731,-0.6110177636146545,0.3401077091693878,-0.4687516987323761,-0.0013144513359293342,-0.4924704432487488
1.4485063552856445,0.5498895645141602,-0.6118836402893066,0.34405243396759033,-0.4695991277694702,-0.003828612621873617,-0.492133766412735
1.4686062335968018,0.5532656908035278,-0.6117445826530457,0.3534303605556488,-0.4715135991573334,-0.006521209608763456,-0.4923286736011505
1.488745927810669,0.550979733467102,-0.6125171780586243,0.35922399163246155,-0.4743064045906067,-0.0093437060713768,-0.49195852875709534
1.5088179111480713,0.545211672782898,-0.613396942615509,0.35560092329978943,-0.47328925132751465,-0.0092510050162673,-0.4914845824241638
1.528890609741211,0.541341245174408,-0.6145669221878052,0.36100977659225464,-0.4733637273311615,-0.012178008444607258,-0.4912596046924591
1.5490155220031738,0.5352813601493835,-0.6148521304130554,0.36602872610092163,-0.47655075788497925,-0.01578240655362606,-0.49118146300315857
1.56911301612854,0.5406697988510132,-0.6140052080154419,0.3783566653728485,-0.4815196394920349,-0.01881260797381401,-0.4917019009590149
1.5891814231872559,0.5320205688476562,-0.6145641803741455,0.3823460340499878,-0.4832649528980255,-0.02281278930604458,-0.4915476143360138
1.609260082244873,0.5281410813331604,-0.6147688627243042,0.3914112150669098,-0.484916627407074,-0.027014564722776413,-0.491464763879776
1.6294200420379639,0.5195909738540649,-0.6162389516830444,0.3846709132194519,-0.4819268584251404,-0.02644316293299198,-0.4907959997653961
1.649498701095581,0.5147534608840942,-0.6166673898696899,0.3908524215221405,-0.4812748432159424,-0.02988242544233799,-0.49064475297927856
1.6697502136230469,0.5145055651664734,-0.618467390537262,0.3992212116718292,-0.4840572774410248,-0.031373944133520126,-0.4903835654258728
1.6898834705352783,0.5172001123428345,-0.6171478033065796,0.41207289695739746,-0.4897339940071106,-0.03574603796005249,-0.4908379018306732
1.709914207458496,0.513799250125885,-0.6197634935379028,0.417900025844574,-0.48982083797454834,-0.037232812494039536,-0.49039965867996216
1.730008602142334,0.5006511807441711,-0.6206562519073486,0.4106750190258026,-0.48731574416160583,-0.0378272719681263,-0.4899982213973999
1.7500762939453125,0.49413859844207764,-0.6201364994049072,0.4181351959705353,-0.4877811074256897,-0.04247234761714935,-0.49009865522384644
1.7701702117919922,0.4998667240142822,-0.6189831495285034,0.4328671097755432,-0.4924342632293701,-0.0466538742184639,-0.49070921540260315
1.7902896404266357,0.49117574095726013,-0.619002103805542,0.4411631226539612,-0.4949420690536499,-0.05148790031671524,-0.4908369481563568
1.8104102611541748,0.48830533027648926,-0.6200730800628662,0.4491173028945923,-0.49611127376556396,-0.05453746020793915,-0.4909745454788208
1.8304939270019531,0.47865307331085205,-0.6226669549942017,0.4413723945617676,-0.49339574575424194,-0.052845146507024765,-0.49032989144325256
1.8506104946136475,0.4775090217590332,-0.625318169593811,0.4487169682979584,-0.49472829699516296,-0.054010648280382156,-0.49022266268730164
1.870689868927002,0.47558388113975525,-0.6291407346725464,0.45196932554244995,-0.4949171543121338,-0.05345696955919266,-0.4898433983325958
1.8907923698425293,0.48118144273757935,-0.6266206502914429,0.4656725525856018,-0.5010693073272705,-0.058375418186187744,-0.49077242612838745
1.9108693599700928,0.48106762766838074,-0.6290868520736694,0.4682965874671936,-0.5016109347343445,-0.05702797323465347,-0.49075138568878174
1.9314351081848145,0.4747318625450134,-0.6306871175765991,0.47061964869499207,-0.4998834729194641,-0.05806294083595276,-0.4908902645111084
1.9515297412872314,0.4669357240200043,-0.6342752575874329,0.46652141213417053,-0.49641069769859314,-0.055179718881845474,-0.4903775155544281
1.9715864658355713,0.45848166942596436,-0.6338326930999756,0.47256672382354736,-0.49414438009262085,-0.05892227217555046,-0.49107974767684937
1.9916787147521973,0.463786780834198,-0.6316443681716919,0.4823319911956787,-0.49755555391311646,-0.06239979341626167,-0.4919746518135071
2.011780261993408,0.45847928524017334,-0.6330093145370483,0.4844810962677002,-0.49753254652023315,-0.06325175613164902,-0.49219977855682373
2.0320427417755127,0.4539277255535126,-0.6346815228462219,0.48556458950042725,-0.4969983398914337,-0.06329873949289322,-0.4922121465206146
2.0521717071533203,0.44237327575683594,-0.638143002986908,0.4782395362854004,-0.4927752912044525,-0.06098546087741852,-0.4915708899497986
2.072237491607666,0.4366581439971924,-0.6378030180931091,0.4821791648864746,-0.49185189604759216,-0.06291196495294571,-0.4921509027481079
2.0923380851745605,0.44145697355270386,-0.6368703246116638,0.48808425664901733,-0.4935874938964844,-0.0645497590303421,-0.4926995038986206
2.1125006675720215,0.4358925223350525,-0.6384823322296143,0.4879969358444214,-0.4909963309764862,-0.06461692601442337,-0.4927258789539337
2.132720708847046,0.4304021894931793,-0.6400139927864075,0.48962897062301636,-0.48750364780426025,-0.06504508852958679,-0.49281084537506104
2.1528127193450928,0.42512959241867065,-0.6428287625312805,0.48552465438842773,-0.4865964949131012,-0.0624312125146389,-0.49240007996559143
2.173008680343628,0.42104655504226685,-0.6442775130271912,0.48775798082351685,-0.48515385389328003,-0.06239509955048561,-0.4926431179046631
2.1930272579193115,0.42015352845191956,-0.6426717042922974,0.4918166995048523,-0.4872233271598816,-0.0650801882147789,-0.49341195821762085
2.2131032943725586,0.41607335209846497,-0.6444896459579468,0.4945870041847229,-0.4885613024234772,-0.0653594434261322,-0.49400758743286133
2.2332448959350586,0.4100554585456848,-0.6463819742202759,0.4927484095096588,-0.4868472218513489,-0.06473726034164429,-0.49412399530410767
2.2533276081085205,0.4045795202255249,-0.647855818271637,0.49190860986709595,-0.48626354336738586,-0.06439326703548431,-0.4941677749156952
2.2734596729278564,0.40180566906929016,-0.65031898021698,0.49024727940559387,-0.4851222634315491,-0.0629182904958725,-0.494232177734375
2.293475866317749,0.3979009985923767,-0.6509642004966736,0.49131402373313904,-0.48459941148757935,-0.06317398697137833,-0.4946211278438568
2.3135714530944824,0.3983457088470459,-0.6516597270965576,0.48986634612083435,-0.485010027885437,-0.06219775229692459,-0.4946993589401245
2.3336691856384277,0.39254796504974365,-0.6535741090774536,0.486390084028244,-0.48462289571762085,-0.060843247920274734,-0.4949072599411011
2.353764295578003,0.3887453079223633,-0.6561889052391052,0.48167118430137634,-0.48244988918304443,-0.058620307594537735,-0.49466341733932495
2.3739407062530518,0.3873176574707031,-0.6595401167869568,0.4752988815307617,-0.4816255569458008,-0.05549616739153862,-0.4945202171802521
2.394012689590454,0.38583192229270935,-0.6597260236740112,0.4739133417606354,-0.47966212034225464,-0.05555848777294159,-0.4949536919593811
2.4140610694885254,0.38701584935188293,-0.65859055519104,0.4766489267349243,-0.4803536534309387,-0.05728459730744362,-0.49563127756118774
2.4342119693756104,0.3869502544403076,-0.6584658622741699,0.4767788052558899,-0.48041588068008423,-0.058215342462062836,-0.49644458293914795
2.45424485206604,0.3838527798652649,-0.6611676812171936,0.472001314163208,-0.4804894030094147,-0.05617043748497963,-0.49635931849479675
2.474329948425293,0.3830055594444275,-0.6618779897689819,0.47501692175865173,-0.47915226221084595,-0.05760977789759636,-0.49716731905937195
2.4943974018096924,0.38046038150787354,-0.6618230938911438,0.4740211069583893,-0.47978508472442627,-0.059128597378730774,-0.4978075921535492
2.5144453048706055,0.38382992148399353,-0.6611309051513672,0.4756578803062439,-0.4811989665031433,-0.060201652348041534,-0.4983055293560028
2.534623861312866,0.3828171491622925,-0.6616928577423096,0.4733182191848755,-0.4827289879322052,-0.05999980866909027,-0.49878692626953125
2.554924249649048,0.3770407736301422,-0.6633903384208679,0.4695209860801697,-0.4815220832824707,-0.06033586710691452,-0.49920159578323364
2.5750200748443604,0.37408414483070374,-0.6637768745422363,0.4678760766983032,-0.4811559021472931,-0.06067502498626709,-0.4994792938232422
2.595116376876831,0.3696441650390625,-0.665486216545105,0.4633050560951233,-0.4801853895187378,-0.06039430946111679,-0.4998621344566345
2.6153807640075684,0.3642963767051697,-0.6654058694839478,0.4634650945663452,-0.48151108622550964,-0.06188428774476051,-0.5009276866912842
2.6354689598083496,0.3655538856983185,-0.6677188873291016,0.45876139402389526,-0.48196592926979065,-0.059240274131298065,-0.5009350776672363
2.6555399894714355,0.36213138699531555,-0.669572651386261,0.45575323700904846,-0.48191264271736145,-0.059292588382959366,-0.501682460308075
2.675628662109375,0.361716628074646,-0.6693771481513977,0.4592526853084564,-0.48268216848373413,-0.060707103461027145,-0.5024846196174622
2.695727825164795,0.3613062798976898,-0.6709080338478088,0.46003109216690063,-0.48203301429748535,-0.06102459132671356,-0.5034764409065247
2.7158026695251465,0.35988348722457886,-0.6716946363449097,0.4674181640148163,-0.48332926630973816,-0.06320764124393463,-0.5052005648612976
2.7358996868133545,0.35882091522216797,-0.6717825531959534,0.47021394968032837,-0.48275983333587646,-0.06466596573591232,-0.5059374570846558
2.7559549808502197,0.35815000534057617,-0.6734169721603394,0.47040316462516785,-0.4824146628379822,-0.06433401256799698,-0.5068080425262451
2.776120662689209,0.3561813533306122,-0.6733248829841614,0.47012561559677124,-0.4806918501853943,-0.06495437026023865,-0.5072782039642334
2.7962498664855957,0.3529805839061737,-0.6731269955635071,0.46881037950515747,-0.47745847702026367,-0.06585698574781418,-0.5080935955047607
2.8163001537323,0.3502631187438965,-0.6730594635009766,0.47069892287254333,-0.47923776507377625,-0.06765331327915192,-0.5093777179718018
2.836390733718872,0.3494185507297516,-0.6734893918037415,0.4694368839263916,-0.47852954268455505,-0.06772994995117188,-0.5097751617431641
2.8564553260803223,0.3493777811527252,-0.6742784976959229,0.4665505290031433,-0.4786016345024109,-0.06714332848787308,-0.5105201005935669
2.8765370845794678,0.34960615634918213,-0.6741214990615845,0.4695981740951538,-0.4775639772415161,-0.06822612881660461,-0.5112895369529724
2.896599292755127,0.35221320390701294,-0.676990270614624,0.46902817487716675,-0.48074743151664734,-0.06687373667955399,-0.5124191045761108
2.9166488647460938,0.35245412588119507,-0.6793721318244934,0.46492207050323486,-0.4812577962875366,-0.0652758777141571,-0.5131728649139404
2.9368104934692383,0.35296630859375,-0.6801483035087585,0.4641178250312805,-0.48209404945373535,-0.06477858871221542,-0.5136404037475586
2.956930637359619,0.352027952671051,-0.6809537410736084,0.4620247185230255,-0.48187190294265747,-0.06469818204641342,-0.5145941376686096
2.9781370162963867,0.35181567072868347,-0.6821576356887817,0.45898646116256714,-0.48149213194847107,-0.06432610750198364,-0.5153676867485046
2.9982752799987793,0.3481922149658203,-0.681903064250946,0.4581981301307678,-0.4799848794937134,-0.0655427947640419,-0.5159021019935608
3.018308401107788,0.3446095287799835,-0.6818209886550903,0.4577617645263672,-0.47802734375,-0.06657235324382782,-0.5170378088951111
3.038409471511841,0.3452945947647095,-0.6815197467803955,0.4608749449253082,-0.4774363338947296,-0.06799785792827606,-0.5179082751274109
3.058511972427368,0.3429107964038849,-0.6821150183677673,0.45977506041526794,-0.4808562397956848,-0.06925608962774277,-0.5193838477134705
3.078571081161499,0.3427010774612427,-0.6836473345756531,0.46057918667793274,-0.4809019863605499,-0.06916718184947968,-0.5207341313362122
3.0986578464508057,0.33961522579193115,-0.6850659847259521,0.4578823149204254,-0.48169997334480286,-0.06909264624118805,-0.5212235450744629
3.1187827587127686,0.3406320810317993,-0.6864674091339111,0.4564244747161865,-0.48470932245254517,-0.06871793419122696,-0.5223270654678345
3.13881516456604,0.3401870131492615,-0.6875976920127869,0.45740070939064026,-0.4868032932281494,-0.069163978099823,-0.5235890746116638
3.1588945388793945,0.34019288420677185,-0.6882637143135071,0.4588887393474579,-0.486539363861084,-0.0695316269993782,-0.5242252945899963
3.1789653301239014,0.34060701727867126,-0.6893643736839294,0.46027496457099915,-0.4855201542377472,-0.06941339373588562,-0.5253416895866394
3.1990325450897217,0.3412228226661682,-0.6917358636856079,0.45625537633895874,-0.4829466938972473,-0.06702212244272232,-0.5260066986083984
3.2191274166107178,0.34036722779273987,-0.6928337812423706,0.4578010141849518,-0.48129013180732727,-0.06700198352336884,-0.5266231894493103
3.2391951084136963,0.3404109477996826,-0.6946195960044861,0.45781591534614563,-0.4805300235748291,-0.06658667325973511,-0.5277268290519714
3.259464979171753,0.34238243103027344,-0.6956697702407837,0.45643988251686096,-0.48028790950775146,-0.06539203971624374,-0.5281969904899597
3.279498815536499,0.345193088054657,-0.6979130506515503,0.4575224816799164,-0.48091185092926025,-0.06485816091299057,-0.5294808745384216
3.29972767829895,0.3466442823410034,-0.698799729347229,0.4619603157043457,-0.4794890880584717,-0.06562614440917969,-0.531003475189209
3.3198461532592773,0.3453080356121063,-0.6985654234886169,0.463672399520874,-0.4789083003997803,-0.06656008213758469,-0.5318165421485901
3.339942693710327,0.34645548462867737,-0.6982446908950806,0.4705911874771118,-0.4787612855434418,-0.06950952112674713,-0.5335708260536194
3.3600268363952637,0.3432757556438446,-0.698216438293457,0.4705098569393158,-0.47940242290496826,-0.0706869587302208,-0.5342715978622437
3.3801021575927734,0.342996209859848,-0.6972344517707825,0.4774797558784485,-0.4778035879135132,-0.07400931417942047,-0.5360503792762756
3.400193214416504,0.3444935083389282,-0.6969122886657715,0.4808955192565918,-0.4801679849624634,-0.0755176991224289,-0.5376242995262146
3.42026948928833,0.34177663922309875,-0.6972922086715698,0.4806746244430542,-0.4803941547870636,-0.0761837363243103,-0.5382684469223022
3.4404544830322266,0.3407922089099884,-0.6986561417579651,0.479881227016449,-0.4816161096096039,-0.07571415603160858,-0.5393872857093811
3.4608850479125977,0.3392769992351532,-0.6998206377029419,0.48178771138191223,-0.48215198516845703,-0.07581920176744461,-0.5407562851905823
3.481170177459717,0.3405502438545227,-0.7015920281410217,0.479157954454422,-0.4831465184688568,-0.07373664528131485,-0.5411096811294556
3.5011043548583984,0.340642511844635,-0.7039350867271423,0.476073682308197,-0.48448216915130615,-0.07163447141647339,-0.5422312617301941
3.5212888717651367,0.33837878704071045,-0.7043392658233643,0.47725245356559753,-0.48632925748825073,-0.07161533087491989,-0.5431416034698486
3.5413191318511963,0.33486685156822205,-0.706584095954895,0.47242605686187744,-0.48702767491340637,-0.0694391131401062,-0.5444188714027405
3.561404228210449,0.33808454871177673,-0.7076379060745239,0.4725676476955414,-0.4887944757938385,-0.06802370399236679,-0.5461650490760803
3.581491231918335,0.3403397500514984,-0.7080588340759277,0.47369566559791565,-0.48752981424331665,-0.06723615527153015,-0.5469936728477478
3.601609706878662,0.3425957262516022,-0.708948016166687,0.4777461886405945,-0.485379695892334,-0.06631512939929962,-0.5490025281906128
3.6217336654663086,0.34339675307273865,-0.7084628939628601,0.4809967875480652,-0.4846595823764801,-0.06682317703962326,-0.550288736820221
3.641786813735962,0.3423663377761841,-0.7090314626693726,0.4858023524284363,-0.48659250140190125,-0.06718664616346359,-0.5529118180274963
3.661868095397949,0.3399805426597595,-0.7104785442352295,0.48611006140708923,-0.48879677057266235,-0.06649850308895111,-0.555132269859314
3.6820876598358154,0.3343006372451782,-0.7103329300880432,0.4864428639411926,-0.48833322525024414,-0.0675935447216034,-0.5562395453453064
3.7021663188934326,0.3337923586368561,-0.7109484076499939,0.48679453134536743,-0.48988428711891174,-0.06606179475784302,-0.5582938194274902
3.722193717956543,0.327933132648468,-0.7106031179428101,0.4832645356655121,-0.488739550113678,-0.06586412340402603,-0.5591229200363159
3.742347002029419,0.3239317834377289,-0.7122998833656311,0.4776093065738678,-0.48477011919021606,-0.06259578466415405,-0.5606023073196411
3.7624399662017822,0.32531535625457764,-0.7148684859275818,0.4695742726325989,-0.48272600769996643,-0.05696006491780281,-0.5618060827255249
3.78256893157959,0.32569751143455505,-0.715663731098175,0.4661852717399597,-0.48106467723846436,-0.05490073561668396,-0.5626037120819092
3.8026504516601562,0.3298710584640503,-0.7157894968986511,0.4700241982936859,-0.479989618062973,-0.053183577954769135,-0.5654407143592834
3.823014497756958,0.33271872997283936,-0.7160521149635315,0.47031259536743164,-0.4808363914489746,-0.051844656467437744,-0.566776692867279
3.843167543411255,0.338464617729187,-0.7158690690994263,0.47344958782196045,-0.48132121562957764,-0.0498589463531971,-0.5696654319763184
3.863191604614258,0.3433740437030792,-0.714674711227417,0.47923019528388977,-0.4811232388019562,-0.04938335344195366,-0.5729402899742126
3.8832826614379883,0.3422979414463043,-0.7133336067199707,0.4798932671546936,-0.4826046824455261,-0.05010366812348366,-0.5747219324111938
3.9033961296081543,0.3365597128868103,-0.7114351391792297,0.48091334104537964,-0.4804244637489319,-0.05101631209254265,-0.5780687928199768
3.923464298248291,0.3343292772769928,-0.7106403112411499,0.4786418080329895,-0.47872695326805115,-0.050268396735191345,-0.5794874429702759
3.9436495304107666,0.32551801204681396,-0.7079600095748901,0.47660142183303833,-0.4776798188686371,-0.051455654203891754,-0.582961916923523
3.9637832641601562,0.32094547152519226,-0.7079752087593079,0.46936118602752686,-0.47741883993148804,-0.049129292368888855,-0.5859793424606323
3.983872175216675,0.3187454342842102,-0.7074939608573914,0.4678264260292053,-0.4746055603027344,-0.0487649142742157,-0.5876809358596802
4.003981351852417,0.32219576835632324,-0.7068008184432983,0.4655289649963379,-0.4721516966819763,-0.046107128262519836,-0.5911297798156738
4.0241172313690186,0.3304156959056854,-0.7071406245231628,0.46637219190597534,-0.4749727249145508,-0.04315434396266937,-0.5952569246292114
4.044206857681274,0.33480769395828247,-0.7068349123001099,0.4680839776992798,-0.4774547219276428,-0.04203192517161369,-0.5975420475006104
4.064294099807739,0.3400720953941345,-0.7077214121818542,0.46897467970848083,-0.47907671332359314,-0.038901589810848236,-0.6019526720046997
4.084368944168091,0.3420524001121521,-0.7069576382637024,0.47083306312561035,-0.4814330041408539,-0.038500379770994186,-0.6044633388519287
4.104501485824585,0.3359770178794861,-0.7060830593109131,0.4687754511833191,-0.48386889696121216,-0.03806843236088753,-0.6091392040252686
4.124504566192627,0.3316059708595276,-0.7052960395812988,0.4682128429412842,-0.4875912666320801,-0.0386265330016613,-0.613839864730835
4.144613981246948,0.33128735423088074,-0.7054457664489746,0.4675544798374176,-0.48615211248397827,-0.03827356547117233,-0.6158877611160278
4.164678573608398,0.3280908763408661,-0.705092191696167,0.46676361560821533,-0.4868987798690796,-0.038428597152233124,-0.620112955570221
4.184842109680176,0.32939156889915466,-0.7051886916160583,0.4672752022743225,-0.48905715346336365,-0.03796808794140816,-0.62225341796875
4.204922676086426,0.33647963404655457,-0.7059723138809204,0.4694593846797943,-0.4976876974105835,-0.03620684891939163,-0.6266557574272156
4.225031852722168,0.3381900489330292,-0.7075275778770447,0.46906423568725586,-0.5025368332862854,-0.034817200154066086,-0.6306362748146057
4.2451252937316895,0.33854568004608154,-0.7083216905593872,0.4690152704715729,-0.5047775506973267,-0.03421811759471893,-0.6324916481971741
4.265194416046143,0.33562710881233215,-0.7088293433189392,0.468344509601593,-0.5084127187728882,-0.0340658538043499,-0.6359546184539795
4.285268306732178,0.33274906873703003,-0.7081296443939209,0.46898096799850464,-0.5097206830978394,-0.035257890820503235,-0.6377628445625305
4.305351495742798,0.32493868470191956,-0.7063947319984436,0.4695316553115845,-0.5092172026634216,-0.038290537893772125,-0.6410397887229919
4.325836896896362,0.3244299292564392,-0.7061687111854553,0.4719601571559906,-0.5109554529190063,-0.039999231696128845,-0.6441591382026672
4.345931053161621,0.3258364498615265,-0.7065312266349792,0.47177061438560486,-0.5130660533905029,-0.03957732394337654,-0.6454869508743286
4.366055965423584,0.32842960953712463,-0.7082792520523071,0.4708373248577118,-0.5155640840530396,-0.03779469057917595,-0.6478843688964844
4.386214017868042,0.3351692855358124,-0.7105401754379272,0.46691614389419556,-0.5203943252563477,-0.03259732574224472,-0.6497025489807129
4.406334638595581,0.3357965052127838,-0.7119203209877014,0.4659607708454132,-0.5227047801017761,-0.03142734244465828,-0.650762677192688
4.426425218582153,0.3367528021335602,-0.7126872539520264,0.4679359793663025,-0.5267130732536316,-0.03105344995856285,-0.6531436443328857
4.446476221084595,0.33625805377960205,-0.7127604484558105,0.46971219778060913,-0.5277483463287354,-0.03163931146264076,-0.6543159484863281
4.466563940048218,0.33710771799087524,-0.7116130590438843,0.4743441343307495,-0.5280649662017822,-0.03397725149989128,-0.656603217124939
4.4866766929626465,0.3355364203453064,-0.7106859087944031,0.4760628640651703,-0.5264334678649902,-0.035240136086940765,-0.658494234085083
4.506829500198364,0.33515995740890503,-0.7110089659690857,0.47630757093429565,-0.5272358655929565,-0.03506411239504814,-0.6593728065490723
4.526897192001343,0.33435875177383423,-0.7139869928359985,0.47234591841697693,-0.5285234451293945,-0.03259934112429619,-0.660646378993988
4.546936511993408,0.3359423875808716,-0.7170168161392212,0.4706730246543884,-0.5323866605758667,-0.030452705919742584,-0.6619153022766113
4.56710147857666,0.33743563294410706,-0.7177531123161316,0.4706363081932068,-0.5352962613105774,-0.02956889383494854,-0.6625478863716125
4.587233781814575,0.3402585983276367,-0.7164607048034668,0.47457367181777954,-0.5373716354370117,-0.0311296209692955,-0.664115309715271
4.6073081493377686,0.34024497866630554,-0.7144747972488403,0.47880589962005615,-0.539474368095398,-0.03418108448386192,-0.6658574938774109
4.627423048019409,0.3367116153240204,-0.7126976251602173,0.48167479038238525,-0.5406569242477417,-0.03778628259897232,-0.666863739490509
4.647475242614746,0.33314043283462524,-0.711807131767273,0.4806860089302063,-0.538476824760437,-0.03867598623037338,-0.6677486896514893
4.667532205581665,0.33174294233322144,-0.713286280632019,0.47852569818496704,-0.5384965538978577,-0.03728042170405388,-0.6679973006248474
4.687617778778076,0.33002761006355286,-0.7176135778427124,0.4725143015384674,-0.5402703285217285,-0.033510152250528336,-0.6684368252754211
4.707756519317627,0.3338775634765625,-0.7198584079742432,0.4693560004234314,-0.5440173149108887,-0.029759658500552177,-0.669062077999115
4.7277913093566895,0.3367103934288025,-0.7204516530036926,0.4708877503871918,-0.5463122129440308,-0.029031112790107727,-0.6696602702140808
4.747866630554199,0.3381010890007019,-0.7192625403404236,0.47597700357437134,-0.5465743541717529,-0.030788589268922806,-0.6708694100379944
4.7679572105407715,0.33866411447525024,-0.7183150053024292,0.48159536719322205,-0.5478910207748413,-0.032890982925891876,-0.6721760630607605
4.788062572479248,0.3369326889514923,-0.7184880971908569,0.48280712962150574,-0.547107458114624,-0.03370555490255356,-0.6725139617919922
4.808117866516113,0.33302736282348633,-0.7196559309959412,0.48233893513679504,-0.5454842448234558,-0.03404863551259041,-0.6727451086044312
4.828304052352905,0.3313175439834595,-0.7207208275794983,0.4800402522087097,-0.5449293255805969,-0.03330923616886139,-0.672603964805603
4.848418474197388,0.3315334916114807,-0.7215743660926819,0.47757571935653687,-0.547497570514679,-0.0322558619081974,-0.6727715730667114
4.868462324142456,0.33384057879447937,-0.7224409580230713,0.47663623094558716,-0.5491013526916504,-0.031442105770111084,-0.6730024814605713
4.888620376586914,0.3356960713863373,-0.7228215336799622,0.47751492261886597,-0.5514875650405884,-0.031156085431575775,-0.6732929348945618
4.90865683555603,0.3383828401565552,-0.7231677174568176,0.48021697998046875,-0.5551466941833496,-0.031039495021104813,-0.6739239692687988
4.928731679916382,0.3390781283378601,-0.7236091494560242,0.4822194576263428,-0.5565330386161804,-0.031152401119470596,-0.6744676828384399
4.948797225952148,0.3395152688026428,-0.7236260175704956,0.4833304286003113,-0.5571161508560181,-0.031683191657066345,-0.6747405529022217
4.96889328956604,0.33730533719062805,-0.723727822303772,0.4843108654022217,-0.5548235177993774,-0.03271108865737915,-0.6749053001403809
4.9889795780181885,0.33611443638801575,-0.7238547205924988,0.48457878828048706,-0.5543409585952759,-0.03326776623725891,-0.6749593615531921
5.00918173789978,0.3353484272956848,-0.7234461307525635,0.48587942123413086,-0.551734983921051,-0.03461731970310211,-0.6749352216720581
5.029321193695068,0.33693909645080566,-0.7246572971343994,0.4859793782234192,-0.5538235902786255,-0.03356938064098358,-0.6747651696205139
5.0494043827056885,0.337174654006958,-0.7254289984703064,0.48537173867225647,-0.5542452931404114,-0.03282850235700607,-0.6745855212211609
5.06947922706604,0.3377554714679718,-0.7265151143074036,0.48263582587242126,-0.554877519607544,-0.03062751144170761,-0.6741043329238892
5.089567184448242,0.336806058883667,-0.7272493243217468,0.4804220497608185,-0.5548781752586365,-0.02916399948298931,-0.6739721298217773
5.109704256057739,0.3370789587497711,-0.7271244525909424,0.4805172085762024,-0.5545852184295654,-0.02880087122321129,-0.6740310788154602
5.129802465438843,0.3358495831489563,-0.7271786332130432,0.48065775632858276,-0.5541927814483643,-0.02891540341079235,-0.6742542386054993
5.149942636489868,0.3372299373149872,-0.7271162271499634,0.48458075523376465,-0.5582698583602905,-0.030527770519256592,-0.6750884652137756
5.170109510421753,0.3375624418258667,-0.7272721529006958,0.48633015155792236,-0.5598334074020386,-0.031120875850319862,-0.6754245162010193
5.190195322036743,0.33733123540878296,-0.7272466421127319,0.49052655696868896,-0.561750054359436,-0.03263692185282707,-0.6760417819023132
5.210235595703125,0.33472466468811035,-0.7283558249473572,0.4902811646461487,-0.562423586845398,-0.0328652486205101,-0.6761482357978821
5.230461597442627,0.33455485105514526,-0.7288128733634949,0.49005812406539917,-0.5630637407302856,-0.03272727131843567,-0.6761950254440308
5.25044584274292,0.33108285069465637,-0.7313175201416016,0.48306959867477417,-0.5627838969230652,-0.030547376722097397,-0.6756319999694824
5.270590543746948,0.33165591955184937,-0.7320950031280518,0.4814625382423401,-0.5638197660446167,-0.029585309326648712,-0.6755551099777222
5.290647506713867,0.3355303406715393,-0.7311550974845886,0.483716756105423,-0.565711259841919,-0.029943015426397324,-0.6759296655654907
5.310714960098267,0.33743783831596375,-0.7302368879318237,0.48679378628730774,-0.5652692914009094,-0.030794326215982437,-0.6761816143989563
5.330798625946045,0.3373568654060364,-0.7291076183319092,0.4896973669528961,-0.5637369751930237,-0.0323314443230629,-0.6763758659362793
5.35085654258728,0.3368452191352844,-0.7280268669128418,0.4936524033546448,-0.5626019239425659,-0.03461185842752457,-0.6766509413719177
5.371237754821777,0.336188405752182,-0.7291978597640991,0.4917524456977844,-0.5628126859664917,-0.034002792090177536,-0.6763681769371033
5.3913257122039795,0.33582600951194763,-0.7311036586761475,0.4875118136405945,-0.5632873177528381,-0.0319179892539978,-0.6759060621261597
5.411489963531494,0.3353441655635834,-0.7333788275718689,0.4828098714351654,-0.5643479228019714,-0.029357481747865677,-0.6753821969032288
5.431520938873291,0.3366833031177521,-0.7338239550590515,0.483437716960907,-0.5655981302261353,-0.028647461906075478,-0.675402045249939
5.4515910148620605,0.336617112159729,-0.7333289384841919,0.48699790239334106,-0.5662358999252319,-0.02958022430539131,-0.675691545009613
5.471767902374268,0.33893799781799316,-0.7305361032485962,0.4942670464515686,-0.566253125667572,-0.032934319227933884,-0.6763725876808167
5.49187159538269,0.33933398127555847,-0.7304007411003113,0.495010644197464,-0.5655452609062195,-0.033113572746515274,-0.6763249635696411
5.512075185775757,0.3349672555923462,-0.7311105132102966,0.49307548999786377,-0.5624037384986877,-0.03301510214805603,-0.6758534908294678
5.532261610031128,0.3326898217201233,-0.7338237762451172,0.4862631857395172,-0.5630995035171509,-0.029975922778248787,-0.6750665307044983
5.552346229553223,0.33255448937416077,-0.7357925772666931,0.4819667339324951,-0.5648794770240784,-0.0276515930891037,-0.6746493577957153
5.572479009628296,0.3324395418167114,-0.7378991842269897,0.47824782133102417,-0.567040205001831,-0.02485770918428898,-0.6742258667945862
5.592672109603882,0.33428189158439636,-0.7365550994873047,0.4808019995689392,-0.567964494228363,-0.02554948627948761,-0.6744876503944397
5.612869024276733,0.3370509445667267,-0.7351468801498413,0.48506489396095276,-0.5692235827445984,-0.026675695553421974,-0.6749156713485718
5.633448362350464,0.33790576457977295,-0.732940673828125,0.49032163619995117,-0.568702757358551,-0.029284652322530746,-0.6754088401794434
5.653498411178589,0.33678773045539856,-0.7321979403495789,0.4924972951412201,-0.5677299499511719,-0.030819999054074287,-0.6755847930908203
5.673647880554199,0.33670222759246826,-0.7313311696052551,0.49482202529907227,-0.5675073862075806,-0.03242741897702217,-0.6757850646972656
5.693732738494873,0.33511024713516235,-0.7313137054443359,0.4953395128250122,-0.5667504668235779,-0.03305144980549812,-0.6757689714431763
5.713796615600586,0.3322403132915497,-0.7316166162490845,0.49520954489707947,-0.5664023756980896,-0.03381909802556038,-0.6756922602653503
5.734025478363037,0.33154940605163574,-0.7319433689117432,0.49458253383636475,-0.5660259127616882,-0.03370656445622444,-0.6754820346832275
5.754114151000977,0.3318975567817688,-0.7325172424316406,0.4931304454803467,-0.5659072399139404,-0.03290070965886116,-0.6752334237098694
5.774211168289185,0.3333900272846222,-0.7335695624351501,0.49095362424850464,-0.5666975975036621,-0.031241400167346,-0.6748620867729187
5.794268846511841,0.3357376158237457,-0.73471999168396,0.48894456028938293,-0.568395733833313,-0.029170624911785126,-0.6745732426643372
5.81437873840332,0.3365940749645233,-0.7349361181259155,0.4889257550239563,-0.5689616203308105,-0.02867824397981167,-0.6745418310165405
5.834439754486084,0.3361492156982422,-0.7343200445175171,0.4909047484397888,-0.5681346654891968,-0.02970101684331894,-0.6746580600738525
5.85452675819397,0.3327275514602661,-0.7334820032119751,0.49284443259239197,-0.5659409761428833,-0.03188733384013176,-0.6748113632202148
5.874683380126953,0.3324202299118042,-0.7332184314727783,0.493484228849411,-0.5658688545227051,-0.032465361058712006,-0.6748655438423157
5.89469313621521,0.3329916000366211,-0.7335084676742554,0.4937593340873718,-0.5669341683387756,-0.03243805095553398,-0.6748874187469482
5.914806365966797,0.3326529264450073,-0.7338694334030151,0.49303749203681946,-0.5669312477111816,-0.03221933916211128,-0.6748046875
5.934848070144653,0.3337632715702057,-0.7342634201049805,0.4916612505912781,-0.5676103830337524,-0.03115454502403736,-0.6746275424957275
5.955196142196655,0.3331163227558136,-0.7344459295272827,0.4904147684574127,-0.5673419237136841,-0.03095288947224617,-0.6745038032531738
5.975305795669556,0.33369943499565125,-0.7345890402793884,0.49060672521591187,-0.5678415894508362,-0.0307663232088089,-0.6745072603225708
5.995382308959961,0.33393338322639465,-0.7348273396492004,0.4909186363220215,-0.5685287117958069,-0.030756346881389618,-0.6745452284812927
6.0157835483551025,0.3339215815067291,-0.7346804141998291,0.4918680489063263,-0.5688349008560181,-0.03129930794239044,-0.6746395230293274
6.0358967781066895,0.33445754647254944,-0.7341407537460327,0.4921739101409912,-0.5684551000595093,-0.03163237124681473,-0.6746661067008972
6.05609917640686,0.3340369164943695,-0.7341694831848145,0.49250465631484985,-0.5679000020027161,-0.03187822178006172,-0.6745978593826294
6.076180696487427,0.33371102809906006,-0.7342540621757507,0.4928281605243683,-0.5678267478942871,-0.032047465443611145,-0.6746076345443726
6.096255779266357,0.33373093605041504,-0.7349757552146912,0.4912866950035095,-0.5683832168579102,-0.031208740547299385,-0.6744359135627747
6.116374254226685,0.3337234556674957,-0.735353410243988,0.49069178104400635,-0.5685727596282959,-0.030836043879389763,-0.6743578314781189
6.136531829833984,0.33469143509864807,-0.7353641986846924,0.49091899394989014,-0.5691243410110474,-0.030473576858639717,-0.6743172407150269
6.156562566757202,0.33443406224250793,-0.7351066470146179,0.4918079376220703,-0.5692082047462463,-0.03087329864501953,-0.6743209362030029
6.1766510009765625,0.334041953086853,-0.7350065112113953,0.4920697808265686,-0.5686554312705994,-0.0311273206025362,-0.6742957830429077
6.196730613708496,0.3336107134819031,-0.734739363193512,0.49251967668533325,-0.5680362582206726,-0.0315234400331974,-0.6742632389068604
6.216820478439331,0.3340427279472351,-0.7350432872772217,0.4919876754283905,-0.568417489528656,-0.031081605702638626,-0.6741883754730225
6.236912965774536,0.3347775340080261,-0.7356101274490356,0.49125564098358154,-0.5694137811660767,-0.03036777302622795,-0.6740584373474121
6.256948471069336,0.3343043625354767,-0.7352921366691589,0.4916984438896179,-0.5684952735900879,-0.030765976756811142,-0.6740007400512695
6.2770819664001465,0.3340669572353363,-0.73512864112854,0.49201202392578125,-0.5683690905570984,-0.031014952808618546,-0.6739943027496338
6.297198295593262,0.33396849036216736,-0.7349610328674316,0.4924462139606476,-0.5685991644859314,-0.03127649053931236,-0.6739896535873413
6.317208528518677,0.3340253531932831,-0.735127866268158,0.49180489778518677,-0.568809986114502,-0.031025433912873268,-0.6738828420639038
6.337317228317261,0.33311575651168823,-0.7354693412780762,0.49044209718704224,-0.5681045055389404,-0.030780155211687088,-0.6737063527107239
6.357380151748657,0.33420127630233765,-0.7356154918670654,0.49027395248413086,-0.5688704252243042,-0.030281856656074524,-0.673643171787262
6.37746000289917,0.33474189043045044,-0.7356090545654297,0.4903877377510071,-0.5691859722137451,-0.030124545097351074,-0.6736080050468445
6.397689342498779,0.3349325656890869,-0.7352557182312012,0.49118781089782715,-0.5692486763000488,-0.03055654466152191,-0.673628568649292
6.417656183242798,0.3344351649284363,-0.7348091006278992,0.4924364686012268,-0.5688784122467041,-0.031488750129938126,-0.6736977696418762
6.437772750854492,0.33421435952186584,-0.7346571087837219,0.49256056547164917,-0.5683307647705078,-0.03162233158946037,-0.6736507415771484
6.457893371582031,0.334475040435791,-0.7347743511199951,0.49262338876724243,-0.568565845489502,-0.031455762684345245,-0.6736006736755371
6.478142261505127,0.334684282541275,-0.7349365949630737,0.49276602268218994,-0.5690328478813171,-0.031351249665021896,-0.6735843420028687
6.498261213302612,0.3346352279186249,-0.7349592447280884,0.49278733134269714,-0.5689848065376282,-0.031366895884275436,-0.6735765337944031
6.518306732177734,0.3343059718608856,-0.7348660230636597,0.49286094307899475,-0.568488597869873,-0.03151234611868858,-0.673550546169281
6.538408041000366,0.33427029848098755,-0.7348244190216064,0.49280276894569397,-0.5681821703910828,-0.03149054944515228,-0.673518180847168
6.558568000793457,0.33467811346054077,-0.7351028323173523,0.49222680926322937,-0.568601667881012,-0.03101508505642414,-0.6734716892242432
6.578580856323242,0.3350760340690613,-0.735226035118103,0.49230945110321045,-0.5692139267921448,-0.030843596905469894,-0.6734868288040161
6.5987091064453125,0.33482974767684937,-0.7350437641143799,0.49250665307044983,-0.5689767003059387,-0.031038906425237656,-0.6734983921051025
6.618779182434082,0.334196001291275,-0.7348716259002686,0.4927367568016052,-0.5682868957519531,-0.03141659498214722,-0.6735059022903442
6.638853549957275,0.33434969186782837,-0.7348793148994446,0.49284589290618896,-0.5687091946601868,-0.031424783170223236,-0.6735295057296753
6.658966064453125,0.3345387578010559,-0.7350923418998718,0.49284297227859497,-0.5692262649536133,-0.03132094442844391,-0.6735493540763855
6.679040431976318,0.33486825227737427,-0.735458254814148,0.4924301207065582,-0.5700270533561707,-0.03093993291258812,-0.6735341548919678
6.699333667755127,0.3348669409751892,-0.7354117631912231,0.49241238832473755,-0.5695981383323669,-0.03091447427868843,-0.6734845638275146
6.719420433044434,0.3345605432987213,-0.7352749705314636,0.49261003732681274,-0.5693479776382446,-0.031127147376537323,-0.673491895198822
6.739509344100952,0.33427536487579346,-0.7350857257843018,0.4927018880844116,-0.5687800049781799,-0.03132905066013336,-0.6734660267829895
6.7598981857299805,0.334289014339447,-0.7350717186927795,0.4927268624305725,-0.5687844753265381,-0.03134769946336746,-0.6734612584114075
6.779993057250977,0.33432823419570923,-0.7350950837135315,0.4923475384712219,-0.5687465667724609,-0.031192829832434654,-0.6734029650688171
6.800062417984009,0.33445417881011963,-0.7349853515625,0.49239832162857056,-0.5687503218650818,-0.031208384782075882,-0.6734100580215454
6.82023024559021,0.33421003818511963,-0.7349090576171875,0.49254170060157776,-0.5686209201812744,-0.03137291967868805,-0.6734309196472168
6.840311288833618,0.3341253995895386,-0.7346972823143005,0.49255937337875366,-0.5681973695755005,-0.03144218027591705,-0.6734133362770081
6.860368728637695,0.3337327837944031,-0.7346532344818115,0.49276548624038696,-0.5680782198905945,-0.0317230299115181,-0.6734495759010315
6.880480527877808,0.3338267207145691,-0.7346948981285095,0.4927214980125427,-0.5681801438331604,-0.03168110176920891,-0.6734508872032166
6.900523900985718,0.33429989218711853,-0.7347424030303955,0.492545485496521,-0.5684576034545898,-0.03143688663840294,-0.673433244228363
6.920602321624756,0.33478161692619324,-0.7348984479904175,0.4922383725643158,-0.5685253143310547,-0.03108927607536316,-0.673370361328125
6.9406867027282715,0.3348393142223358,-0.7348454594612122,0.4922797977924347,-0.5685561299324036,-0.0310862697660923,-0.6733739376068115
6.960767030715942,0.3351782262325287,-0.7348381280899048,0.4922158122062683,-0.5687078833580017,-0.030922798439860344,-0.6733617782592773
6.980863571166992,0.3350081145763397,-0.7349334955215454,0.4923420250415802,-0.5687736868858337,-0.031004473567008972,-0.6733853816986084
7.001443386077881,0.3346593379974365,-0.734926700592041,0.4925215542316437,-0.5686843395233154,-0.031207652762532234,-0.6733933091163635
7.021535873413086,0.3343729078769684,-0.7348954677581787,0.4926559031009674,-0.5685532093048096,-0.031389981508255005,-0.6734148263931274
7.041650772094727,0.3341250419616699,-0.7348913550376892,0.49275755882263184,-0.5684710144996643,-0.03155631944537163,-0.6734188199043274
7.0617516040802,0.3344711363315582,-0.7348583340644836,0.49249425530433655,-0.5683020353317261,-0.03133658692240715,-0.6733765602111816
7.0818397998809814,0.3345972001552582,-0.7350529432296753,0.492442786693573,-0.5686114430427551,-0.031229302287101746,-0.6733708381652832
7.102147817611694,0.33489561080932617,-0.7351024150848389,0.49241578578948975,-0.5690905451774597,-0.031107736751437187,-0.6733523011207581
7.122229337692261,0.33480289578437805,-0.7350512146949768,0.4923534095287323,-0.5687292814254761,-0.031110208481550217,-0.6733410954475403
7.14231014251709,0.3343721926212311,-0.7347873449325562,0.49247899651527405,-0.5681372284889221,-0.031415656208992004,-0.6733129024505615
7.162821531295776,0.3342926800251007,-0.7348986864089966,0.4925093948841095,-0.5682811141014099,-0.03142567723989487,-0.6733183264732361
7.182931423187256,0.3343955874443054,-0.7349039912223816,0.4925270974636078,-0.5684101581573486,-0.03141113743185997,-0.6733018159866333
7.20305061340332,0.3347753584384918,-0.7350046634674072,0.4924618899822235,-0.5690058469772339,-0.031241273507475853,-0.6732997894287109
7.22309947013855,0.3346385657787323,-0.7350969910621643,0.49250826239585876,-0.5690280199050903,-0.031277671456336975,-0.6733059287071228
7.2594006061553955,0.3345988988876343,-0.7350747585296631,0.4924218952655792,-0.5689995288848877,-0.03128211945295334,-0.6732975244522095
7.279491186141968,0.33467531204223633,-0.7349905967712402,0.4924384653568268,-0.568963885307312,-0.03126293420791626,-0.6732872128486633
7.299628973007202,0.33494576811790466,-0.7349855303764343,0.4923824071884155,-0.5690606236457825,-0.03111567720770836,-0.6732646822929382
7.319681406021118,0.3346298635005951,-0.7349389791488647,0.49254488945007324,-0.5688965320587158,-0.03129785507917404,-0.673279881477356
7.339864253997803,0.33443278074264526,-0.734821617603302,0.4926666021347046,-0.5687294006347656,-0.03143218904733658,-0.6732848882675171
7.359869718551636,0.334881991147995,-0.7349746823310852,0.4922308921813965,-0.5687798261642456,-0.03109186887741089,-0.6732138991355896
7.380000591278076,0.3347316384315491,-0.7350755333900452,0.4923161268234253,-0.5688403248786926,-0.03114783577620983,-0.6732311248779297
7.40006685256958,0.3349171280860901,-0.7351399064064026,0.49223852157592773,-0.5690258741378784,-0.03103356994688511,-0.6732289791107178
7.420161008834839,0.33468225598335266,-0.7350310683250427,0.4925638735294342,-0.5691705346107483,-0.03125695139169693,-0.6732721924781799
7.440281391143799,0.3346153199672699,-0.7349892258644104,0.49247777462005615,-0.5688013434410095,-0.03124622255563736,-0.6732479333877563
7.460403203964233,0.3345814049243927,-0.7349490523338318,0.49227386713027954,-0.5685185194015503,-0.031215615570545197,-0.6732263565063477
7.480906963348389,0.33502197265625,-0.7349485158920288,0.49225831031799316,-0.5690751671791077,-0.03105221316218376,-0.6732341051101685
7.500988960266113,0.3349504768848419,-0.7349777221679688,0.49225935339927673,-0.5690618753433228,-0.0310833640396595,-0.6732379198074341
7.521068096160889,0.3350673019886017,-0.7351087927818298,0.4922666549682617,-0.5692019462585449,-0.03099064901471138,-0.6732349991798401
7.541149854660034,0.33489012718200684,-0.7351965308189392,0.49235183000564575,-0.5692011713981628,-0.031061463057994843,-0.673249363899231
7.561220645904541,0.3349217176437378,-0.7350309491157532,0.4924396872520447,-0.5690664649009705,-0.031101169064641,-0.6732427477836609
7.581287622451782,0.3347432315349579,-0.7348889708518982,0.49252545833587646,-0.5688334703445435,-0.03127456456422806,-0.6732438802719116
7.60137152671814,0.33474600315093994,-0.7349642515182495,0.492574542760849,-0.5691874027252197,-0.031294696033000946,-0.6732715964317322
7.621449947357178,0.33447396755218506,-0.7349036335945129,0.49262672662734985,-0.5689857006072998,-0.031429775059223175,-0.6732820868492126
7.641622066497803,0.33447372913360596,-0.7349190711975098,0.4926230311393738,-0.56898033618927,-0.03141552582383156,-0.6732814311981201
7.661665201187134,0.33465367555618286,-0.7350114583969116,0.4925489127635956,-0.5690844655036926,-0.031279709190130234,-0.6732704043388367
7.681745767593384,0.3344748616218567,-0.734886109828949,0.4925960600376129,-0.5688912868499756,-0.03139840438961983,-0.6732751131057739
7.701905965805054,0.33431851863861084,-0.7347550392150879,0.49269673228263855,-0.5687183737754822,-0.03151729330420494,-0.6732804179191589
7.721954345703125,0.33470380306243896,-0.7349913120269775,0.49232789874076843,-0.5688026547431946,-0.03118116408586502,-0.6732399463653564
7.742021799087524,0.33467212319374084,-0.7350033521652222,0.49237701296806335,-0.5688279271125793,-0.031199991703033447,-0.6732454299926758
7.762124538421631,0.33498650789260864,-0.7350846529006958,0.4924226999282837,-0.5693349838256836,-0.031077256426215172,-0.6732386946678162
7.782197713851929,0.3347952663898468,-0.7351720929145813,0.4924333095550537,-0.5692859292030334,-0.03114122338593006,-0.6732534170150757
7.802316188812256,0.33470821380615234,-0.7351226210594177,0.4923762381076813,-0.5689041614532471,-0.031153276562690735,-0.6732096076011658
7.8224287033081055,0.334992378950119,-0.7351441979408264,0.49244293570518494,-0.5693626999855042,-0.031057029962539673,-0.6732321381568909
7.842519998550415,0.3348237872123718,-0.7352290749549866,0.4924359619617462,-0.5693351626396179,-0.03112080693244934,-0.6732224822044373
7.8626251220703125,0.334792822599411,-0.735287070274353,0.4926906228065491,-0.5698651671409607,-0.031219709664583206,-0.6732607483863831
7.8835530281066895,0.33447664976119995,-0.7352124452590942,0.49289369583129883,-0.5697598457336426,-0.031437162309885025,-0.6732572317123413
7.9036359786987305,0.3343735635280609,-0.7352643609046936,0.4928721785545349,-0.5696707367897034,-0.031457580626010895,-0.6732454299926758
7.9237706661224365,0.3344855010509491,-0.735094428062439,0.49277979135513306,-0.5694410800933838,-0.03140580654144287,-0.6732441782951355
7.943805694580078,0.3343828320503235,-0.7351664900779724,0.492775022983551,-0.5694000720977783,-0.031428880989551544,-0.673234224319458
7.96391224861145,0.3343595564365387,-0.7352755069732666,0.49242329597473145,-0.5695974826812744,-0.031269170343875885,-0.67322838306427
7.984089136123657,0.33458659052848816,-0.7352447509765625,0.4922410249710083,-0.5693212747573853,-0.031108036637306213,-0.6731967329978943
8.004199504852295,0.334602028131485,-0.7351125478744507,0.49237123131752014,-0.5691893100738525,-0.03116777166724205,-0.6732115149497986
8.02425503730774,0.33456698060035706,-0.7350853085517883,0.4924483299255371,-0.5691327452659607,-0.03121129795908928,-0.6732282638549805
8.044363498687744,0.33445465564727783,-0.735163152217865,0.49249765276908875,-0.569140613079071,-0.031260110437870026,-0.6732212901115417
8.064507722854614,0.33578529953956604,-0.7348974943161011,0.49301615357398987,-0.5702018737792969,-0.03133273497223854,-0.6733276844024658
8.08462643623352,0.3356616497039795,-0.7347338199615479,0.49348828196525574,-0.5698770880699158,-0.03169305622577667,-0.6733620166778564
8.104716062545776,0.3355867564678192,-0.7347617149353027,0.49342143535614014,-0.569710373878479,-0.03161419555544853,-0.6733394265174866
8.124802112579346,0.33528053760528564,-0.734955370426178,0.4932485818862915,-0.5692393779754639,-0.03152984753251076,-0.673271119594574
8.144893407821655,0.3351552188396454,-0.73537677526474,0.49270084500312805,-0.5693984031677246,-0.031230568885803223,-0.673224925994873
8.164965867996216,0.3351976275444031,-0.7356215715408325,0.49250394105911255,-0.5700513124465942,-0.03101787343621254,-0.6732240915298462
8.185050010681152,0.33484789729118347,-0.7354114055633545,0.4927372336387634,-0.5696579217910767,-0.03123028203845024,-0.6732334494590759
8.205143451690674,0.33445101976394653,-0.7353925704956055,0.492886483669281,-0.5694435834884644,-0.03142334893345833,-0.673254132270813
8.225221157073975,0.3338688313961029,-0.7352986335754395,0.4930933713912964,-0.5690474510192871,-0.031750764697790146,-0.6732795834541321
8.245275735855103,0.3340408504009247,-0.7352215051651001,0.4929443597793579,-0.5689836144447327,-0.0316387340426445,-0.6732616424560547
8.265370607376099,0.3344469666481018,-0.735182523727417,0.4927724003791809,-0.5691061019897461,-0.031414564698934555,-0.6732353568077087
8.28544545173645,0.33431297540664673,-0.7351524233818054,0.4926144480705261,-0.5685293674468994,-0.03137412294745445,-0.6731980443000793
8.306084156036377,0.33396631479263306,-0.7352087497711182,0.4927709102630615,-0.5685803890228271,-0.0315387137234211,-0.6732345223426819
8.32617712020874,0.333906352519989,-0.7352076768875122,0.49267682433128357,-0.5683302283287048,-0.03151398524641991,-0.6732182502746582
8.346240997314453,0.33410149812698364,-0.7350406050682068,0.49256789684295654,-0.5681470632553101,-0.0314190573990345,-0.6731904149055481
8.366448402404785,0.3336954712867737,-0.7353742718696594,0.49229705333709717,-0.5684568881988525,-0.031190648674964905,-0.6731657981872559
8.386469602584839,0.33302196860313416,-0.7355422377586365,0.4913772940635681,-0.5676864385604858,-0.030751120299100876,-0.67303067445755
8.406517744064331,0.33359548449516296,-0.7354015111923218,0.49137985706329346,-0.5682452321052551,-0.03074559010565281,-0.6730591058731079
8.426610946655273,0.3339146673679352,-0.7350817322731018,0.49182844161987305,-0.5683662295341492,-0.030933696776628494,-0.6731159090995789
8.446676254272461,0.33414211869239807,-0.734538197517395,0.4931155741214752,-0.5684351921081543,-0.03158913552761078,-0.6732603907585144
8.46737551689148,0.33420637249946594,-0.7342736721038818,0.4930371046066284,-0.5677818655967712,-0.03168121725320816,-0.6732197403907776
8.487546443939209,0.33425793051719666,-0.7343884110450745,0.49288585782051086,-0.5679583549499512,-0.031616777181625366,-0.6732112765312195
8.507572174072266,0.334553599357605,-0.7345911264419556,0.49244675040245056,-0.5680593252182007,-0.031343087553977966,-0.6731595396995544
8.527639389038086,0.33460718393325806,-0.7346901893615723,0.49249401688575745,-0.5685542225837708,-0.03132800757884979,-0.6731858253479004
8.547817945480347,0.33457040786743164,-0.7348844408988953,0.49251240491867065,-0.5690801739692688,-0.03132603317499161,-0.6731719374656677
8.567833662033081,0.3345668315887451,-0.7349297404289246,0.492425799369812,-0.5690802335739136,-0.03131400793790817,-0.6731683611869812
8.587933540344238,0.3347793221473694,-0.7349703311920166,0.4921784996986389,-0.5688950419425964,-0.03113473951816559,-0.6731284856796265
8.608098983764648,0.33503487706184387,-0.7349905371665955,0.4920867681503296,-0.569072961807251,-0.030993260443210602,-0.6731176376342773
8.628167629241943,0.33467036485671997,-0.7350826263427734,0.49244773387908936,-0.5696080327033997,-0.031249236315488815,-0.6731777787208557
8.648243427276611,0.33441251516342163,-0.734992265701294,0.4925296902656555,-0.569393515586853,-0.03139713406562805,-0.6731669902801514
8.668392658233643,0.3345393240451813,-0.7349189519882202,0.4924238324165344,-0.5692836046218872,-0.031351882964372635,-0.6731361150741577
8.688807010650635,0.33450695872306824,-0.7348998188972473,0.4922685921192169,-0.5688974261283875,-0.031316738575696945,-0.6731154322624207
8.708939552307129,0.3345145285129547,-0.7349167466163635,0.4922603964805603,-0.5689282417297363,-0.03131246939301491,-0.6731209754943848
8.728989124298096,0.33480802178382874,-0.7350560426712036,0.4922165870666504,-0.5694175362586975,-0.031169526278972626,-0.6731381416320801
8.749063491821289,0.3344845175743103,-0.7349427938461304,0.4922444224357605,-0.5688847303390503,-0.031321436166763306,-0.6731289625167847
8.769147634506226,0.33399882912635803,-0.7347701787948608,0.49234724044799805,-0.568320631980896,-0.03158204257488251,-0.6731369495391846
8.789310693740845,0.33396756649017334,-0.7349400520324707,0.4923168122768402,-0.5685776472091675,-0.031555745750665665,-0.6731598973274231
8.809348821640015,0.3339134454727173,-0.7349672317504883,0.4922126531600952,-0.5683425664901733,-0.03153266757726669,-0.6731221079826355
8.82950210571289,0.3342825472354889,-0.7350185513496399,0.4921044409275055,-0.5686799883842468,-0.03134194016456604,-0.6731225848197937
8.849600791931152,0.3345690071582794,-0.7350664138793945,0.49203968048095703,-0.5689272284507751,-0.031196869909763336,-0.6731215119361877
8.869757890701294,0.33437320590019226,-0.7348626255989075,0.4920733571052551,-0.568436324596405,-0.03131938725709915,-0.6731071472167969
8.889809131622314,0.3343842625617981,-0.7346847057342529,0.49217209219932556,-0.5684335231781006,-0.03139498457312584,-0.6731165051460266
8.91001296043396,0.33433666825294495,-0.7346398830413818,0.4919797480106354,-0.5678572654724121,-0.031337812542915344,-0.673072099685669
8.930100440979004,0.3341383934020996,-0.7347753047943115,0.4922401010990143,-0.5684270858764648,-0.03149595484137535,-0.6731393337249756
8.950166940689087,0.3347674608230591,-0.7348556518554688,0.4919116497039795,-0.5685808062553406,-0.03111172653734684,-0.6730905175209045
8.970391511917114,0.3350263237953186,-0.7349991798400879,0.4919905364513397,-0.5691584348678589,-0.0310037974268198,-0.6731070280075073
8.99042534828186,0.33459365367889404,-0.7350270748138428,0.49226829409599304,-0.5690593123435974,-0.031244374811649323,-0.6731314063072205
9.010418891906738,0.33474230766296387,-0.7351643443107605,0.4922063648700714,-0.5692514777183533,-0.031126907095313072,-0.6731258630752563
9.030531167984009,0.334562748670578,-0.7351480722427368,0.4925563633441925,-0.5697389245033264,-0.03133411705493927,-0.6731837391853333
9.050622701644897,0.3349165916442871,-0.735232412815094,0.4922581911087036,-0.5696175694465637,-0.031024102121591568,-0.6731096506118774
9.070685863494873,0.3348260521888733,-0.7351555824279785,0.4922098219394684,-0.5692115426063538,-0.031046902760863304,-0.673086404800415
9.090781450271606,0.33473894000053406,-0.735132098197937,0.4923110008239746,-0.5691989064216614,-0.031120842322707176,-0.6730967164039612
9.111128091812134,0.33471038937568665,-0.7351109385490417,0.4923458695411682,-0.5691893100738525,-0.031149137765169144,-0.6731004118919373
9.13123106956482,0.3346131443977356,-0.7351780533790588,0.49249523878097534,-0.569484531879425,-0.03123614378273487,-0.6731356978416443
9.151291847229004,0.3345906138420105,-0.735113799571991,0.49250149726867676,-0.5693840980529785,-0.03126218542456627,-0.6731327772140503
9.171463966369629,0.3343311846256256,-0.7350170016288757,0.49261975288391113,-0.5691921710968018,-0.031427331268787384,-0.6731449365615845
9.191565036773682,0.3345334827899933,-0.7350082993507385,0.49274662137031555,-0.5697696208953857,-0.03141862154006958,-0.6731783747673035
9.211624383926392,0.3344648480415344,-0.7349007725715637,0.49249354004859924,-0.5689642429351807,-0.031359750777482986,-0.6731165647506714
9.231698036193848,0.334130197763443,-0.7349112033843994,0.49262475967407227,-0.5688629150390625,-0.031535398215055466,-0.673139214515686
9.251796245574951,0.3342351019382477,-0.7348892092704773,0.49256962537765503,-0.5689243674278259,-0.03148312866687775,-0.6731355786323547
9.272128105163574,0.3344087600708008,-0.7348037958145142,0.4925181269645691,-0.5689433813095093,-0.031417831778526306,-0.6731238961219788
9.292242527008057,0.3342146873474121,-0.7347975969314575,0.49272584915161133,-0.5691546201705933,-0.03157978132367134,-0.6731619238853455
9.312309741973877,0.3340805768966675,-0.7347482442855835,0.49280285835266113,-0.5690100789070129,-0.03165479004383087,-0.6731644868850708
9.332383155822754,0.3343007564544678,-0.7349073886871338,0.4926412105560303,-0.569202184677124,-0.03148088604211807,-0.6731534600257874
9.3525390625,0.33441296219825745,-0.7349399924278259,0.49264734983444214,-0.5695043206214905,-0.031456105411052704,-0.6731736660003662
9.372757196426392,0.3342272639274597,-0.7348814010620117,0.49265193939208984,-0.5692627429962158,-0.031560689210891724,-0.6731538772583008
9.392822742462158,0.3344973921775818,-0.7347675561904907,0.4926859736442566,-0.5695196390151978,-0.031498681753873825,-0.6731570959091187
9.412878274917603,0.3345508277416229,-0.7348850965499878,0.49264729022979736,-0.569743812084198,-0.03146570920944214,-0.6731794476509094
9.433021306991577,0.3345515727996826,-0.734905481338501,0.4925815463066101,-0.5696495771408081,-0.03144311532378197,-0.6731750965118408
9.453123569488525,0.33461615443229675,-0.7348187565803528,0.4923791289329529,-0.5691837072372437,-0.03136220946907997,-0.6731387972831726
9.473224639892578,0.3349025845527649,-0.7349838614463806,0.4923137128353119,-0.5696495175361633,-0.031204864382743835,-0.6731528043746948
9.493313550949097,0.3348551094532013,-0.7350048422813416,0.49230968952178955,-0.5695739388465881,-0.031216958537697792,-0.6731524467468262
9.513395071029663,0.33465856313705444,-0.7350457310676575,0.49221545457839966,-0.5691373348236084,-0.03123980015516281,-0.6731352806091309
9.533494234085083,0.33439311385154724,-0.7349743247032166,0.4923376441001892,-0.5689810514450073,-0.03140218183398247,-0.673151969909668
9.553579092025757,0.33444854617118835,-0.7348271012306213,0.4921054542064667,-0.5683614611625671,-0.031312793493270874,-0.6730998158454895
9.573644638061523,0.3344385623931885,-0.7348413467407227,0.4920400083065033,-0.5682281851768494,-0.0312889963388443,-0.6730678677558899
9.5937979221344,0.33470720052719116,-0.7349354028701782,0.4919477701187134,-0.5685097575187683,-0.031131722033023834,-0.6730669736862183
9.613843441009521,0.3351832330226898,-0.7350063920021057,0.4917145371437073,-0.5686014890670776,-0.03083602525293827,-0.6730321645736694
9.63397479057312,0.33537527918815613,-0.7350608706474304,0.491767942905426,-0.5689264535903931,-0.030765630304813385,-0.6730455756187439
9.654009819030762,0.3351688086986542,-0.7351707816123962,0.4918762147426605,-0.5689918994903564,-0.030859488993883133,-0.6730690002441406
9.67410945892334,0.3350324332714081,-0.7351909279823303,0.49198269844055176,-0.5690577626228333,-0.030947580933570862,-0.6730910539627075
9.694595336914062,0.33511966466903687,-0.7350385785102844,0.49201977252960205,-0.5690433979034424,-0.030962897464632988,-0.6730905771255493
9.714791536331177,0.3352645933628082,-0.7349465489387512,0.49224114418029785,-0.5693456530570984,-0.030983272939920425,-0.6731045246124268
9.734842777252197,0.3352561593055725,-0.7348804473876953,0.49234336614608765,-0.5692441463470459,-0.03101610392332077,-0.6730965971946716
9.754926919937134,0.33476489782333374,-0.7349755764007568,0.49248409271240234,-0.5691127777099609,-0.031243182718753815,-0.6731253862380981
9.775012254714966,0.3347703218460083,-0.7350307703018188,0.49258866906166077,-0.5694518089294434,-0.03127281367778778,-0.6731498837471008
9.795068740844727,0.3346295654773712,-0.7351073622703552,0.4925030767917633,-0.5693753957748413,-0.0312991589307785,-0.6731585264205933
9.815168857574463,0.33474889397621155,-0.7350673675537109,0.49254339933395386,-0.5696409344673157,-0.03129253163933754,-0.6731749176979065
9.835245609283447,0.33477747440338135,-0.7349984049797058,0.4924840033054352,-0.5694720149040222,-0.03127416595816612,-0.673157811164856
9.855287551879883,0.3349173963069916,-0.7352108359336853,0.49253377318382263,-0.569889485836029,-0.031173881143331528,-0.6731792092323303
9.87542176246643,0.33511507511138916,-0.7352679371833801,0.4923781156539917,-0.5699248909950256,-0.03103584237396717,-0.6731623411178589
9.895480155944824,0.33452847599983215,-0.735325038433075,0.4926326870918274,-0.5696108341217041,-0.03132070600986481,-0.6731711626052856
9.915611743927002,0.3342355787754059,-0.7351608276367188,0.4926551580429077,-0.5690420866012573,-0.03145844116806984,-0.6731599569320679
9.935659646987915,0.3342985510826111,-0.7351298332214355,0.49265778064727783,-0.5691021680831909,-0.03142952546477318,-0.6731685996055603
9.95617413520813,0.33413976430892944,-0.7351822257041931,0.4926358461380005,-0.56886225938797,-0.031444888561964035,-0.6731411218643188
9.976255655288696,0.334186315536499,-0.7351534366607666,0.49263128638267517,-0.5688917636871338,-0.031435173004865646,-0.673123836517334
9.996335983276367,0.33418864011764526,-0.7351712584495544,0.4926501512527466,-0.5690128803253174,-0.03143782168626785,-0.6731287837028503
10.016854286193848,0.3341687321662903,-0.7352036833763123,0.49265816807746887,-0.5690599083900452,-0.031447719782590866,-0.6731069087982178
10.036951780319214,0.3343093991279602,-0.7350822687149048,0.49263107776641846,-0.5690311193466187,-0.03140668570995331,-0.6731072664260864
10.057024955749512,0.3343707323074341,-0.7350441813468933,0.49262353777885437,-0.5690402984619141,-0.03138852119445801,-0.6731026768684387
10.077467441558838,0.33509010076522827,-0.734692394733429,0.49318578839302063,-0.569261908531189,-0.03169163316488266,-0.6731514930725098
10.097560405731201,0.33471623063087463,-0.7346745133399963,0.4931962192058563,-0.5687484741210938,-0.031779635697603226,-0.6731182336807251
10.117653369903564,0.3344357907772064,-0.7347598671913147,0.49325114488601685,-0.5687046051025391,-0.03180466964840889,-0.6730995178222656
10.137800693511963,0.33473002910614014,-0.7349267601966858,0.493193119764328,-0.5692450404167175,-0.03160254657268524,-0.6731200814247131
10.157838582992554,0.33435893058776855,-0.7353773713111877,0.49188032746315,-0.5689102411270142,-0.031070979312062263,-0.6729612350463867
10.177916526794434,0.3344816267490387,-0.7354851961135864,0.49172431230545044,-0.5691466927528381,-0.03086988627910614,-0.6729469895362854
10.198100566864014,0.33428096771240234,-0.7353834509849548,0.4921101927757263,-0.5693494081497192,-0.031097620725631714,-0.6730011701583862
10.21819806098938,0.3343544602394104,-0.735264778137207,0.49230334162712097,-0.5692986249923706,-0.031153913587331772,-0.6730136275291443
10.238380193710327,0.3339179456233978,-0.7350841760635376,0.4926578402519226,-0.5689683556556702,-0.031501512974500656,-0.6730473041534424
10.258493661880493,0.33390012383461,-0.7351512312889099,0.49268510937690735,-0.5690146684646606,-0.031510625034570694,-0.67305588722229
10.278534650802612,0.3340417146682739,-0.7351149916648865,0.4921332597732544,-0.5681811571121216,-0.031108925119042397,-0.6729387044906616
10.298691272735596,0.3332914113998413,-0.7355028390884399,0.4920250475406647,-0.5686116814613342,-0.030822504311800003,-0.6729032397270203
10.318822145462036,0.3337855637073517,-0.7353222370147705,0.49231696128845215,-0.5688514709472656,-0.030903320759534836,-0.672946035861969
10.338916063308716,0.33426976203918457,-0.7351982593536377,0.4921610355377197,-0.5690287947654724,-0.03086199425160885,-0.6729398965835571
10.359036207199097,0.33434098958969116,-0.735213041305542,0.4922672212123871,-0.5693836808204651,-0.0309484601020813,-0.6729720830917358
10.379091501235962,0.334524542093277,-0.7352662682533264,0.49250465631484985,-0.5695311427116394,-0.031080622225999832,-0.6730139255523682
10.39918303489685,0.33464500308036804,-0.7351700663566589,0.49249982833862305,-0.5696781277656555,-0.031141484156250954,-0.6730196475982666
10.419260740280151,0.33475813269615173,-0.735127866268158,0.4925461709499359,-0.5699074268341064,-0.031163858249783516,-0.6730307936668396
10.439382791519165,0.3344816267490387,-0.7351015210151672,0.4926878809928894,-0.5698861479759216,-0.03138630837202072,-0.6730554699897766
10.459611177444458,0.3345488905906677,-0.7350038886070251,0.4925706386566162,-0.5696313977241516,-0.03137429058551788,-0.6730285882949829
10.479701042175293,0.3344837725162506,-0.7351435422897339,0.4927040934562683,-0.5699301362037659,-0.03142113611102104,-0.6730566024780273
10.499788522720337,0.33437255024909973,-0.7352139353752136,0.492654025554657,-0.5696835517883301,-0.031454507261514664,-0.6730419993400574
10.52003002166748,0.33421048521995544,-0.7353167533874512,0.49269214272499084,-0.5695916414260864,-0.03149085491895676,-0.6730465292930603
10.540167331695557,0.33428260684013367,-0.7353118062019348,0.49278387427330017,-0.5698590278625488,-0.03149893507361412,-0.6730650067329407
10.560210704803467,0.3344305753707886,-0.7352666854858398,0.49246180057525635,-0.569205105304718,-0.03130415081977844,-0.67299485206604
10.580439805984497,0.3345315158367157,-0.7351545691490173,0.49247798323631287,-0.569165050983429,-0.031289197504520416,-0.6729865670204163
10.600531578063965,0.3348836302757263,-0.7351857423782349,0.49249014258384705,-0.5695748925209045,-0.031150393187999725,-0.6729883551597595
10.620672702789307,0.33452969789505005,-0.7351124882698059,0.4926750659942627,-0.5693089365959167,-0.031361453235149384,-0.673001766204834
10.640888452529907,0.3342008590698242,-0.7351890802383423,0.49291473627090454,-0.5694863796234131,-0.031583983451128006,-0.673046350479126
10.66091275215149,0.3344205617904663,-0.7351616621017456,0.4930030405521393,-0.5699825286865234,-0.031548790633678436,-0.673071563243866
10.68111538887024,0.33481645584106445,-0.7350748777389526,0.492864191532135,-0.5696583986282349,-0.03146914392709732,-0.6730465888977051
10.701226234436035,0.3351762294769287,-0.7350984811782837,0.492900013923645,-0.5698376297950745,-0.031438641250133514,-0.6730601787567139
10.721322536468506,0.3358112573623657,-0.7348275184631348,0.493158221244812,-0.5699046850204468,-0.03166501224040985,-0.6730959415435791
10.741731882095337,0.334947794675827,-0.735037624835968,0.4931502342224121,-0.5696836709976196,-0.031779125332832336,-0.6730766296386719
10.761825799942017,0.33487993478775024,-0.7350820899009705,0.4931068420410156,-0.5695958733558655,-0.03172028809785843,-0.6730690598487854
10.781995296478271,0.33469295501708984,-0.7352643609046936,0.49263304471969604,-0.5694395303726196,-0.03146754577755928,-0.6730169057846069
10.802114009857178,0.33431485295295715,-0.7352648973464966,0.4928021728992462,-0.5692687630653381,-0.03163554146885872,-0.6730413436889648
10.822198390960693,0.3343387842178345,-0.7351327538490295,0.49268868565559387,-0.5688985586166382,-0.03151187300682068,-0.6730176210403442
10.842255592346191,0.3341282308101654,-0.7352330684661865,0.4930088520050049,-0.5694718956947327,-0.03167196363210678,-0.6730906367301941
10.862409830093384,0.3339216113090515,-0.7351363897323608,0.49308690428733826,-0.5692581534385681,-0.03178774565458298,-0.6730974912643433
10.88244891166687,0.3348821997642517,-0.7351314425468445,0.4925537109375,-0.5692269802093506,-0.031190916895866394,-0.6730048656463623
10.90247654914856,0.3350881040096283,-0.7353774905204773,0.4922499358654022,-0.5693943500518799,-0.030784916132688522,-0.6729534268379211
10.922581195831299,0.3343462347984314,-0.7357220649719238,0.4917813241481781,-0.5691020488739014,-0.030492866411805153,-0.6728736162185669
10.942660570144653,0.33383995294570923,-0.73558509349823,0.4917151927947998,-0.568646252155304,-0.030750282108783722,-0.672890305519104
10.9627206325531,0.33422422409057617,-0.7353783249855042,0.49158066511154175,-0.5686376094818115,-0.030710842460393906,-0.6728968024253845
10.982812643051147,0.334105521440506,-0.7351061105728149,0.4921492040157318,-0.5685862898826599,-0.031088566407561302,-0.6729713082313538
11.00297999382019,0.334227979183197,-0.7347009778022766,0.49292391538619995,-0.5685406923294067,-0.031548429280519485,-0.6730571389198303
11.023147821426392,0.3342318534851074,-0.7347040772438049,0.4927048981189728,-0.5682777762413025,-0.031494349241256714,-0.6730217933654785
11.04323434829712,0.3345194458961487,-0.7348219752311707,0.4923897385597229,-0.5683109760284424,-0.03127434477210045,-0.672974705696106
11.063286781311035,0.33516621589660645,-0.7348999977111816,0.4921015799045563,-0.568761944770813,-0.03094375878572464,-0.6729348301887512
11.083400249481201,0.33534353971481323,-0.7350032329559326,0.492011696100235,-0.5689855217933655,-0.0308169424533844,-0.6729276776313782
11.103495836257935,0.3346230089664459,-0.7348381876945496,0.4926351308822632,-0.568456768989563,-0.03139234706759453,-0.6729891300201416
11.123849391937256,0.33468499779701233,-0.7347612977027893,0.49297165870666504,-0.568565309047699,-0.031537748873233795,-0.6730289459228516
11.143985271453857,0.33443278074264526,-0.7349701523780823,0.49270007014274597,-0.5684645175933838,-0.03150494769215584,-0.6730101704597473
11.164072036743164,0.3345240652561188,-0.7350561618804932,0.4927126169204712,-0.5690404772758484,-0.031460121273994446,-0.6730324029922485
11.18413257598877,0.3347488343715668,-0.7350577712059021,0.4924153685569763,-0.568871021270752,-0.031246773898601532,-0.672987699508667
11.204205989837646,0.33454030752182007,-0.735097348690033,0.49264949560165405,-0.5694321990013123,-0.03143835812807083,-0.6730443835258484
11.224321365356445,0.3344418406486511,-0.7349793910980225,0.492696076631546,-0.5694708824157715,-0.03154109790921211,-0.6730524897575378
11.244518995285034,0.334200918674469,-0.7349162101745605,0.4927413761615753,-0.5692660212516785,-0.0316694900393486,-0.6730554699897766
11.264511346817017,0.3344477117061615,-0.7348096966743469,0.49256154894828796,-0.5691758394241333,-0.031540680676698685,-0.6730199456214905
11.284625768661499,0.3344728946685791,-0.734820544719696,0.4925025701522827,-0.5691803693771362,-0.031492434442043304,-0.6730143427848816
11.304747581481934,0.334500253200531,-0.7348678112030029,0.4924237132072449,-0.5691648125648499,-0.03145022690296173,-0.6730031371116638
11.324808835983276,0.3343285918235779,-0.7348966002464294,0.4925643503665924,-0.5693659782409668,-0.031576015055179596,-0.6730327606201172
11.344930410385132,0.334297776222229,-0.7350383400917053,0.49262741208076477,-0.5696995258331299,-0.0315910167992115,-0.6730585694313049
11.364982604980469,0.33401399850845337,-0.7350361347198486,0.4926639199256897,-0.5694712996482849,-0.03171593323349953,-0.6730633974075317
11.385145902633667,0.33460375666618347,-0.7350528240203857,0.49222248792648315,-0.5693901181221008,-0.03128262981772423,-0.6729971170425415
11.405243635177612,0.3347623944282532,-0.7351782917976379,0.49212390184402466,-0.569549560546875,-0.03114291839301586,-0.6729905605316162
11.425348043441772,0.33487746119499207,-0.7350148558616638,0.492146372795105,-0.5694115161895752,-0.031132711097598076,-0.6729727387428284
11.445502996444702,0.3342246413230896,-0.7351186871528625,0.4926108419895172,-0.5697531700134277,-0.031545136123895645,-0.6730621457099915
11.465605974197388,0.33452820777893066,-0.735137939453125,0.49242618680000305,-0.5698232054710388,-0.03134646266698837,-0.6730383038520813
11.48569107055664,0.3344440162181854,-0.735162615776062,0.49239224195480347,-0.5696807503700256,-0.031356871128082275,-0.6730324029922485
11.5057692527771,0.33446720242500305,-0.7351144552230835,0.4923647344112396,-0.5696128606796265,-0.03133820369839668,-0.6730262637138367
11.525853157043457,0.33417823910713196,-0.734809935092926,0.49262455105781555,-0.5691054463386536,-0.03159071132540703,-0.6730228066444397
11.545877456665039,0.334097683429718,-0.7349814176559448,0.492646723985672,-0.5691773295402527,-0.03156725689768791,-0.6730310320854187
11.565967321395874,0.33438292145729065,-0.734972357749939,0.49235233664512634,-0.5689906477928162,-0.03134278208017349,-0.6729865074157715
11.586036920547485,0.334398478269577,-0.7349565625190735,0.4923323690891266,-0.5690371990203857,-0.03132805600762367,-0.6729888916015625
11.606432676315308,0.3345056176185608,-0.7348332405090332,0.4922490119934082,-0.5687764883041382,-0.031255561858415604,-0.6729604005813599
11.626543521881104,0.3345208764076233,-0.7348480224609375,0.492306113243103,-0.5688461065292358,-0.03124946914613247,-0.6729652881622314
11.646576404571533,0.3343219757080078,-0.7348139882087708,0.49237120151519775,-0.5688066482543945,-0.031383074820041656,-0.6729810833930969
11.666662693023682,0.3346492052078247,-0.7349417805671692,0.49238574504852295,-0.5693600177764893,-0.031225105747580528,-0.6729949116706848
11.686835289001465,0.3350248634815216,-0.735146164894104,0.49220746755599976,-0.5696366429328918,-0.030954845249652863,-0.6729757189750671
11.706932783126831,0.33502355217933655,-0.7350097298622131,0.4921719431877136,-0.569216787815094,-0.030945664271712303,-0.6729446649551392
11.72708773612976,0.3347896635532379,-0.7349423766136169,0.49240583181381226,-0.5693721175193787,-0.031173571944236755,-0.6729831695556641
11.747386932373047,0.33440300822257996,-0.7350027561187744,0.49252185225486755,-0.569162130355835,-0.03137554973363876,-0.6729989051818848
11.767522811889648,0.3344188332557678,-0.7350058555603027,0.49247604608535767,-0.5691563487052917,-0.03137071803212166,-0.6729961633682251
11.787599802017212,0.3347121477127075,-0.7349815964698792,0.4922183156013489,-0.5689707398414612,-0.031187549233436584,-0.6729506254196167
11.807658195495605,0.3346866965293884,-0.7350021004676819,0.4922277629375458,-0.5689988732337952,-0.03120681457221508,-0.6729542016983032
11.827827453613281,0.3349373936653137,-0.7351216673851013,0.4922683537006378,-0.569496750831604,-0.031086618080735207,-0.6729706525802612
11.84784746170044,0.3350924551486969,-0.7351868748664856,0.4921616017818451,-0.5695539116859436,-0.030993130058050156,-0.6729574203491211
11.867969036102295,0.33523982763290405,-0.7350828051567078,0.49225670099258423,-0.569779634475708,-0.03100845217704773,-0.6729676127433777
11.888055801391602,0.33552923798561096,-0.7352539896965027,0.49219170212745667,-0.5699200630187988,-0.03079010359942913,-0.6729466319084167
11.90853238105774,0.3351667821407318,-0.7353600263595581,0.4923911988735199,-0.5697570443153381,-0.030961576849222183,-0.6729642748832703
11.928696393966675,0.3348202407360077,-0.735273540019989,0.49256905913352966,-0.5695191621780396,-0.03117266856133938,-0.6729809045791626
11.948745250701904,0.3349502384662628,-0.7352714538574219,0.49241000413894653,-0.569279670715332,-0.031049560755491257,-0.6729482412338257
11.968857765197754,0.3348848819732666,-0.7352619171142578,0.4924612045288086,-0.5692612528800964,-0.031092150136828423,-0.6729540228843689
11.988959550857544,0.3347491919994354,-0.7350533604621887,0.49270421266555786,-0.5693069696426392,-0.03128276392817497,-0.6729812622070312
12.009035348892212,0.3352140188217163,-0.7350003719329834,0.49274536967277527,-0.5695101618766785,-0.031250689178705215,-0.672995388507843
12.029168367385864,0.33563560247421265,-0.734658420085907,0.49312806129455566,-0.5689948797225952,-0.031545910984277725,-0.67302006483078
12.049307346343994,0.3350837230682373,-0.734819769859314,0.4932626783847809,-0.5688778162002563,-0.0316443145275116,-0.6730233430862427
12.069425106048584,0.334708034992218,-0.7347806692123413,0.4932591915130615,-0.5684181451797485,-0.031737320125103,-0.6730068922042847
12.089476823806763,0.33528655767440796,-0.7349068522453308,0.4929618835449219,-0.5688263177871704,-0.03129808232188225,-0.6729617714881897
12.109557628631592,0.33514878153800964,-0.7349098324775696,0.49288633465766907,-0.5685421228408813,-0.0312628298997879,-0.6729413866996765
12.129645824432373,0.3344462513923645,-0.7352511882781982,0.4923841059207916,-0.5684518814086914,-0.030870914459228516,-0.6728622913360596
12.149727582931519,0.33415597677230835,-0.7354546785354614,0.4921993911266327,-0.5690852999687195,-0.030788268893957138,-0.6728827357292175
12.169890403747559,0.3341658413410187,-0.7353267073631287,0.4921017587184906,-0.5687533020973206,-0.030846530571579933,-0.67287278175354
12.189956426620483,0.3341856002807617,-0.7351310849189758,0.49194878339767456,-0.5682314038276672,-0.03093631938099861,-0.6728564500808716
12.210005044937134,0.3338868021965027,-0.7351101636886597,0.4921206831932068,-0.5682421326637268,-0.031171541661024094,-0.6728968620300293
12.23009991645813,0.33359113335609436,-0.7349416017532349,0.4923269748687744,-0.5682108402252197,-0.03150660917162895,-0.6729444861412048
12.269518852233887,0.33380648493766785,-0.7348371744155884,0.49216514825820923,-0.5681105256080627,-0.03144402801990509,-0.6729302406311035
12.289653778076172,0.3338494598865509,-0.7349651455879211,0.49227625131607056,-0.5686271786689758,-0.03147554025053978,-0.6729718446731567
12.309700965881348,0.3335959315299988,-0.7350031733512878,0.4923909902572632,-0.568663477897644,-0.03164917603135109,-0.6730053424835205
12.329809188842773,0.33381813764572144,-0.73488849401474,0.4923328757286072,-0.568698525428772,-0.03158503398299217,-0.6729947328567505
12.349931955337524,0.334206223487854,-0.7350581884384155,0.4922776520252228,-0.5693297982215881,-0.03141511231660843,-0.6730115413665771
12.369969844818115,0.33445608615875244,-0.7351583242416382,0.49216020107269287,-0.5694575309753418,-0.03127099573612213,-0.672998309135437
12.39003586769104,0.33475181460380554,-0.7352542877197266,0.4921591281890869,-0.5699058175086975,-0.031148890033364296,-0.6730077862739563
12.410244226455688,0.33450186252593994,-0.7353630065917969,0.49223971366882324,-0.5697677135467529,-0.03125651925802231,-0.6730175018310547
12.430311918258667,0.3342832028865814,-0.7351965308189392,0.49241238832473755,-0.5694712996482849,-0.031425848603248596,-0.6730223894119263
12.450477123260498,0.33421653509140015,-0.735242486000061,0.4924691319465637,-0.5694537162780762,-0.03144849091768265,-0.6730272769927979
12.47059679031372,0.3338190019130707,-0.7351873517036438,0.4925714135169983,-0.56892991065979,-0.031620338559150696,-0.6730242967605591
12.490754842758179,0.3340993821620941,-0.7349807024002075,0.4925401210784912,-0.5688964128494263,-0.03153850883245468,-0.673004150390625
12.511082410812378,0.3341759741306305,-0.7349133491516113,0.492460161447525,-0.5686156153678894,-0.03147503361105919,-0.6729758381843567
12.531151533126831,0.33433276414871216,-0.7351459264755249,0.4924176037311554,-0.5689609050750732,-0.03134142979979515,-0.6729832291603088
12.55121922492981,0.30982643365859985,-0.7338545322418213,0.4893704652786255,-0.5722805261611938,-0.03266572579741478,-0.672139048576355
12.571331024169922,0.26081550121307373,-0.731212317943573,0.4833866357803345,-0.57904452085495,-0.035236209630966187,-0.6704730987548828
12.591537237167358,0.2118041217327118,-0.7292025089263916,0.47780299186706543,-0.5865597724914551,-0.03696667030453682,-0.6687771081924438
12.611647129058838,0.18734264373779297,-0.7284178137779236,0.47508516907691956,-0.5907792448997498,-0.037309542298316956,-0.6679334044456482
12.631693840026855,0.1384633332490921,-0.7275210022926331,0.47001585364341736,-0.5997600555419922,-0.03694970905780792,-0.6661526560783386
12.652070999145508,0.11409933120012283,-0.7271956205368042,0.4675064980983734,-0.6046288013458252,-0.03624361380934715,-0.6652643084526062
12.67220950126648,0.06560534983873367,-0.72747403383255,0.46264564990997314,-0.6152073740959167,-0.03325005993247032,-0.6633675694465637
12.692255973815918,0.017620746046304703,-0.7286542057991028,0.45786425471305847,-0.6270438432693481,-0.027857817709445953,-0.6613819599151611
12.712347984313965,-0.005872758105397224,-0.7298481464385986,0.4553065598011017,-0.6338269114494324,-0.02362062782049179,-0.6603217720985413
12.732499837875366,-0.05215425044298172,-0.7330670356750488,0.4503369629383087,-0.6480627059936523,-0.01294747181236744,-0.6581185460090637
12.752758264541626,-0.0972738191485405,-0.7371774315834045,0.4458458423614502,-0.663111686706543,0.0010028327815234661,-0.6558965444564819
12.772850751876831,-0.11933618783950806,-0.739454448223114,0.44391942024230957,-0.6708395481109619,0.009275507181882858,-0.6548016667366028
12.792926549911499,-0.16282279789447784,-0.7442890405654907,0.441628634929657,-0.6859170198440552,0.02791847661137581,-0.6526941657066345
12.813011169433594,-0.18394531309604645,-0.7465593814849854,0.44144147634506226,-0.6934897303581238,0.03866000100970268,-0.6517328023910522
12.833092212677002,-0.22537162899971008,-0.7491612434387207,0.442207008600235,-0.7083402276039124,0.062112957239151,-0.6500887870788574
12.853198766708374,-0.265117883682251,-0.7494053244590759,0.44510704278945923,-0.7222615480422974,0.08880404382944107,-0.6488019227981567
12.873317241668701,-0.2852727770805359,-0.7477956414222717,0.4470840096473694,-0.7281119227409363,0.10214105993509293,-0.64838045835495
12.893447875976562,-0.3247494101524353,-0.7419887781143188,0.4518188238143921,-0.7385914325714111,0.12990987300872803,-0.6478477716445923
12.913576126098633,-0.3651461899280548,-0.7325652837753296,0.45541682839393616,-0.7462575435638428,0.15628840029239655,-0.6476938724517822
12.93366813659668,-0.38559505343437195,-0.7266371846199036,0.45674991607666016,-0.7493931651115417,0.1689409464597702,-0.6477667093276978
12.953813314437866,-0.4273136258125305,-0.7127940654754639,0.4598853588104248,-0.7537895441055298,0.19214211404323578,-0.6481413245201111
12.97385549545288,-0.448160320520401,-0.7060772180557251,0.4614577293395996,-0.7550731897354126,0.20402297377586365,-0.6482986211776733
12.993940353393555,-0.4900023639202118,-0.6937463879585266,0.4639420211315155,-0.7557970881462097,0.2279478907585144,-0.6486837267875671
13.01411747932434,-0.5227898359298706,-0.6848505735397339,0.47133055329322815,-0.7549418807029724,0.2631809115409851,-0.6494928598403931
13.034260272979736,-0.5311892032623291,-0.6848235130310059,0.47685298323631287,-0.7527909874916077,0.28596481680870056,-0.6499611139297485
13.054314613342285,-0.5334896445274353,-0.6929092407226562,0.4822016954421997,-0.7485127449035645,0.3333090543746948,-0.6512795686721802
13.074493408203125,-0.5281568765640259,-0.6915531158447266,0.4885583519935608,-0.7440016269683838,0.35218021273612976,-0.6527885794639587
13.094592809677124,-0.5231430530548096,-0.6817969679832458,0.4953480362892151,-0.7364040613174438,0.38444453477859497,-0.6565098762512207
13.114632606506348,-0.5426988005638123,-0.6594533920288086,0.4991973340511322,-0.7283902764320374,0.3969272971153259,-0.6606351137161255
13.134723901748657,-0.5529360175132751,-0.652646541595459,0.4979131817817688,-0.7255122661590576,0.40259602665901184,-0.662213921546936
13.15481686592102,-0.5639837384223938,-0.6461734771728516,0.48979032039642334,-0.7161246538162231,0.4073931574821472,-0.664412796497345
13.174882888793945,-0.5706067085266113,-0.6397842764854431,0.4882507026195526,-0.7133005261421204,0.40766215324401855,-0.6659215688705444
13.194982528686523,-0.5777204036712646,-0.6325611472129822,0.488378643989563,-0.7115254998207092,0.41309231519699097,-0.6693291068077087
13.216539859771729,-0.5659193992614746,-0.6304092407226562,0.4943801760673523,-0.7075795531272888,0.4197912812232971,-0.6728119850158691
13.236647129058838,-0.5654330253601074,-0.6302024722099304,0.4927939772605896,-0.7067804336547852,0.42353492975234985,-0.6746048927307129
13.256709337234497,-0.5504728555679321,-0.6306530237197876,0.49741822481155396,-0.7036640644073486,0.4312021732330322,-0.67841637134552
13.276878356933594,-0.5410561561584473,-0.6333246231079102,0.49477455019950867,-0.7036019563674927,0.43885061144828796,-0.6802304983139038
13.296894311904907,-0.5280696153640747,-0.6340157985687256,0.4911143481731415,-0.7061929702758789,0.45133453607559204,-0.6841048002243042
13.316996335983276,-0.5323709845542908,-0.6317570805549622,0.48711270093917847,-0.7078610062599182,0.4541015625,-0.6861228942871094
13.337154626846313,-0.5357774496078491,-0.6238293051719666,0.49423494935035706,-0.7075721621513367,0.45427337288856506,-0.6906195878982544
13.357159614562988,-0.546200692653656,-0.6183692216873169,0.4967663884162903,-0.7069474458694458,0.4514222741127014,-0.6941338181495667
13.377249717712402,-0.5587530732154846,-0.6155129075050354,0.4973565340042114,-0.7069940567016602,0.4472469687461853,-0.6957462430000305
13.397403478622437,-0.5721977949142456,-0.614709198474884,0.4984215795993805,-0.7021835446357727,0.43860143423080444,-0.6980645060539246
13.417712450027466,-0.5556893348693848,-0.6214696168899536,0.4928474724292755,-0.6999220252037048,0.44308289885520935,-0.7002003192901611
13.437802791595459,-0.5463551878929138,-0.6261477470397949,0.48825687170028687,-0.6989700794219971,0.4469086825847626,-0.7013575434684753
13.457905530929565,-0.5290430784225464,-0.6286842226982117,0.4870999753475189,-0.700437068939209,0.4539555311203003,-0.7047389149665833
13.477959632873535,-0.5213775634765625,-0.6282292008399963,0.48867926001548767,-0.7019037008285522,0.45830169320106506,-0.7068096995353699
13.498070001602173,-0.5097468495368958,-0.6262407302856445,0.4958634078502655,-0.7009971141815186,0.46205008029937744,-0.7105358839035034
13.518115282058716,-0.5279273390769958,-0.6216845512390137,0.5011711716651917,-0.6998885869979858,0.4562087953090668,-0.7136908173561096
13.538207292556763,-0.5366684794425964,-0.6205083131790161,0.5024847984313965,-0.6992001533508301,0.452717125415802,-0.7147718667984009
13.558339357376099,-0.5451868176460266,-0.6210927367210388,0.49970754981040955,-0.6994900107383728,0.45050156116485596,-0.7164579629898071
13.578423023223877,-0.5534085035324097,-0.6236331462860107,0.49215853214263916,-0.7004542350769043,0.4491640329360962,-0.7179062366485596
13.598637104034424,-0.5478715300559998,-0.624493420124054,0.49330782890319824,-0.7005464434623718,0.4505445063114166,-0.7188918590545654
13.618631839752197,-0.5317686796188354,-0.6260992288589478,0.49581611156463623,-0.7005080580711365,0.4546157121658325,-0.7208347916603088
13.638816118240356,-0.5267822742462158,-0.6258156299591064,0.4996569752693176,-0.698104977607727,0.45456433296203613,-0.7229150533676147
13.658942937850952,-0.5224597454071045,-0.6265838146209717,0.5008240938186646,-0.6964018940925598,0.4551599323749542,-0.7237660884857178
13.678990840911865,-0.5126824378967285,-0.6279404759407043,0.5015409588813782,-0.6949002742767334,0.45814746618270874,-0.7253223061561584
13.699101209640503,-0.5172826647758484,-0.6270942091941833,0.5004339814186096,-0.696082592010498,0.4580066204071045,-0.7261504530906677
13.719190835952759,-0.528308629989624,-0.6273890733718872,0.49385198950767517,-0.6983934640884399,0.4576541781425476,-0.7274377942085266
13.739901542663574,-0.5346416234970093,-0.6256488561630249,0.4944134056568146,-0.7006677389144897,0.45623618364334106,-0.7290815711021423
13.76008915901184,-0.5424684882164001,-0.6241905093193054,0.4957145154476166,-0.7018967866897583,0.4535156190395355,-0.7298692464828491
13.780133962631226,-0.5443426370620728,-0.6243544220924377,0.49849191308021545,-0.7002695798873901,0.4503805637359619,-0.7309027910232544
13.800303220748901,-0.539941668510437,-0.6251472234725952,0.49991145730018616,-0.6991556882858276,0.45030322670936584,-0.7313013672828674
13.82047724723816,-0.5282995700836182,-0.627432107925415,0.5003882646560669,-0.6970868110656738,0.45273301005363464,-0.7322013974189758
13.840484857559204,-0.5157508254051208,-0.6292027831077576,0.4997408986091614,-0.6971052289009094,0.45748764276504517,-0.7332766056060791
13.860591888427734,-0.5106819868087769,-0.6297780275344849,0.49932166934013367,-0.6970029473304749,0.4595056176185608,-0.7337379455566406
13.880642890930176,-0.5083879828453064,-0.6295287609100342,0.4993320107460022,-0.6967666745185852,0.46023932099342346,-0.7345601320266724
13.900697946548462,-0.5180243253707886,-0.6270656585693359,0.500630259513855,-0.6977738738059998,0.45768600702285767,-0.7355701923370361
13.920872449874878,-0.5241070985794067,-0.62549889087677,0.5018352270126343,-0.6987886428833008,0.4558478891849518,-0.73609858751297
13.94096302986145,-0.5329266786575317,-0.6246628761291504,0.5016154050827026,-0.6992444396018982,0.45296257734298706,-0.7368481755256653
13.961022138595581,-0.5494669675827026,-0.6238024234771729,0.4992952048778534,-0.7011210918426514,0.4490838050842285,-0.7376617789268494
13.981104850769043,-0.5477776527404785,-0.6245196461677551,0.5001083612442017,-0.7003613710403442,0.4481220543384552,-0.7378701567649841
14.001208066940308,-0.5258377194404602,-0.6313379406929016,0.4973987638950348,-0.6971405744552612,0.45375901460647583,-0.7380308508872986
14.021294593811035,-0.5169004797935486,-0.6336678862571716,0.49709123373031616,-0.695178210735321,0.4554141163825989,-0.7382048964500427
14.041366577148438,-0.5006051063537598,-0.6349114179611206,0.49749183654785156,-0.6946743726730347,0.46143996715545654,-0.7390857934951782
14.061442136764526,-0.509427547454834,-0.6317382454872131,0.49574702978134155,-0.6969518065452576,0.46167290210723877,-0.7401254177093506
14.081562757492065,-0.5185421109199524,-0.6297550201416016,0.4959874749183655,-0.698060154914856,0.45953166484832764,-0.7405971884727478
14.101654767990112,-0.5350558757781982,-0.6262917518615723,0.4978848993778229,-0.6998412013053894,0.45456939935684204,-0.7413330078125
14.121785640716553,-0.5410056710243225,-0.6246853470802307,0.4992547035217285,-0.7010498046875,0.4526073932647705,-0.7416936159133911
14.141970872879028,-0.5560656785964966,-0.6241112351417542,0.4996247887611389,-0.7000821828842163,0.4462949335575104,-0.74198979139328
14.162024736404419,-0.5336304306983948,-0.6295635104179382,0.5019720792770386,-0.6961637139320374,0.4499340355396271,-0.7419800162315369
14.182108402252197,-0.5193330645561218,-0.6325017213821411,0.5029398202896118,-0.6941481828689575,0.45303601026535034,-0.7420123815536499
14.202173948287964,-0.5028762817382812,-0.6349867582321167,0.5024599432945251,-0.6925815343856812,0.45816782116889954,-0.7424357533454895
14.222450494766235,-0.4904833137989044,-0.6359559297561646,0.4994984269142151,-0.6928609013557434,0.4649648070335388,-0.7430018186569214
14.242567300796509,-0.4971731901168823,-0.6341444849967957,0.49672648310661316,-0.6951950788497925,0.4658530056476593,-0.7434540390968323
14.262638568878174,-0.5265886783599854,-0.6286875605583191,0.49590161442756653,-0.6997573375701904,0.459846556186676,-0.7443777322769165
14.282697677612305,-0.5318902730941772,-0.6276357769966125,0.4959305226802826,-0.7000756859779358,0.45814868807792664,-0.744523286819458
14.302839040756226,-0.5475950241088867,-0.6253777742385864,0.4974161684513092,-0.7003940343856812,0.45210161805152893,-0.744727611541748
14.32296347618103,-0.5587472319602966,-0.6248286366462708,0.5005031228065491,-0.6985938549041748,0.445167601108551,-0.744611918926239
14.342997074127197,-0.5484033823013306,-0.6275777816772461,0.5017497539520264,-0.6965397596359253,0.44655776023864746,-0.7444073557853699
14.363139629364014,-0.5301147699356079,-0.6318926215171814,0.5024431347846985,-0.6938762068748474,0.45033812522888184,-0.74421626329422
14.383270502090454,-0.5115441083908081,-0.63536137342453,0.5025899410247803,-0.6917217969894409,0.4552759528160095,-0.7442150115966797
14.403342008590698,-0.5005266070365906,-0.6370617151260376,0.5018988847732544,-0.691301167011261,0.4593220055103302,-0.7442825436592102
14.423425912857056,-0.4892485737800598,-0.6370899081230164,0.49927571415901184,-0.6924701929092407,0.4660324156284332,-0.7447500228881836
14.443480253219604,-0.5159057378768921,-0.631702721118927,0.4975942373275757,-0.6971572041511536,0.4616996645927429,-0.7457293272018433
14.463552474975586,-0.5294748544692993,-0.6294257640838623,0.497119665145874,-0.6991237998008728,0.45869189500808716,-0.7460769414901733
14.483665227890015,-0.5545737743377686,-0.6257991194725037,0.49596595764160156,-0.7020540237426758,0.45297569036483765,-0.7465614676475525
14.503895044326782,-0.5731659531593323,-0.6234534382820129,0.4990866184234619,-0.702994704246521,0.44585615396499634,-0.7468222975730896
14.523991346359253,-0.5531278848648071,-0.6280758380889893,0.5040751099586487,-0.6988481283187866,0.44715532660484314,-0.7463305592536926
14.54409146308899,-0.5211954116821289,-0.6358622908592224,0.5068411231040955,-0.6922735571861267,0.4519049823284149,-0.745627760887146
