liuyurong129/humanoid-gym/humanoid/data/target_q_20250522-041055.csv
timestamp,joint_1,joint_2,joint_3,joint_4,joint_5,joint_6
0.00017023086547851562,0.0,0.0,0.0,0.0,0.0,0.0
0.020241737365722656,0.0,0.0,0.0,0.0,0.0,0.0
0.040326833724975586,0.0,0.0,0.0,0.0,0.0,0.0
0.060399770736694336,0.0,0.0,0.0,0.0,0.0,0.0
0.08049869537353516,0.0,0.0,0.0,0.0,0.0,0.0
0.10057592391967773,0.0,0.0,0.0,0.0,0.0,0.0
0.12065553665161133,-0.29277098178863525,-0.7078896760940552,0.9341973066329956,0.09255572408437729,-0.2149643898010254,-0.312159925699234
0.1408369541168213,-0.2970859408378601,-0.7130154967308044,0.9360395669937134,0.0954614132642746,-0.21429643034934998,-0.3125426769256592
0.16081809997558594,-0.3014204800128937,-0.7184261083602905,0.9367974996566772,0.09820684045553207,-0.2140403538942337,-0.3128359615802765
0.1809077262878418,-0.30357852578163147,-0.7212146520614624,0.9367662668228149,0.09951416403055191,-0.2140524685382843,-0.31294968724250793
0.20104551315307617,-0.30786603689193726,-0.7268589735031128,0.9362825155258179,0.10203251987695694,-0.21419364213943481,-0.31314989924430847
0.22115564346313477,-0.30999770760536194,-0.7296810746192932,0.9359397292137146,0.1032550036907196,-0.214278444647789,-0.3132461607456207
0.24124646186828613,-0.31427818536758423,-0.7353547215461731,0.934864342212677,0.1056307926774025,-0.2144855409860611,-0.31342819333076477
0.2613108158111572,-0.31857675313949585,-0.7410495281219482,0.9333731532096863,0.10792424529790878,-0.21472571790218353,-0.31360048055648804
0.28145647048950195,-0.3207165002822876,-0.7438890337944031,0.9325429201126099,0.10904589295387268,-0.21484524011611938,-0.31368541717529297
0.3015437126159668,-0.3249130845069885,-0.7494751811027527,0.9310343861579895,0.11128221452236176,-0.21501968801021576,-0.31386107206344604
0.32169175148010254,-0.3289256989955902,-0.7549086809158325,0.9298378825187683,0.11352996528148651,-0.2150767296552658,-0.3140451908111572
0.3417990207672119,-0.3308503031730652,-0.7575793862342834,0.9293294548988342,0.1146441400051117,-0.2150668054819107,-0.31413742899894714
0.36186814308166504,-0.3345760405063629,-0.762873113155365,0.9283743500709534,0.11682962626218796,-0.21502014994621277,-0.3143184781074524
0.3819425106048584,-0.3363949954509735,-0.7654963135719299,0.9278838634490967,0.11789973825216293,-0.21497997641563416,-0.31441089510917664
0.4020259380340576,-0.33996909856796265,-0.770678699016571,0.9269008040428162,0.12001912295818329,-0.21485364437103271,-0.3146074712276459
0.4222908020019531,-0.3434945344924927,-0.7757474780082703,0.9259652495384216,0.12213246524333954,-0.21463951468467712,-0.3148345351219177
0.4424264430999756,-0.345238596200943,-0.7782450914382935,0.9255470633506775,0.1231764405965805,-0.21451140940189362,-0.3149580657482147
0.4629809856414795,-0.348671555519104,-0.7831841111183167,0.9248067736625671,0.12522436678409576,-0.2142358124256134,-0.31521716713905334
0.48314332962036133,-0.35034751892089844,-0.7856277227401733,0.9244760870933533,0.12623153626918793,-0.21409271657466888,-0.3153509497642517
0.5031518936157227,-0.3536379039287567,-0.7904783487319946,0.9238855242729187,0.12820172309875488,-0.2138177752494812,-0.31562572717666626
0.5233132839202881,-0.3552260994911194,-0.7928761839866638,0.9236024022102356,0.1291697472333908,-0.2136649191379547,-0.31576621532440186
0.543384313583374,-0.35832449793815613,-0.7976353168487549,0.923064649105072,0.13106054067611694,-0.21335919201374054,-0.3160493075847626
0.564598798751831,-0.36131614446640015,-0.802335262298584,0.9225578904151917,0.1328970044851303,-0.21303178369998932,-0.31633561849594116
0.5847017765045166,-0.36279550194740295,-0.8046695590019226,0.9223065376281738,0.13379597663879395,-0.21287499368190765,-0.31648170948028564
0.6049087047576904,-0.36573678255081177,-0.8093043565750122,0.9217212796211243,0.135555237531662,-0.2125578224658966,-0.3167857229709625
0.6250157356262207,-0.3686560392379761,-0.8138930797576904,0.9210765361785889,0.1372876763343811,-0.212247833609581,-0.3171028792858124
0.6451592445373535,-0.37010642886161804,-0.8161784410476685,0.9207030534744263,0.13814124464988708,-0.2121039181947708,-0.31726279854774475
0.6652607917785645,-0.3728998005390167,-0.8206902742385864,0.9200699925422668,0.13984602689743042,-0.2117955982685089,-0.31758663058280945
0.6856305599212646,-0.37423014640808105,-0.822913646697998,0.9198266267776489,0.1406896710395813,-0.2116251438856125,-0.31775137782096863
0.7057371139526367,-0.3767731487751007,-0.8272975087165833,0.9194345474243164,0.1423560082912445,-0.21124298870563507,-0.31809109449386597
0.7258152961730957,-0.3792518973350525,-0.8316088318824768,0.9191908836364746,0.1439596712589264,-0.21082378923892975,-0.3184516131877899
0.7460088729858398,-0.3805178999900818,-0.8337605595588684,0.9190348386764526,0.14472974836826324,-0.21063373982906342,-0.3186355233192444
0.7661571502685547,-0.38301190733909607,-0.8380200266838074,0.9188238382339478,0.146214559674263,-0.2102510929107666,-0.31900787353515625
0.7862026691436768,-0.3842202425003052,-0.8401360511779785,0.918712317943573,0.14694003760814667,-0.21007007360458374,-0.3191908001899719
0.8062951564788818,-0.38648608326911926,-0.8443250060081482,0.9184653162956238,0.14838074147701263,-0.20969431102275848,-0.3195510804653168
0.8264167308807373,-0.38859421014785767,-0.8484548330307007,0.9182076454162598,0.14981572329998016,-0.20929975807666779,-0.3199148178100586
0.8464791774749756,-0.38960036635398865,-0.8504984378814697,0.9181086421012878,0.15052621066570282,-0.20909884572029114,-0.3200986087322235
0.866572380065918,-0.39157378673553467,-0.8545528054237366,0.9179083704948425,0.15188097953796387,-0.20868463814258575,-0.32047268748283386
0.8869631290435791,-0.3935004472732544,-0.8585317730903625,0.9178109765052795,0.15317244827747345,-0.20822298526763916,-0.3208651840686798
0.9070961475372314,-0.3944593369960785,-0.860491931438446,0.9177607893943787,0.15380534529685974,-0.2079741209745407,-0.3210732042789459
0.9271769523620605,-0.39622965455055237,-0.8643100261688232,0.9178884625434875,0.15510568022727966,-0.20739740133285522,-0.32151728868484497
0.9472761154174805,-0.3970402181148529,-0.8661812543869019,0.9180599451065063,0.15576159954071045,-0.2070939689874649,-0.32175031304359436
0.9673781394958496,-0.3986254930496216,-0.869909942150116,0.9183263182640076,0.15702953934669495,-0.20652922987937927,-0.3222252428531647
0.9874107837677002,-0.3994203805923462,-0.8717659115791321,0.9184337258338928,0.15763364732265472,-0.20626311004161835,-0.3224692642688751
1.0075359344482422,-0.4009585976600647,-0.8754280805587769,0.9188461303710938,0.15881335735321045,-0.20573844015598297,-0.3229678273200989
1.0277416706085205,-0.40240710973739624,-0.8790343999862671,0.9193392992019653,0.15996482968330383,-0.2052203267812729,-0.32347044348716736
1.047828197479248,-0.4030744135379791,-0.8808106184005737,0.9196376800537109,0.160544753074646,-0.20496036112308502,-0.32372310757637024
1.0679347515106201,-0.4043913185596466,-0.8843473196029663,0.9200725555419922,0.16169001162052155,-0.20446021854877472,-0.32423684000968933
1.0879948139190674,-0.40506261587142944,-0.8861048221588135,0.9202253222465515,0.16225488483905792,-0.20421229302883148,-0.3245031237602234
1.1081104278564453,-0.40634822845458984,-0.8895524144172668,0.9207838773727417,0.16337616741657257,-0.20367927849292755,-0.32505571842193604
1.1283159255981445,-0.4075298309326172,-0.8929418325424194,0.9214880466461182,0.16445916891098022,-0.20314832031726837,-0.3256128430366516
1.1484174728393555,-0.40804117918014526,-0.8946072459220886,0.9219414591789246,0.16498889029026031,-0.20287933945655823,-0.32588985562324524
1.1684632301330566,-0.4089755713939667,-0.8979271054267883,0.9227616786956787,0.16599690914154053,-0.20238885283470154,-0.3264321982860565
1.1885552406311035,-0.4094226360321045,-0.8995794653892517,0.9231317043304443,0.16648010909557343,-0.20216107368469238,-0.3267024755477905
1.2086350917816162,-0.4102236032485962,-0.902801513671875,0.9242421984672546,0.16743069887161255,-0.20167525112628937,-0.3272603154182434
1.2287085056304932,-0.4105657637119293,-0.9043638110160828,0.9249737858772278,0.16790887713432312,-0.2014012187719345,-0.3275497555732727
1.2488093376159668,-0.41121017932891846,-0.9074512720108032,0.9263665080070496,0.16884198784828186,-0.2008354216814041,-0.3281417787075043
1.2690787315368652,-0.4117337167263031,-0.9104684591293335,0.9277532696723938,0.16976270079612732,-0.2002258151769638,-0.328752726316452
1.2892968654632568,-0.4119650721549988,-0.9119640588760376,0.9283900856971741,0.17020222544670105,-0.19992642104625702,-0.32906317710876465
1.309295415878296,-0.4122731685638428,-0.9148678779602051,0.9298872351646423,0.1710723340511322,-0.1992734670639038,-0.3296995759010315
1.3293745517730713,-0.4123620092868805,-0.9162812829017639,0.9307292103767395,0.1715061515569687,-0.19892604649066925,-0.33002451062202454
1.3494484424591064,-0.41258081793785095,-0.9191212058067322,0.9321615099906921,0.17236053943634033,-0.19828422367572784,-0.33068177103996277
1.369502305984497,-0.41275736689567566,-0.9219461679458618,0.933517336845398,0.1732143610715866,-0.19770504534244537,-0.33133751153945923
1.389604091644287,-0.4128609001636505,-0.9233654737472534,0.9340967535972595,0.17362186312675476,-0.19745327532291412,-0.33166471123695374
1.4096758365631104,-0.41296106576919556,-0.9261327981948853,0.9354802370071411,0.17442584037780762,-0.19691748917102814,-0.3323281407356262
1.4297497272491455,-0.4129610061645508,-0.9274734854698181,0.9363089799880981,0.17483116686344147,-0.19662389159202576,-0.3326699733734131
1.449854850769043,-0.41289880871772766,-0.9301303625106812,0.9378747344017029,0.1756296455860138,-0.19603745639324188,-0.33336278796195984
1.469904899597168,-0.41279488801956177,-0.932746410369873,0.939552366733551,0.17640036344528198,-0.19549816846847534,-0.33406615257263184
1.4899919033050537,-0.4127695858478546,-0.9340673685073853,0.9402767419815063,0.17675527930259705,-0.1952720284461975,-0.33441683650016785
1.5100808143615723,-0.41264235973358154,-0.9366456866264343,0.9419246912002563,0.17745454609394073,-0.19480210542678833,-0.3351258635520935
1.5303099155426025,-0.4123895466327667,-0.9391623139381409,0.9436045289039612,0.1781497299671173,-0.19429917633533478,-0.33584311604499817
1.5504510402679443,-0.41219741106033325,-0.9403753876686096,0.9445890188217163,0.17850585281848907,-0.19402046501636505,-0.3362080752849579
1.5704822540283203,-0.4118271768093109,-0.9428050518035889,0.9464011788368225,0.17917419970035553,-0.19351330399513245,-0.3369431793689728
1.5905859470367432,-0.41164276003837585,-0.9440219402313232,0.9472323656082153,0.1794840544462204,-0.1932869702577591,-0.3373123109340668
1.6106536388397217,-0.41118934750556946,-0.9464243054389954,0.9489006996154785,0.18007048964500427,-0.19284547865390778,-0.3380545973777771
1.6307058334350586,-0.4106864929199219,-0.9488384127616882,0.9502103924751282,0.18060986697673798,-0.19243387877941132,-0.3388006389141083
1.6507954597473145,-0.4104263484477997,-0.9500468969345093,0.9507505297660828,0.1808677762746811,-0.19223745167255402,-0.3391749858856201
1.6708555221557617,-0.40989649295806885,-0.9524821639060974,0.9515558481216431,0.1813456267118454,-0.1919068843126297,-0.3399103879928589
1.6909384727478027,-0.4096131920814514,-0.953701913356781,0.9518767595291138,0.18156352639198303,-0.19177637994289398,-0.3402691185474396
1.7110307216644287,-0.40891510248184204,-0.9560858607292175,0.9527392983436584,0.1819978654384613,-0.1914995163679123,-0.3409813642501831
1.731078863143921,-0.40813782811164856,-0.958398699760437,0.9538284540176392,0.1824459284543991,-0.1911773681640625,-0.3417116403579712
1.7511780261993408,-0.40770697593688965,-0.9595043063163757,0.9545718431472778,0.1826891005039215,-0.1909685730934143,-0.3420906960964203
1.7714180946350098,-0.40680015087127686,-0.961655855178833,0.9562132954597473,0.18317463994026184,-0.19053632020950317,-0.34286531805992126
1.7914021015167236,-0.4063118100166321,-0.9627066850662231,0.9570706486701965,0.18340866267681122,-0.19031120836734772,-0.34325912594795227
1.8114969730377197,-0.4051591753959656,-0.9647110104560852,0.9590712785720825,0.18389703333377838,-0.18979132175445557,-0.344059020280838
1.8315303325653076,-0.4039064347743988,-0.9666537046432495,0.9611226320266724,0.18438807129859924,-0.18924790620803833,-0.3448808789253235
1.8516206741333008,-0.4032234847545624,-0.9675907492637634,0.9622452855110168,0.1846402883529663,-0.18897323310375214,-0.34529775381088257
1.871739387512207,-0.4019050896167755,-0.9694799184799194,0.9642972350120544,0.1851121187210083,-0.18848975002765656,-0.3461487591266632
1.8918132781982422,-0.40126392245292664,-0.9704347252845764,0.9652162790298462,0.18532375991344452,-0.18828178942203522,-0.3465777337551117
1.9118995666503906,-0.39992615580558777,-0.9722862243652344,0.9672147035598755,0.18575511872768402,-0.18784353137016296,-0.3474412262439728
1.9319860935211182,-0.3985345661640167,-0.9740897417068481,0.969274640083313,0.18620046973228455,-0.18740534782409668,-0.34830477833747864
1.9520668983459473,-0.39778411388397217,-0.9749549627304077,0.9703951478004456,0.18644702434539795,-0.18716171383857727,-0.3487393260002136
1.972135066986084,-0.3962831497192383,-0.9766920208930969,0.9724929332733154,0.1869245022535324,-0.18671873211860657,-0.34960904717445374
1.9922170639038086,-0.39472606778144836,-0.9783911108970642,0.9745510816574097,0.1873779445886612,-0.1862553507089615,-0.35049521923065186
2.012345552444458,-0.39394423365592957,-0.9792411923408508,0.9755252003669739,0.1875838190317154,-0.18604427576065063,-0.3509400188922882
2.0324549674987793,-0.3922869861125946,-0.9808816313743591,0.9775761365890503,0.18801067769527435,-0.18557220697402954,-0.3518460690975189
2.05269718170166,-0.39054760336875916,-0.9824787974357605,0.9795928001403809,0.188423290848732,-0.18507252633571625,-0.35276830196380615
2.0728306770324707,-0.3896203935146332,-0.9832460880279541,0.980654776096344,0.1886223554611206,-0.18480029702186584,-0.35323479771614075
2.092928171157837,-0.38778215646743774,-0.9847758412361145,0.9827361106872559,0.18898777663707733,-0.18433699011802673,-0.3541701138019562
2.1130807399749756,-0.38688644766807556,-0.9855456948280334,0.9837319850921631,0.18914414942264557,-0.18415884673595428,-0.35464081168174744
2.1331496238708496,-0.3850184381008148,-0.9870302677154541,0.985870897769928,0.18945148587226868,-0.18381264805793762,-0.35559025406837463
2.1535611152648926,-0.3831033706665039,-0.9885013103485107,0.987902820110321,0.1897331327199936,-0.18349921703338623,-0.3565477132797241
2.173736572265625,-0.38209962844848633,-0.9892195463180542,0.9889224171638489,0.18988296389579773,-0.18332341313362122,-0.3570277988910675
2.193758726119995,-0.38017264008522034,-0.9906903505325317,0.990735650062561,0.19017621874809265,-0.18304501473903656,-0.3579932451248169
2.213822841644287,-0.3792375922203064,-0.9914330244064331,0.9915565848350525,0.19031476974487305,-0.18292494118213654,-0.3584788143634796
2.2339179515838623,-0.37729382514953613,-0.9929011464118958,0.993131160736084,0.19059476256370544,-0.18265768885612488,-0.3594539761543274
2.255174398422241,-0.3753040134906769,-0.9943603873252869,0.99455726146698,0.1908724009990692,-0.182378351688385,-0.3604414165019989
2.275238275527954,-0.37428733706474304,-0.9950829148292542,0.9952371120452881,0.19101572036743164,-0.1822289377450943,-0.3609432280063629
2.295336961746216,-0.3722175061702728,-0.9965176582336426,0.9965528845787048,0.19130271673202515,-0.18194521963596344,-0.3619556427001953
2.315444231033325,-0.3711691200733185,-0.9972249269485474,0.997218668460846,0.19145162403583527,-0.18180537223815918,-0.3624686598777771
2.335498809814453,-0.36899012327194214,-0.9986082911491394,0.9985800981521606,0.1917542964220047,-0.18147975206375122,-0.36351364850997925
2.355597496032715,-0.36788874864578247,-0.9992860555648804,0.9992505311965942,0.19190718233585358,-0.18128474056720734,-0.36405280232429504
2.3757762908935547,-0.36567938327789307,-1.0006178617477417,1.0005570650100708,0.19220729172229767,-0.18084771931171417,-0.3651649057865143
2.3964591026306152,-0.36346307396888733,-1.0019114017486572,1.0018185377120972,0.19249969720840454,-0.1803443431854248,-0.3663288950920105
2.416567802429199,-0.36235034465789795,-1.0025429725646973,1.0024359226226807,0.1926354467868805,-0.18007180094718933,-0.36692914366722107
2.437802314758301,-0.36001574993133545,-1.0037586688995361,1.0036849975585938,0.1929062008857727,-0.1794215887784958,-0.3681704103946686
2.457883358001709,-0.35878828167915344,-1.0043413639068604,1.0043500661849976,0.19304312765598297,-0.17906451225280762,-0.36880606412887573
2.4779746532440186,-0.3563714623451233,-1.0054857730865479,1.0056604146957397,0.19331544637680054,-0.17835776507854462,-0.37011656165122986
2.4980640411376953,-0.35519132018089294,-1.0060545206069946,1.0062764883041382,0.19344553351402283,-0.1780175417661667,-0.3707926273345947
2.5182089805603027,-0.3527757227420807,-1.0071587562561035,1.0074349641799927,0.19370785355567932,-0.17722924053668976,-0.3722017705440521
2.5397462844848633,-0.35032641887664795,-1.0082120895385742,1.0085391998291016,0.1939839869737625,-0.176347017288208,-0.37369248270988464
2.5598344802856445,-0.3490486741065979,-1.0087095499038696,1.0090984106063843,0.19413116574287415,-0.17584393918514252,-0.37446942925453186
2.5799033641815186,-0.3465011417865753,-1.0096890926361084,1.0101654529571533,0.19441351294517517,-0.17483071982860565,-0.37607166171073914
2.600550413131714,-0.34524214267730713,-1.0101816654205322,1.0106418132781982,0.19454194605350494,-0.1743278205394745,-0.37689709663391113
2.6206259727478027,-0.3425830602645874,-1.0111491680145264,1.0114712715148926,0.19479791820049286,-0.17317891120910645,-0.37861719727516174
2.640678644180298,-0.3398880362510681,-1.0120744705200195,1.012179970741272,0.19503739476203918,-0.17191827297210693,-0.38043323159217834
2.6607773303985596,-0.33844614028930664,-1.0124902725219727,1.0125211477279663,0.19514307379722595,-0.17116133868694305,-0.3813899755477905
2.680845022201538,-0.3356713056564331,-1.013260841369629,1.0130659341812134,0.19529321789741516,-0.16960273683071136,-0.38339412212371826
2.7009501457214355,-0.3343428671360016,-1.0135902166366577,1.0132750272750854,0.1953410506248474,-0.16879713535308838,-0.3844471573829651
2.7210211753845215,-0.3315706253051758,-1.0140869617462158,1.0135871171951294,0.19531457126140594,-0.1669158935546875,-0.38668009638786316
2.7410776615142822,-0.33012855052948,-1.0142561197280884,1.013660192489624,0.195224791765213,-0.16583877801895142,-0.38786351680755615
2.7611711025238037,-0.32729995250701904,-1.0144867897033691,1.0134426355361938,0.19487875699996948,-0.1635526567697525,-0.39037564396858215
2.781224250793457,-0.32413992285728455,-1.0145840644836426,1.012966275215149,0.19433900713920593,-0.1608712077140808,-0.3930823504924774
2.8013124465942383,-0.32237452268600464,-1.0146211385726929,1.012715220451355,0.19401757419109344,-0.15934929251670837,-0.3945050537586212
2.821392297744751,-0.31830957531929016,-1.0147664546966553,1.01250422000885,0.193335622549057,-0.1558498740196228,-0.39746975898742676
2.841506004333496,-0.316083163022995,-1.0149168968200684,1.0126686096191406,0.193012997508049,-0.15392915904521942,-0.3989843428134918
2.861637830734253,-0.3114454448223114,-1.0154304504394531,1.0136386156082153,0.19238369166851044,-0.14992502331733704,-0.401957631111145
2.8816964626312256,-0.3068113327026367,-1.0157047510147095,1.0148721933364868,0.19129733741283417,-0.1457653045654297,-0.4047321677207947
2.9017860889434814,-0.3046160340309143,-1.0155158042907715,1.015211582183838,0.1904553920030594,-0.14365173876285553,-0.406039834022522
2.921851396560669,-0.30078327655792236,-1.0146504640579224,1.0149818658828735,0.18849323689937592,-0.13972777128219604,-0.40865451097488403
2.942042350769043,-0.29918989539146423,-1.0141793489456177,1.0144802331924438,0.18763454258441925,-0.13809064030647278,-0.4100345969200134
2.962158203125,-0.29661068320274353,-1.0133461952209473,1.0129631757736206,0.1863524168729782,-0.1355661302804947,-0.41297730803489685
2.9821815490722656,-0.2945469319820404,-1.0125701427459717,1.011228084564209,0.18549363315105438,-0.1337565928697586,-0.4161038100719452
3.0022695064544678,-0.29353803396224976,-1.0121608972549438,1.0105160474777222,0.1851552277803421,-0.13295292854309082,-0.4177135229110718
3.0223474502563477,-0.29126766324043274,-1.0113131999969482,1.0096043348312378,0.1847100555896759,-0.13128051161766052,-0.4209921360015869
3.043714761734009,-0.2886589467525482,-1.0104565620422363,1.009109377861023,0.18460538983345032,-0.12941177189350128,-0.42430904507637024
3.0638058185577393,-0.28728577494621277,-1.0100173950195312,1.0088692903518677,0.1846461445093155,-0.12836520373821259,-0.42597612738609314
3.083936929702759,-0.2846340835094452,-1.0090796947479248,1.0081361532211304,0.18478679656982422,-0.12610256671905518,-0.4293287694454193
3.1044325828552246,-0.2822023630142212,-1.0080294609069824,1.006901741027832,0.18491880595684052,-0.12357749044895172,-0.43270522356033325
3.1245288848876953,-0.2810707688331604,-1.0074856281280518,1.0061146020889282,0.18501655757427216,-0.12229879945516586,-0.43440330028533936
3.1445748805999756,-0.2789025902748108,-1.0063846111297607,1.0044246912002563,0.1853334754705429,-0.11981529742479324,-0.4378192126750946
3.1646487712860107,-0.27786967158317566,-1.0058397054672241,1.0036025047302246,0.18557623028755188,-0.11869340389966965,-0.43953728675842285
3.184743642807007,-0.2758808732032776,-1.0047353506088257,1.0021308660507202,0.18617816269397736,-0.11666153371334076,-0.4429831802845001
3.2048282623291016,-0.27401202917099,-1.0036214590072632,1.0008436441421509,0.18693363666534424,-0.11491070687770844,-0.4464225471019745
3.2249910831451416,-0.2731475234031677,-1.0030510425567627,1.0002479553222656,0.18733733892440796,-0.11413545161485672,-0.44813838601112366
3.245105504989624,-0.2715054750442505,-1.0019046068191528,0.9990178942680359,0.18818499147891998,-0.11262320727109909,-0.4515569806098938
3.265232801437378,-0.2707102298736572,-1.0013288259506226,0.9983497262001038,0.18860869109630585,-0.11183854192495346,-0.4532606601715088
3.2853171825408936,-0.26911047101020813,-1.0001920461654663,0.996829092502594,0.18948182463645935,-0.11011354625225067,-0.45664966106414795
3.305410861968994,-0.2675020098686218,-0.9990391135215759,0.9951128959655762,0.19037137925624847,-0.10813499987125397,-0.460012823343277
3.325587272644043,-0.2667192816734314,-0.9984496235847473,0.9942160844802856,0.19082123041152954,-0.10709727555513382,-0.4616885781288147
3.3458094596862793,-0.26516541838645935,-0.9972530007362366,0.9924710392951965,0.19174543023109436,-0.10497795045375824,-0.46504226326942444
3.3659679889678955,-0.26441946625709534,-0.9966579675674438,0.9916366934776306,0.19224286079406738,-0.10398069769144058,-0.4667187035083771
3.3859925270080566,-0.2629752457141876,-0.9954698085784912,0.990084707736969,0.1933000683784485,-0.10212108492851257,-0.47006547451019287
3.406081438064575,-0.26231685280799866,-0.9948768615722656,0.9893539547920227,0.19386659562587738,-0.10130781680345535,-0.47172728180885315
3.4261908531188965,-0.26119065284729004,-0.993690013885498,0.9878718256950378,0.19504091143608093,-0.09988647699356079,-0.4750228822231293
3.44632625579834,-0.2607007324695587,-0.9930975437164307,0.9871243238449097,0.19564804434776306,-0.09924092143774033,-0.4766533672809601
3.466449022293091,-0.2597584128379822,-0.9919260740280151,0.9855693578720093,0.19689032435417175,-0.09790754318237305,-0.4798806607723236
3.486492872238159,-0.2587723433971405,-0.9907669425010681,0.9839491248130798,0.19815492630004883,-0.09640330076217651,-0.48306795954704285
3.5065622329711914,-0.25823068618774414,-0.9901903867721558,0.9831585884094238,0.19879168272018433,-0.09556986391544342,-0.48465099930763245
3.5266475677490234,-0.25710541009902954,-0.9890251159667969,0.9816033244132996,0.20003770291805267,-0.09377886354923248,-0.4878036379814148
3.5470893383026123,-0.2559581398963928,-0.9878445863723755,0.9800584316253662,0.20124655961990356,-0.09186077862977982,-0.49093955755233765
3.567243814468384,-0.25542664527893066,-0.9872514009475708,0.9792433977127075,0.20183803141117096,-0.09090974926948547,-0.49250155687332153
3.5872809886932373,-0.254537433385849,-0.9860736727714539,0.977495014667511,0.20304615795612335,-0.08914399147033691,-0.49560704827308655
3.6078953742980957,-0.25417929887771606,-0.9854912161827087,0.9765802025794983,0.20366701483726501,-0.08834263682365417,-0.49715158343315125
3.6279847621917725,-0.2536035478115082,-0.9843505620956421,0.9746508598327637,0.20496205985546112,-0.08685997128486633,-0.5002175569534302
3.648045301437378,-0.2531416714191437,-0.983227014541626,0.9726844429969788,0.20630069077014923,-0.0854758620262146,-0.5032539963722229
3.668236494064331,-0.2529093027114868,-0.9826692938804626,0.9717114567756653,0.2069738507270813,-0.08477967977523804,-0.5047607421875
3.688263177871704,-0.25237149000167847,-0.9815436005592346,0.9699294567108154,0.20831957459449768,-0.08334942162036896,-0.5077528357505798
3.7093241214752197,-0.2516796290874481,-0.9804061651229858,0.9683718085289001,0.20966626703739166,-0.08177542686462402,-0.5107195377349854
3.7294299602508545,-0.2512891888618469,-0.9798349738121033,0.9676462411880493,0.2103504091501236,-0.08093199133872986,-0.512191653251648
3.7495269775390625,-0.25052669644355774,-0.9787028431892395,0.9661727547645569,0.21175503730773926,-0.07922495901584625,-0.5151141285896301
3.769611120223999,-0.25017333030700684,-0.9781367778778076,0.9654201865196228,0.21246926486492157,-0.07837335765361786,-0.5165666341781616
3.7896814346313477,-0.2495996206998825,-0.9770194888114929,0.9638158082962036,0.2139275223016739,-0.07677354663610458,-0.51945561170578
3.810088634490967,-0.249175563454628,-0.9759117364883423,0.962103545665741,0.21540577709674835,-0.07526274025440216,-0.52232426404953
3.8301799297332764,-0.24901172518730164,-0.9753649234771729,0.9612114429473877,0.21615052223205566,-0.07455119490623474,-0.5237497687339783
3.850234031677246,-0.24869707226753235,-0.974274754524231,0.9594484567642212,0.21765492856502533,-0.07312565296888351,-0.5265800952911377
3.8703277111053467,-0.24854378402233124,-0.9737348556518555,0.95859694480896,0.21841594576835632,-0.07242784649133682,-0.527985692024231
3.890437364578247,-0.24824708700180054,-0.9726749658584595,0.9569125175476074,0.2199631631374359,-0.07103891670703888,-0.5307751297950745
3.9105594158172607,-0.24809566140174866,-0.9721555709838867,0.9560812711715698,0.22074659168720245,-0.07033199816942215,-0.5321609377861023
3.930633306503296,-0.2478330433368683,-0.971126914024353,0.9543870091438293,0.2223203331232071,-0.06891607493162155,-0.5349098443984985
3.9506869316101074,-0.24757690727710724,-0.9701019525527954,0.9527165293693542,0.2239280343055725,-0.06748039275407791,-0.5376172065734863
3.970764398574829,-0.24747468531131744,-0.9695918560028076,0.951882541179657,0.2247452437877655,-0.06678897887468338,-0.5389555096626282
3.9909467697143555,-0.2472924292087555,-0.9685789942741394,0.9502182006835938,0.22638165950775146,-0.06541520357131958,-0.5416146516799927
4.011053085327148,-0.24716296792030334,-0.9675940275192261,0.9485427141189575,0.22802498936653137,-0.06409552693367004,-0.544262170791626
4.031198501586914,-0.2470998615026474,-0.9671048521995544,0.9477128386497498,0.22883784770965576,-0.06342063844203949,-0.5455802083015442
4.051225662231445,-0.2470300942659378,-0.9661125540733337,0.9460815191268921,0.2304379940032959,-0.062090516090393066,-0.5481975078582764
4.071292161941528,-0.2470066398382187,-0.9656117558479309,0.9452569484710693,0.23122237622737885,-0.0614047609269619,-0.549497127532959
4.091387987136841,-0.24695587158203125,-0.9646136164665222,0.9435980319976807,0.23280508816242218,-0.05999055132269859,-0.5520744919776917
4.11142897605896,-0.24684223532676697,-0.9636523723602295,0.9419741630554199,0.23444263637065887,-0.05855158343911171,-0.5546224117279053
4.1315412521362305,-0.24677543342113495,-0.963179349899292,0.941173791885376,0.2352747619152069,-0.05783187597990036,-0.5558808445930481
4.151573181152344,-0.24661533534526825,-0.962237536907196,0.9396325945854187,0.23695190250873566,-0.0563771054148674,-0.5583713054656982
4.171696424484253,-0.24653778970241547,-0.9617711901664734,0.9388740062713623,0.2378021776676178,-0.055644527077674866,-0.5596073865890503
4.191831111907959,-0.24635449051856995,-0.9608464241027832,0.9374330639839172,0.23951441049575806,-0.054145678877830505,-0.5620728731155396
4.212589740753174,-0.2462092638015747,-0.9599413871765137,0.9360149502754211,0.2412511706352234,-0.05267796665430069,-0.5645273923873901
4.232632160186768,-0.24615803360939026,-0.9594897627830505,0.9352832436561584,0.24211129546165466,-0.05193892866373062,-0.5657482147216797
4.25275444984436,-0.2461128979921341,-0.9585908651351929,0.9337190389633179,0.2438514232635498,-0.05044374242424965,-0.568166196346283
4.272895336151123,-0.24611449241638184,-0.9581425786018372,0.9328956604003906,0.2447199821472168,-0.049686651676893234,-0.5693673491477966
4.29297137260437,-0.24611815810203552,-0.9572494626045227,0.9312530755996704,0.24647019803524017,-0.04816225916147232,-0.5717566013336182
4.313210725784302,-0.24613626301288605,-0.9568108916282654,0.9304373860359192,0.24735812842845917,-0.04742759093642235,-0.572947084903717
4.333219051361084,-0.24619191884994507,-0.9559478759765625,0.928859531879425,0.24916037917137146,-0.046028610318899155,-0.5753179788589478
4.353780269622803,-0.246301531791687,-0.95510333776474,0.9272870421409607,0.25097888708114624,-0.04472119361162186,-0.5776636600494385
4.373891592025757,-0.24636805057525635,-0.9546860456466675,0.9265047311782837,0.25189220905303955,-0.04408172518014908,-0.5788239240646362
4.3940043449401855,-0.24655987322330475,-0.9538675546646118,0.9248879551887512,0.25371503829956055,-0.04283026233315468,-0.5811241269111633
4.414120674133301,-0.24666662514209747,-0.9534676671028137,0.9240920543670654,0.2546311318874359,-0.04221254214644432,-0.5822682976722717
4.434212684631348,-0.24689461290836334,-0.9526855945587158,0.92250657081604,0.25646883249282837,-0.040965963155031204,-0.5845441818237305
4.454599380493164,-0.24698278307914734,-0.9522960186004639,0.9217515587806702,0.25738558173179626,-0.04030747711658478,-0.585674524307251
4.474807500839233,-0.2471376210451126,-0.9515169858932495,0.9202499389648438,0.25921618938446045,-0.03891221433877945,-0.5879172086715698
4.4948296546936035,-0.24723005294799805,-0.9507347941398621,0.9188206195831299,0.2610745429992676,-0.03741609305143356,-0.5901347994804382
4.51491641998291,-0.24727927148342133,-0.9503481984138489,0.9181172847747803,0.26201778650283813,-0.03666657581925392,-0.5912374258041382
4.535058259963989,-0.247360959649086,-0.9495818018913269,0.9167555570602417,0.26393061876296997,-0.03517455607652664,-0.5934207439422607
4.555321216583252,-0.24740566313266754,-0.9492008686065674,0.9160959720611572,0.26488545536994934,-0.03445366770029068,-0.5945020914077759
4.57541823387146,-0.24751564860343933,-0.9484360218048096,0.9147740602493286,0.2667677700519562,-0.0330517403781414,-0.5966373682022095
4.595494985580444,-0.24763177335262299,-0.9476655125617981,0.9134840965270996,0.26860740780830383,-0.03166002035140991,-0.5987469553947449
4.615618944168091,-0.24770545959472656,-0.9472833871841431,0.9128369092941284,0.2695263922214508,-0.030968260020017624,-0.5997961759567261
4.635759115219116,-0.24788933992385864,-0.9465316534042358,0.91154545545578,0.27137571573257446,-0.029604673385620117,-0.6018890738487244
4.655864953994751,-0.24806541204452515,-0.9457864761352539,0.9103058576583862,0.27325326204299927,-0.028238290920853615,-0.603961706161499
4.6759631633758545,-0.24813714623451233,-0.9454101920127869,0.9097170233726501,0.2741897404193878,-0.02754336968064308,-0.6049872040748596
4.696035146713257,-0.24823659658432007,-0.9446538090705872,0.9085940718650818,0.2760710120201111,-0.026102090254426003,-0.6070171594619751
4.7161545753479,-0.24828611314296722,-0.9442808628082275,0.9080504179000854,0.2770249843597412,-0.025379162281751633,-0.6080266237258911
4.73625636100769,-0.2484164834022522,-0.9435594081878662,0.9069437384605408,0.2789813280105591,-0.023934703320264816,-0.6100389361381531
4.756576776504517,-0.24856127798557281,-0.9428690075874329,0.9058537483215332,0.2810056209564209,-0.022492358461022377,-0.6120367050170898
4.776677846908569,-0.24865397810935974,-0.9425321817398071,0.905292809009552,0.2820243835449219,-0.021787483245134354,-0.6130258440971375
4.796720027923584,-0.24892912805080414,-0.9418638348579407,0.9040664434432983,0.2840227782726288,-0.020427092909812927,-0.6149858236312866
4.81684684753418,-0.24909654259681702,-0.9415283799171448,0.9034222960472107,0.28500041365623474,-0.01976020447909832,-0.6159575581550598
4.836942672729492,-0.2495007961988449,-0.9408645629882812,0.9020792841911316,0.28693029284477234,-0.018489621579647064,-0.6178873181343079
4.857109546661377,-0.24993081390857697,-0.9402050971984863,0.9007135033607483,0.28883928060531616,-0.017217382788658142,-0.6198000907897949
4.877283096313477,-0.25016269087791443,-0.9398859143257141,0.9000220894813538,0.2897995412349701,-0.016603291034698486,-0.6207505464553833
4.897358179092407,-0.2506521940231323,-0.9392637610435486,0.8986415863037109,0.29171910881996155,-0.015396133065223694,-0.6226464509963989
4.917611598968506,-0.2511553168296814,-0.9386670589447021,0.89725261926651,0.29365622997283936,-0.01419459655880928,-0.6245298385620117
4.937716484069824,-0.2513837218284607,-0.9383731484413147,0.8965505361557007,0.2946184575557709,-0.013550235889852047,-0.6254673600196838
4.957808971405029,-0.2517341673374176,-0.937786877155304,0.8952030539512634,0.2965437173843384,-0.012147922068834305,-0.6273290514945984
4.977904319763184,-0.2518751621246338,-0.9374943375587463,0.8945449590682983,0.2975064814090729,-0.011406929232180119,-0.6282531023025513
4.997968673706055,-0.2521038353443146,-0.9369075894355774,0.8933284878730774,0.2994643449783325,-0.009896940551698208,-0.6300867795944214
5.018135070800781,-0.25221139192581177,-0.9366137385368347,0.8927625417709351,0.300457626581192,-0.009143729694187641,-0.6309986710548401
5.03821325302124,-0.2523631453514099,-0.9360266923904419,0.8917261362075806,0.302472859621048,-0.007593209855258465,-0.6328099966049194
5.0587379932403564,-0.2525433301925659,-0.9354480504989624,0.8906975984573364,0.3044959008693695,-0.006090864539146423,-0.6346011757850647
5.078822135925293,-0.2526719570159912,-0.9351640939712524,0.8901503086090088,0.3055097460746765,-0.005365313496440649,-0.6354900002479553
5.098905324935913,-0.2530389726161957,-0.934609055519104,0.8890131115913391,0.3075372576713562,-0.004013555124402046,-0.63726407289505
5.118997812271118,-0.25327274203300476,-0.9343395233154297,0.8884105682373047,0.3085494935512543,-0.0033717406913638115,-0.6381498575210571
5.1390979290008545,-0.253802090883255,-0.933810293674469,0.8871088624000549,0.31054216623306274,-0.0020927281584590673,-0.6399120688438416
5.159163236618042,-0.25435394048690796,-0.9333019256591797,0.8856824040412903,0.3125118613243103,-0.0007832571282051504,-0.6416470408439636
5.179245233535767,-0.2545979917049408,-0.9330529570579529,0.8849947452545166,0.31350409984588623,-0.00010924134403467178,-0.6425027847290039
5.199367523193359,-0.25498345494270325,-0.932563066482544,0.8837576508522034,0.31552958488464355,0.0012834479566663504,-0.6441951990127563
5.219425439834595,-0.2551266551017761,-0.9323221445083618,0.8832316398620605,0.31656375527381897,0.0019859729800373316,-0.6450351476669312
5.239490032196045,-0.25537070631980896,-0.9318338632583618,0.8823067545890808,0.3186359107494354,0.0034180229995399714,-0.6467154026031494
5.259568691253662,-0.2554776966571808,-0.9315901398658752,0.8818824291229248,0.3196776807308197,0.004146847873926163,-0.6475557088851929
5.279631853103638,-0.25576210021972656,-0.931108832359314,0.8810206055641174,0.3217625617980957,0.005544379353523254,-0.649234414100647
5.299724340438843,-0.2559264004230499,-0.9308732748031616,0.8805716037750244,0.3228069245815277,0.00622980110347271,-0.6500680446624756
5.319801568984985,-0.2563241124153137,-0.9304159283638,0.8796049356460571,0.32487982511520386,0.007531523238867521,-0.6517112255096436
5.340034008026123,-0.2567635476589203,-0.9299593567848206,0.878576397895813,0.32690536975860596,0.008835360407829285,-0.6533194780349731
5.3601226806640625,-0.256991446018219,-0.929733395576477,0.8780503869056702,0.32791218161582947,0.009497242048382759,-0.6541134119033813
5.3801915645599365,-0.25743967294692993,-0.9292959570884705,0.8770344257354736,0.32994547486305237,0.010835226625204086,-0.6556927561759949
5.400271892547607,-0.2576442062854767,-0.9290829300880432,0.8765659332275391,0.3309776484966278,0.011515758000314236,-0.6564778089523315
5.420353651046753,-0.25802257657051086,-0.9286677837371826,0.8756786584854126,0.3330596089363098,0.012888459488749504,-0.6580337882041931
5.4404137134552,-0.2581680715084076,-0.9284607172012329,0.8752718567848206,0.334104984998703,0.01361013948917389,-0.6588026285171509
5.460506439208984,-0.2583657503128052,-0.9280526638031006,0.8745032548904419,0.3361956775188446,0.015138747170567513,-0.6603254079818726
5.480568885803223,-0.2585052251815796,-0.9276447296142578,0.8737872838973999,0.3382754325866699,0.016729891300201416,-0.6618377566337585
5.500685691833496,-0.25857070088386536,-0.927441418170929,0.8734337091445923,0.3393106162548065,0.017533233389258385,-0.6625916361808777
5.520735740661621,-0.2587409019470215,-0.9270317554473877,0.8726743459701538,0.3413626551628113,0.019138481467962265,-0.6640979051589966
5.540905714035034,-0.2589639723300934,-0.9266202449798584,0.8718063235282898,0.34338825941085815,0.02073558419942856,-0.6656036376953125
5.5609962940216064,-0.2591138482093811,-0.9264128804206848,0.8713358640670776,0.34438633918762207,0.021509205922484398,-0.6663588881492615
5.581049680709839,-0.25949424505233765,-0.9259949326515198,0.8703547716140747,0.34635865688323975,0.022990437224507332,-0.6678728461265564
5.601219177246094,-0.2597232758998871,-0.9257883429527283,0.8698630332946777,0.34734204411506653,0.023685555905103683,-0.6686303615570068
5.621301174163818,-0.26025062799453735,-0.9253885746002197,0.8688570857048035,0.34932103753089905,0.02498486079275608,-0.6701340675354004
5.64147686958313,-0.2608433663845062,-0.9250057935714722,0.8678532838821411,0.35131222009658813,0.026187090203166008,-0.6716241836547852
5.661576986312866,-0.26114022731781006,-0.9248208403587341,0.8673670887947083,0.35231614112854004,0.02677403762936592,-0.6723611950874329
5.681601285934448,-0.2616908848285675,-0.9244603514671326,0.8664880990982056,0.3543328642845154,0.027953291311860085,-0.673821210861206
5.701694011688232,-0.2619280219078064,-0.9242839217185974,0.8660998940467834,0.3553551137447357,0.028571125119924545,-0.674540638923645
5.721799850463867,-0.26235446333885193,-0.9239364862442017,0.8653690814971924,0.35740402340888977,0.02988556958734989,-0.6759668588638306
5.7419047355651855,-0.2627580463886261,-0.9236108064651489,0.8646177053451538,0.35948655009269714,0.031275369226932526,-0.6773787140846252
5.762000799179077,-0.2629794776439667,-0.9234586954116821,0.8642081618309021,0.36053428053855896,0.03196718543767929,-0.6780804395675659
5.7820844650268555,-0.2634643614292145,-0.923172652721405,0.8632913827896118,0.3626292645931244,0.0333351232111454,-0.6794665455818176
5.802218675613403,-0.2637156844139099,-0.9230270981788635,0.8628215789794922,0.3636590838432312,0.03401825949549675,-0.6801518797874451
5.822345733642578,-0.2642160654067993,-0.9227275252342224,0.861900806427002,0.3656825125217438,0.035392582416534424,-0.681512713432312
5.842369318008423,-0.2646884322166443,-0.9224254488945007,0.861129641532898,0.36769312620162964,0.03672759234905243,-0.6828685998916626
5.862476348876953,-0.26491978764533997,-0.9222816824913025,0.8607897758483887,0.36871153116226196,0.037370964884757996,-0.6835414171218872
5.88260293006897,-0.26535946130752563,-0.9220001101493835,0.8601983189582825,0.3707663118839264,0.038645606487989426,-0.6848734021186829
5.902661085128784,-0.26557043194770813,-0.9218637943267822,0.8599199056625366,0.3718038499355316,0.039285726845264435,-0.6855307221412659
5.922825574874878,-0.26597681641578674,-0.9215942621231079,0.8593239784240723,0.3738744854927063,0.04063837230205536,-0.686837375164032
5.942976713180542,-0.26636698842048645,-0.9213399887084961,0.8586265444755554,0.3759382665157318,0.042074475437402725,-0.688139796257019
5.963104963302612,-0.26655423641204834,-0.9212135076522827,0.8582304120063782,0.37695690989494324,0.042835041880607605,-0.6887894868850708
5.983200550079346,-0.2669265866279602,-0.9209557771682739,0.8573884963989258,0.3789674639701843,0.04438783600926399,-0.6900847554206848
6.003354549407959,-0.26710668206214905,-0.9208228588104248,0.8569720983505249,0.3799615800380707,0.045169468969106674,-0.6907303929328918
6.023447275161743,-0.2674970030784607,-0.9205558896064758,0.8561699390411377,0.38194888830184937,0.04667713865637779,-0.692020058631897
6.043691635131836,-0.26770323514938354,-0.9204216599464417,0.8557979464530945,0.3829479515552521,0.04739971458911896,-0.6926622986793518
6.063851833343506,-0.268157958984375,-0.9201627373695374,0.855073094367981,0.3849739134311676,0.0487724207341671,-0.6939361691474915
6.083959579467773,-0.2686540484428406,-0.9199135303497314,0.8543992042541504,0.38701149821281433,0.05005909875035286,-0.6951969265937805
6.104010581970215,-0.26892590522766113,-0.9197984933853149,0.854066789150238,0.3880293667316437,0.050663627684116364,-0.6958237290382385
6.124087810516357,-0.26950603723526,-0.9195818305015564,0.8533852100372314,0.39004647731781006,0.0518515482544899,-0.697070300579071
6.144517183303833,-0.2697995901107788,-0.9194780588150024,0.8530308604240417,0.39105018973350525,0.052463047206401825,-0.6976878643035889
6.164636850357056,-0.2703395485877991,-0.9192812442779541,0.8523210883140564,0.3930530548095703,0.05375594645738602,-0.6989094018936157
6.185096740722656,-0.27081549167633057,-0.9191000461578369,0.8516581058502197,0.3950725495815277,0.05510330572724342,-0.700111985206604
6.205246448516846,-0.2710294723510742,-0.9190165996551514,0.8513513207435608,0.396090030670166,0.05578232184052467,-0.7007055282592773
6.225350856781006,-0.27143943309783936,-0.9188535809516907,0.8507993221282959,0.3981500267982483,0.057132333517074585,-0.7018738985061646
6.24540376663208,-0.27162912487983704,-0.91877281665802,0.8505461812019348,0.3991876244544983,0.0578189492225647,-0.7024500966072083
6.265465497970581,-0.2719994783401489,-0.918613612651825,0.8500741124153137,0.4012761116027832,0.059191782027482986,-0.7035878896713257
6.2855589389801025,-0.27217748761177063,-0.9185385704040527,0.849837064743042,0.4023185968399048,0.0598861388862133,-0.7041517496109009
6.305765628814697,-0.2725183367729187,-0.9183946847915649,0.8493924140930176,0.4043840765953064,0.06126203387975693,-0.7052738666534424
6.325796127319336,-0.272876501083374,-0.9182553887367249,0.8489561080932617,0.40640008449554443,0.06260775774717331,-0.7063959836959839
6.345951080322266,-0.27306678891181946,-0.918181836605072,0.8487392067909241,0.4073844254016876,0.06327851116657257,-0.706958532333374
6.366018533706665,-0.27346253395080566,-0.9180379509925842,0.8482616543769836,0.40932974219322205,0.06463788449764252,-0.7080804109573364
6.386282920837402,-0.2738994061946869,-0.917901873588562,0.8477240204811096,0.41126272082328796,0.06598777323961258,-0.7091932892799377
6.406396150588989,-0.27415215969085693,-0.9178398847579956,0.8474146723747253,0.4122294485569,0.0666414275765419,-0.7097456455230713
6.426448106765747,-0.2747284173965454,-0.9177206754684448,0.8467503786087036,0.41416963934898376,0.06790556758642197,-0.7108439803123474
6.44662880897522,-0.27504080533981323,-0.9176608324050903,0.8464064598083496,0.4151390492916107,0.06852695345878601,-0.711391031742096
6.466693878173828,-0.2756795585155487,-0.9175502061843872,0.8457499146461487,0.4170832931995392,0.06973212212324142,-0.7124805450439453
6.486965656280518,-0.2762940526008606,-0.9174354076385498,0.8451635241508484,0.4190066456794739,0.07094734162092209,-0.7135640978813171
6.507094144821167,-0.27658867835998535,-0.9173778295516968,0.8448948860168457,0.4199664890766144,0.07156051695346832,-0.7141014337539673
6.52712869644165,-0.2771627604961395,-0.9172655940055847,0.8443745374679565,0.4219054877758026,0.0728103294968605,-0.7151616215705872
6.547219276428223,-0.2774454653263092,-0.9172141551971436,0.8441177010536194,0.42288628220558167,0.07343752682209015,-0.7156844139099121
6.567384243011475,-0.2779867649078369,-0.9171223044395447,0.843631386756897,0.42486417293548584,0.07469401508569717,-0.7167140245437622
6.587378025054932,-0.2784591317176819,-0.917043149471283,0.8431525826454163,0.4268367290496826,0.07601144909858704,-0.7177242636680603
6.607473850250244,-0.2786739468574524,-0.917007565498352,0.8429204225540161,0.42781636118888855,0.07668323814868927,-0.7182234525680542
6.627573013305664,-0.2791028320789337,-0.9169385433197021,0.8424676060676575,0.42974957823753357,0.07801391184329987,-0.7192165851593018
6.6476452350616455,-0.27931612730026245,-0.9169001579284668,0.842257022857666,0.4307073652744293,0.07868271321058273,-0.7197120785713196
6.667784214019775,-0.2797267735004425,-0.9168207049369812,0.8418534994125366,0.4326079487800598,0.08004333078861237,-0.7207046747207642
6.6882383823394775,-0.2801241874694824,-0.9167385101318359,0.8414167761802673,0.43450307846069336,0.0814712792634964,-0.7216984629631042
6.708316087722778,-0.2803393304347992,-0.9166998267173767,0.8411957621574402,0.43544745445251465,0.08216066658496857,-0.722195029258728
6.728440046310425,-0.28084611892700195,-0.9166257381439209,0.8407422304153442,0.43731972575187683,0.08344382792711258,-0.7231824398040771
6.74849796295166,-0.2811390459537506,-0.9165933728218079,0.8405011892318726,0.4382464289665222,0.08403598517179489,-0.7236703634262085
6.768564462661743,-0.2817656397819519,-0.9165459871292114,0.8399959206581116,0.44009336829185486,0.0851680338382721,-0.7246315479278564
6.788637161254883,-0.28242334723472595,-0.9165265560150146,0.8394556641578674,0.44195446372032166,0.08627263456583023,-0.7255749106407166
6.8087217807769775,-0.2827489376068115,-0.9165269136428833,0.8391943573951721,0.44289833307266235,0.08682502061128616,-0.7260416746139526
6.828919172286987,-0.28335416316986084,-0.9165359139442444,0.8386828303337097,0.4447932839393616,0.08799858391284943,-0.7269687056541443
6.849072456359863,-0.283861368894577,-0.9165364503860474,0.838228166103363,0.4466816186904907,0.08930396288633347,-0.7278884053230286
6.869166374206543,-0.28406912088394165,-0.9165317416191101,0.8380294442176819,0.4476235806941986,0.09000632166862488,-0.7283444404602051
6.889292240142822,-0.2844049334526062,-0.9165247678756714,0.8376641273498535,0.44953814148902893,0.09148740768432617,-0.7292420268058777
6.909334182739258,-0.2845473289489746,-0.9165235161781311,0.8374897241592407,0.450508713722229,0.09224968403577805,-0.729685366153717
6.929434061050415,-0.28477469086647034,-0.9165137410163879,0.8371965289115906,0.4524562954902649,0.09381338953971863,-0.7305646538734436
6.949494361877441,-0.2850206196308136,-0.9164897203445435,0.8369508385658264,0.45436760783195496,0.09533573687076569,-0.7314454317092896
6.969589471817017,-0.28517162799835205,-0.9164735674858093,0.8368310928344727,0.4553045332431793,0.09606535732746124,-0.7318878173828125
6.989652156829834,-0.28558599948883057,-0.9164506793022156,0.8365259766578674,0.45715561509132385,0.09741818159818649,-0.732775092124939
7.009742498397827,-0.2858487665653229,-0.9164440035820007,0.8363402485847473,0.4580710530281067,0.09804190695285797,-0.73321932554245
7.029822111129761,-0.28643959760665894,-0.9164462089538574,0.8359307646751404,0.4598879814147949,0.09920316934585571,-0.7341052293777466
7.05006742477417,-0.28705301880836487,-0.9164694547653198,0.8354920744895935,0.46170639991760254,0.10033128410577774,-0.7349840402603149
7.070167779922485,-0.287348210811615,-0.9164852499961853,0.8352788090705872,0.46262720227241516,0.10091116279363632,-0.7354193329811096
7.090207576751709,-0.28787121176719666,-0.9165103435516357,0.8349152207374573,0.4644848108291626,0.10214756429195404,-0.7362799048423767
7.110324144363403,-0.2880953550338745,-0.9165170192718506,0.8347670435905457,0.4654189348220825,0.10280801355838776,-0.7367048859596252
7.130410671234131,-0.28846901655197144,-0.9165319800376892,0.8345118761062622,0.46729105710983276,0.10418199747800827,-0.7375449538230896
7.150408029556274,-0.28879499435424805,-0.9165602326393127,0.8342580795288086,0.4691782593727112,0.10558803379535675,-0.7383734583854675
7.170499801635742,-0.2889654338359833,-0.9165772199630737,0.8341130018234253,0.47012513875961304,0.10629629343748093,-0.738784909248352
7.190556287765503,-0.2893650531768799,-0.9166064858436584,0.8337997198104858,0.4719884693622589,0.10767637938261032,-0.7396090030670166
7.21063756942749,-0.28959986567497253,-0.9166186451911926,0.8336271643638611,0.4729020297527313,0.10834293812513351,-0.7400214672088623
7.230814695358276,-0.29013246297836304,-0.9166390895843506,0.8332855105400085,0.47468551993370056,0.10960060358047485,-0.740850031375885
7.251341819763184,-0.2907538414001465,-0.9166750907897949,0.8329229950904846,0.4764622747898102,0.1107407733798027,-0.7416732907295227
7.271419525146484,-0.29108041524887085,-0.9166964888572693,0.8327406644821167,0.4773535430431366,0.11129472404718399,-0.742081880569458
7.291486740112305,-0.2917422354221344,-0.9167478084564209,0.8323794007301331,0.4791479706764221,0.11238992214202881,-0.7428907752037048
7.311600685119629,-0.2920404076576233,-0.9167773723602295,0.8322115540504456,0.48005151748657227,0.11296756565570831,-0.743289589881897
7.331650495529175,-0.2925736904144287,-0.916847825050354,0.8318946361541748,0.48186320066452026,0.11417534202337265,-0.7440775036811829
7.352011203765869,-0.2928122282028198,-0.9168843626976013,0.8317488431930542,0.4827716648578644,0.11481241136789322,-0.7444654107093811
7.372198104858398,-0.29327693581581116,-0.9169501066207886,0.831472635269165,0.48457446694374084,0.11612171679735184,-0.7452346682548523
7.3922154903411865,-0.2937660217285156,-0.9169993996620178,0.8312127590179443,0.4863544702529907,0.11743776500225067,-0.7459978461265564
7.412297487258911,-0.2940273582935333,-0.9170259237289429,0.831073522567749,0.48724108934402466,0.1180780753493309,-0.7463771104812622
7.432353734970093,-0.2945757806301117,-0.9170881509780884,0.8307647705078125,0.4890064597129822,0.11932891607284546,-0.7471326589584351
7.452441692352295,-0.29486727714538574,-0.9171284437179565,0.8305885791778564,0.4898932874202728,0.11993107944726944,-0.7475075125694275
7.472509860992432,-0.29545047879219055,-0.9172194600105286,0.8302154541015625,0.49167364835739136,0.12113708257675171,-0.7482503056526184
7.492640018463135,-0.29573047161102295,-0.917268693447113,0.8300292491912842,0.4925682246685028,0.12175020575523376,-0.7486173510551453
7.512693166732788,-0.2962324619293213,-0.9173561334609985,0.8297107815742493,0.4943380057811737,0.12303373962640762,-0.7493466734886169
7.532963037490845,-0.2964387834072113,-0.9173955917358398,0.8295732736587524,0.49521613121032715,0.12372162193059921,-0.7497084736824036
7.553525447845459,-0.29679498076438904,-0.9174771308898926,0.8293319344520569,0.49696266651153564,0.12512452900409698,-0.7504287362098694
7.573589563369751,-0.29713597893714905,-0.9175794720649719,0.8290705680847168,0.49872535467147827,0.12651413679122925,-0.7511416077613831
7.593663692474365,-0.2973182797431946,-0.9176356196403503,0.8289394378662109,0.4996049702167511,0.12718455493450165,-0.7514968514442444
7.613729953765869,-0.29773154854774475,-0.9177493453025818,0.8286824822425842,0.5013387203216553,0.12846739590168,-0.7522071003913879
7.634286642074585,-0.29819002747535706,-0.9178565144538879,0.8284436464309692,0.5030327439308167,0.12970881164073944,-0.7529157996177673
7.6544013023376465,-0.2984445095062256,-0.9179122447967529,0.8283223509788513,0.5038729906082153,0.13030177354812622,-0.7532676458358765
7.674449920654297,-0.2989977300167084,-0.9180355668067932,0.8280585408210754,0.505561113357544,0.13144175708293915,-0.753960907459259
7.694511413574219,-0.29929131269454956,-0.9181063175201416,0.8279162645339966,0.5064089894294739,0.13198700547218323,-0.7543016076087952
7.714616537094116,-0.2998800575733185,-0.9182688593864441,0.8276254534721375,0.5081200003623962,0.13306015729904175,-0.7549697160720825
7.734648704528809,-0.3004264831542969,-0.9184352159500122,0.8273780345916748,0.5098292231559753,0.13418132066726685,-0.7556262612342834
7.754735946655273,-0.3006768822669983,-0.9185153245925903,0.8272927403450012,0.5106818675994873,0.13476410508155823,-0.7559528946876526
7.774815559387207,-0.301137775182724,-0.9186617732048035,0.8271952867507935,0.512381911277771,0.1359761506319046,-0.7566028833389282
7.795360565185547,-0.30153000354766846,-0.918803334236145,0.827197790145874,0.5141047835350037,0.1372213065624237,-0.7572417855262756
7.815483570098877,-0.30171719193458557,-0.918875515460968,0.8271986246109009,0.5149729251861572,0.13784678280353546,-0.7575550079345703
7.835580110549927,-0.3020872473716736,-0.9190182089805603,0.8271482586860657,0.5167019367218018,0.13912919163703918,-0.7581753730773926
7.855963945388794,-0.3022875487804413,-0.9190922379493713,0.8270726799964905,0.5175570249557495,0.1397739201784134,-0.7584850192070007
7.876054763793945,-0.3027052581310272,-0.9192456007003784,0.8268333077430725,0.5192368030548096,0.14108125865459442,-0.7591083645820618
7.896908521652222,-0.30310824513435364,-0.9194222092628479,0.8265307545661926,0.5209072232246399,0.14239276945590973,-0.7597291469573975
7.9306252002716064,-0.30330103635787964,-0.919514000415802,0.8263752460479736,0.5217397212982178,0.14305704832077026,-0.7600370645523071
7.950681447982788,-0.3034926950931549,-0.9196035861968994,0.8262230753898621,0.5225736498832703,0.14372923970222473,-0.7603434920310974
7.970788478851318,-0.3038907051086426,-0.9197676777839661,0.8259496092796326,0.5242436528205872,0.14507296681404114,-0.7609564661979675
7.990854740142822,-0.30409926176071167,-0.9198389053344727,0.8258341550827026,0.5250667333602905,0.14573605358600616,-0.7612661123275757
8.010938167572021,-0.30454766750335693,-0.9199782013893127,0.8256164789199829,0.5266990065574646,0.14700567722320557,-0.7618892788887024
8.030987739562988,-0.3050474524497986,-0.9201321601867676,0.8253945112228394,0.5283185243606567,0.14817292988300323,-0.7625100016593933
8.051176309585571,-0.3053121268749237,-0.920215904712677,0.8252851366996765,0.5291268825531006,0.1487249732017517,-0.7628165483474731
8.071207523345947,-0.30582040548324585,-0.9203853011131287,0.8251305818557739,0.5307343006134033,0.1498117446899414,-0.7634195685386658
8.09133005142212,-0.30604395270347595,-0.9204649925231934,0.8250954151153564,0.5315337181091309,0.15037915110588074,-0.7637152075767517
8.1114661693573,-0.3064422607421875,-0.9206084609031677,0.8250799179077148,0.5331268906593323,0.151579812169075,-0.7642990946769714
8.131609916687012,-0.3068093955516815,-0.9207428693771362,0.8250858187675476,0.5347347259521484,0.1528451144695282,-0.7648778557777405
8.151694059371948,-0.3069997727870941,-0.9208136200904846,0.8250882029533386,0.5355465412139893,0.1534702628850937,-0.7651675343513489
8.171857357025146,-0.30739039182662964,-0.9209696650505066,0.8251118063926697,0.5371813774108887,0.1546778678894043,-0.7657450437545776
8.191853761672974,-0.30782678723335266,-0.9211387038230896,0.8251200318336487,0.5387936234474182,0.15581285953521729,-0.7663183212280273
8.211971044540405,-0.30806443095207214,-0.921224057674408,0.8251001834869385,0.5395863056182861,0.15636883676052094,-0.7666011452674866
8.232032775878906,-0.3085823357105255,-0.9213964939117432,0.8249961733818054,0.5411491990089417,0.15746250748634338,-0.7671568989753723
8.252114295959473,-0.3088572025299072,-0.9214861989021301,0.8249191641807556,0.5419224500656128,0.15799769759178162,-0.7674302458763123
8.272233724594116,-0.3094142973423004,-0.921676754951477,0.8247449994087219,0.5434560775756836,0.15904992818832397,-0.7679709196090698
8.292303085327148,-0.30969005823135376,-0.9217802882194519,0.824647068977356,0.5442212224006653,0.15957222878932953,-0.7682377696037292
8.312416315078735,-0.3102268874645233,-0.9219971299171448,0.8244366645812988,0.5457497835159302,0.16063393652439117,-0.7687665224075317
8.332525730133057,-0.3104854226112366,-0.9221063852310181,0.8243309855461121,0.5465147495269775,0.16118238866329193,-0.7690278887748718
8.352719783782959,-0.31097689270973206,-0.9223169684410095,0.8241413235664368,0.5480305552482605,0.1623169481754303,-0.7695491313934326
8.373135566711426,-0.31141337752342224,-0.9225296974182129,0.8239947557449341,0.5495589375495911,0.1634998321533203,-0.770063579082489
8.393249273300171,-0.3116070032119751,-0.9226415157318115,0.8239369988441467,0.5503340363502502,0.16410693526268005,-0.7703174948692322
8.413530588150024,-0.3117920160293579,-0.9227554202079773,0.8238897919654846,0.5511097311973572,0.1647159904241562,-0.7705703973770142
8.43374514579773,-0.31216421723365784,-0.9229793548583984,0.8238101005554199,0.5526497960090637,0.16593341529369354,-0.7710723876953125
8.453752279281616,-0.3125661313533783,-0.9231919646263123,0.8237258791923523,0.5541459321975708,0.16712535917758942,-0.7715737819671631
8.47386622428894,-0.31278711557388306,-0.9233032464981079,0.8236663937568665,0.55489182472229,0.16769468784332275,-0.7718213200569153
8.494028806686401,-0.31325235962867737,-0.9235382080078125,0.8235234618186951,0.5563890933990479,0.16879992187023163,-0.7723080515861511
8.514089345932007,-0.3134888708591461,-0.9236635565757751,0.8234487175941467,0.5571414232254028,0.16933850944042206,-0.7725474834442139
8.534158945083618,-0.3139484226703644,-0.9239142537117004,0.8233382701873779,0.5586498975753784,0.17042651772499084,-0.7730205655097961
8.55423355102539,-0.31438642740249634,-0.9241513609886169,0.8232765793800354,0.5601406693458557,0.17154736816883087,-0.7734907269477844
8.574383735656738,-0.31460416316986084,-0.9242621064186096,0.8232480883598328,0.5608795285224915,0.17212370038032532,-0.7737243175506592
8.594527244567871,-0.31505346298217773,-0.924475908279419,0.8231582045555115,0.5623473525047302,0.17328418791294098,-0.7741884589195251
8.614574193954468,-0.3155517280101776,-0.9246979355812073,0.8230292797088623,0.5638116598129272,0.17437732219696045,-0.7746495008468628
8.634678840637207,-0.31581464409828186,-0.9248149394989014,0.8229570984840393,0.5645428895950317,0.17489813268184662,-0.7748780846595764
8.654792547225952,-0.3163433074951172,-0.9250611066818237,0.8228143453598022,0.5659976005554199,0.17591284215450287,-0.775331437587738
8.67488718032837,-0.31659772992134094,-0.9251874685287476,0.8227497339248657,0.5667218565940857,0.17642514407634735,-0.7755553126335144
8.694984912872314,-0.31704816222190857,-0.9254444241523743,0.8226796984672546,0.5681813359260559,0.17749205231666565,-0.7759987115859985
8.715114116668701,-0.317248672246933,-0.9255720376968384,0.822661817073822,0.5689103603363037,0.17805029451847076,-0.7762186527252197
8.735142469406128,-0.31759852170944214,-0.9258157014846802,0.8226572871208191,0.5703678727149963,0.17923249304294586,-0.7766529321670532
8.755273580551147,-0.3177620768547058,-0.9259353876113892,0.8226331472396851,0.571094810962677,0.1798495650291443,-0.7768666744232178
8.775332927703857,-0.31808409094810486,-0.9261782169342041,0.8225278258323669,0.5725521445274353,0.18110273778438568,-0.7772883772850037
8.795595169067383,-0.31840619444847107,-0.9264370203018188,0.8223605155944824,0.5740151405334473,0.18234573304653168,-0.7777077555656433
8.815726041793823,-0.318572461605072,-0.9265673160552979,0.8222859501838684,0.5747365951538086,0.18294697999954224,-0.7779198884963989
8.835832357406616,-0.31893032789230347,-0.926822304725647,0.8221946954727173,0.5761536955833435,0.18408608436584473,-0.7783505320549011
8.855892896652222,-0.31912922859191895,-0.926947832107544,0.8221752643585205,0.5768498778343201,0.18461757898330688,-0.7785676717758179
8.875961065292358,-0.3195687234401703,-0.9272075891494751,0.8221451044082642,0.5782456994056702,0.1856168806552887,-0.7789953351020813
8.89602541923523,-0.32006245851516724,-0.9274832010269165,0.8221043348312378,0.5796477794647217,0.18654105067253113,-0.7794103622436523
8.916203022003174,-0.3203197419643402,-0.9276235699653625,0.8220828175544739,0.5803443193435669,0.1869913786649704,-0.7796146869659424
8.936254262924194,-0.32084107398986816,-0.9279115200042725,0.8220552206039429,0.581722617149353,0.18786898255348206,-0.7800214290618896
8.956310987472534,-0.3210901618003845,-0.9280606508255005,0.822052538394928,0.5824114084243774,0.188312828540802,-0.7802236676216125
8.976481914520264,-0.32153719663619995,-0.9283587336540222,0.8220565915107727,0.5837895274162292,0.18927036225795746,-0.7806228995323181
8.996533632278442,-0.32186704874038696,-0.9286408424377441,0.8220903277397156,0.5851776599884033,0.19038617610931396,-0.7810081243515015
9.016718864440918,-0.32200443744659424,-0.9287699460983276,0.8221165537834167,0.5858687162399292,0.19099311530590057,-0.7811971306800842
9.036839008331299,-0.3222590684890747,-0.9290145039558411,0.8222052454948425,0.5872494578361511,0.19222943484783173,-0.7815730571746826
9.056925296783447,-0.32256418466567993,-0.9292524456977844,0.8222764134407043,0.5886150002479553,0.19341786205768585,-0.7819523215293884
9.07709527015686,-0.3227425217628479,-0.9293740391731262,0.8222920298576355,0.5892925262451172,0.19398000836372375,-0.7821417450904846
9.097113370895386,-0.3231506049633026,-0.9296275973320007,0.8222858905792236,0.5906352996826172,0.19502849876880646,-0.782518208026886
9.11718201637268,-0.3235786259174347,-0.9298954010009766,0.8223025798797607,0.591973066329956,0.19600564241409302,-0.7828923463821411
9.1372811794281,-0.32378217577934265,-0.9300317764282227,0.8223204016685486,0.5926386117935181,0.19649577140808105,-0.7830787897109985
9.157402753829956,-0.32409361004829407,-0.9303113222122192,0.8223754167556763,0.5940089225769043,0.19758108258247375,-0.7834435105323792
9.177510261535645,-0.3241980969905853,-0.9304541945457458,0.8224071264266968,0.5947151184082031,0.19818122684955597,-0.7836217284202576
9.197641849517822,-0.32430022954940796,-0.9307469129562378,0.8225133419036865,0.5961739420890808,0.1994796097278595,-0.7839721441268921
9.217719793319702,-0.3243083357810974,-0.9310346245765686,0.8226608633995056,0.5976366996765137,0.20085637271404266,-0.784321129322052
9.237799644470215,-0.32430779933929443,-0.9311710596084595,0.8227272033691406,0.5983527898788452,0.20155563950538635,-0.7844963073730469
9.257977962493896,-0.3243677616119385,-0.9314224720001221,0.8228152394294739,0.5997327566146851,0.20291511714458466,-0.7848508358001709
9.27814269065857,-0.3245876133441925,-0.9316617846488953,0.82285076379776,0.6010393500328064,0.20409783720970154,-0.7852159142494202
9.298232078552246,-0.32477301359176636,-0.9317902326583862,0.8228532671928406,0.6016727685928345,0.20458096265792847,-0.7854015827178955
9.318304777145386,-0.32525870203971863,-0.9320765137672424,0.8228203058242798,0.6029231548309326,0.2053791582584381,-0.7857707738876343
9.338438272476196,-0.3255404531955719,-0.9322312474250793,0.822788417339325,0.6035451292991638,0.20572862029075623,-0.7859520316123962
9.358527660369873,-0.32612115144729614,-0.9325463175773621,0.822717010974884,0.6047815680503845,0.20643214881420135,-0.7863066792488098
9.378597974777222,-0.3266465663909912,-0.9328441023826599,0.8226652145385742,0.6059953570365906,0.20725812017917633,-0.7866550087928772
9.398686408996582,-0.32688745856285095,-0.9329856634140015,0.8226422071456909,0.6065929532051086,0.20771679282188416,-0.7868279814720154
9.418739318847656,-0.3273223042488098,-0.9332548975944519,0.8226078748703003,0.6077835559844971,0.2087193727493286,-0.7871705889701843
9.438827276229858,-0.3275233209133148,-0.9333868026733398,0.82260662317276,0.6083810329437256,0.20923753082752228,-0.7873408794403076
9.458915710449219,-0.3278975486755371,-0.9336549639701843,0.8226683735847473,0.6095986366271973,0.21026498079299927,-0.7876773476600647
9.478990316390991,-0.3280739188194275,-0.9337923526763916,0.8227280378341675,0.6102203130722046,0.21077169477939606,-0.7878423929214478
9.499107837677002,-0.3284335136413574,-0.9340723156929016,0.8228581547737122,0.6114771962165833,0.21176385879516602,-0.7881649732589722
9.519261598587036,-0.3288365602493286,-0.9343507885932922,0.8229277729988098,0.6127306818962097,0.21273843944072723,-0.7884781956672668
9.53929853439331,-0.32906073331832886,-0.9344867467880249,0.8229325413703918,0.61334627866745,0.21321536600589752,-0.7886344790458679
9.559439897537231,-0.32953691482543945,-0.9347558617591858,0.8229107856750488,0.6145512461662292,0.21414043009281158,-0.788950502872467
9.579565286636353,-0.3300315737724304,-0.9350274801254272,0.8228747844696045,0.615731954574585,0.21503038704395294,-0.789268434047699
9.599658966064453,-0.33027204871177673,-0.9351643919944763,0.822862982749939,0.6163162589073181,0.21547546982765198,-0.7894265651702881
9.619727849960327,-0.33074402809143066,-0.9354400038719177,0.8228530883789062,0.6174822449684143,0.21636821329593658,-0.7897383570671082
9.63981294631958,-0.3309791386127472,-0.9355791807174683,0.822850227355957,0.61806321144104,0.21681223809719086,-0.7898919582366943
9.659892797470093,-0.3314554691314697,-0.9358664751052856,0.8228492736816406,0.6192238330841064,0.21767334640026093,-0.7901946306228638
9.679969072341919,-0.33192092180252075,-0.9361627697944641,0.8228623867034912,0.6203879714012146,0.21853023767471313,-0.7904892563819885
9.700042963027954,-0.3321407437324524,-0.9363136887550354,0.8228813409805298,0.6209761500358582,0.21896807849407196,-0.7906330227851868
9.72012448310852,-0.33253875374794006,-0.9366183876991272,0.8229130506515503,0.6221745014190674,0.21990551054477692,-0.7909095287322998
9.740415573120117,-0.33289459347724915,-0.9369264841079712,0.8229199051856995,0.6233919858932495,0.22090475261211395,-0.791174054145813
9.760528564453125,-0.3330531418323517,-0.9370818734169006,0.8229315280914307,0.6240034103393555,0.22141775488853455,-0.7913047075271606
9.78058385848999,-0.3333515226840973,-0.9373937845230103,0.8229758739471436,0.6252070665359497,0.22243599593639374,-0.7915701866149902
9.800663471221924,-0.33348748087882996,-0.9375542402267456,0.8230013251304626,0.6258057355880737,0.22294539213180542,-0.7917035222053528
9.82073974609375,-0.33375227451324463,-0.9378783702850342,0.823033332824707,0.6269956827163696,0.22397711873054504,-0.7919707894325256
9.841092586517334,-0.33401766419410706,-0.9381999373435974,0.8230352401733398,0.6281723380088806,0.22502723336219788,-0.7922359108924866
9.861210584640503,-0.334149569272995,-0.9383605718612671,0.8230244517326355,0.6287615299224854,0.22555841505527496,-0.7923657894134521
9.881247997283936,-0.33442267775535583,-0.9386824369430542,0.8229827284812927,0.6299281716346741,0.22660501301288605,-0.7926216125488281
9.901329755783081,-0.33457255363464355,-0.9388424158096313,0.8229589462280273,0.6305018067359924,0.22711002826690674,-0.7927493453025818
9.921423196792603,-0.3349009156227112,-0.9391573071479797,0.8229302167892456,0.631629467010498,0.22808127105236053,-0.7930067181587219
9.941807746887207,-0.3350760042667389,-0.9393110871315002,0.8229466676712036,0.6321849822998047,0.22854438424110413,-0.79313725233078
9.96210265159607,-0.3354261815547943,-0.9396198391914368,0.823009729385376,0.6333010196685791,0.2294563204050064,-0.7933946251869202
9.982174634933472,-0.33578866720199585,-0.939932107925415,0.8230762481689453,0.6344228386878967,0.2303473949432373,-0.7936457991600037
10.002318382263184,-0.3359817862510681,-0.9400869011878967,0.8230956196784973,0.6349780559539795,0.23078694939613342,-0.7937700748443604
10.022396326065063,-0.33640289306640625,-0.9404014348983765,0.8231047987937927,0.6360794901847839,0.23162703216075897,-0.7940161228179932
10.042481660842896,-0.336626797914505,-0.9405619502067566,0.8231009244918823,0.636625349521637,0.23202872276306152,-0.7941377758979797
10.062640905380249,-0.33706289529800415,-0.9408876895904541,0.8231140375137329,0.6377148032188416,0.2328300178050995,-0.7943775653839111
10.082772254943848,-0.3374319076538086,-0.9412241578102112,0.8232537508010864,0.6388251781463623,0.23363831639289856,-0.7946140766143799
10.102889776229858,-0.33759012818336487,-0.9413956999778748,0.8233767747879028,0.639389157295227,0.23404578864574432,-0.7947307825088501
10.122950315475464,-0.33788201212882996,-0.9417391419410706,0.8236722946166992,0.6405240893363953,0.23487524688243866,-0.7949577569961548
10.143042087554932,-0.3380347192287445,-0.9419048428535461,0.8237919807434082,0.6410831212997437,0.2353094071149826,-0.7950668334960938
10.163135528564453,-0.33836084604263306,-0.9422222375869751,0.8239431977272034,0.6421762108802795,0.23621708154678345,-0.7952782511711121
10.183350086212158,-0.338712602853775,-0.9425293803215027,0.823989987373352,0.6432258486747742,0.237138569355011,-0.7954879999160767
10.203540086746216,-0.3388938903808594,-0.942685067653656,0.8239973783493042,0.6437419056892395,0.23758751153945923,-0.7955930829048157
10.223585844039917,-0.3390742838382721,-0.9428426027297974,0.8239992260932922,0.644258439540863,0.23803472518920898,-0.7956970930099487
10.24372386932373,-0.33941352367401123,-0.9431634545326233,0.8239952325820923,0.6453080177307129,0.2389472872018814,-0.7958986163139343
10.264313697814941,-0.3397168517112732,-0.9434869885444641,0.8240212202072144,0.6463894844055176,0.23988479375839233,-0.7960922718048096
10.28441309928894,-0.3398558795452118,-0.9436477422714233,0.8240498304367065,0.6469316482543945,0.24035730957984924,-0.7961890697479248
10.304473400115967,-0.3401337265968323,-0.9439718723297119,0.824120044708252,0.6480011343955994,0.24127085506916046,-0.796385645866394
10.324550151824951,-0.3402794301509857,-0.9441369771957397,0.8241406679153442,0.6485257744789124,0.24171082675457,-0.7964847087860107
10.344619035720825,-0.3405873477458954,-0.9444730281829834,0.8241539001464844,0.6495459675788879,0.2425546795129776,-0.7966864109039307
10.364713191986084,-0.34074732661247253,-0.9446406960487366,0.8241626024246216,0.6500442624092102,0.2429652363061905,-0.79678875207901
10.3847975730896,-0.3410525619983673,-0.9449678659439087,0.8242382407188416,0.6510275602340698,0.24379132688045502,-0.7969971299171448
10.404877185821533,-0.3413284122943878,-0.9452875256538391,0.8244083523750305,0.6520270705223083,0.2446368783712387,-0.7972025275230408
10.424932479858398,-0.34145060181617737,-0.9454466104507446,0.824521541595459,0.6525418758392334,0.24507302045822144,-0.7973024845123291
10.44502305984497,-0.34166738390922546,-0.9457694888114929,0.8247628211975098,0.6536093354225159,0.2459743320941925,-0.7974944114685059
10.465088129043579,-0.34176212549209595,-0.945932149887085,0.8248816132545471,0.6541559100151062,0.24644142389297485,-0.7975878119468689
10.485182762145996,-0.34194472432136536,-0.9462506771087646,0.8250876665115356,0.6552348136901855,0.24739672243595123,-0.7977758646011353
10.505269527435303,-0.3421282470226288,-0.9465488791465759,0.8252377510070801,0.6562550663948059,0.24837779998779297,-0.7979720234870911
10.525362968444824,-0.3422260880470276,-0.9466887712478638,0.8252896070480347,0.6567395329475403,0.2488742172718048,-0.7980735898017883
10.545456171035767,-0.3424358367919922,-0.9469632506370544,0.8253461122512817,0.6576820611953735,0.2498617023229599,-0.7982808947563171
10.565590143203735,-0.3425614833831787,-0.9471010565757751,0.825354814529419,0.6581489443778992,0.2503367066383362,-0.7983856201171875
10.585754632949829,-0.342855840921402,-0.9473875761032104,0.825360894203186,0.6590929627418518,0.2512235641479492,-0.7985935211181641
10.605751991271973,-0.3432127833366394,-0.9476874470710754,0.8253760933876038,0.6600437164306641,0.25200793147087097,-0.7987980246543884
10.625840902328491,-0.34340864419937134,-0.9478434324264526,0.8253892660140991,0.6605185270309448,0.25236374139785767,-0.7988986968994141
10.645926237106323,-0.34382355213165283,-0.9481604695320129,0.8254006505012512,0.6614617705345154,0.2530539035797119,-0.7990968823432922
10.666073083877563,-0.3440359830856323,-0.9483184814453125,0.8253886699676514,0.6619301438331604,0.2534106969833374,-0.7991944551467896
10.686088800430298,-0.34444665908813477,-0.9486325979232788,0.8253406882286072,0.6628654599189758,0.2541685700416565,-0.7993863224983215
10.70616888999939,-0.3447819948196411,-0.9489502310752869,0.8252906203269958,0.6638244390487671,0.25501543283462524,-0.7995700836181641
10.726256370544434,-0.3449130654335022,-0.9491143822669983,0.82529217004776,0.664319634437561,0.25545814633369446,-0.7996591329574585
10.746393918991089,-0.3451176583766937,-0.9494413137435913,0.8253647685050964,0.6653252243995667,0.25637853145599365,-0.7998347878456116
10.766525983810425,-0.34520193934440613,-0.9496025443077087,0.8254446387290955,0.6658303141593933,0.25684019923210144,-0.7999231815338135
10.786609172821045,-0.34537777304649353,-0.9499143362045288,0.8256528377532959,0.6668210029602051,0.2577384114265442,-0.8001028895378113
10.806759357452393,-0.34558773040771484,-0.9502236843109131,0.8258687257766724,0.6677839159965515,0.2585768699645996,-0.8002845644950867
10.826873302459717,-0.3457143008708954,-0.9503768086433411,0.8259521126747131,0.66825270652771,0.25898033380508423,-0.8003742694854736
10.846921920776367,-0.34601274132728577,-0.9506835341453552,0.8260568380355835,0.6691692471504211,0.25975608825683594,-0.8005502820014954
10.867130041122437,-0.34617510437965393,-0.9508413076400757,0.8260771632194519,0.6696235537528992,0.26013416051864624,-0.8006355166435242
10.88725209236145,-0.3464723229408264,-0.951168954372406,0.8260796666145325,0.6705355048179626,0.2609168589115143,-0.8008008003234863
10.907476425170898,-0.3467273414134979,-0.9515146017074585,0.826065182685852,0.6714569330215454,0.2617267370223999,-0.8009600639343262
10.927613735198975,-0.3468284010887146,-0.9516890048980713,0.8260617256164551,0.6719269752502441,0.2621641457080841,-0.8010363578796387
10.947697877883911,-0.34699490666389465,-0.9520348906517029,0.8261030316352844,0.6728813648223877,0.26307177543640137,-0.8011862635612488
10.967804908752441,-0.34705907106399536,-0.952205240726471,0.8261507749557495,0.6733631491661072,0.26354193687438965,-0.8012605309486389
10.987901210784912,-0.3471863269805908,-0.9525373578071594,0.8262970447540283,0.6743162870407104,0.2644689083099365,-0.8014115691184998
11.007995843887329,-0.3472578525543213,-0.9527032971382141,0.8263874650001526,0.6747915744781494,0.26491212844848633,-0.8014872670173645
11.028074026107788,-0.34746530652046204,-0.9530391693115234,0.8265600800514221,0.6757237315177917,0.2657112181186676,-0.8016405701637268
11.048108100891113,-0.3477470874786377,-0.9533817768096924,0.8266925811767578,0.6766291856765747,0.266425222158432,-0.8017942905426025
11.068198919296265,-0.3479170799255371,-0.9535549283027649,0.8267344236373901,0.6770662665367126,0.2667544484138489,-0.8018715381622314
11.088368654251099,-0.3482793867588043,-0.9539028406143188,0.8267820477485657,0.677928626537323,0.2674073278903961,-0.8020196557044983
11.108457565307617,-0.34845471382141113,-0.954075813293457,0.8268035650253296,0.6783592104911804,0.2677478492259979,-0.8020901083946228
11.128594398498535,-0.34875890612602234,-0.9544215202331543,0.8268895149230957,0.6792375445365906,0.268474280834198,-0.8022234439849854
11.148653268814087,-0.3489823043346405,-0.9547609090805054,0.8270696401596069,0.680133044719696,0.2692685127258301,-0.8023527264595032
11.168708324432373,-0.3490633964538574,-0.9549335241317749,0.8272189497947693,0.6805941462516785,0.2696690857410431,-0.8024172186851501
11.188774347305298,-0.3492055833339691,-0.95528244972229,0.8275895118713379,0.6815222501754761,0.27044573426246643,-0.8025471568107605
11.208890199661255,-0.3492700159549713,-0.9554601311683655,0.8278078436851501,0.6819933652877808,0.27082014083862305,-0.8026110529899597
11.228955507278442,-0.3494442105293274,-0.9558061957359314,0.8281711339950562,0.6829169392585754,0.2715640366077423,-0.8027331233024597
11.24914813041687,-0.34967556595802307,-0.95613032579422,0.8284112811088562,0.6838006973266602,0.2723287045955658,-0.8028499484062195
11.269235372543335,-0.34982091188430786,-0.9562835693359375,0.8284716010093689,0.6842199563980103,0.27271270751953125,-0.8029086589813232
11.289300680160522,-0.3501884937286377,-0.9565885066986084,0.8284909725189209,0.6850192546844482,0.27343329787254333,-0.8030338287353516
11.309406518936157,-0.35040536522865295,-0.9567431211471558,0.8284598588943481,0.6854064464569092,0.27376988530158997,-0.8030988574028015
11.329547643661499,-0.35086971521377563,-0.9570580124855042,0.8283621668815613,0.6861748099327087,0.2744160294532776,-0.8032278418540955
11.349588394165039,-0.3510935306549072,-0.9572172164916992,0.8283277750015259,0.6865620017051697,0.2747375965118408,-0.8032902479171753
11.369662284851074,-0.35147833824157715,-0.9575322866439819,0.8283398151397705,0.6873480677604675,0.27541399002075195,-0.8034111857414246
11.389787197113037,-0.3518044352531433,-0.957847535610199,0.8284350037574768,0.688152551651001,0.27611473202705383,-0.8035297989845276
11.40989065170288,-0.3519533574581146,-0.9580040574073792,0.8284977674484253,0.6885591149330139,0.27647465467453003,-0.8035882711410522
11.429949522018433,-0.35224783420562744,-0.9583145976066589,0.828614354133606,0.6893739104270935,0.27720192074775696,-0.8037019968032837
11.45004153251648,-0.3523983359336853,-0.9584682583808899,0.8286623358726501,0.6897779107093811,0.27756479382514954,-0.8037576675415039
11.470117092132568,-0.35270529985427856,-0.95877605676651,0.828738272190094,0.69057697057724,0.27827903628349304,-0.8038685321807861
11.490361452102661,-0.35300976037979126,-0.9590893387794495,0.8288134932518005,0.691370964050293,0.27897441387176514,-0.8039788007736206
11.51050591468811,-0.3531511127948761,-0.9592483043670654,0.8288639783859253,0.6917693614959717,0.27932196855545044,-0.8040337562561035
11.530522346496582,-0.3533989191055298,-0.9595742225646973,0.8289936184883118,0.6925753951072693,0.28002727031707764,-0.8041417598724365
11.55060362815857,-0.3535093069076538,-0.95973801612854,0.8290624022483826,0.6929777264595032,0.28038978576660156,-0.8041952252388
11.57068157196045,-0.3536987900733948,-0.960067093372345,0.829184889793396,0.6937896013259888,0.2811540961265564,-0.8042978048324585
11.59100341796875,-0.3538721799850464,-0.9603873491287231,0.8293101191520691,0.6945949196815491,0.28194689750671387,-0.8044009208679199
11.611087083816528,-0.3539491891860962,-0.9605458378791809,0.8293715119361877,0.6949964761734009,0.28235405683517456,-0.8044532537460327
11.631144046783447,-0.354097455739975,-0.9608617424964905,0.8294767141342163,0.6958003640174866,0.2831765413284302,-0.804557740688324
11.6512291431427,-0.3541792333126068,-0.9610186815261841,0.829514741897583,0.6961986422538757,0.28358227014541626,-0.8046098351478577
11.671385288238525,-0.3543984293937683,-0.961335301399231,0.8295580744743347,0.6969847679138184,0.28433412313461304,-0.8047153949737549
11.691532611846924,-0.3545314371585846,-0.9614963531494141,0.8295953869819641,0.6973711848258972,0.2846686840057373,-0.8047707080841064
11.711691856384277,-0.35484859347343445,-0.961833655834198,0.8296873569488525,0.6981238126754761,0.2852362096309662,-0.8048858046531677
11.731959581375122,-0.3551764488220215,-0.9621797800064087,0.8297950029373169,0.6988712549209595,0.28577953577041626,-0.8049928545951843
11.752106428146362,-0.3553401827812195,-0.9623515605926514,0.8298417329788208,0.6992433667182922,0.286062091588974,-0.8050416111946106
11.772124290466309,-0.3556218147277832,-0.9626847505569458,0.8299532532691956,0.6999993324279785,0.28670427203178406,-0.8051298260688782
11.792338609695435,-0.35574284195899963,-0.9628483057022095,0.8300231695175171,0.7003803849220276,0.28704696893692017,-0.8051719665527344
11.81237244606018,-0.3559545874595642,-0.9631679058074951,0.8301681876182556,0.7011397480964661,0.28777140378952026,-0.8052545189857483
11.832817792892456,-0.35613250732421875,-0.9634844660758972,0.8302656412124634,0.7018998861312866,0.28854745626449585,-0.8053330183029175
11.852923154830933,-0.35621845722198486,-0.9636415839195251,0.8302980065345764,0.7022755742073059,0.2889404594898224,-0.8053722977638245
11.87300729751587,-0.356383353471756,-0.9639578461647034,0.8303558230400085,0.7030194997787476,0.2897171080112457,-0.8054547309875488
11.893210172653198,-0.35647130012512207,-0.9641171097755432,0.830399215221405,0.7033880949020386,0.290084570646286,-0.8054988980293274
11.913321733474731,-0.3566562831401825,-0.9644414782524109,0.8305301070213318,0.704130232334137,0.290774941444397,-0.805591344833374
11.93335747718811,-0.3568475544452667,-0.9647741317749023,0.830725371837616,0.7048837542533875,0.2914142906665802,-0.8056832551956177
11.953472375869751,-0.3569451868534088,-0.9649404287338257,0.8308367133140564,0.7052589654922485,0.29172399640083313,-0.8057281970977783
11.973582744598389,-0.3571481704711914,-0.9652639627456665,0.8310456871986389,0.7059913277626038,0.2923485338687897,-0.805816113948822
11.993807315826416,-0.35738605260849,-0.9655854105949402,0.8311983346939087,0.7067041397094727,0.2929520905017853,-0.8059014678001404
12.013997077941895,-0.3575185537338257,-0.9657499194145203,0.8312492370605469,0.7070568799972534,0.293241411447525,-0.8059430718421936
12.034110069274902,-0.35777363181114197,-0.9660868644714355,0.8313672542572021,0.7077727913856506,0.29382020235061646,-0.8060241937637329
12.054152011871338,-0.35788649320602417,-0.966253936290741,0.8314415216445923,0.7081338167190552,0.2941277325153351,-0.8060643076896667
12.074256181716919,-0.358053982257843,-0.9665786623954773,0.831682026386261,0.7088714241981506,0.29479411244392395,-0.8061451315879822
12.094465732574463,-0.35811638832092285,-0.9667377471923828,0.831836998462677,0.7092459797859192,0.2951413094997406,-0.8061854839324951
12.114551544189453,-0.3582012951374054,-0.9670547842979431,0.8322141170501709,0.7100091576576233,0.2958463132381439,-0.8062651753425598
12.134557008743286,-0.3582495152950287,-0.9672111868858337,0.832389771938324,0.7103887796401978,0.2961971163749695,-0.8063035607337952
12.154661178588867,-0.3583758473396301,-0.9675094485282898,0.8326646685600281,0.7111186385154724,0.29691052436828613,-0.806380569934845
12.174782991409302,-0.3585963547229767,-0.9677953720092773,0.8327488303184509,0.7117995619773865,0.29760950803756714,-0.8064620494842529
12.19481635093689,-0.35873717069625854,-0.9679417610168457,0.8327335119247437,0.7121292352676392,0.29794180393218994,-0.8065057992935181
12.214994192123413,-0.3590586185455322,-0.968256950378418,0.8326393365859985,0.7127821445465088,0.2985445261001587,-0.8065956234931946
12.235036611557007,-0.35922008752822876,-0.9684194922447205,0.8325971961021423,0.7131066918373108,0.29883190989494324,-0.8066397905349731
12.255184888839722,-0.35949426889419556,-0.9687378406524658,0.8325877785682678,0.7137578129768372,0.2994368076324463,-0.8067223429679871
12.275206327438354,-0.3596000373363495,-0.9688891172409058,0.8326321840286255,0.7140872478485107,0.29976770281791687,-0.8067605495452881
12.295346736907959,-0.35974931716918945,-0.9691899418830872,0.8328233957290649,0.7147764563560486,0.30046048760414124,-0.8068311214447021
12.315373420715332,-0.359877347946167,-0.969496488571167,0.8330729603767395,0.7154891490936279,0.30113685131073,-0.8068971633911133
12.335550785064697,-0.3599458634853363,-0.9696497917175293,0.8331968188285828,0.7158450484275818,0.30146700143814087,-0.8069294691085815
12.355531692504883,-0.36010679602622986,-0.9699481725692749,0.8333942294120789,0.7165377736091614,0.30212798714637756,-0.806993305683136
12.375612497329712,-0.3601849675178528,-0.9700943231582642,0.8334794044494629,0.7168786525726318,0.30246758460998535,-0.8070244789123535
12.395744323730469,-0.3603200614452362,-0.9703903794288635,0.8336089253425598,0.717562198638916,0.3031713366508484,-0.8070837259292603
12.415773868560791,-0.3604242503643036,-0.970700740814209,0.833674967288971,0.7182544469833374,0.30389827489852905,-0.8071383833885193
12.435890436172485,-0.36046525835990906,-0.9708579778671265,0.8336966037750244,0.7186006903648376,0.3042708933353424,-0.8071652054786682
12.456052303314209,-0.36054185032844543,-0.971169114112854,0.8337849378585815,0.7192785739898682,0.3049967288970947,-0.807224690914154
12.476119041442871,-0.36057478189468384,-0.9713219404220581,0.8338813185691833,0.7196097373962402,0.30534079670906067,-0.8072588443756104
12.496218204498291,-0.36065182089805603,-0.9716153144836426,0.8341184854507446,0.7202454805374146,0.3060045838356018,-0.8073337078094482
12.51630687713623,-0.3607339560985565,-0.9719001650810242,0.8343775272369385,0.7208743691444397,0.3066612184047699,-0.8074082732200623
12.536377429962158,-0.360787957906723,-0.9720391035079956,0.8344838619232178,0.7211847901344299,0.30699029564857483,-0.807444155216217
12.556446313858032,-0.3609238862991333,-0.9723184108734131,0.834661602973938,0.7218039035797119,0.3076276481151581,-0.8075141310691833
12.576688766479492,-0.3610062599182129,-0.9724574089050293,0.8347357511520386,0.722104012966156,0.30793148279190063,-0.8075504302978516
12.596763372421265,-0.3612026870250702,-0.9727300405502319,0.8348454833030701,0.7226758599281311,0.30851656198501587,-0.8076276183128357
12.61691403388977,-0.36143097281455994,-0.9730018377304077,0.8349108695983887,0.7232389450073242,0.3090873956680298,-0.8077064752578735
12.636935710906982,-0.36155641078948975,-0.9731400609016418,0.8349297642707825,0.7235242128372192,0.30936577916145325,-0.8077450394630432
12.657029867172241,-0.3618233799934387,-0.9734247922897339,0.8349555730819702,0.7241032123565674,0.30990102887153625,-0.8078202605247498
12.677143573760986,-0.3619457483291626,-0.9735713005065918,0.8349960446357727,0.7243961691856384,0.31015974283218384,-0.8078568577766418
12.69723129272461,-0.36216655373573303,-0.973884642124176,0.8351888656616211,0.7249910235404968,0.3106093406677246,-0.807930052280426
12.717317342758179,-0.3623596131801605,-0.9742159247398376,0.8354837894439697,0.7256021499633789,0.3110199272632599,-0.807995080947876
12.737367391586304,-0.36244893074035645,-0.9743801355361938,0.8356310725212097,0.7259130477905273,0.31124529242515564,-0.8080223798751831
12.7574622631073,-0.360626757144928,-0.977218508720398,0.8290393352508545,0.7298296093940735,0.30960002541542053,-0.8035192489624023
12.777508020401001,-0.3587762415409088,-0.9799893498420715,0.8224959373474121,0.7336437106132507,0.30805617570877075,-0.799090564250946
12.797610998153687,-0.3578334152698517,-0.9813631772994995,0.8193014860153198,0.7355141043663025,0.30727437138557434,-0.7969053387641907
12.817691802978516,-0.3558529019355774,-0.9841021299362183,0.8131762742996216,0.739193856716156,0.305713951587677,-0.792593777179718
12.83779764175415,-0.3548133671283722,-0.985468864440918,0.8102568984031677,0.7410068511962891,0.30493882298469543,-0.7904667854309082
12.857950448989868,-0.35261964797973633,-0.9881887435913086,0.8046892881393433,0.7446020841598511,0.3034600019454956,-0.786266565322876
12.877973794937134,-0.3502763509750366,-0.9908934235572815,0.7995212078094482,0.7481642961502075,0.3020569682121277,-0.7821412086486816
12.89807391166687,-0.34905490279197693,-0.992241382598877,0.797111451625824,0.7499220967292786,0.30137237906455994,-0.78011155128479
12.918133974075317,-0.34659135341644287,-0.9949188828468323,0.7925204038619995,0.7533628344535828,0.2999703884124756,-0.7761102914810181
12.938241720199585,-0.34537437558174133,-0.9962444305419922,0.7902952432632446,0.7550378441810608,0.29924771189689636,-0.7741356492042542
12.958302021026611,-0.34300872683525085,-0.998865008354187,0.7858946323394775,0.7582994103431702,0.2977340519428253,-0.7702242732048035
12.978379726409912,-0.34075650572776794,-1.0014499425888062,0.7815786004066467,0.7614529132843018,0.29608437418937683,-0.7663543224334717
12.998514175415039,-0.33967605233192444,-1.002729892730713,0.7794522047042847,0.7629980444908142,0.295206755399704,-0.7644312977790833
13.018572330474854,-0.3375658392906189,-1.0052649974822998,0.7752905488014221,0.7660436034202576,0.29338181018829346,-0.7606043219566345
13.038923978805542,-0.33650341629981995,-1.0065232515335083,0.7733029127120972,0.7675478458404541,0.2924690544605255,-0.7587044835090637
13.059142589569092,-0.33427727222442627,-1.0090248584747314,0.7696065902709961,0.7705271244049072,0.29069146513938904,-0.7549353241920471
13.079164505004883,-0.3330901563167572,-1.0102717876434326,0.7679415345191956,0.7720101475715637,0.2898329198360443,-0.7530661821365356
13.099242925643921,-0.3305928409099579,-1.0127451419830322,0.7648826241493225,0.7749454379081726,0.2881881892681122,-0.7493568658828735
13.119311571121216,-0.3280680477619171,-1.0151886940002441,0.7620653510093689,0.7778149843215942,0.28655001521110535,-0.7456870079040527
13.139397144317627,-0.3267921209335327,-1.016390323638916,0.760723352432251,0.7792202830314636,0.2857712507247925,-0.7438704371452332
13.159479856491089,-0.32423877716064453,-1.0187486410140991,0.7581307888031006,0.7819833755493164,0.2842661142349243,-0.7402678728103638
13.179744243621826,-0.3217044174671173,-1.0210480690002441,0.7556266784667969,0.7847009897232056,0.2827843129634857,-0.7366988658905029
13.199840307235718,-0.32049375772476196,-1.022181510925293,0.7543728947639465,0.7860329151153564,0.2819881737232208,-0.7349241971969604
13.21989393234253,-0.31813865900039673,-1.0244157314300537,0.7518749237060547,0.7886716723442078,0.2803286015987396,-0.7313862442970276
13.239980220794678,-0.31699541211128235,-1.0255227088928223,0.7506564855575562,0.7899734377861023,0.2794531285762787,-0.7296241521835327
13.260148048400879,-0.3147019147872925,-1.027723789215088,0.7483875155448914,0.7925629019737244,0.27767205238342285,-0.7261151075363159
13.28015685081482,-0.31356164813041687,-1.0288152694702148,0.747321367263794,0.7938416600227356,0.2767733931541443,-0.7243708968162537
13.30024266242981,-0.31128230690956116,-1.0309725999832153,0.7453353404998779,0.7963569164276123,0.27499252557754517,-0.7209081649780273
13.320309400558472,-0.3089093565940857,-1.0330854654312134,0.7435838580131531,0.7988228797912598,0.2732992470264435,-0.717477023601532
13.34039831161499,-0.3076990246772766,-1.03412926197052,0.7428073883056641,0.8000331521034241,0.27245762944221497,-0.7157724499702454
13.360475063323975,-0.30529436469078064,-1.0361820459365845,0.7413275241851807,0.8024032711982727,0.27077698707580566,-0.7123835682868958
13.380697250366211,-0.30411773920059204,-1.0371863842010498,0.740575909614563,0.8035638332366943,0.2699475586414337,-0.7106978893280029
13.400693893432617,-0.3018069565296173,-1.0391560792922974,0.7390511631965637,0.8058571219444275,0.2682954967021942,-0.7073397040367126
13.421762943267822,-0.2994232475757599,-1.0410927534103394,0.7377709746360779,0.8081199526786804,0.26667818427085876,-0.7040081024169922
13.441845417022705,-0.29821330308914185,-1.0420515537261963,0.737251341342926,0.8092253804206848,0.26586779952049255,-0.7023573517799377
13.461923599243164,-0.29573488235473633,-1.043932318687439,0.736409604549408,0.8113978505134583,0.2643223702907562,-0.699082612991333
13.482082843780518,-0.2944723665714264,-1.0448544025421143,0.7360806465148926,0.812480628490448,0.2635808289051056,-0.6974559426307678
13.50209665298462,-0.2919600307941437,-1.046677589416504,0.7355712056159973,0.8146554231643677,0.26205772161483765,-0.6942167282104492
13.522230625152588,-0.29073476791381836,-1.0475785732269287,0.7353559732437134,0.8157338500022888,0.26126009225845337,-0.6926059722900391
13.542397260665894,-0.28841397166252136,-1.0493594408035278,0.7348348498344421,0.8178622722625732,0.259561151266098,-0.6893957257270813
13.562543392181396,-0.2862570285797119,-1.0511056184768677,0.734169065952301,0.8199192881584167,0.25775623321533203,-0.6862045526504517
13.582544088363647,-0.28522828221321106,-1.0519661903381348,0.7337856888771057,0.8209236264228821,0.25682148337364197,-0.6846146583557129
13.602620363235474,-0.28323206305503845,-1.0536609888076782,0.7330254316329956,0.8228731751441956,0.2549278140068054,-0.6814573407173157
13.622663736343384,-0.28126007318496704,-1.0553125143051147,0.7323144674301147,0.8247697949409485,0.2530677020549774,-0.6783280968666077
13.642755508422852,-0.28026506304740906,-1.0561211109161377,0.7319898009300232,0.8257092833518982,0.2521655559539795,-0.6767727136611938
13.662832260131836,-0.27829504013061523,-1.0577243566513062,0.7314704060554504,0.8275572657585144,0.2503102719783783,-0.6736783385276794
13.68289589881897,-0.27635955810546875,-1.0593059062957764,0.7311254143714905,0.8293512463569641,0.24839995801448822,-0.6706098914146423
13.703084230422974,-0.2754025459289551,-1.060091495513916,0.7310149669647217,0.8302382826805115,0.24741536378860474,-0.6690806150436401
13.723097801208496,-0.2735297679901123,-1.0616412162780762,0.7308362126350403,0.8319922089576721,0.24542145431041718,-0.6660308837890625
13.743342161178589,-0.27262088656425476,-1.0624033212661743,0.7307209968566895,0.8328547477722168,0.24441909790039062,-0.6645098328590393
13.763356924057007,-0.27082034945487976,-1.0639019012451172,0.7305358648300171,0.8345447182655334,0.24241912364959717,-0.6614856123924255
13.783432483673096,-0.26900243759155273,-1.0653594732284546,0.7304121851921082,0.8361690044403076,0.24047031998634338,-0.6584958434104919
13.803610563278198,-0.26808691024780273,-1.0660792589187622,0.7304117679595947,0.836972713470459,0.23948922753334045,-0.6570103168487549
13.823666095733643,-0.26630568504333496,-1.0674912929534912,0.7304206490516663,0.8385322093963623,0.2375163584947586,-0.6540618538856506
13.843836545944214,-0.26461824774742126,-1.0688705444335938,0.7304425835609436,0.8400424718856812,0.23549571633338928,-0.6511372327804565
13.863942861557007,-0.26379093527793884,-1.0695436000823975,0.7304480075836182,0.8407762050628662,0.23449574410915375,-0.6496852040290833
13.883994340896606,-0.2621999680995941,-1.0708715915679932,0.7304399013519287,0.8422329425811768,0.2324458360671997,-0.6467897891998291
13.904103517532349,-0.26143863797187805,-1.0715274810791016,0.7304263710975647,0.842951774597168,0.23139463365077972,-0.6453465819358826
13.924179792404175,-0.25997117161750793,-1.0728191137313843,0.7303667664527893,0.8443490862846375,0.22926606237888336,-0.6424718499183655
13.944396734237671,-0.258493572473526,-1.0740816593170166,0.7303668856620789,0.8456920385360718,0.22715866565704346,-0.639616847038269
13.964540719985962,-0.25773224234580994,-1.0747007131576538,0.7304038405418396,0.8463504314422607,0.22612857818603516,-0.6381972432136536
13.984618663787842,-0.25618574023246765,-1.0759143829345703,0.7305460572242737,0.847658634185791,0.22410272061824799,-0.6353729963302612
14.00469708442688,-0.25542306900024414,-1.0765061378479004,0.7306477427482605,0.8483011722564697,0.2231019288301468,-0.6339725852012634
14.02476954460144,-0.2539359927177429,-1.07766592502594,0.7309106588363647,0.8495529890060425,0.22108300030231476,-0.6311957240104675
14.044904470443726,-0.25322040915489197,-1.0782322883605957,0.7310534119606018,0.8501564860343933,0.22006461024284363,-0.6298199892044067
14.065077066421509,-0.2518274188041687,-1.0793496370315552,0.7313255071640015,0.8513472676277161,0.21798987686634064,-0.6270771026611328
14.08536982536316,-0.2505156397819519,-1.0804462432861328,0.7314879894256592,0.852509617805481,0.21586062014102936,-0.6243409514427185
14.105539798736572,-0.24988608062267303,-1.0809866189956665,0.7315422892570496,0.8530716300010681,0.2147790491580963,-0.6229791045188904
14.126178503036499,-0.24869246780872345,-1.0820529460906982,0.7316292524337769,0.8541296124458313,0.21257655322551727,-0.6202753782272339
14.146268367767334,-0.24809502065181732,-1.0825735330581665,0.731688380241394,0.8546314239501953,0.21149323880672455,-0.6189345121383667
14.166347980499268,-0.24687634408473969,-1.083586573600769,0.7318947315216064,0.855616569519043,0.20937924087047577,-0.616268515586853
14.186702489852905,-0.2462346851825714,-1.0840729475021362,0.732037365436554,0.8561089634895325,0.20837625861167908,-0.6149440407752991
14.206790447235107,-0.24492725729942322,-1.08502197265625,0.7323869466781616,0.8571094274520874,0.20639008283615112,-0.6123077869415283
14.226895332336426,-0.2436184287071228,-1.085949420928955,0.7327520847320557,0.8581146001815796,0.20438605546951294,-0.6096905469894409
14.246964454650879,-0.2429889440536499,-1.086409568786621,0.7329232692718506,0.858607292175293,0.2033514678478241,-0.6083898544311523
14.267045974731445,-0.2417989820241928,-1.0873194932937622,0.7332427501678467,0.8595566153526306,0.20122414827346802,-0.6058078408241272
14.287131547927856,-0.24065163731575012,-1.0882055759429932,0.7335402965545654,0.8604541420936584,0.19909749925136566,-0.603253185749054
14.307231903076172,-0.24008658528327942,-1.0886393785476685,0.733690619468689,0.8608803749084473,0.19803951680660248,-0.6019859313964844
14.327404975891113,-0.23893752694129944,-1.0894864797592163,0.7340098023414612,0.8617282509803772,0.1959591805934906,-0.599461555480957
14.347916841506958,-0.23779696226119995,-1.0903128385543823,0.7343683242797852,0.8625607490539551,0.19387614727020264,-0.5969523787498474
14.368009567260742,-0.23722271621227264,-1.0907179117202759,0.7345796823501587,0.8629690408706665,0.1928374171257019,-0.5957055687904358
14.388088941574097,-0.23609992861747742,-1.09151291847229,0.735060453414917,0.8637227416038513,0.19073890149593353,-0.5932374000549316
14.408243417739868,-0.2355542629957199,-1.0919023752212524,0.7353174090385437,0.8640754222869873,0.1896800994873047,-0.5920132398605347
14.42833137512207,-0.23449604213237762,-1.0926599502563477,0.7358344197273254,0.8647491931915283,0.1875593215227127,-0.5895806550979614
14.448612451553345,-0.23346209526062012,-1.0933923721313477,0.7363428473472595,0.865420401096344,0.1854429543018341,-0.5871620178222656
14.46882700920105,-0.2329399734735489,-1.0937472581863403,0.7366023659706116,0.865756630897522,0.1844017654657364,-0.5859597325325012
14.488824129104614,-0.23188920319080353,-1.0944420099258423,0.7371010184288025,0.8664323091506958,0.18233327567577362,-0.5835676789283752
14.508939981460571,-0.2313697338104248,-1.0947800874710083,0.737319827079773,0.8667529821395874,0.18130774796009064,-0.5823817849159241
14.529052495956421,-0.23035673797130585,-1.0954468250274658,0.7377063035964966,0.8673495650291443,0.1792374551296234,-0.5800289511680603
14.549166679382324,-0.22985590994358063,-1.0957728624343872,0.7378630042076111,0.867622435092926,0.17821015417575836,-0.5788624882698059
14.569213151931763,-0.22884023189544678,-1.0964136123657227,0.7382089495658875,0.8681573271751404,0.1761685013771057,-0.5765399932861328
14.589267253875732,-0.2283364236354828,-1.096730351448059,0.7384055852890015,0.868424654006958,0.1751398891210556,-0.575381338596344
14.609373569488525,-0.22733841836452484,-1.097349762916565,0.7388662099838257,0.8689524531364441,0.17307743430137634,-0.5730715990066528
14.629523515701294,-0.22639648616313934,-1.0979514122009277,0.7393487095832825,0.8694643974304199,0.17097489535808563,-0.5707727670669556
14.649611711502075,-0.22593924403190613,-1.098244309425354,0.7395763397216797,0.8697183132171631,0.16992026567459106,-0.5696287751197815
