liuyurong129/humanoid-gym/humanoid/data/target_q_20250523-024129.csv
timestamp,joint_1,joint_2,joint_3,joint_4,joint_5,joint_6
0.00015091896057128906,0.0,0.0,0.0,0.0,0.0,0.0
0.020239591598510742,0.0,0.0,0.0,0.0,0.0,0.0
0.040311336517333984,0.0,0.0,0.0,0.0,0.0,0.0
0.06045842170715332,0.0,0.0,0.0,0.0,0.0,0.0
0.08047127723693848,0.0,0.0,0.0,0.0,0.0,0.0
0.10052633285522461,-0.265529990196228,-0.4911007881164551,0.5229054093360901,0.016828391700983047,-0.2215965837240219,0.23148825764656067
0.1206367015838623,-0.2679041922092438,-1.2303414344787598,0.5071325898170471,0.01550329104065895,-0.35527804493904114,0.20634789764881134
0.14071416854858398,-0.2536565065383911,-1.8411893844604492,0.5914238095283508,-0.01004498079419136,-0.39851370453834534,0.21076947450637817
0.16080689430236816,-0.2526888847351074,-2.0402395725250244,0.6452335119247437,-0.010453592985868454,-0.4012622833251953,0.2059296816587448
0.18091988563537598,-0.2639932930469513,-2.3316798210144043,0.6689683198928833,-0.03973931446671486,-0.4262332320213318,0.2150014191865921
0.20098185539245605,-0.26785072684288025,-2.4545481204986572,0.6960772275924683,-0.045182738453149796,-0.4339546859264374,0.21844971179962158
0.22118020057678223,-0.2741033434867859,-2.481699228286743,0.6926599740982056,-0.055833619087934494,-0.4397435188293457,0.22062906622886658
0.24120736122131348,-0.27628710865974426,-2.492941379547119,0.6997531652450562,-0.05535929277539253,-0.4397021234035492,0.2204139083623886
0.2612791061401367,-0.2771739363670349,-2.510115623474121,0.685444712638855,-0.059966977685689926,-0.4473641812801361,0.22137661278247833
0.2813553810119629,-0.27707090973854065,-2.5249528884887695,0.691464900970459,-0.05947452411055565,-0.44608330726623535,0.2214599847793579
0.3014414310455322,-0.27463430166244507,-2.5177087783813477,0.7084202766418457,-0.05109858885407448,-0.43806132674217224,0.21959827840328217
0.32152271270751953,-0.2743055522441864,-2.5147628784179688,0.7076234817504883,-0.05050327256321907,-0.4403385818004608,0.2204316109418869
0.34163618087768555,-0.2731577455997467,-2.507465362548828,0.7148109674453735,-0.05270421877503395,-0.43080267310142517,0.2227497100830078
0.36174774169921875,-0.27339062094688416,-2.5058529376983643,0.7037111520767212,-0.055441711097955704,-0.43853703141212463,0.2226114720106125
0.38181638717651367,-0.2772221863269806,-2.506277561187744,0.7067738771438599,-0.05555993691086769,-0.43547874689102173,0.22175131738185883
0.4019484519958496,-0.2766363024711609,-2.4991066455841064,0.7082692384719849,-0.05022003874182701,-0.439728319644928,0.22106125950813293
0.4220418930053711,-0.2776185870170593,-2.4896631240844727,0.7143746614456177,-0.05198438838124275,-0.43410149216651917,0.2215294986963272
0.44211888313293457,-0.27597615122795105,-2.4762001037597656,0.7172116041183472,-0.04637696221470833,-0.4320324957370758,0.21951524913311005
0.46223998069763184,-0.2798115313053131,-2.4827628135681152,0.6926040649414062,-0.05753592029213905,-0.44660815596580505,0.22291843593120575
0.482419490814209,-0.2774467468261719,-2.4794952869415283,0.7001446485519409,-0.05762189254164696,-0.4407106637954712,0.22474603354930878
0.5024642944335938,-0.28207382559776306,-2.473987102508545,0.6978052854537964,-0.058089982718229294,-0.4426359236240387,0.2234065681695938
0.5225265026092529,-0.27713048458099365,-2.4680140018463135,0.7159028053283691,-0.047109123319387436,-0.4314611256122589,0.22105129063129425
0.5425946712493896,-0.27852123975753784,-2.468015432357788,0.7133069038391113,-0.050271522253751755,-0.43216195702552795,0.2219344824552536
0.562882661819458,-0.27813759446144104,-2.464437484741211,0.716933012008667,-0.04766450449824333,-0.4318285584449768,0.2218359261751175
0.5829715728759766,-0.2815847396850586,-2.4662673473358154,0.7003664970397949,-0.05815157666802406,-0.43895822763442993,0.22392787039279938
0.6031060218811035,-0.2793521583080292,-2.4597253799438477,0.71393883228302,-0.05028379335999489,-0.43363335728645325,0.2229040116071701
0.6231589317321777,-0.28099656105041504,-2.4555704593658447,0.711500883102417,-0.05027038976550102,-0.4356904625892639,0.2219277173280716
0.6432580947875977,-0.28006067872047424,-2.4457733631134033,0.7159698009490967,-0.048800308257341385,-0.43203291296958923,0.22228308022022247
0.6633334159851074,-0.28032225370407104,-2.4444808959960938,0.7080143094062805,-0.04970497265458107,-0.4367360770702362,0.22314698994159698
0.6834170818328857,-0.279772013425827,-2.441451072692871,0.7161436080932617,-0.04776140674948692,-0.4322996139526367,0.22344207763671875
0.7034997940063477,-0.2791088819503784,-2.4304847717285156,0.718764066696167,-0.051971178501844406,-0.42753633856773376,0.22586990892887115
0.7235665321350098,-0.28339895606040955,-2.4220969676971436,0.7166874408721924,-0.05404416099190712,-0.42690691351890564,0.22600607573986053
0.7436814308166504,-0.2828672528266907,-2.426866054534912,0.7070865631103516,-0.0547969751060009,-0.43299832940101624,0.2249222844839096
0.7637832164764404,-0.28357481956481934,-2.4290056228637695,0.7197378873825073,-0.054887011647224426,-0.42272284626960754,0.22636081278324127
0.7838215827941895,-0.2827635109424591,-2.4226717948913574,0.7123087644577026,-0.051250699907541275,-0.43195703625679016,0.22470501065254211
0.8040299415588379,-0.2807077169418335,-2.413203477859497,0.726642370223999,-0.04481968656182289,-0.42364180088043213,0.2233186811208725
0.8240525722503662,-0.28003013134002686,-2.405775785446167,0.7300103902816772,-0.043528374284505844,-0.42037197947502136,0.22317688167095184
0.8442783355712891,-0.2807892858982086,-2.4009451866149902,0.7264811992645264,-0.04604116454720497,-0.42195770144462585,0.22390779852867126
0.8643734455108643,-0.28488150238990784,-2.4065942764282227,0.7076147794723511,-0.05357479676604271,-0.433257132768631,0.22599762678146362
0.8844559192657471,-0.2854744493961334,-2.3939902782440186,0.7143275737762451,-0.051256004720926285,-0.4316544830799103,0.22683562338352203
0.9046356678009033,-0.28172120451927185,-2.380885601043701,0.738371729850769,-0.04002447798848152,-0.41488584876060486,0.2233351320028305
0.9247562885284424,-0.28091123700141907,-2.3730452060699463,0.7392978668212891,-0.037116073071956635,-0.413939893245697,0.22233127057552338
0.9448106288909912,-0.282243549823761,-2.3727686405181885,0.7303467988967896,-0.041336268186569214,-0.4190317690372467,0.2236827313899994
0.9649343490600586,-0.28609296679496765,-2.377319812774658,0.7124590873718262,-0.05377030745148659,-0.4276205897331238,0.22744902968406677
0.9849987030029297,-0.28419211506843567,-2.3723485469818115,0.7176963090896606,-0.05127640441060066,-0.4249997138977051,0.22845962643623352
1.0050969123840332,-0.287225604057312,-2.363485336303711,0.7132205963134766,-0.05625159665942192,-0.4271794855594635,0.22764573991298676
1.0251820087432861,-0.28051573038101196,-2.3545572757720947,0.7432029247283936,-0.040031325072050095,-0.4073355197906494,0.2275373935699463
1.0452840328216553,-0.2828496992588043,-2.3490655422210693,0.7420734167098999,-0.0395878329873085,-0.40950825810432434,0.22581203281879425
1.0653126239776611,-0.28928616642951965,-2.356856107711792,0.7161523103713989,-0.05319783091545105,-0.42518550157546997,0.22900691628456116
1.0855252742767334,-0.28949302434921265,-2.335095167160034,0.7209414839744568,-0.0521867573261261,-0.4226274788379669,0.22945690155029297
1.1055285930633545,-0.2901339828968048,-2.3248684406280518,0.7216310501098633,-0.048970777541399,-0.42288774251937866,0.22857610881328583
1.1256675720214844,-0.28424903750419617,-2.3144683837890625,0.744670033454895,-0.034537285566329956,-0.4078556001186371,0.22450469434261322
1.1457104682922363,-0.28574326634407043,-2.310443162918091,0.7407234907150269,-0.03654235228896141,-0.4114128053188324,0.2257090061903
1.1658873558044434,-0.2865743339061737,-2.3128461837768555,0.7309623956680298,-0.03961429372429848,-0.4174395203590393,0.22641076147556305
1.1859796047210693,-0.2887834310531616,-2.318377733230591,0.7218203544616699,-0.04800177738070488,-0.41886571049690247,0.2288331836462021
1.2061173915863037,-0.290429025888443,-2.31520414352417,0.7164343595504761,-0.05125095322728157,-0.42291882634162903,0.22960154712200165
1.2261621952056885,-0.28288793563842773,-2.2944517135620117,0.7597818970680237,-0.031796883791685104,-0.39467254281044006,0.2267022281885147
1.246326208114624,-0.28540942072868347,-2.2891130447387695,0.7472367882728577,-0.035449471324682236,-0.4034160375595093,0.22630377113819122
1.266359806060791,-0.2862236797809601,-2.283310651779175,0.7582423090934753,-0.031148355454206467,-0.39676132798194885,0.22592021524906158
1.2864923477172852,-0.29282882809638977,-2.284176826477051,0.7320188283920288,-0.04966827481985092,-0.4114769399166107,0.23133179545402527
1.3065593242645264,-0.29160308837890625,-2.278846025466919,0.729822039604187,-0.04585951939225197,-0.4125012457370758,0.23011554777622223
1.3267240524291992,-0.2861597239971161,-2.2643420696258545,0.7570512294769287,-0.03188644349575043,-0.3977769613265991,0.2272474616765976
1.3467860221862793,-0.28665217757225037,-2.2580044269561768,0.7552541494369507,-0.03395308181643486,-0.39721277356147766,0.22737090289592743
1.3674304485321045,-0.289178729057312,-2.245335102081299,0.7505051493644714,-0.03394836559891701,-0.40242892503738403,0.2267453670501709
1.387535572052002,-0.29113200306892395,-2.24483060836792,0.7376198768615723,-0.04024503380060196,-0.4093295633792877,0.22997988760471344
1.4076058864593506,-0.2903556525707245,-2.2410805225372314,0.7456896305084229,-0.03625350818037987,-0.40431302785873413,0.22955644130706787
1.4277622699737549,-0.28911885619163513,-2.2268824577331543,0.7583196759223938,-0.0320688895881176,-0.3954317271709442,0.228146031498909
1.4478189945220947,-0.2874111533164978,-2.2099711894989014,0.7624859809875488,-0.03099837526679039,-0.3888297379016876,0.22953404486179352
1.4678611755371094,-0.29064589738845825,-2.2038216590881348,0.7550210952758789,-0.03527648001909256,-0.39223310351371765,0.22950993478298187
1.488067388534546,-0.2939997613430023,-2.2045414447784424,0.7455224990844727,-0.04147660732269287,-0.3980144262313843,0.23146145045757294
1.508124828338623,-0.294709175825119,-2.196120023727417,0.7431449890136719,-0.040047816932201385,-0.4016762673854828,0.23279334604740143
1.5282707214355469,-0.2916090488433838,-2.179703712463379,0.7683335542678833,-0.02788623794913292,-0.3840721845626831,0.2277446836233139
1.548365831375122,-0.28859609365463257,-2.17352294921875,0.7699646949768066,-0.02695038542151451,-0.37926027178764343,0.22894048690795898
1.5685899257659912,-0.2917688488960266,-2.1642990112304688,0.7612977027893066,-0.030080407857894897,-0.38602927327156067,0.22904013097286224
1.5886409282684326,-0.29648923873901367,-2.1663730144500732,0.7488143444061279,-0.037032950669527054,-0.39654049277305603,0.23228171467781067
1.6087210178375244,-0.2975752353668213,-2.1526694297790527,0.7475919723510742,-0.044685766100883484,-0.3897826075553894,0.23614735901355743
1.628920078277588,-0.28954675793647766,-2.133607864379883,0.7780652642250061,-0.022640179842710495,-0.371894896030426,0.22912177443504333
1.6489341259002686,-0.29590317606925964,-2.12214994430542,0.7693841457366943,-0.030303727835416794,-0.377637654542923,0.23087632656097412
1.6691858768463135,-0.29281049966812134,-2.113798141479492,0.7804994583129883,-0.01905575767159462,-0.3738510310649872,0.22880525887012482
1.689279556274414,-0.2998381555080414,-2.116456985473633,0.7517324686050415,-0.038456421345472336,-0.3913644850254059,0.23537234961986542
1.7093708515167236,-0.29762402176856995,-2.1023104190826416,0.7585150003433228,-0.02991693839430809,-0.38835757970809937,0.23336941003799438
1.7295985221862793,-0.29183346033096313,-2.0983939170837402,0.7706938982009888,-0.026850298047065735,-0.3751935064792633,0.234198197722435
1.749699354171753,-0.29689836502075195,-2.0916993618011475,0.7683590650558472,-0.026128187775611877,-0.3815576136112213,0.2312770038843155
1.7698814868927002,-0.2984004616737366,-2.0773613452911377,0.7655274868011475,-0.024800889194011688,-0.3826451003551483,0.23093105852603912
1.789923906326294,-0.29910939931869507,-2.0746467113494873,0.7612072229385376,-0.03183513879776001,-0.38083744049072266,0.2345929592847824
1.810011625289917,-0.29508379101753235,-2.0559511184692383,0.7747056484222412,-0.027481738477945328,-0.36808910965919495,0.2350752353668213
1.8300600051879883,-0.3020121157169342,-2.048802375793457,0.7585775852203369,-0.03157057240605354,-0.3803560435771942,0.23557619750499725
1.8501553535461426,-0.29902786016464233,-2.037759780883789,0.775123119354248,-0.01912785694003105,-0.37153735756874084,0.23011514544487
1.8702325820922852,-0.3002590835094452,-2.0230872631073,0.7797092199325562,-0.023212652653455734,-0.36366918683052063,0.2324295938014984
1.8902897834777832,-0.29892823100090027,-2.0134475231170654,0.7789692878723145,-0.017070436850190163,-0.3674680292606354,0.23051698505878448
1.910367488861084,-0.3027202785015106,-2.0190024375915527,0.7583841681480408,-0.03144187107682228,-0.37749072909355164,0.23730161786079407
1.9305009841918945,-0.3036063313484192,-2.011303186416626,0.7576882839202881,-0.03241646662354469,-0.37589702010154724,0.23729687929153442
1.9508192539215088,-0.3068728446960449,-1.998805046081543,0.7580434083938599,-0.03365415707230568,-0.37460026144981384,0.23777171969413757
1.9709618091583252,-0.3005841374397278,-1.981414794921875,0.7866272926330566,-0.015424702316522598,-0.35828378796577454,0.23223654925823212
1.991246223449707,-0.3031369745731354,-1.9671170711517334,0.7814878225326538,-0.019031887874007225,-0.3596707284450531,0.2326488345861435
2.011308431625366,-0.297885000705719,-1.9435460567474365,0.7942349910736084,-0.02047228068113327,-0.3429882526397705,0.23871256411075592
2.031480312347412,-0.30278393626213074,-1.9123477935791016,0.7941075563430786,-0.012127142399549484,-0.34834179282188416,0.2342073768377304
2.0514917373657227,-0.3058910667896271,-1.9022176265716553,0.7838977575302124,-0.015202458947896957,-0.35662129521369934,0.23464439809322357
2.071561336517334,-0.3096066415309906,-1.875467300415039,0.7767140865325928,-0.02136824280023575,-0.35401061177253723,0.23666559159755707
2.0916712284088135,-0.30621716380119324,-1.8471653461456299,0.8022984266281128,-0.007629897445440292,-0.33310437202453613,0.23264779150485992
2.1117360591888428,-0.3058260679244995,-1.8139503002166748,0.8041549921035767,-0.0025991536676883698,-0.3307340741157532,0.23090092837810516
2.1319141387939453,-0.30356258153915405,-1.7896497249603271,0.800200343132019,-0.009457442909479141,-0.32174545526504517,0.23560123145580292
2.1520116329193115,-0.3106595575809479,-1.7915246486663818,0.7822116613388062,-0.014347340911626816,-0.34259673953056335,0.237349733710289
2.17208194732666,-0.3121146261692047,-1.7758598327636719,0.7809625864028931,-0.015433195978403091,-0.33975568413734436,0.23795096576213837
2.1921701431274414,-0.3102026879787445,-1.7510502338409424,0.8011912107467651,-0.0024271830916404724,-0.3248429596424103,0.23311512172222137
2.212247848510742,-0.3107823133468628,-1.713829517364502,0.8131182193756104,0.006174448877573013,-0.3152681887149811,0.23122327029705048
2.232318878173828,-0.3109055459499359,-1.6632015705108643,0.8191299438476562,0.014933813363313675,-0.3081250488758087,0.22995518147945404
2.2524383068084717,-0.31382736563682556,-1.660834789276123,0.7867239713668823,-0.014356590807437897,-0.32103240489959717,0.2455470710992813
2.2724759578704834,-0.31546926498413086,-1.6117606163024902,0.7888674736022949,-0.01600092276930809,-0.3071573078632355,0.2479870468378067
2.293416738510132,-0.32000744342803955,-1.554619312286377,0.7930456399917603,-0.007334347814321518,-0.30232253670692444,0.24514958262443542
2.3134849071502686,-0.31324905157089233,-1.4906506538391113,0.8301377296447754,0.030456919223070145,-0.2760070264339447,0.2246626764535904
2.3335578441619873,-0.3135259747505188,-1.406388521194458,0.8386553525924683,0.03489477559924126,-0.2436235398054123,0.22261442244052887
2.3536417484283447,-0.3289206326007843,-1.401656150817871,0.7883614301681519,-0.004448886960744858,-0.2836082875728607,0.24415011703968048
2.37381911277771,-0.33404216170310974,-1.3215429782867432,0.78525710105896,0.0008856579661369324,-0.27654245495796204,0.24299603700637817
2.39388370513916,-0.33646973967552185,-1.2270514965057373,0.7876367568969727,0.005215045064687729,-0.25902870297431946,0.24333496391773224
2.413986921310425,-0.32671570777893066,-1.1378493309020996,0.8259369134902954,0.044171277433633804,-0.21711264550685883,0.2168169766664505
2.4340808391571045,-0.32666781544685364,-1.0434647798538208,0.8179894685745239,0.05202749744057655,-0.21296577155590057,0.21718162298202515
2.4541661739349365,-0.3328629732131958,-0.9472874402999878,0.812576949596405,0.04424925521016121,-0.18691818416118622,0.21817182004451752
2.474538564682007,-0.3534567654132843,-0.928785502910614,0.7720828056335449,0.006067786365747452,-0.2201738804578781,0.24091477692127228
2.4947075843811035,-0.3559913635253906,-0.822335422039032,0.7804638147354126,0.02534853294491768,-0.20759771764278412,0.23251111805438995
2.5148508548736572,-0.3605116605758667,-0.7103590369224548,0.7723156213760376,0.026590894907712936,-0.19176360964775085,0.22937823832035065
2.534972667694092,-0.3566867709159851,-0.6502466201782227,0.7704010009765625,0.018033403903245926,-0.15872891247272491,0.2359805852174759
2.55509090423584,-0.3627728223800659,-0.5348221659660339,0.7515028715133667,0.018359456211328506,-0.15405017137527466,0.2373199760913849
2.5751614570617676,-0.3797718286514282,-0.3963085114955902,0.7332710027694702,0.02478218451142311,-0.16892585158348083,0.22545820474624634
2.5952420234680176,-0.38660353422164917,-0.3121502697467804,0.7251629829406738,0.02489754930138588,-0.16666726768016815,0.22096717357635498
2.6153547763824463,-0.39404383301734924,-0.08143475651741028,0.7142609357833862,0.029570940881967545,-0.14054253697395325,0.2149365395307541
2.6359763145446777,-0.41637730598449707,0.17,0.6886928081512451,0.03187131509184837,-0.13059991598129272,0.19943875074386597
2.6561427116394043,-0.42470791935920715,0.17,0.6818744540214539,0.035672981292009354,-0.11487822979688644,0.19360853731632233
2.67622971534729,-0.4326666295528412,0.17,0.6754942536354065,0.030277442187070847,-0.08475791662931442,0.18150030076503754
2.6962432861328125,-0.4304371774196625,0.17,0.6810402870178223,0.02470865473151207,-0.07000732421875,0.17882654070854187
2.7163665294647217,-0.4305904805660248,0.17,0.686346173286438,0.025733623653650284,-0.07137899100780487,0.17457468807697296
2.7364418506622314,-0.4283328354358673,0.17,0.6876705884933472,0.02878265455365181,-0.06930343061685562,0.17857536673545837
2.7564685344696045,-0.4302990436553955,0.17,0.6863313913345337,0.027409125119447708,-0.07474904507398605,0.17741034924983978
2.7765512466430664,-0.43003469705581665,0.17,0.6850699186325073,0.02543170377612114,-0.07085277885198593,0.17815646529197693
2.7966551780700684,-0.42907944321632385,0.17,0.6869655847549438,0.022597026079893112,-0.06371324509382248,0.18085582554340363
2.8167147636413574,-0.4323284327983856,0.17,0.6861816644668579,0.022117961198091507,-0.06909653544425964,0.18018238246440887
2.836818218231201,-0.4313284456729889,0.17,0.6851342916488647,0.024242978543043137,-0.06961128115653992,0.17748810350894928
2.856931209564209,-0.4319451153278351,0.17,0.6895931959152222,0.02422662451863289,-0.0657576248049736,0.1773042231798172
2.877002716064453,-0.43228641152381897,0.17,0.6868735551834106,0.021785292774438858,-0.06525098532438278,0.17862649261951447
2.8970935344696045,-0.4332452714443207,0.17,0.682999312877655,0.024089548736810684,-0.0752900168299675,0.17962093651294708
2.9172749519348145,-0.43293511867523193,0.17,0.6806747913360596,0.0238267220556736,-0.0776476263999939,0.1767672598361969
2.937418222427368,-0.43123307824134827,0.17,0.6812291145324707,0.027138788253068924,-0.07852748781442642,0.17894619703292847
2.9574801921844482,-0.4308600127696991,0.17,0.6815022230148315,0.024683278053998947,-0.07516652345657349,0.178643599152565
2.9775478839874268,-0.4275335371494293,0.17,0.6837377548217773,0.026394862681627274,-0.06524848937988281,0.18073365092277527
2.9976449012756348,-0.4327909052371979,0.17,0.6828712224960327,0.02534237876534462,-0.07271794229745865,0.18006698787212372
3.017702341079712,-0.4326731860637665,0.17,0.6806917190551758,0.022290918976068497,-0.07111694663763046,0.18232503533363342
3.0378592014312744,-0.43146267533302307,0.17,0.6817450523376465,0.022083912044763565,-0.06434750556945801,0.18038660287857056
3.057910919189453,-0.43403157591819763,0.17,0.6812756061553955,0.02359645441174507,-0.07329323887825012,0.18050555884838104
3.078303575515747,-0.4316301941871643,0.17,0.6802502870559692,0.023954857140779495,-0.07124175131320953,0.1794586032629013
3.098475933074951,-0.4264431893825531,0.17,0.6845064163208008,0.02361762896180153,-0.05444779992103577,0.18203049898147583
3.1185340881347656,-0.42936137318611145,0.17,0.6839354634284973,0.019566301256418228,-0.05263068526983261,0.18590955436229706
3.138584613800049,-0.4340664744377136,0.17,0.6838208436965942,0.02175166830420494,-0.06642629206180573,0.17736518383026123
3.1586625576019287,-0.4341564178466797,0.17,0.6797115802764893,0.021227356046438217,-0.07071880251169205,0.1779935359954834
3.178745985031128,-0.43418464064598083,0.17,0.6788908243179321,0.022074375301599503,-0.07232839614152908,0.17834265530109406
3.198897123336792,-0.43230605125427246,0.17,0.6804786920547485,0.02091340348124504,-0.06451394408941269,0.1825597733259201
3.2189199924468994,-0.4358569383621216,0.17,0.6830129623413086,0.02014629915356636,-0.06496595591306686,0.1784718930721283
3.2389276027679443,-0.4331743121147156,0.17,0.6794016361236572,0.024559665471315384,-0.0724969133734703,0.17878691852092743
3.259024143218994,-0.43249911069869995,0.17,0.6794718503952026,0.023210939019918442,-0.06774922460317612,0.1822584718465805
3.279226779937744,-0.4339240491390228,0.17,0.6812547445297241,0.021313998848199844,-0.06555923074483871,0.18004851043224335
3.2992961406707764,-0.4318481981754303,0.17,0.6798736453056335,0.02081512287259102,-0.06125112622976303,0.18160344660282135
3.3194658756256104,-0.4321400821208954,0.17,0.6807071566581726,0.022674474865198135,-0.06400515884160995,0.18055741488933563
3.3395700454711914,-0.43524977564811707,0.17,0.6791101098060608,0.019954819232225418,-0.06644424051046371,0.17972202599048615
3.3596980571746826,-0.43442684412002563,0.17,0.6790145635604858,0.021988753229379654,-0.06807982921600342,0.18112514913082123
3.379814624786377,-0.4331856071949005,0.17,0.6794512271881104,0.02002030238509178,-0.0633387565612793,0.18149986863136292
3.4002482891082764,-0.43297240138053894,0.17,0.6784912347793579,0.019677262753248215,-0.06377186626195908,0.18128708004951477
3.4203574657440186,-0.43454310297966003,0.17,0.6754118800163269,0.022091183811426163,-0.06967505812644958,0.18094570934772491
3.440411329269409,-0.4332157075405121,0.17,0.6780825853347778,0.021218109875917435,-0.06597799062728882,0.18001246452331543
3.4604904651641846,-0.43437767028808594,0.17,0.6775546669960022,0.019533347338438034,-0.06330481916666031,0.1832372099161148
3.480717420578003,-0.4335874617099762,0.17,0.6760523319244385,0.022187326103448868,-0.06843817979097366,0.18131223320960999
3.500890016555786,-0.43347498774528503,0.17,0.6769726276397705,0.0210183747112751,-0.0644703209400177,0.18408803641796112
3.521075487136841,-0.43563729524612427,0.17,0.6750332713127136,0.01918644830584526,-0.06613340228796005,0.18149277567863464
3.5410938262939453,-0.43480217456817627,0.17,0.6746504902839661,0.020409811288118362,-0.06745260953903198,0.18155537545681
3.5613491535186768,-0.4339791536331177,0.17,0.675574541091919,0.017728809267282486,-0.0582297220826149,0.18606512248516083
3.581446647644043,-0.43357640504837036,0.17,0.6757303476333618,0.02181268110871315,-0.06545909494161606,0.18204249441623688
3.6014857292175293,-0.43352991342544556,0.17,0.6724753379821777,0.02111903950572014,-0.06673062592744827,0.1802569031715393
3.6215927600860596,-0.43218985199928284,0.17,0.6752976179122925,0.020698662847280502,-0.060456447303295135,0.184120312333107
3.641664981842041,-0.4331108629703522,0.17,0.6750600934028625,0.022927019745111465,-0.06538365036249161,0.18213512003421783
3.6617166996002197,-0.43476197123527527,0.17,0.67414391040802,0.016046304255723953,-0.06030309945344925,0.18560943007469177
3.681806802749634,-0.4303078353404999,0.17,0.6759397983551025,0.01749911531805992,-0.04841412603855133,0.18452374637126923
3.7018966674804688,-0.43277108669281006,0.17,0.6754571199417114,0.017253879457712173,-0.05151427537202835,0.18642552196979523
3.722080707550049,-0.43683239817619324,0.17,0.6729097366333008,0.017408329993486404,-0.06302499026060104,0.18339307606220245
3.742194652557373,-0.4377150535583496,0.17,0.6717489957809448,0.016253609210252762,-0.06391265988349915,0.18212977051734924
3.7622463703155518,-0.4354760944843292,0.17,0.6720100045204163,0.01809939369559288,-0.0633430927991867,0.18359728157520294
3.7823281288146973,-0.4360109865665436,0.17,0.6737967729568481,0.01724088564515114,-0.06106601655483246,0.18126477301120758
3.802523374557495,-0.4354693293571472,0.17,0.6726479530334473,0.016762863844633102,-0.05972052365541458,0.18365226686000824
3.822523355484009,-0.4357354938983917,0.17,0.6716275215148926,0.018992502242326736,-0.06427827477455139,0.18278242647647858
3.8428852558135986,-0.4361727237701416,0.17,0.6712721586227417,0.014180634170770645,-0.05613140016794205,0.18445931375026703
3.862990379333496,-0.4362374246120453,0.17,0.672330379486084,0.017666269093751907,-0.06084200739860535,0.1813998818397522
3.8830721378326416,-0.43709754943847656,0.17,0.6703170537948608,0.017558570951223373,-0.0648578479886055,0.18314328789710999
3.9032700061798096,-0.43611422181129456,0.17,0.6696537137031555,0.016519542783498764,-0.06187604367733002,0.18623338639736176
3.9232871532440186,-0.43937012553215027,0.17,0.6738708019256592,0.014482837170362473,-0.0574016198515892,0.18502379953861237
3.9434170722961426,-0.4374605417251587,0.17,0.6739931106567383,0.01820221170783043,-0.058975547552108765,0.18084068596363068
3.9634687900543213,-0.43544161319732666,0.17,0.6722841262817383,0.016738828271627426,-0.05442877113819122,0.18632745742797852
3.9835357666015625,-0.4319189488887787,0.17,0.6732532978057861,0.015171367675065994,-0.04423736780881882,0.1875489503145218
4.00375771522522,-0.4350645840167999,0.17,0.6724401712417603,0.015368778258562088,-0.05139169842004776,0.1891009658575058
4.023875951766968,-0.4384925067424774,0.17,0.6704380512237549,0.013402987271547318,-0.056829892098903656,0.1833687573671341
4.044001579284668,-0.4393947422504425,0.17,0.6712394952774048,0.013104837387800217,-0.055087730288505554,0.18354161083698273
4.06407618522644,-0.4354330003261566,0.17,0.6711311340332031,0.014828864485025406,-0.04972689598798752,0.18803872168064117
4.084183931350708,-0.44033101201057434,0.17,0.6691253185272217,0.011662151664495468,-0.05643998831510544,0.1893777698278427
4.10449481010437,-0.43838217854499817,0.17,0.6664286851882935,0.013789918273687363,-0.05943266302347183,0.1837400197982788
4.124588489532471,-0.43927255272865295,0.17,0.6669007539749146,0.01144128292798996,-0.058713510632514954,0.18760128319263458
4.144652605056763,-0.43231213092803955,0.17,0.6709649562835693,0.01705421879887581,-0.05010969191789627,0.18455667793750763
4.164852619171143,-0.4369519054889679,0.17,0.6704434156417847,0.017505977302789688,-0.06042034178972244,0.18317337334156036
4.1848978996276855,-0.43602249026298523,0.17,0.6670225858688354,0.017507392913103104,-0.06121327728033066,0.18520309031009674
4.204930305480957,-0.435945063829422,0.17,0.6681860685348511,0.013315629214048386,-0.051307372748851776,0.1876896172761917
4.225060224533081,-0.43730947375297546,0.17,0.6688540577888489,0.012532874941825867,-0.05114554613828659,0.18775229156017303
4.245137453079224,-0.43739601969718933,0.17,0.6671159863471985,0.013148367404937744,-0.054535992443561554,0.18711599707603455
4.265224933624268,-0.4366855323314667,0.17,0.6674816608428955,0.015163596719503403,-0.05609215050935745,0.1852109581232071
4.285321950912476,-0.4391914904117584,0.17,0.6671812534332275,0.011060155928134918,-0.054785631597042084,0.18732523918151855
4.305412292480469,-0.4373735189437866,0.17,0.6658209562301636,0.01486578956246376,-0.058584243059158325,0.18684683740139008
4.3255295753479,-0.4375515878200531,0.17,0.669347882270813,0.015354033559560776,-0.05542660504579544,0.18507330119609833
4.345636606216431,-0.4372793734073639,0.17,0.6675598621368408,0.011876814067363739,-0.052552126348018646,0.18899774551391602
4.365729570388794,-0.43722477555274963,0.17,0.6650879383087158,0.015458773821592331,-0.05752349644899368,0.1892724335193634
4.386028051376343,-0.4397900402545929,0.17,0.6654881238937378,0.010047812014818192,-0.05125045031309128,0.1896415799856186
4.406125545501709,-0.43989694118499756,0.17,0.664510190486908,0.014693256467580795,-0.05799568444490433,0.18824341893196106
4.426208972930908,-0.4374048411846161,0.17,0.664018452167511,0.012367144227027893,-0.053707435727119446,0.18998795747756958
4.446308612823486,-0.43759122490882874,0.17,0.6642427444458008,0.012294258922338486,-0.05318444222211838,0.18974456191062927
4.466369390487671,-0.4369754493236542,0.17,0.6662960052490234,0.01588030532002449,-0.05553160607814789,0.18501070141792297
4.48643159866333,-0.4364343583583832,0.17,0.6660505533218384,0.013505294919013977,-0.04978538304567337,0.18777154386043549
4.506579637527466,-0.4368031919002533,0.17,0.6666038036346436,0.012543678283691406,-0.049058713018894196,0.1906336396932602
4.526738882064819,-0.43843144178390503,0.17,0.6638673543930054,0.01190992072224617,-0.05386614054441452,0.18676696717739105
4.546735763549805,-0.44045063853263855,0.17,0.6645643711090088,0.0101359523832798,-0.051638633012771606,0.1863953024148941
4.566936016082764,-0.4382258355617523,0.17,0.6643091440200806,0.010341338813304901,-0.047178030014038086,0.19194956123828888
4.587000370025635,-0.43885543942451477,0.17,0.6613678932189941,0.01110701635479927,-0.05258583277463913,0.19379469752311707
4.607136964797974,-0.4382637143135071,0.17,0.6616307497024536,0.010118722915649414,-0.04994363337755203,0.18945573270320892
4.627194404602051,-0.43904751539230347,0.17,0.6611286401748657,0.012441407889127731,-0.05681440979242325,0.19080446660518646
4.647347688674927,-0.43494993448257446,0.17,0.6617965698242188,0.008901845663785934,-0.04355817288160324,0.19327308237552643
4.667450428009033,-0.4335051476955414,0.17,0.6646697521209717,0.008473757654428482,-0.03639291226863861,0.19542236626148224
4.687517881393433,-0.43936583399772644,0.17,0.6611068844795227,0.009301062673330307,-0.048268355429172516,0.1922544687986374
4.70760703086853,-0.4409123361110687,0.17,0.6610404253005981,0.006391376256942749,-0.04791347682476044,0.1893473118543625
4.7276856899261475,-0.4345718324184418,0.17,0.6639937162399292,0.01029447466135025,-0.03899037092924118,0.1924772411584854
4.747792720794678,-0.44172248244285583,0.17,0.6628467440605164,0.006819054484367371,-0.0483926385641098,0.19293178617954254
4.767894268035889,-0.4395993649959564,0.17,0.6642683744430542,0.010405588895082474,-0.04951854050159454,0.18750838935375214
4.787932395935059,-0.4410621225833893,0.17,0.6589401960372925,0.008107062429189682,-0.05332423001527786,0.18988464772701263
4.808031797409058,-0.43835878372192383,0.17,0.659314751625061,0.008767906576395035,-0.048937372863292694,0.1917741447687149
4.828106641769409,-0.43980106711387634,0.17,0.6604355573654175,0.007444854825735092,-0.048724427819252014,0.19085964560508728
4.8482420444488525,-0.4408053457736969,0.17,0.659030020236969,0.008499529212713242,-0.05448620021343231,0.18889868259429932
4.868406534194946,-0.4399174153804779,0.17,0.657772421836853,0.005632735788822174,-0.04602784663438797,0.1927434653043747
4.889124870300293,-0.44235944747924805,0.17,0.6562838554382324,0.006694454699754715,-0.054000839591026306,0.1934211403131485
4.909187078475952,-0.4406711757183075,0.17,0.6547145843505859,0.008240863680839539,-0.05603881925344467,0.19082388281822205
4.929322719573975,-0.4417916238307953,0.17,0.6541317105293274,0.004896081984043121,-0.05352351814508438,0.1935538798570633
4.949435710906982,-0.4394035041332245,0.17,0.6546541452407837,0.006932664662599564,-0.051579512655735016,0.1912187784910202
4.969513177871704,-0.4406551718711853,0.17,0.6574335098266602,0.006801363080739975,-0.05080290138721466,0.19210228323936462
4.989687919616699,-0.437605082988739,0.17,0.659102737903595,0.006684105843305588,-0.03991249203681946,0.192170187830925
5.009829998016357,-0.4400936961174011,0.17,0.6602845191955566,0.006159905344247818,-0.04282283037900925,0.193536639213562
5.029922962188721,-0.4408249258995056,0.17,0.6604465246200562,0.007421385496854782,-0.04406574368476868,0.19213132560253143
5.050022125244141,-0.4387470781803131,0.17,0.6589001417160034,0.002936743199825287,-0.035275645554065704,0.19965344667434692
5.070073366165161,-0.4406660199165344,0.17,0.6572287082672119,0.004229545593261719,-0.043751999735832214,0.19676250219345093
5.0901384353637695,-0.44115760922431946,0.17,0.6538435220718384,0.0038895197212696075,-0.048742152750492096,0.19379276037216187
5.1102800369262695,-0.44063106179237366,0.17,0.6543571949005127,0.004720296710729599,-0.048009760677814484,0.1939748227596283
5.130382061004639,-0.43871164321899414,0.17,0.6558718085289001,0.0011316537857055664,-0.033400580286979675,0.1988360434770584
5.150454521179199,-0.44022950530052185,0.17,0.6554279327392578,0.0011557228863239288,-0.038192540407180786,0.19800108671188354
5.170539855957031,-0.4425635039806366,0.17,0.654315710067749,0.00539364293217659,-0.04655707627534866,0.19646258652210236
5.190621376037598,-0.4425469934940338,0.17,0.6523361206054688,0.0032280944287776947,-0.04706018418073654,0.19770489633083344
5.210913181304932,-0.44155779480934143,0.17,0.6507961750030518,0.006399922072887421,-0.051720358431339264,0.19414468109607697
5.231019020080566,-0.44038036465644836,0.17,0.6514061689376831,0.004834450781345367,-0.04801066964864731,0.19588617980480194
5.251094579696655,-0.44092750549316406,0.17,0.6531087160110474,0.0015872307121753693,-0.041243210434913635,0.1961003988981247
5.271235466003418,-0.4400326609611511,0.17,0.6529515981674194,0.002113252878189087,-0.04088080674409866,0.19482387602329254
5.291340589523315,-0.4389912188053131,0.17,0.6544173955917358,0.005732182413339615,-0.04210004210472107,0.19600524008274078
5.311418771743774,-0.44365838170051575,0.17,0.6520218253135681,0.0020661167800426483,-0.04553278535604477,0.19688814878463745
5.331593036651611,-0.44064050912857056,0.17,0.650977611541748,0.002280455082654953,-0.041146114468574524,0.19822512567043304
5.35169243812561,-0.4374975264072418,0.17,0.6536833643913269,0.003446880728006363,-0.033164121210575104,0.19758258759975433
5.3717615604400635,-0.44169339537620544,0.17,0.6519581079483032,0.002320576459169388,-0.04051705449819565,0.19915251433849335
5.391832590103149,-0.44352447986602783,0.17,0.6500244736671448,0.005754023790359497,-0.04979559779167175,0.194488063454628
5.411974191665649,-0.4416351318359375,0.17,0.6497094631195068,0.004026371985673904,-0.04825997352600098,0.1949247270822525
5.4320220947265625,-0.4416547119617462,0.17,0.650085985660553,0.00013906881213188171,-0.040639474987983704,0.19704316556453705
5.4523255825042725,-0.44163790345191956,0.17,0.651166558265686,0.005096051841974258,-0.04607260972261429,0.19525597989559174
5.472445726394653,-0.44049957394599915,0.17,0.6497396230697632,0.005384232848882675,-0.045804135501384735,0.19792135059833527
5.492499828338623,-0.4417637288570404,0.17,0.6494929790496826,0.003304526209831238,-0.04178100824356079,0.19595222175121307
5.513095378875732,-0.4417458176612854,0.17,0.6505971550941467,0.004113253206014633,-0.04170607775449753,0.1986880600452423
5.533186912536621,-0.43896907567977905,0.17,0.6517386436462402,0.004339650273323059,-0.036505743861198425,0.19992901384830475
5.5532708168029785,-0.44196900725364685,0.17,0.6483615636825562,-0.002307415008544922,-0.03420528024435043,0.1994914561510086
5.573349714279175,-0.4403766691684723,0.17,0.6507501602172852,-0.000836007297039032,-0.03202681988477707,0.19913749396800995
5.593451261520386,-0.44242677092552185,0.17,0.6487129926681519,-0.00013713911175727844,-0.040067821741104126,0.1973964422941208
5.613489389419556,-0.44323110580444336,0.17,0.6498176455497742,-0.0005237683653831482,-0.037711091339588165,0.19750654697418213
5.633575677871704,-0.4403623342514038,0.17,0.6504440307617188,-0.0007383972406387329,-0.030977511778473854,0.2005986124277115
5.653659105300903,-0.44414326548576355,0.17,0.6469228267669678,-0.00018474087119102478,-0.04270239919424057,0.19900284707546234
5.673714637756348,-0.44308945536613464,0.17,0.6449944972991943,-0.0012174993753433228,-0.041637785732746124,0.1981489360332489
5.6938066482543945,-0.4388209283351898,0.17,0.6488996744155884,-0.00015263631939888,-0.03003806062042713,0.20117996633052826
5.713879108428955,-0.4439074695110321,0.17,0.6474518775939941,-0.000543985515832901,-0.04148198664188385,0.19867664575576782
5.733997106552124,-0.44112440943717957,0.17,0.6489862203598022,0.00029519200325012207,-0.03655243664979935,0.1989675611257553
5.754094123840332,-0.4430091679096222,0.17,0.6474674940109253,-0.0022243261337280273,-0.03908175975084305,0.1999698430299759
5.774171829223633,-0.44459033012390137,0.17,0.6459344625473022,-0.004270877689123154,-0.03687300533056259,0.20371609926223755
5.794350862503052,-0.4422013461589813,0.17,0.6489019393920898,0.0030123479664325714,-0.04092641919851303,0.1994793564081192
5.814444065093994,-0.4430542588233948,0.17,0.6466878652572632,-0.0015115328133106232,-0.037821732461452484,0.20162124931812286
5.8345794677734375,-0.43926894664764404,0.17,0.6465904712677002,-0.001374080777168274,-0.028848478570580482,0.2052452266216278
5.85477089881897,-0.44448745250701904,0.17,0.6466269493103027,-0.0023386962711811066,-0.03702186048030853,0.19987212121486664
5.874829053878784,-0.4443734288215637,0.17,0.6470205783843994,-0.0019468478858470917,-0.03780176490545273,0.19870693981647491
5.894916534423828,-0.4450099468231201,0.17,0.6424903869628906,-0.0028077363967895508,-0.041395507752895355,0.20018289983272552
5.914976596832275,-0.44543132185935974,0.17,0.6423254609107971,-0.004716906696557999,-0.040474288165569305,0.20180267095565796
5.9350502490997314,-0.438486784696579,0.17,0.6447508335113525,-0.00391760841012001,-0.0261529628187418,0.20310167968273163
5.955125331878662,-0.44455796480178833,0.17,0.6424741744995117,-0.007543925195932388,-0.03323719650506973,0.20531289279460907
5.97528600692749,-0.44493529200553894,0.17,0.6422431468963623,-0.0030188895761966705,-0.0367223396897316,0.20150768756866455
5.995335578918457,-0.4428739845752716,0.17,0.643569827079773,-0.0010807998478412628,-0.03734644502401352,0.20165802538394928
6.0154125690460205,-0.44527876377105713,0.17,0.6404343843460083,-0.005459565669298172,-0.03704620152711868,0.20681285858154297
6.035549640655518,-0.4424980580806732,0.17,0.6407921314239502,-0.0019130371510982513,-0.03902732580900192,0.20054210722446442
6.055582046508789,-0.4448644518852234,0.17,0.6432510018348694,-0.00487431138753891,-0.03515167534351349,0.20107492804527283
6.0757129192352295,-0.43693384528160095,0.17,0.6455155611038208,-0.004070434719324112,-0.018793540075421333,0.20650336146354675
6.0958638191223145,-0.4404698312282562,0.17,0.6446212530136108,-0.0030503161251544952,-0.028908254578709602,0.2059575766324997
6.115911245346069,-0.4458214044570923,0.17,0.6425715684890747,-0.006365280598402023,-0.03349963575601578,0.20586831867694855
6.136045217514038,-0.4436703622341156,0.17,0.6411702632904053,-0.007898129522800446,-0.02746923454105854,0.2051384299993515
6.1561689376831055,-0.4453226625919342,0.17,0.6422305107116699,-0.0062990449368953705,-0.0324888750910759,0.20629461109638214
6.1763105392456055,-0.4399053752422333,0.17,0.643978476524353,-0.005654647946357727,-0.020441124215722084,0.20603705942630768
6.196495771408081,-0.44734078645706177,0.17,0.6414416432380676,-0.005214858800172806,-0.03694598376750946,0.20465002954006195
6.216558933258057,-0.44318655133247375,0.17,0.638708233833313,-0.0039010047912597656,-0.036781519651412964,0.20532913506031036
6.236649513244629,-0.44228097796440125,0.17,0.6379714012145996,-0.005463354289531708,-0.033255018293857574,0.20510248839855194
6.256716251373291,-0.4419271647930145,0.17,0.640649676322937,-0.0063351839780807495,-0.028453322127461433,0.2047184258699417
6.2768049240112305,-0.44219842553138733,0.17,0.6412869691848755,-0.004172641783952713,-0.030734466388821602,0.20368990302085876
6.297116756439209,-0.4454519748687744,0.17,0.6370428204536438,-0.008920341730117798,-0.03175686299800873,0.20636749267578125
6.317499399185181,-0.4444815218448639,0.17,0.6362121105194092,-0.005736496299505234,-0.03561585396528244,0.20623467862606049
6.3375983238220215,-0.4420442283153534,0.17,0.636965274810791,-0.006549075245857239,-0.028101513162255287,0.20695792138576508
6.3576881885528564,-0.44283896684646606,0.17,0.6377604007720947,-0.008370023220777512,-0.026746245101094246,0.2080107480287552
6.377964019775391,-0.4432447552680969,0.17,0.6381993293762207,-0.008345719426870346,-0.02615910954773426,0.20625782012939453
6.397923231124878,-0.44331976771354675,0.17,0.6387714147567749,-0.008357904851436615,-0.02546403743326664,0.20665636658668518
6.418282747268677,-0.4433028995990753,0.17,0.638838529586792,-0.008341562002897263,-0.0253471527248621,0.20680049061775208
6.4384026527404785,-0.4432726502418518,0.17,0.6388731002807617,-0.008323058485984802,-0.025276901200413704,0.20694197714328766
6.458509683609009,-0.4432809054851532,0.17,0.6388677358627319,-0.008327994495630264,-0.02528957463800907,0.20690707862377167
6.478637218475342,-0.4432881772518158,0.17,0.6388610601425171,-0.008332464843988419,-0.025304051116108894,0.20687426626682281
6.498749494552612,-0.44328656792640686,0.17,0.6388629674911499,-0.008331522345542908,-0.025300102308392525,0.2068817913532257
6.518752336502075,-0.44328591227531433,0.17,0.638863742351532,-0.00833113119006157,-0.025298574939370155,0.20688460767269135
6.5389063358306885,-0.4432853162288666,0.17,0.6388643980026245,-0.008330803364515305,-0.02529733069241047,0.206887349486351
6.558945417404175,-0.4432854950428009,0.17,0.6388641595840454,-0.008330851793289185,-0.02529759146273136,0.2068866640329361
6.579552888870239,-0.4432854950428009,0.17,0.6388642191886902,-0.00833088904619217,-0.025297658517956734,0.2068864107131958
6.599670648574829,-0.44328561425209045,0.17,0.6388641595840454,-0.00833093374967575,-0.025297770276665688,0.2068861722946167
6.619755029678345,-0.44328558444976807,0.17,0.6388642191886902,-0.00833093747496605,-0.025297710672020912,0.20688624680042267
6.639830112457275,-0.4432855546474457,0.17,0.6388642191886902,-0.00833091139793396,-0.02529768832027912,0.20688630640506744
6.659930467605591,-0.44328561425209045,0.17,0.6388642191886902,-0.008330900222063065,-0.025297673419117928,0.20688630640506744
6.680000066757202,-0.4432855546474457,0.17,0.6388642191886902,-0.008330907672643661,-0.025297710672020912,0.20688626170158386
6.700073719024658,-0.44328561425209045,0.17,0.6388642191886902,-0.008330930024385452,-0.02529768832027912,0.20688629150390625
6.720160722732544,-0.44328561425209045,0.17,0.6388642191886902,-0.008330903947353363,-0.025297651067376137,0.20688630640506744
6.740271091461182,-0.44328561425209045,0.17,0.6388642191886902,-0.008330926299095154,-0.025297725573182106,0.20688630640506744
6.760365962982178,-0.44328558444976807,0.17,0.6388641595840454,-0.008330918848514557,-0.025297703221440315,0.20688624680042267
6.780537366867065,-0.44328561425209045,0.17,0.6388642191886902,-0.008330926299095154,-0.025297703221440315,0.20688626170158386
6.800573110580444,-0.44328558444976807,0.17,0.6388641595840454,-0.008330900222063065,-0.02529771812260151,0.20688627660274506
6.820657730102539,-0.44328561425209045,0.17,0.6388641595840454,-0.008330915123224258,-0.025297747924923897,0.20688627660274506
6.840721607208252,-0.44328561425209045,0.17,0.6388641595840454,-0.008330918848514557,-0.025297651067376137,0.20688627660274506
6.860860109329224,-0.44328558444976807,0.17,0.6388641595840454,-0.00833093747496605,-0.02529768832027912,0.20688629150390625
6.880927801132202,-0.44328561425209045,0.17,0.6388642191886902,-0.008330926299095154,-0.02529771812260151,0.20688629150390625
6.901045322418213,-0.44328561425209045,0.17,0.6388641595840454,-0.008330900222063065,-0.02529766596853733,0.20688629150390625
6.921094655990601,-0.44328558444976807,0.17,0.6388641595840454,-0.00833093747496605,-0.025297658517956734,0.20688627660274506
6.941153287887573,-0.4432855546474457,0.17,0.6388641595840454,-0.008330918848514557,-0.02529771812260151,0.20688627660274506
6.961262226104736,-0.44328561425209045,0.17,0.6388641595840454,-0.008330952376127243,-0.025297710672020912,0.20688629150390625
6.981328964233398,-0.44328558444976807,0.17,0.6388641595840454,-0.00833093374967575,-0.02529768832027912,0.20688630640506744
7.0014073848724365,-0.44328561425209045,0.17,0.6388641595840454,-0.008330915123224258,-0.02529766596853733,0.20688629150390625
7.021493434906006,-0.44328558444976807,0.17,0.6388641595840454,-0.00833093747496605,-0.02529766596853733,0.20688627660274506
7.041574478149414,-0.44328561425209045,0.17,0.6388641595840454,-0.008330918848514557,-0.025297710672020912,0.20688627660274506
7.061733245849609,-0.44328558444976807,0.17,0.6388641595840454,-0.008330926299095154,-0.02529771812260151,0.20688624680042267
7.0819079875946045,-0.44328561425209045,0.17,0.6388641595840454,-0.008330918848514557,-0.025297680869698524,0.20688629150390625
7.101900577545166,-0.44328558444976807,0.17,0.6388641595840454,-0.008330922573804855,-0.02529769577085972,0.20688627660274506
7.121974945068359,-0.4432855546474457,0.17,0.6388641595840454,-0.008330907672643661,-0.02529768832027912,0.20688627660274506
7.142240762710571,-0.4432855546474457,0.17,0.6388641595840454,-0.00833093374967575,-0.025297680869698524,0.20688627660274506
7.162293910980225,-0.4432855546474457,0.17,0.6388641595840454,-0.008330930024385452,-0.02529766596853733,0.20688627660274506
7.182386159896851,-0.44328561425209045,0.17,0.6388642191886902,-0.00833091139793396,-0.025297651067376137,0.20688626170158386
7.202466011047363,-0.4432855546474457,0.17,0.6388641595840454,-0.00833093374967575,-0.025297651067376137,0.20688627660274506
7.222523212432861,-0.4432855546474457,0.17,0.6388641595840454,-0.008330907672643661,-0.02529769577085972,0.20688629150390625
7.242619514465332,-0.44328561425209045,0.17,0.6388642191886902,-0.008330900222063065,-0.02529768832027912,0.20688627660274506
7.262704133987427,-0.44328561425209045,0.17,0.638864278793335,-0.008330926299095154,-0.025297703221440315,0.20688629150390625
7.284109354019165,-0.4432855546474457,0.17,0.6388641595840454,-0.008330892771482468,-0.025297680869698524,0.20688629150390625
7.304242134094238,-0.4432855546474457,0.17,0.6388642191886902,-0.008330941200256348,-0.025297710672020912,0.20688627660274506
7.324355602264404,-0.44328558444976807,0.17,0.6388642191886902,-0.00833095982670784,-0.025297733023762703,0.20688626170158386
7.344339609146118,-0.44328558444976807,0.17,0.6388641595840454,-0.008330974727869034,-0.025297710672020912,0.20688627660274506
7.364454507827759,-0.44328561425209045,0.17,0.6388641595840454,-0.008330915123224258,-0.025297658517956734,0.20688629150390625
7.384588956832886,-0.44328561425209045,0.17,0.6388641595840454,-0.008330952376127243,-0.025297680869698524,0.20688629150390625
7.404813528060913,-0.44328561425209045,0.17,0.6388642191886902,-0.008330918848514557,-0.025297636166214943,0.20688630640506744
7.424912929534912,-0.44328558444976807,0.17,0.6388642191886902,-0.008330915123224258,-0.025297703221440315,0.20688626170158386
7.444983243942261,-0.44328558444976807,0.17,0.6388642191886902,-0.00833093374967575,-0.025297703221440315,0.20688626170158386
7.46523904800415,-0.44328558444976807,0.17,0.6388642191886902,-0.008330948650836945,-0.025297680869698524,0.20688629150390625
7.4853315353393555,-0.44328558444976807,0.17,0.6388642191886902,-0.008330948650836945,-0.025297703221440315,0.20688627660274506
7.505425691604614,-0.44328558444976807,0.17,0.6388641595840454,-0.008330956101417542,-0.025297710672020912,0.20688627660274506
7.525489568710327,-0.44328558444976807,0.17,0.6388641595840454,-0.008330930024385452,-0.025297733023762703,0.20688630640506744
7.545563697814941,-0.4432855546474457,0.17,0.6388641595840454,-0.008330907672643661,-0.025297703221440315,0.20688626170158386
7.565682649612427,-0.44328558444976807,0.17,0.6388641595840454,-0.00833093747496605,-0.025297680869698524,0.20688626170158386
7.5858118534088135,-0.44328558444976807,0.17,0.6388641595840454,-0.008330903947353363,-0.02529766596853733,0.20688627660274506
7.605894327163696,-0.44328558444976807,0.17,0.638864278793335,-0.008330941200256348,-0.025297673419117928,0.20688627660274506
7.625951290130615,-0.44328561425209045,0.17,0.6388642191886902,-0.00833093374967575,-0.02529769577085972,0.20688627660274506
7.646074056625366,-0.4432855546474457,0.17,0.6388641595840454,-0.008330948650836945,-0.02529769577085972,0.20688629150390625
7.666178941726685,-0.44328561425209045,0.17,0.6388642191886902,-0.00833093374967575,-0.02529771812260151,0.20688630640506744
7.6862547397613525,-0.4432855546474457,0.17,0.6388642191886902,-0.008330941200256348,-0.025297747924923897,0.20688624680042267
7.706355333328247,-0.4432855546474457,0.17,0.6388641595840454,-0.008330944925546646,-0.025297747924923897,0.20688627660274506
7.726433515548706,-0.4432855546474457,0.17,0.6388642191886902,-0.00833095982670784,-0.025297703221440315,0.20688626170158386
7.746585845947266,-0.44328558444976807,0.17,0.638864278793335,-0.008330941200256348,-0.025297680869698524,0.20688629150390625
7.7667083740234375,-0.44328558444976807,0.17,0.6388641595840454,-0.008330918848514557,-0.02529764361679554,0.20688630640506744
7.7867491245269775,-0.44328558444976807,0.17,0.6388642191886902,-0.008330930024385452,-0.025297710672020912,0.20688629150390625
7.806849241256714,-0.44328558444976807,0.17,0.6388641595840454,-0.008330956101417542,-0.02529766596853733,0.20688627660274506
7.82693076133728,-0.44328558444976807,0.17,0.638864278793335,-0.008330926299095154,-0.02529769577085972,0.20688627660274506
7.8473286628723145,-0.44328558444976807,0.17,0.6388641595840454,-0.00833093374967575,-0.02529769577085972,0.20688629150390625
7.867441415786743,-0.44328561425209045,0.17,0.6388642191886902,-0.008330926299095154,-0.025297703221440315,0.20688626170158386
7.887526988983154,-0.44328558444976807,0.17,0.6388641595840454,-0.008330952376127243,-0.025297710672020912,0.20688629150390625
7.90850043296814,-0.44328558444976807,0.17,0.6388641595840454,-0.00833095982670784,-0.025297703221440315,0.20688627660274506
7.928672552108765,-0.44328561425209045,0.17,0.6388641595840454,-0.008330918848514557,-0.025297651067376137,0.20688627660274506
7.94877552986145,-0.44328561425209045,0.17,0.6388642191886902,-0.008330944925546646,-0.02529768832027912,0.20688626170158386
7.968802452087402,-0.44328561425209045,0.17,0.6388642191886902,-0.008330926299095154,-0.02529771812260151,0.20688629150390625
7.988885879516602,-0.44328561425209045,0.17,0.6388641595840454,-0.008330900222063065,-0.02529766596853733,0.20688629150390625
8.008934736251831,-0.44328561425209045,0.17,0.6388642191886902,-0.008330944925546646,-0.025297673419117928,0.20688630640506744
8.029048442840576,-0.4432855546474457,0.17,0.6388641595840454,-0.008330918848514557,-0.02529771812260151,0.20688627660274506
8.049108266830444,-0.44328561425209045,0.17,0.6388641595840454,-0.008330903947353363,-0.02529769577085972,0.20688626170158386
8.069184064865112,-0.44328558444976807,0.17,0.6388641595840454,-0.008330948650836945,-0.025297703221440315,0.20688626170158386
8.089315176010132,-0.44328561425209045,0.17,0.6388641595840454,-0.008330915123224258,-0.02529766596853733,0.20688629150390625
8.109395027160645,-0.44328561425209045,0.17,0.6388642191886902,-0.008330944925546646,-0.025297673419117928,0.20688629150390625
8.129451751708984,-0.44328558444976807,0.17,0.6388642191886902,-0.008330918848514557,-0.02529768832027912,0.20688627660274506
8.149636030197144,-0.44328558444976807,0.17,0.6388641595840454,-0.008330926299095154,-0.02529771812260151,0.20688624680042267
8.169682025909424,-0.44328558444976807,0.17,0.6388641595840454,-0.008330926299095154,-0.02529769577085972,0.20688629150390625
8.190192461013794,-0.4432855546474457,0.17,0.6388641595840454,-0.008330907672643661,-0.02529768832027912,0.20688627660274506
8.210283756256104,-0.44328558444976807,0.17,0.6388641595840454,-0.008330930024385452,-0.02529768832027912,0.20688627660274506
8.23037052154541,-0.44328561425209045,0.17,0.6388641595840454,-0.008330926299095154,-0.02529769577085972,0.20688629150390625
8.250429153442383,-0.44328561425209045,0.17,0.6388642191886902,-0.00833091139793396,-0.025297651067376137,0.20688626170158386
8.27055835723877,-0.44328558444976807,0.17,0.6388642191886902,-0.008330903947353363,-0.025297680869698524,0.20688629150390625
8.290677070617676,-0.44328561425209045,0.17,0.6388642191886902,-0.008330915123224258,-0.02529766596853733,0.20688629150390625
8.310974597930908,-0.44328561425209045,0.17,0.6388642191886902,-0.008330900222063065,-0.02529768832027912,0.20688627660274506
8.331075429916382,-0.44328558444976807,0.17,0.6388641595840454,-0.008330944925546646,-0.025297703221440315,0.20688626170158386
8.351188898086548,-0.4432855546474457,0.17,0.6388641595840454,-0.008330948650836945,-0.025297710672020912,0.20688626170158386
8.371428489685059,-0.4432855546474457,0.17,0.6388641595840454,-0.008330892771482468,-0.025297680869698524,0.20688629150390625
8.391511678695679,-0.44328558444976807,0.17,0.6388641595840454,-0.008330930024385452,-0.025297710672020912,0.20688630640506744
8.41156816482544,-0.44328558444976807,0.17,0.638864278793335,-0.008330941200256348,-0.025297651067376137,0.20688630640506744
8.43165111541748,-0.44328558444976807,0.17,0.6388641595840454,-0.008330974727869034,-0.025297710672020912,0.20688627660274506
8.451720952987671,-0.44328558444976807,0.17,0.6388641595840454,-0.008330930024385452,-0.02529766596853733,0.20688627660274506
8.471806049346924,-0.44328561425209045,0.17,0.6388641595840454,-0.008330922573804855,-0.02529764361679554,0.20688627660274506
8.491871356964111,-0.44328561425209045,0.17,0.6388642191886902,-0.008330918848514557,-0.025297636166214943,0.20688630640506744
8.51193904876709,-0.44328558444976807,0.17,0.6388642191886902,-0.008330915123224258,-0.02529766596853733,0.20688630640506744
8.532357454299927,-0.44328558444976807,0.17,0.6388641595840454,-0.008330900222063065,-0.02529766596853733,0.20688627660274506
8.5525484085083,-0.44328558444976807,0.17,0.6388642191886902,-0.008330948650836945,-0.025297680869698524,0.20688629150390625
8.57256007194519,-0.44328558444976807,0.17,0.6388642191886902,-0.008330941200256348,-0.025297710672020912,0.20688629150390625
8.59265923500061,-0.44328558444976807,0.17,0.6388641595840454,-0.008330956101417542,-0.025297710672020912,0.20688627660274506
8.612794160842896,-0.44328561425209045,0.17,0.6388641595840454,-0.008330974727869034,-0.025297703221440315,0.20688627660274506
8.632883787155151,-0.4432855546474457,0.17,0.6388642191886902,-0.008330903947353363,-0.025297658517956734,0.20688629150390625
8.65293025970459,-0.44328558444976807,0.17,0.6388641595840454,-0.00833093747496605,-0.025297680869698524,0.20688626170158386
8.672993659973145,-0.4432855546474457,0.17,0.6388642191886902,-0.008330944925546646,-0.02529766596853733,0.20688627660274506
8.693053245544434,-0.4432855546474457,0.17,0.6388641595840454,-0.00833095982670784,-0.025297710672020912,0.20688627660274506
8.713149785995483,-0.44328561425209045,0.17,0.6388642191886902,-0.00833093374967575,-0.02529769577085972,0.20688627660274506
8.733223676681519,-0.44328558444976807,0.17,0.6388642191886902,-0.008330944925546646,-0.025297703221440315,0.20688627660274506
8.75349473953247,-0.4432855546474457,0.17,0.6388642191886902,-0.008330941200256348,-0.025297747924923897,0.20688624680042267
8.773594856262207,-0.44328561425209045,0.17,0.6388642191886902,-0.008330915123224258,-0.02529768832027912,0.20688630640506744
8.793665409088135,-0.44328558444976807,0.17,0.6388641595840454,-0.008330922573804855,-0.02529766596853733,0.20688630640506744
8.81393027305603,-0.4432855546474457,0.17,0.6388642191886902,-0.00833095982670784,-0.025297703221440315,0.20688626170158386
8.834118843078613,-0.4432855546474457,0.17,0.6388641595840454,-0.008330956101417542,-0.025297733023762703,0.20688627660274506
8.854241371154785,-0.44328558444976807,0.17,0.6388642191886902,-0.00833093747496605,-0.025297680869698524,0.20688627660274506
8.874339580535889,-0.44328558444976807,0.17,0.6388642191886902,-0.008330930024385452,-0.025297710672020912,0.20688629150390625
8.894443273544312,-0.4432855546474457,0.17,0.6388642191886902,-0.008330922573804855,-0.02529766596853733,0.20688627660274506
8.914649963378906,-0.44328558444976807,0.17,0.638864278793335,-0.008330926299095154,-0.02529769577085972,0.20688627660274506
8.934780359268188,-0.44328558444976807,0.17,0.6388641595840454,-0.00833093374967575,-0.02529769577085972,0.20688629150390625
8.95479130744934,-0.44328558444976807,0.17,0.6388641595840454,-0.008330900222063065,-0.02529771812260151,0.20688627660274506
8.975005388259888,-0.44328558444976807,0.17,0.6388641595840454,-0.008330952376127243,-0.025297710672020912,0.20688629150390625
8.995075941085815,-0.44328558444976807,0.17,0.6388641595840454,-0.00833095982670784,-0.025297703221440315,0.20688627660274506
9.016069412231445,-0.44328558444976807,0.17,0.6388641595840454,-0.00833093747496605,-0.02529768832027912,0.20688629150390625
9.036307573318481,-0.44328561425209045,0.17,0.6388642191886902,-0.008330944925546646,-0.02529768832027912,0.20688626170158386
9.056335210800171,-0.44328558444976807,0.17,0.6388641595840454,-0.008330922573804855,-0.025297703221440315,0.20688624680042267
9.076423645019531,-0.44328561425209045,0.17,0.6388641595840454,-0.008330900222063065,-0.02529766596853733,0.20688629150390625
9.096599102020264,-0.44328561425209045,0.17,0.6388642191886902,-0.008330944925546646,-0.025297673419117928,0.20688630640506744
9.116578102111816,-0.44328561425209045,0.17,0.6388641595840454,-0.008330952376127243,-0.025297710672020912,0.20688629150390625
9.136698484420776,-0.44328561425209045,0.17,0.6388641595840454,-0.008330903947353363,-0.02529769577085972,0.20688626170158386
9.156789541244507,-0.44328558444976807,0.17,0.6388641595840454,-0.008330948650836945,-0.025297703221440315,0.20688626170158386
9.176834344863892,-0.44328558444976807,0.17,0.6388641595840454,-0.00833093747496605,-0.02529766596853733,0.20688627660274506
9.197038650512695,-0.44328561425209045,0.17,0.6388642191886902,-0.008330944925546646,-0.025297673419117928,0.20688629150390625
9.21702766418457,-0.44328558444976807,0.17,0.6388642191886902,-0.008330918848514557,-0.02529768832027912,0.20688627660274506
9.23720908164978,-0.44328561425209045,0.17,0.6388641595840454,-0.008330918848514557,-0.025297680869698524,0.20688629150390625
9.25731348991394,-0.44328558444976807,0.17,0.6388641595840454,-0.008330926299095154,-0.02529769577085972,0.20688629150390625
9.27743411064148,-0.4432855546474457,0.17,0.6388641595840454,-0.008330907672643661,-0.02529768832027912,0.20688627660274506
9.297801494598389,-0.4432855546474457,0.17,0.6388641595840454,-0.00833093374967575,-0.025297680869698524,0.20688627660274506
9.31793475151062,-0.44328561425209045,0.17,0.6388641595840454,-0.008330926299095154,-0.02529769577085972,0.20688629150390625
9.338050842285156,-0.44328561425209045,0.17,0.6388642191886902,-0.00833091139793396,-0.025297651067376137,0.20688626170158386
9.35823130607605,-0.4432855546474457,0.17,0.6388641595840454,-0.00833093374967575,-0.025297651067376137,0.20688627660274506
9.378366470336914,-0.44328561425209045,0.17,0.6388642191886902,-0.008330915123224258,-0.02529766596853733,0.20688629150390625
9.398406505584717,-0.44328561425209045,0.17,0.6388642191886902,-0.008330900222063065,-0.02529768832027912,0.20688627660274506
9.418558835983276,-0.44328561425209045,0.17,0.638864278793335,-0.008330926299095154,-0.025297703221440315,0.20688629150390625
9.438650369644165,-0.4432855546474457,0.17,0.6388641595840454,-0.008330948650836945,-0.025297710672020912,0.20688626170158386
9.45874810218811,-0.4432855546474457,0.17,0.6388642191886902,-0.008330941200256348,-0.025297710672020912,0.20688627660274506
9.478946208953857,-0.44328558444976807,0.17,0.6388642191886902,-0.00833095982670784,-0.025297733023762703,0.20688626170158386
9.499093055725098,-0.44328558444976807,0.17,0.638864278793335,-0.008330941200256348,-0.025297651067376137,0.20688630640506744
9.519232988357544,-0.44328561425209045,0.17,0.6388641595840454,-0.008330915123224258,-0.025297658517956734,0.20688629150390625
9.53944444656372,-0.44328558444976807,0.17,0.6388641595840454,-0.008330930024385452,-0.02529766596853733,0.20688627660274506
9.559470891952515,-0.44328561425209045,0.17,0.6388641595840454,-0.008330922573804855,-0.02529764361679554,0.20688627660274506
9.579506158828735,-0.44328561425209045,0.17,0.6388642191886902,-0.008330918848514557,-0.025297636166214943,0.20688630640506744
9.599603652954102,-0.44328558444976807,0.17,0.6388642191886902,-0.008330915123224258,-0.02529766596853733,0.20688630640506744
9.619687795639038,-0.44328558444976807,0.17,0.6388641595840454,-0.008330900222063065,-0.02529766596853733,0.20688627660274506
9.63979172706604,-0.44328558444976807,0.17,0.6388642191886902,-0.008330948650836945,-0.025297680869698524,0.20688629150390625
9.659871101379395,-0.44328558444976807,0.17,0.6388642191886902,-0.008330941200256348,-0.025297710672020912,0.20688629150390625
9.680276870727539,-0.44328558444976807,0.17,0.6388641595840454,-0.008330930024385452,-0.025297733023762703,0.20688630640506744
9.700443267822266,-0.44328561425209045,0.17,0.6388641595840454,-0.008330974727869034,-0.025297703221440315,0.20688627660274506
9.720505714416504,-0.4432855546474457,0.17,0.6388642191886902,-0.008330903947353363,-0.025297658517956734,0.20688629150390625
9.74055552482605,-0.44328558444976807,0.17,0.6388641595840454,-0.00833093747496605,-0.025297680869698524,0.20688626170158386
9.760648012161255,-0.4432855546474457,0.17,0.6388642191886902,-0.008330944925546646,-0.02529766596853733,0.20688627660274506
9.780752420425415,-0.4432855546474457,0.17,0.6388641595840454,-0.00833095982670784,-0.025297710672020912,0.20688627660274506
9.800857543945312,-0.44328561425209045,0.17,0.6388642191886902,-0.00833093374967575,-0.02529769577085972,0.20688627660274506
9.82093858718872,-0.44328558444976807,0.17,0.6388642191886902,-0.008330944925546646,-0.025297703221440315,0.20688627660274506
9.840991020202637,-0.4432855546474457,0.17,0.6388642191886902,-0.008330941200256348,-0.025297747924923897,0.20688624680042267
9.861104488372803,-0.44328561425209045,0.17,0.6388642191886902,-0.008330915123224258,-0.02529768832027912,0.20688630640506744
9.881166696548462,-0.44328558444976807,0.17,0.6388641595840454,-0.008330922573804855,-0.02529766596853733,0.20688630640506744
9.901601076126099,-0.44328558444976807,0.17,0.638864278793335,-0.008330941200256348,-0.025297680869698524,0.20688629150390625
9.921737909317017,-0.4432855546474457,0.17,0.6388641595840454,-0.008330956101417542,-0.025297733023762703,0.20688627660274506
9.941756010055542,-0.44328558444976807,0.17,0.6388642191886902,-0.00833093747496605,-0.025297680869698524,0.20688627660274506
9.96188998222351,-0.44328558444976807,0.17,0.6388642191886902,-0.008330930024385452,-0.025297710672020912,0.20688629150390625
9.982028484344482,-0.4432855546474457,0.17,0.6388642191886902,-0.008330922573804855,-0.02529766596853733,0.20688627660274506
10.002058267593384,-0.4432855546474457,0.17,0.6388641595840454,-0.008330948650836945,-0.02529769577085972,0.20688626170158386
10.022190570831299,-0.44328558444976807,0.17,0.6388641595840454,-0.00833093374967575,-0.02529769577085972,0.20688629150390625
10.042262315750122,-0.44328558444976807,0.17,0.6388641595840454,-0.008330900222063065,-0.02529771812260151,0.20688627660274506
10.062310218811035,-0.44328561425209045,0.17,0.6388641595840454,-0.008330915123224258,-0.025297747924923897,0.20688627660274506
10.082500696182251,-0.44328558444976807,0.17,0.6388641595840454,-0.00833095982670784,-0.025297703221440315,0.20688627660274506
10.102500677108765,-0.44328558444976807,0.17,0.6388641595840454,-0.00833093747496605,-0.02529768832027912,0.20688629150390625
10.122750520706177,-0.44328561425209045,0.17,0.6388642191886902,-0.008330926299095154,-0.02529771812260151,0.20688629150390625
10.142983675003052,-0.44328558444976807,0.17,0.6388641595840454,-0.008330922573804855,-0.025297703221440315,0.20688624680042267
10.16297435760498,-0.44328558444976807,0.17,0.6388641595840454,-0.00833093747496605,-0.025297658517956734,0.20688627660274506
10.183073043823242,-0.44328561425209045,0.17,0.6388642191886902,-0.008330944925546646,-0.025297673419117928,0.20688630640506744
10.203120231628418,-0.44328561425209045,0.17,0.6388641595840454,-0.008330952376127243,-0.025297710672020912,0.20688629150390625
10.22319221496582,-0.44328558444976807,0.17,0.6388641595840454,-0.00833093374967575,-0.02529768832027912,0.20688630640506744
10.243292808532715,-0.44328558444976807,0.17,0.6388641595840454,-0.008330948650836945,-0.025297703221440315,0.20688626170158386
10.263346910476685,-0.44328558444976807,0.17,0.6388641595840454,-0.00833093747496605,-0.02529766596853733,0.20688627660274506
10.283409595489502,-0.44328561425209045,0.17,0.6388641595840454,-0.008330918848514557,-0.025297710672020912,0.20688627660274506
10.3035728931427,-0.44328558444976807,0.17,0.6388642191886902,-0.008330918848514557,-0.02529768832027912,0.20688627660274506
10.323750734329224,-0.44328561425209045,0.17,0.6388641595840454,-0.008330918848514557,-0.025297680869698524,0.20688629150390625
10.34378981590271,-0.44328558444976807,0.17,0.6388641595840454,-0.008330922573804855,-0.02529769577085972,0.20688627660274506
10.363882780075073,-0.4432855546474457,0.17,0.6388641595840454,-0.008330907672643661,-0.02529768832027912,0.20688627660274506
10.383976936340332,-0.4432855546474457,0.17,0.6388641595840454,-0.00833093374967575,-0.025297680869698524,0.20688627660274506
10.404016733169556,-0.4432855546474457,0.17,0.6388641595840454,-0.008330930024385452,-0.02529766596853733,0.20688627660274506
10.424145460128784,-0.44328561425209045,0.17,0.6388642191886902,-0.00833091139793396,-0.025297651067376137,0.20688626170158386
10.44429326057434,-0.4432855546474457,0.17,0.6388641595840454,-0.00833093374967575,-0.025297651067376137,0.20688627660274506
10.46432900428772,-0.4432855546474457,0.17,0.6388641595840454,-0.008330907672643661,-0.02529769577085972,0.20688629150390625
10.484421968460083,-0.44328561425209045,0.17,0.6388642191886902,-0.008330900222063065,-0.02529768832027912,0.20688627660274506
10.504501342773438,-0.44328561425209045,0.17,0.638864278793335,-0.008330926299095154,-0.025297703221440315,0.20688629150390625
10.524572610855103,-0.4432855546474457,0.17,0.6388641595840454,-0.008330892771482468,-0.025297680869698524,0.20688629150390625
10.544692277908325,-0.4432855546474457,0.17,0.6388642191886902,-0.008330941200256348,-0.025297710672020912,0.20688627660274506
10.564788341522217,-0.44328558444976807,0.17,0.6388642191886902,-0.00833095982670784,-0.025297733023762703,0.20688626170158386
10.584837436676025,-0.44328558444976807,0.17,0.638864278793335,-0.008330941200256348,-0.025297651067376137,0.20688630640506744
10.604929208755493,-0.44328561425209045,0.17,0.6388641595840454,-0.008330915123224258,-0.025297658517956734,0.20688629150390625
10.625008344650269,-0.44328561425209045,0.17,0.6388641595840454,-0.008330952376127243,-0.025297680869698524,0.20688629150390625
10.645129919052124,-0.44328561425209045,0.17,0.6388641595840454,-0.008330922573804855,-0.02529764361679554,0.20688627660274506
10.665181159973145,-0.44328558444976807,0.17,0.6388642191886902,-0.008330915123224258,-0.025297703221440315,0.20688626170158386
