liuyurong129/humanoid-gym/humanoid/data/target_q_20250522-231649.csv
timestamp,joint_1,joint_2,joint_3,joint_4,joint_5,joint_6
4.291534423828125e-05,0.0,0.0,0.0,0.0,0.0,0.0
0.02011251449584961,0.0,0.0,0.0,0.0,0.0,0.0
0.04019284248352051,0.0,0.0,0.0,0.0,0.0,0.0
0.060242652893066406,-0.4748671054840088,-0.6485973596572876,1.0743411779403687,0.7000188827514648,-0.20856478810310364,0.5259507298469543
0.08033323287963867,-0.4748671054840088,-0.6485973596572876,1.0743411779403687,0.7000188827514648,-0.20856478810310364,0.5259507298469543
0.10047245025634766,-0.5447859764099121,-0.9090074896812439,1.145231008529663,0.6650837063789368,-0.24491815268993378,0.49712520837783813
0.12052392959594727,-0.5447859764099121,-0.9090074896812439,1.145231008529663,0.6650837063789368,-0.24491815268993378,0.49712520837783813
0.14064264297485352,-0.5710157155990601,-0.9080295562744141,1.15055251121521,0.6607171893119812,-0.2473859041929245,0.48039036989212036
0.16067218780517578,-0.5710157155990601,-0.9080295562744141,1.15055251121521,0.6607171893119812,-0.2473859041929245,0.48039036989212036
0.18076181411743164,-0.5778748989105225,-0.8945239782333374,1.1479499340057373,0.6630098223686218,-0.25169825553894043,0.4741861820220947
0.2008049488067627,-0.5785216093063354,-0.886472761631012,1.1473267078399658,0.6648010611534119,-0.25248345732688904,0.4719708263874054
0.2208864688873291,-0.5785216093063354,-0.886472761631012,1.1473267078399658,0.6648010611534119,-0.25248345732688904,0.4719708263874054
0.24104571342468262,-0.5770947933197021,-0.8864912986755371,1.1471800804138184,0.665515124797821,-0.2527025043964386,0.4721029996871948
0.26108264923095703,-0.5770947933197021,-0.8864912986755371,1.1471800804138184,0.665515124797821,-0.2527025043964386,0.4721029996871948
0.28119683265686035,-0.5754871368408203,-0.8895593881607056,1.147731065750122,0.6654813885688782,-0.252397358417511,0.4729824364185333
0.30126452445983887,-0.5754871368408203,-0.8895593881607056,1.147731065750122,0.6654813885688782,-0.252397358417511,0.4729824364185333
0.32138609886169434,-0.5747185349464417,-0.8910622000694275,1.1492199897766113,0.6656565070152283,-0.25096753239631653,0.47303634881973267
0.34143710136413574,-0.574761688709259,-0.8902599811553955,1.1503099203109741,0.6656992435455322,-0.25024357438087463,0.47269728779792786
0.361513614654541,-0.574761688709259,-0.8902599811553955,1.1503099203109741,0.6656992435455322,-0.25024357438087463,0.47269728779792786
0.3815796375274658,-0.5746236443519592,-0.8908748030662537,1.150829553604126,0.6658568382263184,-0.2492380291223526,0.4730100631713867
0.40165233612060547,-0.5746236443519592,-0.8908748030662537,1.150829553604126,0.6658568382263184,-0.2492380291223526,0.4730100631713867
0.4217531681060791,-0.5725373029708862,-0.8911205530166626,1.151558756828308,0.6658519506454468,-0.2461778074502945,0.472988486289978
0.44184374809265137,-0.5725373029708862,-0.8911205530166626,1.151558756828308,0.6658519506454468,-0.2461778074502945,0.472988486289978
0.461946964263916,-0.5737956166267395,-0.890822172164917,1.1524577140808105,0.6656426191329956,-0.24803508818149567,0.4729531407356262
0.48195791244506836,-0.5723464488983154,-0.8930827975273132,1.1526472568511963,0.6655532717704773,-0.24730947613716125,0.473432719707489
0.5020368099212646,-0.5723464488983154,-0.8930827975273132,1.1526472568511963,0.6655532717704773,-0.24730947613716125,0.473432719707489
0.522111177444458,-0.5718449950218201,-0.8943984508514404,1.1536784172058105,0.665592610836029,-0.24632534384727478,0.4734475016593933
0.5421814918518066,-0.5718449950218201,-0.8943984508514404,1.1536784172058105,0.665592610836029,-0.24632534384727478,0.4734475016593933
0.5622575283050537,-0.5711336135864258,-0.8948516249656677,1.1538888216018677,0.6655351519584656,-0.2443861961364746,0.4737371504306793
0.5823252201080322,-0.5702418088912964,-0.8954223394393921,1.1542575359344482,0.6655285358428955,-0.24330003559589386,0.4736553430557251
0.6024534702301025,-0.5702418088912964,-0.8954223394393921,1.1542575359344482,0.6655285358428955,-0.24330003559589386,0.4736553430557251
0.6224982738494873,-0.5710387229919434,-0.895034909248352,1.1554079055786133,0.6658334136009216,-0.24465252459049225,0.47331082820892334
0.6426305770874023,-0.5710387229919434,-0.895034909248352,1.1554079055786133,0.6658334136009216,-0.24465252459049225,0.47331082820892334
0.6626715660095215,-0.5702468156814575,-0.898208498954773,1.1550325155258179,0.6658806204795837,-0.2442728728055954,0.47392335534095764
0.6827318668365479,-0.5702468156814575,-0.898208498954773,1.1550325155258179,0.6658806204795837,-0.2442728728055954,0.47392335534095764
0.7028918266296387,-0.569201648235321,-0.8998850584030151,1.1555397510528564,0.6657624840736389,-0.24302397668361664,0.47430217266082764
0.7228918075561523,-0.5685468912124634,-0.8993113040924072,1.1565024852752686,0.6659761071205139,-0.24094343185424805,0.47409337759017944
0.7429792881011963,-0.5685468912124634,-0.8993113040924072,1.1565024852752686,0.6659761071205139,-0.24094343185424805,0.47409337759017944
0.7631971836090088,-0.5686781406402588,-0.8975710868835449,1.1572542190551758,0.6662924289703369,-0.23985114693641663,0.4734463393688202
0.7831845283508301,-0.5686781406402588,-0.8975710868835449,1.1572542190551758,0.6662924289703369,-0.23985114693641663,0.4734463393688202
0.8032660484313965,-0.5685710310935974,-0.8984651565551758,1.1576085090637207,0.6661979556083679,-0.2404419630765915,0.47375038266181946
0.8233683109283447,-0.5685710310935974,-0.8984651565551758,1.1576085090637207,0.6661979556083679,-0.2404419630765915,0.47375038266181946
0.8434104919433594,-0.567375123500824,-0.8973749876022339,1.1596837043762207,0.6667988896369934,-0.23729299008846283,0.47332054376602173
0.8634767532348633,-0.5667195320129395,-0.8980051279067993,1.1599725484848022,0.6668018698692322,-0.23656927049160004,0.47371426224708557
0.883603572845459,-0.5667195320129395,-0.8980051279067993,1.1599725484848022,0.6668018698692322,-0.23656927049160004,0.47371426224708557
0.9036276340484619,-0.5669828057289124,-0.8973264694213867,1.1613235473632812,0.6669305562973022,-0.23681002855300903,0.4733521342277527
0.9236640930175781,-0.5669828057289124,-0.8973264694213867,1.1613235473632812,0.6669305562973022,-0.23681002855300903,0.4733521342277527
0.9437417984008789,-0.5653287172317505,-0.8989949226379395,1.1619820594787598,0.6671598553657532,-0.23543401062488556,0.47368669509887695
0.9638736248016357,-0.5653287172317505,-0.8989949226379395,1.1619820594787598,0.6671598553657532,-0.23543401062488556,0.47368669509887695
0.9839305877685547,-0.5650440454483032,-0.9030563831329346,1.1616973876953125,0.6667399406433105,-0.23648616671562195,0.4749036431312561
1.003974437713623,-0.5622431039810181,-0.9061782360076904,1.1620151996612549,0.6666213870048523,-0.23225726187229156,0.47544294595718384
1.024055004119873,-0.5622431039810181,-0.9061782360076904,1.1620151996612549,0.6666213870048523,-0.23225726187229156,0.47544294595718384
1.044152021408081,-0.561689019203186,-0.9082424640655518,1.1630266904830933,0.6664830446243286,-0.23138895630836487,0.4759005606174469
1.0642211437225342,-0.561689019203186,-0.9082424640655518,1.1630266904830933,0.6664830446243286,-0.23138895630836487,0.4759005606174469
1.0843431949615479,-0.5619131326675415,-0.9089362621307373,1.1641544103622437,0.6660667657852173,-0.23159456253051758,0.4760078191757202
1.1043596267700195,-0.5620149970054626,-0.9049227237701416,1.1662793159484863,0.6666674613952637,-0.22974805533885956,0.4748396873474121
1.1244447231292725,-0.5620149970054626,-0.9049227237701416,1.1662793159484863,0.6666674613952637,-0.22974805533885956,0.4748396873474121
1.1445157527923584,-0.560810923576355,-0.9059342741966248,1.1661639213562012,0.6669403910636902,-0.22862769663333893,0.4751172661781311
1.164588451385498,-0.560810923576355,-0.9059342741966248,1.1661639213562012,0.6669403910636902,-0.22862769663333893,0.4751172661781311
1.184652328491211,-0.5601130127906799,-0.9083940982818604,1.1668310165405273,0.6667633652687073,-0.22878603637218475,0.47564131021499634
1.2047266960144043,-0.5601130127906799,-0.9083940982818604,1.1668310165405273,0.6667633652687073,-0.22878603637218475,0.47564131021499634
1.224799394607544,-0.5598846673965454,-0.907444417476654,1.167794108390808,0.6668110489845276,-0.2278396189212799,0.4754237234592438
1.2448475360870361,-0.5595825910568237,-0.9060776829719543,1.1693294048309326,0.6672465801239014,-0.22589664161205292,0.474882036447525
1.2649650573730469,-0.5595825910568237,-0.9060776829719543,1.1693294048309326,0.6672465801239014,-0.22589664161205292,0.474882036447525
1.2850027084350586,-0.5594555139541626,-0.9058440923690796,1.1700024604797363,0.6674520969390869,-0.22561396658420563,0.4749130606651306
1.3050732612609863,-0.5594555139541626,-0.9058440923690796,1.1700024604797363,0.6674520969390869,-0.22561396658420563,0.4749130606651306
1.3251709938049316,-0.5588916540145874,-0.908046543598175,1.169892430305481,0.6672013401985168,-0.22645531594753265,0.47545474767684937
1.3452246189117432,-0.5588916540145874,-0.908046543598175,1.169892430305481,0.6672013401985168,-0.22645531594753265,0.47545474767684937
1.3652830123901367,-0.5562217831611633,-0.911395788192749,1.170764684677124,0.6670165657997131,-0.22371552884578705,0.4761432409286499
1.3853590488433838,-0.5558882355690002,-0.9151601791381836,1.170860767364502,0.6668962836265564,-0.2251262217760086,0.4769041836261749
1.4054558277130127,-0.5558882355690002,-0.9151601791381836,1.170860767364502,0.6668962836265564,-0.2251262217760086,0.4769041836261749
1.4255361557006836,-0.5532974600791931,-0.9165520668029785,1.1724666357040405,0.6669952273368835,-0.22021321952342987,0.47693824768066406
1.445603609085083,-0.5532974600791931,-0.9165520668029785,1.1724666357040405,0.6669952273368835,-0.22021321952342987,0.47693824768066406
1.4656751155853271,-0.5553698539733887,-0.9148951768875122,1.1733169555664062,0.6671038269996643,-0.2213091403245926,0.4766055643558502
1.4857227802276611,-0.5553698539733887,-0.9148951768875122,1.1733169555664062,0.6671038269996643,-0.2213091403245926,0.4766055643558502
1.5058598518371582,-0.5555883646011353,-0.912781834602356,1.1741819381713867,0.6675664186477661,-0.2206031233072281,0.47591984272003174
1.5258893966674805,-0.5554341077804565,-0.9106571674346924,1.1755112409591675,0.6681049466133118,-0.2197093516588211,0.47533470392227173
1.5459930896759033,-0.5554341077804565,-0.9106571674346924,1.1755112409591675,0.6681049466133118,-0.2197093516588211,0.47533470392227173
1.566042423248291,-0.5536406636238098,-0.9087817668914795,1.1773889064788818,0.668330192565918,-0.21727360785007477,0.47532233595848083
1.5861148834228516,-0.5536406636238098,-0.9087817668914795,1.1773889064788818,0.668330192565918,-0.21727360785007477,0.47532233595848083
1.6062798500061035,-0.5521929264068604,-0.9157221913337708,1.1760034561157227,0.6679247617721558,-0.2188137322664261,0.4774733781814575
1.6262710094451904,-0.5521866679191589,-0.9189684391021729,1.177120327949524,0.6672490239143372,-0.21910379827022552,0.4779321551322937
1.6463537216186523,-0.5521866679191589,-0.9189684391021729,1.177120327949524,0.6672490239143372,-0.21910379827022552,0.4779321551322937
1.6664371490478516,-0.5517853498458862,-0.9187203645706177,1.1777406930923462,0.6671510338783264,-0.21682395040988922,0.4777519106864929
1.6865043640136719,-0.5517853498458862,-0.9187203645706177,1.1777406930923462,0.6671510338783264,-0.21682395040988922,0.4777519106864929
1.7066781520843506,-0.551410973072052,-0.9183173179626465,1.177747130393982,0.6673263907432556,-0.21529875695705414,0.4775398075580597
1.7266850471496582,-0.551410973072052,-0.9183173179626465,1.177747130393982,0.6673263907432556,-0.21529875695705414,0.4775398075580597
1.7467806339263916,-0.5504007935523987,-0.9173262715339661,1.1791285276412964,0.6680709719657898,-0.21306194365024567,0.4770227074623108
1.76680588722229,-0.551377534866333,-0.916284441947937,1.1801843643188477,0.668566882610321,-0.2135612815618515,0.47667625546455383
1.7868900299072266,-0.551377534866333,-0.916284441947937,1.1801843643188477,0.668566882610321,-0.2135612815618515,0.47667625546455383
1.8069608211517334,-0.5510153770446777,-0.9169096946716309,1.1806933879852295,0.6684647798538208,-0.2136712223291397,0.4766624867916107
1.8270418643951416,-0.5510153770446777,-0.9169096946716309,1.1806933879852295,0.6684647798538208,-0.2136712223291397,0.4766624867916107
1.8470780849456787,-0.5494657754898071,-0.9173897504806519,1.1817203760147095,0.6685914397239685,-0.21207454800605774,0.47689709067344666
1.8671495914459229,-0.5494657754898071,-0.9173897504806519,1.1817203760147095,0.6685914397239685,-0.21207454800605774,0.47689709067344666
1.8872098922729492,-0.5488905310630798,-0.919431209564209,1.1816394329071045,0.6684382557868958,-0.21151937544345856,0.47742027044296265
1.9072840213775635,-0.5480632781982422,-0.922690212726593,1.1818472146987915,0.6681424379348755,-0.21201059222221375,0.4781607687473297
1.9273760318756104,-0.5480632781982422,-0.922690212726593,1.1818472146987915,0.6681424379348755,-0.21201059222221375,0.4781607687473297
1.947448492050171,-0.54702228307724,-0.9229015111923218,1.1832996606826782,0.668005108833313,-0.2106223702430725,0.47806087136268616
1.9675102233886719,-0.54702228307724,-0.9229015111923218,1.1832996606826782,0.668005108833313,-0.2106223702430725,0.47806087136268616
1.9875800609588623,-0.5471807718276978,-0.9233729839324951,1.1835620403289795,0.6681466102600098,-0.21006600558757782,0.47857317328453064
2.007608652114868,-0.5461976528167725,-0.925147533416748,1.1839314699172974,0.6681616902351379,-0.2090826779603958,0.4788869321346283
2.0277302265167236,-0.5461976528167725,-0.925147533416748,1.1839314699172974,0.6681616902351379,-0.2090826779603958,0.4788869321346283
2.047818899154663,-0.5444772839546204,-0.928723931312561,1.184034824371338,0.6679818034172058,-0.2070404291152954,0.4796481132507324
2.0679590702056885,-0.5444772839546204,-0.928723931312561,1.184034824371338,0.6679818034172058,-0.2070404291152954,0.4796481132507324
2.0879998207092285,-0.5438644886016846,-0.9294388294219971,1.1852662563323975,0.6678776144981384,-0.20581847429275513,0.47967907786369324
2.1080548763275146,-0.5438644886016846,-0.9294388294219971,1.1852662563323975,0.6678776144981384,-0.20581847429275513,0.47967907786369324
2.1281540393829346,-0.5436433553695679,-0.9282646179199219,1.1867674589157104,0.6682726740837097,-0.20426493883132935,0.47917670011520386
2.148157835006714,-0.5437968373298645,-0.927382230758667,1.1872947216033936,0.6686887145042419,-0.20384417474269867,0.4789738357067108
2.1682448387145996,-0.5437968373298645,-0.927382230758667,1.1872947216033936,0.6686887145042419,-0.20384417474269867,0.4789738357067108
2.1883127689361572,-0.5424684286117554,-0.9281423687934875,1.1884269714355469,0.6687899231910706,-0.20230121910572052,0.4791446030139923
2.2083804607391357,-0.5424684286117554,-0.9281423687934875,1.1884269714355469,0.6687899231910706,-0.20230121910572052,0.4791446030139923
2.228466272354126,-0.5421522855758667,-0.9298547506332397,1.1888034343719482,0.6686083674430847,-0.20237980782985687,0.47953957319259644
2.2485475540161133,-0.5421522855758667,-0.9298547506332397,1.1888034343719482,0.6686083674430847,-0.20237980782985687,0.47953957319259644
2.268650770187378,-0.5404483079910278,-0.9331917762756348,1.1887738704681396,0.6682495474815369,-0.20141123235225677,0.4801881015300751
2.288698434829712,-0.5393611788749695,-0.9351691603660583,1.1901705265045166,0.6680356860160828,-0.1996351033449173,0.4806021749973297
2.308771848678589,-0.5393611788749695,-0.9351691603660583,1.1901705265045166,0.6680356860160828,-0.1996351033449173,0.4806021749973297
2.328864812850952,-0.5389030575752258,-0.9337564706802368,1.191040277481079,0.6681092381477356,-0.19826890528202057,0.48026201128959656
2.3489294052124023,-0.5389030575752258,-0.9337564706802368,1.191040277481079,0.6681092381477356,-0.19826890528202057,0.48026201128959656
2.368993043899536,-0.538907527923584,-0.9308046102523804,1.1927533149719238,0.6689812541007996,-0.1964186280965805,0.479303777217865
2.389035701751709,-0.5388399958610535,-0.9317240715026855,1.192918062210083,0.6692013144493103,-0.19758693873882294,0.4794939160346985
2.4091601371765137,-0.5388399958610535,-0.9317240715026855,1.192918062210083,0.6692013144493103,-0.19758693873882294,0.4794939160346985
2.429314613342285,-0.5380162000656128,-0.9353660345077515,1.1923308372497559,0.6691158413887024,-0.19783437252044678,0.4804399907588959
2.449359178543091,-0.5380162000656128,-0.9353660345077515,1.1923308372497559,0.6691158413887024,-0.19783437252044678,0.4804399907588959
2.4694926738739014,-0.5368464589118958,-0.9379358291625977,1.1927683353424072,0.6688167452812195,-0.19696824252605438,0.48103106021881104
2.4895224571228027,-0.5368464589118958,-0.9379358291625977,1.1927683353424072,0.6688167452812195,-0.19696824252605438,0.48103106021881104
2.509629249572754,-0.5355002880096436,-0.9419837594032288,1.1930179595947266,0.6685392260551453,-0.1960427463054657,0.4818459749221802
2.52974009513855,-0.5356764793395996,-0.9406836628913879,1.1944248676300049,0.6685144305229187,-0.19373033940792084,0.4813339114189148
2.5498008728027344,-0.5356764793395996,-0.9406836628913879,1.1944248676300049,0.6685144305229187,-0.19373033940792084,0.4813339114189148
2.5698649883270264,-0.5361151695251465,-0.9353501200675964,1.1963636875152588,0.6691276431083679,-0.1917898952960968,0.4802519977092743
2.5899460315704346,-0.5361151695251465,-0.9353501200675964,1.1963636875152588,0.6691276431083679,-0.1917898952960968,0.4802519977092743
2.610046863555908,-0.5359829068183899,-0.9341027140617371,1.1969950199127197,0.6697879433631897,-0.19191649556159973,0.47990065813064575
2.630096673965454,-0.5359829068183899,-0.9341027140617371,1.1969950199127197,0.6697879433631897,-0.19191649556159973,0.47990065813064575
2.650165319442749,-0.5344425439834595,-0.9372506141662598,1.1968002319335938,0.6698994636535645,-0.19092117249965668,0.4807627499103546
2.670212984085083,-0.5336699485778809,-0.9425462484359741,1.1962529420852661,0.6693550944328308,-0.19229450821876526,0.4819832444190979
2.6903038024902344,-0.5336699485778809,-0.9425462484359741,1.1962529420852661,0.6693550944328308,-0.19229450821876526,0.4819832444190979
2.7103655338287354,-0.5325039625167847,-0.944177508354187,1.197540283203125,0.6693699955940247,-0.19024410843849182,0.4820850193500519
2.730436325073242,-0.5325039625167847,-0.944177508354187,1.197540283203125,0.6693699955940247,-0.19024410843849182,0.4820850193500519
2.75053071975708,-0.5322765707969666,-0.9436311721801758,1.199216365814209,0.669406533241272,-0.18876226246356964,0.48184850811958313
2.7706003189086914,-0.5322765707969666,-0.9436311721801758,1.199216365814209,0.669406533241272,-0.18876226246356964,0.48184850811958313
2.790663480758667,-0.5328319072723389,-0.9398998022079468,1.2006553411483765,0.6699194312095642,-0.18741469085216522,0.48118868470191956
2.810734272003174,-0.5316386222839355,-0.9419691562652588,1.2002586126327515,0.669871985912323,-0.18655437231063843,0.4814857840538025
2.8308138847351074,-0.5316386222839355,-0.9419691562652588,1.2002586126327515,0.669871985912323,-0.18655437231063843,0.4814857840538025
2.850883960723877,-0.5301560163497925,-0.9436389803886414,1.2012120485305786,0.6697412133216858,-0.1849091798067093,0.4820516109466553
2.870957374572754,-0.5301560163497925,-0.9436389803886414,1.2012120485305786,0.6697412133216858,-0.1849091798067093,0.4820516109466553
2.8910257816314697,-0.5303026437759399,-0.9452469348907471,1.2017076015472412,0.6695803999900818,-0.1854337751865387,0.48239123821258545
2.911054849624634,-0.5298646688461304,-0.9474579095840454,1.2018394470214844,0.6694900393486023,-0.1863475739955902,0.4828633666038513
2.9311330318450928,-0.5298646688461304,-0.9474579095840454,1.2018394470214844,0.6694900393486023,-0.1863475739955902,0.4828633666038513
2.9512054920196533,-0.5279495716094971,-0.9474813938140869,1.2026588916778564,0.6695185303688049,-0.18241728842258453,0.4829431176185608
2.9713754653930664,-0.5279495716094971,-0.9474813938140869,1.2026588916778564,0.6695185303688049,-0.18241728842258453,0.4829431176185608
2.9914610385894775,-0.5270600318908691,-0.9472325444221497,1.2033520936965942,0.6695945858955383,-0.18043367564678192,0.48277902603149414
3.0114948749542236,-0.5270600318908691,-0.9472325444221497,1.2033520936965942,0.6695945858955383,-0.18043367564678192,0.48277902603149414
3.0472073554992676,-0.5269274115562439,-0.9469640851020813,1.204469919204712,0.66999351978302,-0.1797715574502945,0.48267871141433716
3.06733775138855,-0.5269274115562439,-0.9469640851020813,1.204469919204712,0.66999351978302,-0.1797715574502945,0.48267871141433716
3.0873703956604004,-0.519554853439331,-0.9522730112075806,1.208565354347229,0.6721265912055969,-0.17150883376598358,0.48359110951423645
3.1074399948120117,-0.519554853439331,-0.9522730112075806,1.208565354347229,0.6721265912055969,-0.17150883376598358,0.48359110951423645
3.127504348754883,-0.5233647227287292,-0.9598428010940552,1.2082445621490479,0.6708378791809082,-0.17747631669044495,0.48551422357559204
3.1475865840911865,-0.5233647227287292,-0.9598428010940552,1.2082445621490479,0.6708378791809082,-0.17747631669044495,0.48551422357559204
3.1677095890045166,-0.5203121900558472,-0.9620386362075806,1.2087582349777222,0.6697553992271423,-0.17188531160354614,0.4854680895805359
3.1876938343048096,-0.5217779874801636,-0.9560644626617432,1.2121052742004395,0.6707531809806824,-0.17057789862155914,0.48403483629226685
3.2078752517700195,-0.5217779874801636,-0.9560644626617432,1.2121052742004395,0.6707531809806824,-0.17057789862155914,0.48403483629226685
3.2279086112976074,-0.5211162567138672,-0.9581146836280823,1.2113237380981445,0.6707436442375183,-0.170321986079216,0.48434877395629883
3.2479631900787354,-0.5211162567138672,-0.9581146836280823,1.2113237380981445,0.6707436442375183,-0.170321986079216,0.48434877395629883
3.2680342197418213,-0.5207337141036987,-0.9634019732475281,1.2096996307373047,0.6703022122383118,-0.17280076444149017,0.48591262102127075
3.2881064414978027,-0.5207337141036987,-0.9634019732475281,1.2096996307373047,0.6703022122383118,-0.17280076444149017,0.48591262102127075
3.3082022666931152,-0.5198125839233398,-0.9647790193557739,1.2115044593811035,0.6699689626693726,-0.1716829240322113,0.48592817783355713
3.328251600265503,-0.5191971659660339,-0.9632230997085571,1.212986946105957,0.6701945662498474,-0.16909879446029663,0.48573899269104004
3.348322868347168,-0.5191971659660339,-0.9632230997085571,1.212986946105957,0.6701945662498474,-0.16909879446029663,0.48573899269104004
3.3684349060058594,-0.5191928744316101,-0.9620401859283447,1.2138117551803589,0.6707128882408142,-0.1668110191822052,0.485289990901947
3.3885457515716553,-0.5191928744316101,-0.9620401859283447,1.2138117551803589,0.6707128882408142,-0.1668110191822052,0.485289990901947
3.4085686206817627,-0.5186644196510315,-0.9596388936042786,1.2149550914764404,0.6711122393608093,-0.16537345945835114,0.48485106229782104
3.428649425506592,-0.5186644196510315,-0.9596388936042786,1.2149550914764404,0.6711122393608093,-0.16537345945835114,0.48485106229782104
3.4487156867980957,-0.5184311866760254,-0.9621824026107788,1.215005874633789,0.6712961196899414,-0.1662580370903015,0.4852657914161682
3.468748092651367,-0.5160906314849854,-0.9662944078445435,1.2148640155792236,0.671029806137085,-0.1650184541940689,0.4862746596336365
3.4888265132904053,-0.5160906314849854,-0.9662944078445435,1.2148640155792236,0.671029806137085,-0.1650184541940689,0.4862746596336365
3.508906602859497,-0.5133326649665833,-0.9713634252548218,1.2153664827346802,0.6705723404884338,-0.16205766797065735,0.4871671199798584
3.5289597511291504,-0.5133326649665833,-0.9713634252548218,1.2153664827346802,0.6705723404884338,-0.16205766797065735,0.4871671199798584
3.549053192138672,-0.5147319436073303,-0.9708623886108398,1.2169725894927979,0.6702829003334045,-0.16276012361049652,0.4874703288078308
3.569096803665161,-0.5148842334747314,-0.9714498519897461,1.2170391082763672,0.6703563928604126,-0.16359488666057587,0.48737525939941406
3.589186668395996,-0.5148842334747314,-0.9714498519897461,1.2170391082763672,0.6703563928604126,-0.16359488666057587,0.48737525939941406
3.6093757152557373,-0.5131931304931641,-0.9691840410232544,1.2186098098754883,0.6705624461174011,-0.16005702316761017,0.48666369915008545
3.629485607147217,-0.5131931304931641,-0.9691840410232544,1.2186098098754883,0.6705624461174011,-0.16005702316761017,0.48666369915008545
3.649505615234375,-0.5114798545837402,-0.9717694520950317,1.2184745073318481,0.670766294002533,-0.158175989985466,0.4872594475746155
3.669562578201294,-0.5114798545837402,-0.9717694520950317,1.2184745073318481,0.670766294002533,-0.158175989985466,0.4872594475746155
3.6896469593048096,-0.5122028589248657,-0.9700226187705994,1.2196325063705444,0.6709442138671875,-0.15807415544986725,0.4869641661643982
3.7098381519317627,-0.5108774304389954,-0.9718862771987915,1.2203564643859863,0.6708434224128723,-0.15773174166679382,0.4873262643814087
3.729930877685547,-0.5108774304389954,-0.9718862771987915,1.2203564643859863,0.6708434224128723,-0.15773174166679382,0.4873262643814087
3.75,-0.5104010701179504,-0.9736227989196777,1.2203340530395508,0.6709588766098022,-0.1568622887134552,0.48807305097579956
3.770209550857544,-0.5104010701179504,-0.9736227989196777,1.2203340530395508,0.6709588766098022,-0.1568622887134552,0.48807305097579956
3.7902183532714844,-0.5113139152526855,-0.9740456342697144,1.2206330299377441,0.6708651185035706,-0.15802085399627686,0.4881020188331604
3.810299873352051,-0.5113139152526855,-0.9740456342697144,1.2206330299377441,0.6708651185035706,-0.15802085399627686,0.4881020188331604
3.8304169178009033,-0.5100688338279724,-0.9765218496322632,1.2207149267196655,0.670815110206604,-0.15698039531707764,0.48836517333984375
3.8505001068115234,-0.5099985003471375,-0.9759947657585144,1.2216377258300781,0.6709246039390564,-0.1558462530374527,0.4883113503456116
3.8705391883850098,-0.5099985003471375,-0.9759947657585144,1.2216377258300781,0.6709246039390564,-0.1558462530374527,0.4883113503456116
3.8906095027923584,-0.5062248110771179,-0.9801579713821411,1.221542477607727,0.6709223389625549,-0.15094034373760223,0.48912227153778076
3.9106874465942383,-0.5062248110771179,-0.9801579713821411,1.221542477607727,0.6709223389625549,-0.15094034373760223,0.48912227153778076
3.9307618141174316,-0.5086899995803833,-0.9788042306900024,1.2228127717971802,0.6706705093383789,-0.15350237488746643,0.48898518085479736
3.950868844985962,-0.5086899995803833,-0.9788042306900024,1.2228127717971802,0.6706705093383789,-0.15350237488746643,0.48898518085479736
3.9709460735321045,-0.5077813863754272,-0.9795277118682861,1.223564624786377,0.6712633371353149,-0.15221749246120453,0.4885714650154114
3.990992307662964,-0.5071219801902771,-0.9758076667785645,1.2256968021392822,0.6720506548881531,-0.14951686561107635,0.4876716732978821
4.011092901229858,-0.5071219801902771,-0.9758076667785645,1.2256968021392822,0.6720506548881531,-0.14951686561107635,0.4876716732978821
4.03114652633667,-0.5055293440818787,-0.9823761582374573,1.2240681648254395,0.6717780232429504,-0.15064017474651337,0.48942363262176514
4.0512778759002686,-0.5055293440818787,-0.9823761582374573,1.2240681648254395,0.6717780232429504,-0.15064017474651337,0.48942363262176514
4.071321725845337,-0.5054200887680054,-0.9833292365074158,1.2254326343536377,0.6712943911552429,-0.14984972774982452,0.48967868089675903
4.09144926071167,-0.5054200887680054,-0.9833292365074158,1.2254326343536377,0.6712943911552429,-0.14984972774982452,0.48967868089675903
4.111483812332153,-0.5029510259628296,-0.9844310879707336,1.2264207601547241,0.6709571480751038,-0.14572472870349884,0.4899211525917053
4.131550312042236,-0.5041356086730957,-0.9836453199386597,1.2268545627593994,0.671099841594696,-0.14677046239376068,0.4900473952293396
4.15162992477417,-0.5041356086730957,-0.9836453199386597,1.2268545627593994,0.671099841594696,-0.14677046239376068,0.4900473952293396
4.171740770339966,-0.5010374784469604,-0.9862520694732666,1.2271324396133423,0.6711819767951965,-0.1423763930797577,0.4901871681213379
4.1918487548828125,-0.5010374784469604,-0.9862520694732666,1.2271324396133423,0.6711819767951965,-0.1423763930797577,0.4901871681213379
4.211880207061768,-0.5020574331283569,-0.9879183769226074,1.2275362014770508,0.6710401177406311,-0.144541934132576,0.4906071424484253
4.231980323791504,-0.5020574331283569,-0.9879183769226074,1.2275362014770508,0.6710401177406311,-0.144541934132576,0.4906071424484253
4.252101182937622,-0.5022455453872681,-0.9893040657043457,1.2276555299758911,0.6712507009506226,-0.14546199142932892,0.4908062815666199
4.2722015380859375,-0.4987592101097107,-0.9928284287452698,1.2275285720825195,0.6714782118797302,-0.14059101045131683,0.491028368473053
4.29223108291626,-0.4987592101097107,-0.9928284287452698,1.2275285720825195,0.6714782118797302,-0.14059101045131683,0.491028368473053
4.312355995178223,-0.5014190673828125,-0.9901195764541626,1.2289501428604126,0.6715971827507019,-0.1419987678527832,0.49071669578552246
4.332400560379028,-0.5014190673828125,-0.9901195764541626,1.2289501428604126,0.6715971827507019,-0.1419987678527832,0.49071669578552246
4.352494239807129,-0.5003151893615723,-0.9927526116371155,1.2288780212402344,0.6716623902320862,-0.14255739748477936,0.49107497930526733
4.372645139694214,-0.5003151893615723,-0.9927526116371155,1.2288780212402344,0.6716623902320862,-0.14255739748477936,0.49107497930526733
4.392678737640381,-0.5002001523971558,-0.9896262884140015,1.2309656143188477,0.6719650626182556,-0.1408296376466751,0.4905478358268738
4.412792921066284,-0.5003297924995422,-0.9890504479408264,1.2314611673355103,0.6725566983222961,-0.14049191772937775,0.4904593825340271
4.432896375656128,-0.5003297924995422,-0.9890504479408264,1.2314611673355103,0.6725566983222961,-0.14049191772937775,0.4904593825340271
4.452960014343262,-0.49601489305496216,-0.9961947202682495,1.230518102645874,0.6719951033592224,-0.13668061792850494,0.49183744192123413
4.473004341125488,-0.49601489305496216,-0.9961947202682495,1.230518102645874,0.6719951033592224,-0.13668061792850494,0.49183744192123413
4.493136167526245,-0.4970749616622925,-0.9971693754196167,1.2309620380401611,0.67183917760849,-0.1370846927165985,0.4920912981033325
4.51318883895874,-0.4970749616622925,-0.9971693754196167,1.2309620380401611,0.67183917760849,-0.1370846927165985,0.4920912981033325
4.533309698104858,-0.4954391121864319,-0.9995216131210327,1.2314850091934204,0.6717872023582458,-0.13597328960895538,0.4923625588417053
4.553454399108887,-0.4968818426132202,-0.9989978671073914,1.232517957687378,0.6718737483024597,-0.13678939640522003,0.49217647314071655
4.573564529418945,-0.4968818426132202,-0.9989978671073914,1.232517957687378,0.6718737483024597,-0.13678939640522003,0.49217647314071655
4.593706846237183,-0.4946804642677307,-1.0018823146820068,1.2327231168746948,0.6715708374977112,-0.1353476345539093,0.49283212423324585
4.61370062828064,-0.4946804642677307,-1.0018823146820068,1.2327231168746948,0.6715708374977112,-0.1353476345539093,0.49283212423324585
4.633772850036621,-0.4953627586364746,-1.0011640787124634,1.2333948612213135,0.6715102791786194,-0.13441342115402222,0.49286460876464844
4.65384840965271,-0.4953627586364746,-1.0011640787124634,1.2333948612213135,0.6715102791786194,-0.13441342115402222,0.49286460876464844
4.673933506011963,-0.4939892888069153,-1.002018928527832,1.2337861061096191,0.6716086268424988,-0.13276828825473785,0.4930453896522522
4.694040775299072,-0.4942358136177063,-1.004774808883667,1.2339856624603271,0.6714231371879578,-0.133745476603508,0.49366146326065063
4.714079856872559,-0.4942358136177063,-1.004774808883667,1.2339856624603271,0.6714231371879578,-0.133745476603508,0.49366146326065063
4.7341530323028564,-0.49097031354904175,-1.006946086883545,1.2341976165771484,0.6714303493499756,-0.1295004040002823,0.4939119219779968
4.7543017864227295,-0.49097031354904175,-1.006946086883545,1.2341976165771484,0.6714303493499756,-0.1295004040002823,0.4939119219779968
4.7744622230529785,-0.49320554733276367,-1.0043809413909912,1.235897183418274,0.6718594431877136,-0.13029836118221283,0.49355489015579224
4.794436454772949,-0.49203628301620483,-1.0078763961791992,1.2348138093948364,0.6717855334281921,-0.13012239336967468,0.4941871166229248
4.81452202796936,-0.49203628301620483,-1.0078763961791992,1.2348138093948364,0.6717855334281921,-0.13012239336967468,0.4941871166229248
4.834587335586548,-0.49132347106933594,-1.008103370666504,1.2356865406036377,0.6718350052833557,-0.12860597670078278,0.4938814043998718
4.854661703109741,-0.49132347106933594,-1.008103370666504,1.2356865406036377,0.6718350052833557,-0.12860597670078278,0.4938814043998718
4.874776363372803,-0.4915826916694641,-1.0084559917449951,1.2364424467086792,0.6718404293060303,-0.12922729551792145,0.49394863843917847
4.894894123077393,-0.4915826916694641,-1.0084559917449951,1.2364424467086792,0.6718404293060303,-0.12922729551792145,0.49394863843917847
4.9149205684661865,-0.4892956018447876,-1.0102367401123047,1.237022876739502,0.6718953251838684,-0.12699763476848602,0.4943590760231018
4.934969425201416,-0.490053653717041,-1.0116586685180664,1.2368673086166382,0.6717079281806946,-0.12739381194114685,0.49510955810546875
4.955112934112549,-0.490053653717041,-1.0116586685180664,1.2368673086166382,0.6717079281806946,-0.12739381194114685,0.49510955810546875
4.975231409072876,-0.48891913890838623,-1.0131332874298096,1.2370872497558594,0.6714847683906555,-0.12586098909378052,0.4951353669166565
4.9952616691589355,-0.48891913890838623,-1.0131332874298096,1.2370872497558594,0.6714847683906555,-0.12586098909378052,0.4951353669166565
5.01535964012146,-0.4888880252838135,-1.0137109756469727,1.2376121282577515,0.6713708639144897,-0.12638527154922485,0.49544447660446167
5.035508394241333,-0.4888880252838135,-1.0137109756469727,1.2376121282577515,0.6713708639144897,-0.12638527154922485,0.49544447660446167
5.055619716644287,-0.4880231022834778,-1.0146584510803223,1.2387700080871582,0.671441376209259,-0.12559093534946442,0.495663583278656
5.075733184814453,-0.4877236485481262,-1.0180890560150146,1.2378201484680176,0.671290397644043,-0.12546484172344208,0.496479332447052
5.095777988433838,-0.4877236485481262,-1.0180890560150146,1.2378201484680176,0.671290397644043,-0.12546484172344208,0.496479332447052
5.11585807800293,-0.486907958984375,-1.0192111730575562,1.238161325454712,0.6716235876083374,-0.12422356009483337,0.4961586594581604
5.13593864440918,-0.486907958984375,-1.0192111730575562,1.238161325454712,0.6716235876083374,-0.12422356009483337,0.4961586594581604
5.155994415283203,-0.48570340871810913,-1.020408034324646,1.239471435546875,0.6716908812522888,-0.1221046969294548,0.4963204860687256
5.17607307434082,-0.4857545495033264,-1.0208373069763184,1.2400808334350586,0.6717432141304016,-0.12152443081140518,0.4966270327568054
5.1961541175842285,-0.4857545495033264,-1.0208373069763184,1.2400808334350586,0.6717432141304016,-0.12152443081140518,0.4966270327568054
5.216209888458252,-0.48580116033554077,-1.021637201309204,1.2397425174713135,0.6717399954795837,-0.12237897515296936,0.49704891443252563
5.236280679702759,-0.48580116033554077,-1.021637201309204,1.2397425174713135,0.6717399954795837,-0.12237897515296936,0.49704891443252563
5.2563769817352295,-0.4851829409599304,-1.023694396018982,1.2400051355361938,0.6717631220817566,-0.1212780624628067,0.4971230626106262
5.2764363288879395,-0.4851829409599304,-1.023694396018982,1.2400051355361938,0.6717631220817566,-0.1212780624628067,0.4971230626106262
5.296576023101807,-0.48261356353759766,-1.0271683931350708,1.2396125793457031,0.6715375781059265,-0.11827492713928223,0.49789077043533325
5.316567897796631,-0.4823904037475586,-1.0254058837890625,1.2416467666625977,0.672066867351532,-0.11620403826236725,0.49737727642059326
5.336721420288086,-0.4823904037475586,-1.0254058837890625,1.2416467666625977,0.672066867351532,-0.11620403826236725,0.49737727642059326
5.356762647628784,-0.4821968078613281,-1.02933931350708,1.2412827014923096,0.6717437505722046,-0.11812809109687805,0.4983840584754944
5.376829624176025,-0.4821968078613281,-1.02933931350708,1.2412827014923096,0.6717437505722046,-0.11812809109687805,0.4983840584754944
5.396906614303589,-0.48084545135498047,-1.0296889543533325,1.2416296005249023,0.671445906162262,-0.11508208513259888,0.4983898401260376
5.416948318481445,-0.4811702370643616,-1.0312048196792603,1.2421464920043945,0.6712357997894287,-0.11670559644699097,0.4988829493522644
5.437028884887695,-0.4811702370643616,-1.0312048196792603,1.2421464920043945,0.6712357997894287,-0.11670559644699097,0.4988829493522644
5.457079887390137,-0.4819164276123047,-1.0296019315719604,1.2428333759307861,0.6714070439338684,-0.11542132496833801,0.49841541051864624
5.477259874343872,-0.4819164276123047,-1.0296019315719604,1.2428333759307861,0.6714070439338684,-0.11542132496833801,0.49841541051864624
5.497349500656128,-0.4816923141479492,-1.031006932258606,1.2424452304840088,0.6717824935913086,-0.11611536145210266,0.49881207942962646
5.517373561859131,-0.4816923141479492,-1.031006932258606,1.2424452304840088,0.6717824935913086,-0.11611536145210266,0.49881207942962646
5.5374672412872314,-0.48014676570892334,-1.0333645343780518,1.243492603302002,0.6717442870140076,-0.11340352892875671,0.4990759491920471
5.557515382766724,-0.4775352478027344,-1.0340379476547241,1.244426965713501,0.671891987323761,-0.10930640995502472,0.4991818070411682
5.577668905258179,-0.4775352478027344,-1.0340379476547241,1.244426965713501,0.671891987323761,-0.10930640995502472,0.4991818070411682
5.59769606590271,-0.4784797430038452,-1.0358672142028809,1.2445822954177856,0.6718104481697083,-0.11109854280948639,0.49981117248535156
5.6178319454193115,-0.4784797430038452,-1.0358672142028809,1.2445822954177856,0.6718104481697083,-0.11109854280948639,0.49981117248535156
5.6378703117370605,-0.4777488708496094,-1.039433479309082,1.2447190284729004,0.6713069081306458,-0.11187773942947388,0.5005044937133789
5.657979488372803,-0.4777488708496094,-1.039433479309082,1.2447190284729004,0.6713069081306458,-0.11187773942947388,0.5005044937133789
5.67805552482605,-0.4769672155380249,-1.0403285026550293,1.2456982135772705,0.6713347434997559,-0.11056450009346008,0.5004265904426575
5.698103189468384,-0.47749489545822144,-1.0392048358917236,1.2455267906188965,0.6716023087501526,-0.10876412689685822,0.5004476308822632
5.718179225921631,-0.47749489545822144,-1.0392048358917236,1.2455267906188965,0.6716023087501526,-0.10876412689685822,0.5004476308822632
5.738247394561768,-0.4764304757118225,-1.0397686958312988,1.2461036443710327,0.6717440485954285,-0.10864432156085968,0.5004675984382629
5.758320093154907,-0.4764304757118225,-1.0397686958312988,1.2461036443710327,0.6717440485954285,-0.10864432156085968,0.5004675984382629
5.778533935546875,-0.4755103588104248,-1.0406150817871094,1.2472211122512817,0.6717094779014587,-0.10593965649604797,0.5005715489387512
5.798522710800171,-0.4755103588104248,-1.0406150817871094,1.2472211122512817,0.6717094779014587,-0.10593965649604797,0.5005715489387512
5.818568706512451,-0.47448301315307617,-1.0404269695281982,1.2481467723846436,0.6717332005500793,-0.1053314059972763,0.5008097887039185
5.838667154312134,-0.4739964008331299,-1.0424928665161133,1.2482719421386719,0.6719636917114258,-0.10500513017177582,0.5012502074241638
5.858720541000366,-0.4739964008331299,-1.0424928665161133,1.2482719421386719,0.6719636917114258,-0.10500513017177582,0.5012502074241638
5.878821134567261,-0.47244060039520264,-1.0466711521148682,1.2480924129486084,0.6715924143791199,-0.1050480306148529,0.5023865103721619
5.898890972137451,-0.47244060039520264,-1.0466711521148682,1.2480924129486084,0.6715924143791199,-0.1050480306148529,0.5023865103721619
5.918950080871582,-0.47071295976638794,-1.0467089414596558,1.2493932247161865,0.6716318726539612,-0.10064071416854858,0.5019930005073547
5.939080238342285,-0.4722421169281006,-1.0484991073608398,1.2485800981521606,0.6716815829277039,-0.10345368087291718,0.5028768181800842
5.9591686725616455,-0.4722421169281006,-1.0484991073608398,1.2485800981521606,0.6716815829277039,-0.10345368087291718,0.5028768181800842
5.979243516921997,-0.47132766246795654,-1.0471004247665405,1.2507699728012085,0.6720673441886902,-0.1005735695362091,0.5018351674079895
5.999308347702026,-0.47132766246795654,-1.0471004247665405,1.2507699728012085,0.6720673441886902,-0.1005735695362091,0.5018351674079895
6.019407749176025,-0.46942639350891113,-1.0523865222930908,1.2489891052246094,0.6719511151313782,-0.1002342477440834,0.5033831596374512
6.039473295211792,-0.46942639350891113,-1.0523865222930908,1.2489891052246094,0.6719511151313782,-0.1002342477440834,0.5033831596374512
6.059573650360107,-0.4692147970199585,-1.0533885955810547,1.2496719360351562,0.6716992259025574,-0.09920603036880493,0.5033077001571655
6.079595565795898,-0.4689270257949829,-1.0550367832183838,1.2508597373962402,0.6715602874755859,-0.09937087446451187,0.5035443902015686
6.099716901779175,-0.4689270257949829,-1.0550367832183838,1.2508597373962402,0.6715602874755859,-0.09937087446451187,0.5035443902015686
6.119787216186523,-0.46892791986465454,-1.0547304153442383,1.2512176036834717,0.6716633439064026,-0.0985165610909462,0.503608226776123
6.139849424362183,-0.46892791986465454,-1.0547304153442383,1.2512176036834717,0.6716633439064026,-0.0985165610909462,0.503608226776123
6.159965515136719,-0.4696125388145447,-1.0515040159225464,1.2523971796035767,0.6720584034919739,-0.09788201749324799,0.5030572414398193
6.1800055503845215,-0.4696125388145447,-1.0515040159225464,1.2523971796035767,0.6720584034919739,-0.09788201749324799,0.5030572414398193
6.200136423110962,-0.46722114086151123,-1.058335781097412,1.2503671646118164,0.6718764305114746,-0.09734205156564713,0.504616379737854
6.220161199569702,-0.4656330943107605,-1.0584313869476318,1.2523047924041748,0.6714514493942261,-0.0940111055970192,0.5045098066329956
6.24023175239563,-0.4656330943107605,-1.0584313869476318,1.2523047924041748,0.6714514493942261,-0.0940111055970192,0.5045098066329956
6.260383129119873,-0.4665006399154663,-1.0594050884246826,1.252791166305542,0.6716077327728271,-0.09537307918071747,0.5048591494560242
6.280395030975342,-0.4665006399154663,-1.0594050884246826,1.252791166305542,0.6716077327728271,-0.09537307918071747,0.5048591494560242
6.300466537475586,-0.466156542301178,-1.0596095323562622,1.2530014514923096,0.6721369624137878,-0.09452617168426514,0.5043891668319702
6.3205931186676025,-0.46640491485595703,-1.0607264041900635,1.2526923418045044,0.6720133423805237,-0.09539739787578583,0.5049196481704712
6.340729236602783,-0.46640491485595703,-1.0607264041900635,1.2526923418045044,0.6720133423805237,-0.09539739787578583,0.5049196481704712
6.360774040222168,-0.46511566638946533,-1.0638840198516846,1.2529546022415161,0.6718621850013733,-0.09361658245325089,0.505323588848114
6.380836725234985,-0.46511566638946533,-1.0638840198516846,1.2529546022415161,0.6718621850013733,-0.09361658245325089,0.505323588848114
6.400968551635742,-0.46357667446136475,-1.0630838871002197,1.25504469871521,0.6717966794967651,-0.09101352095603943,0.5052991509437561
6.4210524559021,-0.46357667446136475,-1.0630838871002197,1.25504469871521,0.6717966794967651,-0.09101352095603943,0.5052991509437561
6.4410998821258545,-0.4633305072784424,-1.0656585693359375,1.2549772262573242,0.6718592047691345,-0.08985644578933716,0.5057927370071411
6.461183547973633,-0.46285223960876465,-1.067260503768921,1.2544889450073242,0.6716476082801819,-0.08987094461917877,0.5061073303222656
6.481287717819214,-0.46285223960876465,-1.067260503768921,1.2544889450073242,0.6716476082801819,-0.08987094461917877,0.5061073303222656
6.5014073848724365,-0.461648166179657,-1.0678892135620117,1.2553006410598755,0.6718566417694092,-0.08799245953559875,0.5061394572257996
6.521424770355225,-0.461648166179657,-1.0678892135620117,1.2553006410598755,0.6718566417694092,-0.08799245953559875,0.5061394572257996
6.541545629501343,-0.4619772434234619,-1.0700085163116455,1.2548565864562988,0.6716780662536621,-0.08936011791229248,0.5070251822471619
6.561675548553467,-0.4619772434234619,-1.0700085163116455,1.2548565864562988,0.6716780662536621,-0.08936011791229248,0.5070251822471619
6.581717252731323,-0.4625564217567444,-1.0640430450439453,1.2579846382141113,0.6723033785820007,-0.08738722652196884,0.5056281685829163
6.601813793182373,-0.46344423294067383,-1.0590122938156128,1.259591817855835,0.6736457943916321,-0.08611415326595306,0.5048021674156189
6.621944189071655,-0.46344423294067383,-1.0590122938156128,1.259591817855835,0.6736457943916321,-0.08611415326595306,0.5048021674156189
6.642045497894287,-0.46046215295791626,-1.0596866607666016,1.2604352235794067,0.6738385558128357,-0.08188684284687042,0.5047228932380676
6.662114858627319,-0.46046215295791626,-1.0596866607666016,1.2604352235794067,0.6738385558128357,-0.08188684284687042,0.5047228932380676
6.682241678237915,-0.45744407176971436,-1.0680806636810303,1.2582151889801025,0.6731970906257629,-0.08162981271743774,0.5068404078483582
6.702293157577515,-0.458493173122406,-1.0706994533538818,1.259027123451233,0.6724281907081604,-0.08423393964767456,0.5077365040779114
6.7224273681640625,-0.458493173122406,-1.0706994533538818,1.259027123451233,0.6724281907081604,-0.08423393964767456,0.5077365040779114
6.742462396621704,-0.4573712944984436,-1.0729193687438965,1.2600250244140625,0.6722951531410217,-0.08187422901391983,0.5075609683990479
6.76252818107605,-0.4573712944984436,-1.0729193687438965,1.2600250244140625,0.6722951531410217,-0.08187422901391983,0.5075609683990479
6.782634973526001,-0.4573926329612732,-1.076169490814209,1.2587919235229492,0.6722097992897034,-0.08332815766334534,0.5084478259086609
6.80273962020874,-0.4573926329612732,-1.076169490814209,1.2587919235229492,0.6722097992897034,-0.08332815766334534,0.5084478259086609
6.822775363922119,-0.4579918384552002,-1.07306969165802,1.2607871294021606,0.6725454926490784,-0.08141539990901947,0.5072725415229797
6.842835426330566,-0.4574195146560669,-1.074735403060913,1.2600767612457275,0.6727332472801208,-0.08221863210201263,0.5078867077827454
6.862919807434082,-0.4574195146560669,-1.074735403060913,1.2600767612457275,0.6727332472801208,-0.08221863210201263,0.5078867077827454
6.882981061935425,-0.4561060070991516,-1.0759564638137817,1.2608373165130615,0.6725607514381409,-0.08092658221721649,0.5084128975868225
6.9030468463897705,-0.4561060070991516,-1.0759564638137817,1.2608373165130615,0.6725607514381409,-0.08092658221721649,0.5084128975868225
6.923116683959961,-0.45405274629592896,-1.079896330833435,1.2606942653656006,0.672482967376709,-0.07897838205099106,0.5092092752456665
6.943194627761841,-0.45405274629592896,-1.079896330833435,1.2606942653656006,0.672482967376709,-0.07897838205099106,0.5092092752456665
6.9632790088653564,-0.45502740144729614,-1.0795903205871582,1.2619112730026245,0.6722848415374756,-0.07887829840183258,0.5091007351875305
6.98333740234375,-0.4555041790008545,-1.0766162872314453,1.2636258602142334,0.6728835701942444,-0.07762709259986877,0.5082414746284485
7.003423690795898,-0.4555041790008545,-1.0766162872314453,1.2636258602142334,0.6728835701942444,-0.07762709259986877,0.5082414746284485
7.023475646972656,-0.4548600912094116,-1.0802679061889648,1.2621729373931885,0.6730379462242126,-0.07761341333389282,0.5089969038963318
7.043645143508911,-0.4548600912094116,-1.0802679061889648,1.2621729373931885,0.6730379462242126,-0.07761341333389282,0.5089969038963318
7.0636513233184814,-0.4541897177696228,-1.081071376800537,1.2625256776809692,0.6731709241867065,-0.07638414949178696,0.5090517401695251
7.083810329437256,-0.4535825252532959,-1.0819073915481567,1.2630043029785156,0.6731970310211182,-0.07591591775417328,0.5091482400894165
7.103923797607422,-0.4535825252532959,-1.0819073915481567,1.2630043029785156,0.6731970310211182,-0.07591591775417328,0.5091482400894165
7.123971939086914,-0.4518222212791443,-1.0840768814086914,1.2631886005401611,0.6730011105537415,-0.07456479966640472,0.5096794366836548
7.144008159637451,-0.4518222212791443,-1.0840768814086914,1.2631886005401611,0.6730011105537415,-0.07456479966640472,0.5096794366836548
7.164134979248047,-0.4514160752296448,-1.0854688882827759,1.2643253803253174,0.6729447245597839,-0.07432040572166443,0.5100116729736328
7.184226751327515,-0.4514160752296448,-1.0854688882827759,1.2643253803253174,0.6729447245597839,-0.07432040572166443,0.5100116729736328
7.204259872436523,-0.45077961683273315,-1.0876941680908203,1.26327645778656,0.6729878187179565,-0.07344720512628555,0.5107230544090271
7.2243030071258545,-0.45069271326065063,-1.087044596672058,1.2650023698806763,0.673005998134613,-0.07159532606601715,0.5103833675384521
7.244497776031494,-0.45069271326065063,-1.087044596672058,1.2650023698806763,0.673005998134613,-0.07159532606601715,0.5103833675384521
7.264499664306641,-0.45054471492767334,-1.0899335145950317,1.2645621299743652,0.6726775765419006,-0.07272496819496155,0.5112646222114563
7.284562349319458,-0.45054471492767334,-1.0899335145950317,1.2645621299743652,0.6726775765419006,-0.07272496819496155,0.5112646222114563
7.304715633392334,-0.4475644826889038,-1.0935531854629517,1.2646573781967163,0.6723567247390747,-0.0699584037065506,0.511947751045227
7.324732542037964,-0.4475644826889038,-1.0935531854629517,1.2646573781967163,0.6723567247390747,-0.0699584037065506,0.511947751045227
7.344832420349121,-0.4485418200492859,-1.095101237297058,1.264883041381836,0.6723707318305969,-0.07169511169195175,0.5126012563705444
7.364924430847168,-0.44779545068740845,-1.0938290357589722,1.2661423683166504,0.67264723777771,-0.06814949214458466,0.5118790864944458
7.384974718093872,-0.44779545068740845,-1.0938290357589722,1.2661423683166504,0.67264723777771,-0.06814949214458466,0.5118790864944458
7.40509819984436,-0.44766706228256226,-1.0946658849716187,1.2661540508270264,0.6727909445762634,-0.06794723868370056,0.5121836066246033
7.425136089324951,-0.44766706228256226,-1.0946658849716187,1.2661540508270264,0.6727909445762634,-0.06794723868370056,0.5121836066246033
7.445212125778198,-0.44814836978912354,-1.0960572957992554,1.2662127017974854,0.6727797389030457,-0.06784733384847641,0.5124024152755737
7.465281248092651,-0.44814836978912354,-1.0960572957992554,1.2662127017974854,0.6727797389030457,-0.06784733384847641,0.5124024152755737
7.485348224639893,-0.4471416473388672,-1.0969759225845337,1.2667882442474365,0.6728023886680603,-0.06748009473085403,0.5123867392539978
7.505409479141235,-0.44785958528518677,-1.0965691804885864,1.2666361331939697,0.6731846928596497,-0.06822806596755981,0.5126606822013855
7.525546073913574,-0.44785958528518677,-1.0965691804885864,1.2666361331939697,0.6731846928596497,-0.06822806596755981,0.5126606822013855
7.545613050460815,-0.44678521156311035,-1.09355628490448,1.269203782081604,0.6738545298576355,-0.06454094499349594,0.511448085308075
7.565666913986206,-0.44678521156311035,-1.09355628490448,1.269203782081604,0.6738545298576355,-0.06454094499349594,0.511448085308075
7.585734844207764,-0.4430158734321594,-1.1033862829208374,1.2657095193862915,0.6733749508857727,-0.0632566511631012,0.5142496228218079
7.605782985687256,-0.44333308935165405,-1.1041722297668457,1.267622470855713,0.6726875901222229,-0.06318067759275436,0.5145328640937805
7.6258704662323,-0.44333308935165405,-1.1041722297668457,1.267622470855713,0.6726875901222229,-0.06318067759275436,0.5145328640937805
7.645936727523804,-0.4435015916824341,-1.104691982269287,1.268545150756836,0.6727158427238464,-0.06276624649763107,0.5144016146659851
7.666020631790161,-0.4435015916824341,-1.104691982269287,1.268545150756836,0.6727158427238464,-0.06276624649763107,0.5144016146659851
7.686137676239014,-0.4414273500442505,-1.1096712350845337,1.267934799194336,0.6725836992263794,-0.06158237159252167,0.5154234766960144
7.70618748664856,-0.4414273500442505,-1.1096712350845337,1.267934799194336,0.6725836992263794,-0.06158237159252167,0.5154234766960144
7.726262092590332,-0.4415457844734192,-1.1116600036621094,1.2677147388458252,0.6723085045814514,-0.06129620596766472,0.5158032178878784
7.746395111083984,-0.44109582901000977,-1.1124719381332397,1.26887845993042,0.6722274422645569,-0.06038917973637581,0.5157126188278198
7.7664265632629395,-0.44109582901000977,-1.1124719381332397,1.26887845993042,0.6722274422645569,-0.06038917973637581,0.5157126188278198
7.786499977111816,-0.44219833612442017,-1.107007384300232,1.271315097808838,0.6729980111122131,-0.058318622410297394,0.5144920945167542
7.806581735610962,-0.44219833612442017,-1.107007384300232,1.271315097808838,0.6729980111122131,-0.058318622410297394,0.5144920945167542
7.826653480529785,-0.44072043895721436,-1.1097513437271118,1.2690184116363525,0.6734069585800171,-0.05823215842247009,0.5151893496513367
7.846721172332764,-0.44072043895721436,-1.1097513437271118,1.2690184116363525,0.6734069585800171,-0.05823215842247009,0.5151893496513367
7.866784572601318,-0.4401278495788574,-1.1141144037246704,1.2690794467926025,0.6734419465065002,-0.058508872985839844,0.5159637928009033
7.886838436126709,-0.43968623876571655,-1.1170953512191772,1.269624948501587,0.67277991771698,-0.05843102186918259,0.5166872143745422
7.906913757324219,-0.43968623876571655,-1.1170953512191772,1.269624948501587,0.67277991771698,-0.05843102186918259,0.5166872143745422
7.92698335647583,-0.4392792582511902,-1.118227243423462,1.270296335220337,0.6726244688034058,-0.05725482106208801,0.5169556736946106
7.947069883346558,-0.4392792582511902,-1.118227243423462,1.270296335220337,0.6726244688034058,-0.05725482106208801,0.5169556736946106
7.967144250869751,-0.43840521574020386,-1.1189039945602417,1.2708501815795898,0.672726035118103,-0.055195897817611694,0.5167390704154968
7.9872918128967285,-0.43914496898651123,-1.1195182800292969,1.2701036930084229,0.6730126738548279,-0.05642389506101608,0.5169706344604492
8.00738525390625,-0.43914496898651123,-1.1195182800292969,1.2701036930084229,0.6730126738548279,-0.05642389506101608,0.5169706344604492
8.048645734786987,-0.4381837844848633,-1.1162282228469849,1.2725149393081665,0.6735535264015198,-0.0532715767621994,0.5158012509346008
8.06872010231018,-0.4381837844848633,-1.1162282228469849,1.2725149393081665,0.6735535264015198,-0.0532715767621994,0.5158012509346008
8.088796615600586,-0.4296509027481079,-1.1238987445831299,1.272984266281128,0.674636960029602,-0.04634476825594902,0.5186240077018738
8.108886957168579,-0.4296509027481079,-1.1238987445831299,1.272984266281128,0.674636960029602,-0.04634476825594902,0.5186240077018738
8.128955364227295,-0.43537598848342896,-1.113210678100586,1.2801463603973389,0.6762370467185974,-0.049419015645980835,0.5163070559501648
8.149023532867432,-0.43537598848342896,-1.113210678100586,1.2801463603973389,0.6762370467185974,-0.049419015645980835,0.5163070559501648
8.169112205505371,-0.43231916427612305,-1.1231738328933716,1.2776498794555664,0.6745480895042419,-0.04600193724036217,0.5183951258659363
8.189117908477783,-0.4340696930885315,-1.1204652786254883,1.2790571451187134,0.6750572919845581,-0.04731379449367523,0.5181100964546204
8.209199905395508,-0.4340696930885315,-1.1204652786254883,1.2790571451187134,0.6750572919845581,-0.04731379449367523,0.5181100964546204
8.229268789291382,-0.4327446222305298,-1.1284375190734863,1.2768847942352295,0.6742313504219055,-0.049074895679950714,0.5199564695358276
8.249338626861572,-0.4327446222305298,-1.1284375190734863,1.2768847942352295,0.6742313504219055,-0.049074895679950714,0.5199564695358276
8.26942229270935,-0.43209218978881836,-1.1322548389434814,1.2767847776412964,0.6736990809440613,-0.048140428960323334,0.5204795002937317
8.289495944976807,-0.43209218978881836,-1.1322548389434814,1.2767847776412964,0.6736990809440613,-0.048140428960323334,0.5204795002937317
8.3095703125,-0.4321228265762329,-1.1325074434280396,1.2773585319519043,0.6742826104164124,-0.0467497818171978,0.5203518271446228
8.32960820198059,-0.4300275444984436,-1.1364375352859497,1.276983618736267,0.6739476919174194,-0.043861500918865204,0.5206559300422668
8.349685668945312,-0.4300275444984436,-1.1364375352859497,1.276983618736267,0.6739476919174194,-0.043861500918865204,0.5206559300422668
8.369757652282715,-0.4297980070114136,-1.1403743028640747,1.2768583297729492,0.673478901386261,-0.04489719122648239,0.5217581391334534
8.389821290969849,-0.4297980070114136,-1.1403743028640747,1.2768583297729492,0.673478901386261,-0.04489719122648239,0.5217581391334534
8.409891128540039,-0.4295254349708557,-1.1286541223526,1.2839879989624023,0.6746284365653992,-0.03884588181972504,0.519221842288971
8.429959774017334,-0.4295254349708557,-1.1286541223526,1.2839879989624023,0.6746284365653992,-0.03884588181972504,0.519221842288971
8.450062036514282,-0.429374635219574,-1.1377588510513306,1.2793784141540527,0.674346387386322,-0.04291566088795662,0.5213930606842041
8.470122814178467,-0.42755061388015747,-1.1463350057601929,1.276519536972046,0.6735979914665222,-0.04338773712515831,0.5233422517776489
8.490201711654663,-0.42755061388015747,-1.1463350057601929,1.276519536972046,0.6735979914665222,-0.04338773712515831,0.5233422517776489
8.51040530204773,-0.4278251528739929,-1.1440305709838867,1.2797174453735352,0.6732204556465149,-0.040752895176410675,0.5223786234855652
8.53044867515564,-0.4278251528739929,-1.1440305709838867,1.2797174453735352,0.6732204556465149,-0.040752895176410675,0.5223786234855652
8.55053997039795,-0.4279952049255371,-1.1389175653457642,1.2815479040145874,0.6740096211433411,-0.038276348263025284,0.5214861631393433
8.570558071136475,-0.42788761854171753,-1.141536831855774,1.2806310653686523,0.6742727756500244,-0.0391421839594841,0.521952211856842
8.59064793586731,-0.42788761854171753,-1.141536831855774,1.2806310653686523,0.6742727756500244,-0.0391421839594841,0.521952211856842
8.610721349716187,-0.4265865683555603,-1.1495658159255981,1.278071641921997,0.6738207936286926,-0.04145476967096329,0.5239482522010803
8.630810022354126,-0.4265865683555603,-1.1495658159255981,1.278071641921997,0.6738207936286926,-0.04145476967096329,0.5239482522010803
8.650856256484985,-0.4232069253921509,-1.149868369102478,1.2803142070770264,0.6736311316490173,-0.03403165936470032,0.5234417915344238
8.67096209526062,-0.4232069253921509,-1.149868369102478,1.2803142070770264,0.6736311316490173,-0.03403165936470032,0.5234417915344238
8.691078186035156,-0.4249776005744934,-1.1504795551300049,1.2802839279174805,0.673439085483551,-0.03667232394218445,0.5241007208824158
8.711112022399902,-0.42536646127700806,-1.1497951745986938,1.2816450595855713,0.6735865473747253,-0.03625807166099548,0.5237218737602234
8.731192350387573,-0.42536646127700806,-1.1497951745986938,1.2816450595855713,0.6735865473747253,-0.03625807166099548,0.5237218737602234
8.751270771026611,-0.4258996248245239,-1.146378755569458,1.283050537109375,0.6741136908531189,-0.03594304621219635,0.5229259729385376
8.771337509155273,-0.4258996248245239,-1.146378755569458,1.283050537109375,0.6741136908531189,-0.03594304621219635,0.5229259729385376
8.791427612304688,-0.4234618544578552,-1.1570292711257935,1.2797572612762451,0.6737213134765625,-0.037667278200387955,0.5254564881324768
8.811479568481445,-0.4234618544578552,-1.1570292711257935,1.2797572612762451,0.6737213134765625,-0.037667278200387955,0.5254564881324768
8.831657648086548,-0.41944265365600586,-1.163108468055725,1.279517412185669,0.6729142069816589,-0.03155593201518059,0.5264814496040344
8.851651430130005,-0.4213997721672058,-1.1618218421936035,1.2806998491287231,0.6727444529533386,-0.03259709104895592,0.5265522599220276
8.871702432632446,-0.4213997721672058,-1.1618218421936035,1.2806998491287231,0.6727444529533386,-0.03259709104895592,0.5265522599220276
8.89186954498291,-0.42269420623779297,-1.15534508228302,1.284296989440918,0.673274576663971,-0.03138185292482376,0.5247271656990051
8.911906003952026,-0.42269420623779297,-1.15534508228302,1.284296989440918,0.673274576663971,-0.03138185292482376,0.5247271656990051
8.93197751045227,-0.4222050905227661,-1.1523023843765259,1.2859187126159668,0.6741312146186829,-0.03012414276599884,0.5244516730308533
8.952059984207153,-0.4202756881713867,-1.1639047861099243,1.2810248136520386,0.6734316945075989,-0.03275289759039879,0.5273563265800476
8.972197771072388,-0.4202756881713867,-1.1639047861099243,1.2810248136520386,0.6734316945075989,-0.03275289759039879,0.5273563265800476
8.992217540740967,-0.41849565505981445,-1.1684468984603882,1.2815884351730347,0.6727482676506042,-0.030422773212194443,0.5281029939651489
9.012287616729736,-0.41849565505981445,-1.1684468984603882,1.2815884351730347,0.6727482676506042,-0.030422773212194443,0.5281029939651489
9.032360315322876,-0.4191555976867676,-1.1672090291976929,1.2835278511047363,0.6726492047309875,-0.029658257961273193,0.527683675289154
9.052439212799072,-0.4191555976867676,-1.1672090291976929,1.2835278511047363,0.6726492047309875,-0.029658257961273193,0.527683675289154
9.072512149810791,-0.4202216863632202,-1.1585732698440552,1.287840485572815,0.6738410592079163,-0.027093499898910522,0.5258234143257141
9.092565774917603,-0.419791042804718,-1.1621204614639282,1.284881830215454,0.6741850972175598,-0.028839968144893646,0.5263633728027344
9.112637042999268,-0.419791042804718,-1.1621204614639282,1.284881830215454,0.6741850972175598,-0.028839968144893646,0.5263633728027344
9.132725715637207,-0.4183416962623596,-1.167601227760315,1.2838150262832642,0.6739009022712708,-0.029093727469444275,0.5276039242744446
9.152924060821533,-0.4183416962623596,-1.167601227760315,1.2838150262832642,0.6739009022712708,-0.029093727469444275,0.5276039242744446
9.172966480255127,-0.41774994134902954,-1.1683586835861206,1.2856162786483765,0.673574686050415,-0.025847911834716797,0.5274205803871155
9.193010807037354,-0.41774994134902954,-1.1683586835861206,1.2856162786483765,0.673574686050415,-0.025847911834716797,0.5274205803871155
9.213077306747437,-0.41592222452163696,-1.1779502630233765,1.2819440364837646,0.6729981899261475,-0.028165988624095917,0.5300397276878357
9.233165979385376,-0.41634446382522583,-1.1759766340255737,1.2843701839447021,0.6727240085601807,-0.026746422052383423,0.5297378301620483
9.253218650817871,-0.41634446382522583,-1.1759766340255737,1.2843701839447021,0.6727240085601807,-0.026746422052383423,0.5297378301620483
9.273309707641602,-0.41636401414871216,-1.1716140508651733,1.2868878841400146,0.6730968952178955,-0.023766733705997467,0.5286275744438171
9.293388366699219,-0.41636401414871216,-1.1716140508651733,1.2868878841400146,0.6730968952178955,-0.023766733705997467,0.5286275744438171
9.31347131729126,-0.416812539100647,-1.1745212078094482,1.2851166725158691,0.6736854314804077,-0.025256097316741943,0.529130756855011
9.333652019500732,-0.416812539100647,-1.1745212078094482,1.2851166725158691,0.6736854314804077,-0.025256097316741943,0.529130756855011
9.353736877441406,-0.4153861403465271,-1.1783899068832397,1.2843304872512817,0.6734759211540222,-0.024356700479984283,0.5298146605491638
9.37389326095581,-0.41413891315460205,-1.1786545515060425,1.2863223552703857,0.6735095381736755,-0.02189444750547409,0.529865562915802
9.39394736289978,-0.41413891315460205,-1.1786545515060425,1.2863223552703857,0.6735095381736755,-0.02189444750547409,0.529865562915802
9.414060592651367,-0.41395705938339233,-1.1788370609283447,1.2873197793960571,0.6735820174217224,-0.021679207682609558,0.5300682187080383
9.434143304824829,-0.41395705938339233,-1.1788370609283447,1.2873197793960571,0.6735820174217224,-0.021679207682609558,0.5300682187080383
9.454178810119629,-0.4131571650505066,-1.183367371559143,1.2858229875564575,0.6733089685440063,-0.02185424417257309,0.5309689044952393
9.474238157272339,-0.41177308559417725,-1.1894429922103882,1.2845488786697388,0.6731898188591003,-0.0217154398560524,0.5321360230445862
9.494350910186768,-0.41177308559417725,-1.1894429922103882,1.2845488786697388,0.6731898188591003,-0.0217154398560524,0.5321360230445862
9.514426469802856,-0.411754310131073,-1.1864514350891113,1.287513017654419,0.6733060479164124,-0.017989657819271088,0.5311692357063293
9.534486532211304,-0.411754310131073,-1.1864514350891113,1.287513017654419,0.6733060479164124,-0.017989657819271088,0.5311692357063293
9.554587841033936,-0.41436487436294556,-1.1760149002075195,1.2912733554840088,0.6745926737785339,-0.017816446721553802,0.5293591618537903
9.574648380279541,-0.41436487436294556,-1.1760149002075195,1.2912733554840088,0.6745926737785339,-0.017816446721553802,0.5293591618537903
9.59478235244751,-0.41371768712997437,-1.1739927530288696,1.292380928993225,0.6752973198890686,-0.017043083906173706,0.5289643406867981
9.614799737930298,-0.40974968671798706,-1.1780987977981567,1.2918884754180908,0.6751862168312073,-0.014225556515157223,0.5302004218101501
9.63488483428955,-0.40974968671798706,-1.1780987977981567,1.2918884754180908,0.6751862168312073,-0.014225556515157223,0.5302004218101501
9.654950857162476,-0.4106419086456299,-1.1785593032836914,1.293882966041565,0.6750310063362122,-0.014648406766355038,0.530606210231781
9.675024509429932,-0.4106419086456299,-1.1785593032836914,1.293882966041565,0.6750310063362122,-0.014648406766355038,0.530606210231781
9.695098638534546,-0.41012686491012573,-1.1832001209259033,1.2920477390289307,0.6747203469276428,-0.015335372649133205,0.5314863920211792
9.71517014503479,-0.41012686491012573,-1.1832001209259033,1.2920477390289307,0.6747203469276428,-0.015335372649133205,0.5314863920211792
9.73524522781372,-0.4101989269256592,-1.1847602128982544,1.291987419128418,0.6745560765266418,-0.01636318862438202,0.531866729259491
9.755311012268066,-0.40970200300216675,-1.1816215515136719,1.2946078777313232,0.6750825643539429,-0.012982225976884365,0.5310749411582947
9.775387525558472,-0.40970200300216675,-1.1816215515136719,1.2946078777313232,0.6750825643539429,-0.012982225976884365,0.5310749411582947
9.795459032058716,-0.4074377417564392,-1.1882941722869873,1.2926688194274902,0.6747165322303772,-0.012942089699208736,0.5326602458953857
9.8155038356781,-0.4074377417564392,-1.1882941722869873,1.2926688194274902,0.6747165322303772,-0.012942089699208736,0.5326602458953857
9.835609674453735,-0.40675652027130127,-1.1919724941253662,1.2927215099334717,0.6738215088844299,-0.012989371083676815,0.5342321395874023
9.85559344291687,-0.4072834849357605,-1.1909857988357544,1.2940598726272583,0.6736997961997986,-0.01154900249093771,0.533738374710083
9.875693798065186,-0.4072834849357605,-1.1909857988357544,1.2940598726272583,0.6736997961997986,-0.01154900249093771,0.533738374710083
9.895761013031006,-0.407356858253479,-1.1944996118545532,1.2924821376800537,0.6738734245300293,-0.012967727147042751,0.5344476103782654
9.915830850601196,-0.407356858253479,-1.1944996118545532,1.2924821376800537,0.6738734245300293,-0.012967727147042751,0.5344476103782654
9.935898780822754,-0.40355056524276733,-1.1988155841827393,1.2922563552856445,0.6733729243278503,-0.008101924322545528,0.5350241661071777
9.955971240997314,-0.40355056524276733,-1.1988155841827393,1.2922563552856445,0.6733729243278503,-0.008101924322545528,0.5350241661071777
9.976055383682251,-0.40656131505966187,-1.1928861141204834,1.2953746318817139,0.6740579009056091,-0.009317516349256039,0.5340695977210999
9.996123790740967,-0.4061492085456848,-1.1948403120040894,1.2949798107147217,0.6743960976600647,-0.008762403391301632,0.5339475274085999
10.016244649887085,-0.4061492085456848,-1.1948403120040894,1.2949798107147217,0.6743960976600647,-0.008762403391301632,0.5339475274085999
10.036305665969849,-0.4043852686882019,-1.1974693536758423,1.2944536209106445,0.6742530465126038,-0.007694988511502743,0.5346556305885315
10.056411027908325,-0.4043852686882019,-1.1974693536758423,1.2944536209106445,0.6742530465126038,-0.007694988511502743,0.5346556305885315
10.076470136642456,-0.4056664705276489,-1.1940854787826538,1.2975624799728394,0.674975574016571,-0.008256628178060055,0.5340726971626282
10.09655213356018,-0.4056664705276489,-1.1940854787826538,1.2975624799728394,0.674975574016571,-0.008256628178060055,0.5340726971626282
10.116620302200317,-0.40308505296707153,-1.1977952718734741,1.2966911792755127,0.6747990250587463,-0.00560570415109396,0.5347207188606262
10.136667728424072,-0.40444886684417725,-1.1969982385635376,1.2980389595031738,0.6746343374252319,-0.00651033129543066,0.5347747206687927
10.156746625900269,-0.40444886684417725,-1.1969982385635376,1.2980389595031738,0.6746343374252319,-0.00651033129543066,0.5347747206687927
10.176822185516357,-0.40380173921585083,-1.2002702951431274,1.2967712879180908,0.6741805076599121,-0.006594694219529629,0.5355746150016785
10.196889638900757,-0.40380173921585083,-1.2002702951431274,1.2967712879180908,0.6741805076599121,-0.006594694219529629,0.5355746150016785
10.216963768005371,-0.4030466079711914,-1.2057178020477295,1.2942283153533936,0.674025297164917,-0.00782699789851904,0.5369249582290649
10.237006425857544,-0.40258491039276123,-1.2070540189743042,1.2958056926727295,0.6738156080245972,-0.005167326889932156,0.5366654396057129
10.257089376449585,-0.40258491039276123,-1.2070540189743042,1.2958056926727295,0.6738156080245972,-0.005167326889932156,0.5366654396057129
10.277190923690796,-0.4011881947517395,-1.2039417028427124,1.297668695449829,0.6743440628051758,-0.0016628419980406761,0.536250650882721
10.297298192977905,-0.4011881947517395,-1.2039417028427124,1.297668695449829,0.6743440628051758,-0.0016628419980406761,0.536250650882721
10.317445039749146,-0.4011628031730652,-1.210693597793579,1.2946408987045288,0.6739668250083923,-0.004613942466676235,0.5379431843757629
10.337530136108398,-0.4011628031730652,-1.210693597793579,1.2946408987045288,0.6739668250083923,-0.004613942466676235,0.5379431843757629
10.357614278793335,-0.4007374048233032,-1.2070484161376953,1.298241376876831,0.674117386341095,-0.0021044155582785606,0.5368902683258057
10.377615690231323,-0.40268999338150024,-1.1998428106307983,1.3014144897460938,0.675383985042572,-0.0016830703243613243,0.5358211398124695
10.397703886032104,-0.40268999338150024,-1.1998428106307983,1.3014144897460938,0.675383985042572,-0.0016830703243613243,0.5358211398124695
10.417761087417603,-0.40263181924819946,-1.1959846019744873,1.3043508529663086,0.6756402850151062,0.0003192434087395668,0.5348864197731018
10.437833070755005,-0.40263181924819946,-1.1959846019744873,1.3043508529663086,0.6756402850151062,0.0003192434087395668,0.5348864197731018
10.457902669906616,-0.4012032151222229,-1.1984381675720215,1.30419921875,0.6761950850486755,0.0006934488192200661,0.5355671048164368
10.477970600128174,-0.4012032151222229,-1.1984381675720215,1.30419921875,0.6761950850486755,0.0006934488192200661,0.5355671048164368
10.498109102249146,-0.39983493089675903,-1.203635811805725,1.30256187915802,0.6759676337242126,0.0005030715838074684,0.5366178154945374
10.518107652664185,-0.39864712953567505,-1.2124148607254028,1.2996156215667725,0.6748867630958557,-0.00043940450996160507,0.5386598110198975
10.538201570510864,-0.39864712953567505,-1.2124148607254028,1.2996156215667725,0.6748867630958557,-0.00043940450996160507,0.5386598110198975
10.558291673660278,0.22219009697437286,-0.6461194753646851,1.1700778007507324,-0.5158578157424927,0.15783138573169708,-0.5176973342895508
10.578356266021729,0.22219009697437286,-0.6461194753646851,1.1700778007507324,-0.5158578157424927,0.15783138573169708,-0.5176973342895508
10.59842848777771,0.2527031898498535,-0.2715221345424652,1.1907364130020142,-0.41036564111709595,0.1873529702425003,-0.5078036785125732
10.618508100509644,0.2527031898498535,-0.2715221345424652,1.1907364130020142,-0.41036564111709595,0.1873529702425003,-0.5078036785125732
10.638680696487427,0.2652822732925415,-0.23515908420085907,1.1484702825546265,-0.4226149618625641,0.18087059259414673,-0.5239152908325195
10.65866756439209,0.26729708909988403,-0.2288055717945099,1.1424076557159424,-0.42149731516838074,0.1802114099264145,-0.5256800055503845
10.678805112838745,0.26729708909988403,-0.2288055717945099,1.1424076557159424,-0.42149731516838074,0.1802114099264145,-0.5256800055503845
10.69887924194336,0.26789605617523193,-0.22819967567920685,1.1406142711639404,-0.42141497135162354,0.18049749732017517,-0.5260566473007202
10.7190420627594,0.26789605617523193,-0.22819967567920685,1.1406142711639404,-0.42141497135162354,0.18049749732017517,-0.5260566473007202
10.73910927772522,0.26812779903411865,-0.2279415875673294,1.1409865617752075,-0.42123597860336304,0.18051844835281372,-0.5261635780334473
10.75916838645935,0.26821762323379517,-0.22902897000312805,1.1400213241577148,-0.4214930236339569,0.1810949742794037,-0.5259873867034912
10.779247283935547,0.26821762323379517,-0.22902897000312805,1.1400213241577148,-0.4214930236339569,0.1810949742794037,-0.5259873867034912
10.799326181411743,0.2681776285171509,-0.23056358098983765,1.1404898166656494,-0.4217261075973511,0.18115918338298798,-0.5258619785308838
10.819400787353516,0.2681776285171509,-0.23056358098983765,1.1404898166656494,-0.4217261075973511,0.18115918338298798,-0.5258619785308838
10.839588165283203,0.26811665296554565,-0.23217609524726868,1.1402709484100342,-0.42183366417884827,0.18162398040294647,-0.5258041620254517
10.85975980758667,0.26811665296554565,-0.23217609524726868,1.1402709484100342,-0.42183366417884827,0.18162398040294647,-0.5258041620254517
10.879759788513184,0.26815032958984375,-0.23160366714000702,1.1407558917999268,-0.4217716157436371,0.18133987486362457,-0.5257651209831238
10.899807453155518,0.26823359727859497,-0.23273314535617828,1.1409358978271484,-0.42190980911254883,0.18154187500476837,-0.5257301926612854
10.919891119003296,0.26823359727859497,-0.23273314535617828,1.1409358978271484,-0.42190980911254883,0.18154187500476837,-0.5257301926612854
10.939964294433594,0.26820772886276245,-0.23474280536174774,1.1396570205688477,-0.4223232567310333,0.18259407579898834,-0.5253185629844666
10.960036277770996,0.26820772886276245,-0.23474280536174774,1.1396570205688477,-0.4223232567310333,0.18259407579898834,-0.5253185629844666
10.980125904083252,0.2682221531867981,-0.23732919991016388,1.139841079711914,-0.42268607020378113,0.18320727348327637,-0.5250247120857239
11.000191688537598,0.2682221531867981,-0.23732919991016388,1.139841079711914,-0.42268607020378113,0.18320727348327637,-0.5250247120857239
11.020251274108887,0.26795077323913574,-0.23617462813854218,1.1403582096099854,-0.4224027991294861,0.18243558704853058,-0.5251367092132568
11.040338039398193,0.26805931329727173,-0.23655270040035248,1.1407170295715332,-0.42247918248176575,0.18210841715335846,-0.5254036784172058
11.060435056686401,0.26805931329727173,-0.23655270040035248,1.1407170295715332,-0.42247918248176575,0.18210841715335846,-0.5254036784172058
11.080522060394287,0.26806074380874634,-0.23719456791877747,1.1404764652252197,-0.4225616455078125,0.18209172785282135,-0.52520352602005
11.100639581680298,0.26806074380874634,-0.23719456791877747,1.1404764652252197,-0.4225616455078125,0.18209172785282135,-0.52520352602005
11.120716333389282,0.2680131196975708,-0.2409011423587799,1.138855218887329,-0.4230288863182068,0.18386061489582062,-0.5246886014938354
11.140794277191162,0.2680131196975708,-0.2409011423587799,1.138855218887329,-0.4230288863182068,0.18386061489582062,-0.5246886014938354
11.16094446182251,0.2674484848976135,-0.24150043725967407,1.13871431350708,-0.42295485734939575,0.18289123475551605,-0.5244293808937073
11.180946588516235,0.26744478940963745,-0.24255385994911194,1.1407376527786255,-0.42297032475471497,0.1826765537261963,-0.5248141884803772
11.201028823852539,0.26744478940963745,-0.24255385994911194,1.1407376527786255,-0.42297032475471497,0.1826765537261963,-0.5248141884803772
11.221116542816162,0.267500638961792,-0.2424612194299698,1.1403127908706665,-0.42286667227745056,0.18259011209011078,-0.5249472856521606
11.24117112159729,0.267500638961792,-0.2424612194299698,1.1403127908706665,-0.42286667227745056,0.18259011209011078,-0.5249472856521606
11.261307954788208,0.2673115134239197,-0.24312108755111694,1.1397137641906738,-0.42285168170928955,0.18270243704319,-0.5249865055084229
11.281320810317993,0.2672271728515625,-0.2432331144809723,1.1401808261871338,-0.4229208827018738,0.1822599321603775,-0.5249602198600769
11.301413297653198,0.2672271728515625,-0.2432331144809723,1.1401808261871338,-0.4229208827018738,0.1822599321603775,-0.5249602198600769
11.321476936340332,0.2672475576400757,-0.24416419863700867,1.140160322189331,-0.4229840636253357,0.1823868304491043,-0.5250139832496643
11.34154987335205,0.2672475576400757,-0.24416419863700867,1.140160322189331,-0.4229840636253357,0.1823868304491043,-0.5250139832496643
11.361626386642456,0.26717567443847656,-0.24622343480587006,1.1401546001434326,-0.4232242703437805,0.183280348777771,-0.5248648524284363
11.381736993789673,0.26717567443847656,-0.24622343480587006,1.1401546001434326,-0.4232242703437805,0.183280348777771,-0.5248648524284363
11.401831865310669,0.26730483770370483,-0.24802736937999725,1.1402347087860107,-0.42341992259025574,0.18399439752101898,-0.5245665907859802
11.421861410140991,0.26723217964172363,-0.2498515546321869,1.1399047374725342,-0.42385271191596985,0.18424092233181,-0.5242438316345215
11.44193434715271,0.26723217964172363,-0.2498515546321869,1.1399047374725342,-0.42385271191596985,0.18424092233181,-0.5242438316345215
11.462010145187378,0.2671769857406616,-0.2509668469429016,1.140836238861084,-0.4240124523639679,0.18371516466140747,-0.524076521396637
11.482080698013306,0.2671769857406616,-0.2509668469429016,1.140836238861084,-0.4240124523639679,0.18371516466140747,-0.524076521396637
11.502191305160522,0.26690155267715454,-0.2510243356227875,1.14106285572052,-0.4239942133426666,0.18303537368774414,-0.5241092443466187
11.522211074829102,0.2667044401168823,-0.25173550844192505,1.1406877040863037,-0.4240413308143616,0.18308180570602417,-0.5241209268569946
11.542294979095459,0.2667044401168823,-0.25173550844192505,1.1406877040863037,-0.4240413308143616,0.18308180570602417,-0.5241209268569946
11.562359094619751,0.2662264108657837,-0.25223228335380554,1.140429139137268,-0.4241992235183716,0.18294472992420197,-0.5240913033485413
11.582501411437988,0.2662264108657837,-0.25223228335380554,1.140429139137268,-0.4241992235183716,0.18294472992420197,-0.5240913033485413
11.60254168510437,0.26623982191085815,-0.2544189691543579,1.1401718854904175,-0.4245452880859375,0.18353788554668427,-0.5239514112472534
11.622639417648315,0.26623982191085815,-0.2544189691543579,1.1401718854904175,-0.4245452880859375,0.18353788554668427,-0.5239514112472534
11.642857789993286,0.26612257957458496,-0.2542784810066223,1.139757513999939,-0.42448607087135315,0.18374548852443695,-0.5237939357757568
11.662896871566772,0.2662232518196106,-0.25377321243286133,1.1397366523742676,-0.4245305061340332,0.18335957825183868,-0.5239521265029907
11.682970523834229,0.2662232518196106,-0.25377321243286133,1.1397366523742676,-0.4245305061340332,0.18335957825183868,-0.5239521265029907
11.703042984008789,0.2663659453392029,-0.2555603086948395,1.1401853561401367,-0.4248230457305908,0.18375656008720398,-0.523794949054718
11.723113059997559,0.2663659453392029,-0.2555603086948395,1.1401853561401367,-0.4248230457305908,0.18375656008720398,-0.523794949054718
11.743181943893433,0.2662014365196228,-0.25723397731781006,1.140755295753479,-0.42502906918525696,0.18353644013404846,-0.523465096950531
11.763323783874512,0.2662014365196228,-0.25723397731781006,1.140755295753479,-0.42502906918525696,0.18353644013404846,-0.523465096950531
11.783419847488403,0.2654779553413391,-0.25801360607147217,1.141340732574463,-0.4251832664012909,0.18256156146526337,-0.5233135223388672
11.803436040878296,0.2654910087585449,-0.259141743183136,1.1411807537078857,-0.42568278312683105,0.18251167237758636,-0.5231956243515015
11.823529481887817,0.2654910087585449,-0.259141743183136,1.1411807537078857,-0.42568278312683105,0.18251167237758636,-0.5231956243515015
11.843615770339966,0.26508569717407227,-0.26149654388427734,1.1398894786834717,-0.42596307396888733,0.18393559753894806,-0.522885262966156
11.863677740097046,0.26508569717407227,-0.26149654388427734,1.1398894786834717,-0.42596307396888733,0.18393559753894806,-0.522885262966156
11.883790969848633,0.26507294178009033,-0.2621558904647827,1.1392204761505127,-0.4259359538555145,0.1843622773885727,-0.5228132605552673
11.903935194015503,0.26523250341415405,-0.2621172070503235,1.1397602558135986,-0.42581823468208313,0.18391601741313934,-0.5229806303977966
11.924022674560547,0.26523250341415405,-0.2621172070503235,1.1397602558135986,-0.42581823468208313,0.18391601741313934,-0.5229806303977966
11.944085359573364,0.26539838314056396,-0.26284259557724,1.140220284461975,-0.4258277416229248,0.18368206918239594,-0.523198664188385
11.96415376663208,0.26539838314056396,-0.26284259557724,1.140220284461975,-0.4258277416229248,0.18368206918239594,-0.523198664188385
11.98422360420227,0.26532942056655884,-0.2644103765487671,1.1397650241851807,-0.4260087311267853,0.18417420983314514,-0.5230175852775574
12.004313230514526,0.26532942056655884,-0.2644103765487671,1.1397650241851807,-0.4260087311267853,0.18417420983314514,-0.5230175852775574
12.024415016174316,0.2654815912246704,-0.2657932937145233,1.1399823427200317,-0.42613527178764343,0.1846841424703598,-0.522855818271637
12.044463872909546,0.2652965784072876,-0.26642581820487976,1.140350341796875,-0.42625680565834045,0.1841302365064621,-0.5226503610610962
12.064545631408691,0.2652965784072876,-0.26642581820487976,1.140350341796875,-0.42625680565834045,0.1841302365064621,-0.5226503610610962
12.084606409072876,0.2652604579925537,-0.2661241292953491,1.1403367519378662,-0.42607051134109497,0.18405242264270782,-0.5227301716804504
12.104673624038696,0.2652604579925537,-0.2661241292953491,1.1403367519378662,-0.42607051134109497,0.18405242264270782,-0.5227301716804504
12.124745607376099,0.26503241062164307,-0.268679141998291,1.1404132843017578,-0.42662301659584045,0.18404673039913177,-0.5227136015892029
12.14481520652771,0.26503241062164307,-0.268679141998291,1.1404132843017578,-0.42662301659584045,0.18404673039913177,-0.5227136015892029
12.16488003730774,0.26483285427093506,-0.27059701085090637,1.1410126686096191,-0.4265413284301758,0.18400982022285461,-0.5225314497947693
12.184946060180664,0.26489490270614624,-0.2702757716178894,1.1408989429473877,-0.4265071451663971,0.18390364944934845,-0.5225427150726318
12.205018997192383,0.26489490270614624,-0.2702757716178894,1.1408989429473877,-0.4265071451663971,0.18390364944934845,-0.5225427150726318
12.225089311599731,0.2647268772125244,-0.2711086869239807,1.1406545639038086,-0.42675891518592834,0.18388254940509796,-0.5223769545555115
12.245156049728394,0.2647268772125244,-0.2711086869239807,1.1406545639038086,-0.42675891518592834,0.18388254940509796,-0.5223769545555115
12.265228748321533,0.2646535634994507,-0.27275627851486206,1.1409616470336914,-0.42701321840286255,0.18402227759361267,-0.5222073793411255
12.285492420196533,0.2643558382987976,-0.27434390783309937,1.1399908065795898,-0.4274230897426605,0.1846667379140854,-0.5220254063606262
12.305593490600586,0.2643558382987976,-0.27434390783309937,1.1399908065795898,-0.4274230897426605,0.1846667379140854,-0.5220254063606262
12.325660228729248,0.2643067240715027,-0.27595821022987366,1.1388062238693237,-0.42763033509254456,0.1852855533361435,-0.5216849446296692
12.34575867652893,0.2643067240715027,-0.27595821022987366,1.1388062238693237,-0.42763033509254456,0.1852855533361435,-0.5216849446296692
12.365840673446655,0.2639008164405823,-0.2761310636997223,1.1397125720977783,-0.4275486171245575,0.18427631258964539,-0.5216204524040222
12.385887622833252,0.2639008164405823,-0.2761310636997223,1.1397125720977783,-0.4275486171245575,0.18427631258964539,-0.5216204524040222
12.406025171279907,0.2640644907951355,-0.2772930860519409,1.140140175819397,-0.42786481976509094,0.18494853377342224,-0.5216695666313171
12.42603087425232,0.263833224773407,-0.2788234353065491,1.1400339603424072,-0.4281946122646332,0.18504688143730164,-0.5214118361473083
12.44611406326294,0.263833224773407,-0.2788234353065491,1.1400339603424072,-0.4281946122646332,0.18504688143730164,-0.5214118361473083
12.466206312179565,0.2638133764266968,-0.2787075638771057,1.1401277780532837,-0.42817944288253784,0.1846124231815338,-0.521328866481781
12.486264705657959,0.2638133764266968,-0.2787075638771057,1.1401277780532837,-0.42817944288253784,0.1846124231815338,-0.521328866481781
12.506330966949463,0.2638821601867676,-0.28017687797546387,1.1404812335968018,-0.4283922612667084,0.18471351265907288,-0.5212436318397522
12.526398658752441,0.2638821601867676,-0.28017687797546387,1.1404812335968018,-0.4283922612667084,0.18471351265907288,-0.5212436318397522
12.54645824432373,0.2636505961418152,-0.2802688181400299,1.1403586864471436,-0.428398460149765,0.18455630540847778,-0.5213498473167419
12.566522598266602,0.2633565664291382,-0.28204086422920227,1.1395107507705688,-0.42875638604164124,0.18427740037441254,-0.5211716294288635
12.586640357971191,0.2633565664291382,-0.28204086422920227,1.1395107507705688,-0.42875638604164124,0.18427740037441254,-0.5211716294288635
12.606687545776367,0.2629544138908386,-0.2815818190574646,1.140836238861084,-0.4285046458244324,0.18318815529346466,-0.5213492512702942
12.626753568649292,0.2629544138908386,-0.2815818190574646,1.140836238861084,-0.4285046458244324,0.18318815529346466,-0.5213492512702942
12.646884441375732,0.263145387172699,-0.28353559970855713,1.1412708759307861,-0.4288594424724579,0.1837628334760666,-0.5213881731033325
12.666884422302246,0.2631070613861084,-0.28386545181274414,1.1402876377105713,-0.428923100233078,0.1842069923877716,-0.5212181806564331
12.68696928024292,0.2631070613861084,-0.28386545181274414,1.1402876377105713,-0.428923100233078,0.1842069923877716,-0.5212181806564331
12.707083225250244,0.2630475163459778,-0.2855917811393738,1.1398195028305054,-0.4291607439517975,0.18496687710285187,-0.5209953188896179
12.727128267288208,0.2630475163459778,-0.2855917811393738,1.1398195028305054,-0.4291607439517975,0.18496687710285187,-0.5209953188896179
12.747197389602661,0.2628975510597229,-0.2889364957809448,1.1374835968017578,-0.429777055978775,0.18630550801753998,-0.5202637910842896
12.767279148101807,0.2628975510597229,-0.2889364957809448,1.1374835968017578,-0.429777055978775,0.18630550801753998,-0.5202637910842896
12.787345886230469,0.26264452934265137,-0.2888592779636383,1.1393065452575684,-0.4294407367706299,0.18514397740364075,-0.5203067660331726
12.807401418685913,0.26231884956359863,-0.28985893726348877,1.1399157047271729,-0.42955249547958374,0.18496863543987274,-0.5206319093704224
12.827513933181763,0.26231884956359863,-0.28985893726348877,1.1399157047271729,-0.42955249547958374,0.18496863543987274,-0.5206319093704224
12.847555160522461,0.2623845934867859,-0.2910826802253723,1.1405258178710938,-0.4295690357685089,0.1846439093351364,-0.5206449031829834
12.867646217346191,0.2623845934867859,-0.2910826802253723,1.1405258178710938,-0.4295690357685089,0.1846439093351364,-0.5206449031829834
12.887697458267212,0.2620463967323303,-0.2944354712963104,1.1390979290008545,-0.43022504448890686,0.1855991929769516,-0.5199481844902039
12.908216953277588,0.2620463967323303,-0.2944354712963104,1.1390979290008545,-0.43022504448890686,0.1855991929769516,-0.5199481844902039
12.928286075592041,0.2622312903404236,-0.29357218742370605,1.1408710479736328,-0.4302193820476532,0.1849379986524582,-0.5200889706611633
12.948343515396118,0.2621999979019165,-0.2949526906013489,1.140688180923462,-0.4304450750350952,0.1851755976676941,-0.5201385617256165
12.9684579372406,0.2621999979019165,-0.2949526906013489,1.140688180923462,-0.4304450750350952,0.1851755976676941,-0.5201385617256165
12.988529443740845,0.26214122772216797,-0.29536423087120056,1.1400439739227295,-0.43050166964530945,0.18549136817455292,-0.5200398564338684
13.008597135543823,0.26214122772216797,-0.29536423087120056,1.1400439739227295,-0.43050166964530945,0.18549136817455292,-0.5200398564338684
13.028672456741333,0.2621147632598877,-0.2958458662033081,1.139498233795166,-0.43053075671195984,0.1858515739440918,-0.5199083685874939
13.048722982406616,0.2622183561325073,-0.29763269424438477,1.1400227546691895,-0.43077000975608826,0.18599434196949005,-0.5199064612388611
13.068832635879517,0.2622183561325073,-0.29763269424438477,1.1400227546691895,-0.43077000975608826,0.18599434196949005,-0.5199064612388611
13.088903188705444,0.26189059019088745,-0.2984110713005066,1.139312505722046,-0.43089959025382996,0.1861492544412613,-0.5196405053138733
13.10906195640564,0.26189059019088745,-0.2984110713005066,1.139312505722046,-0.43089959025382996,0.1861492544412613,-0.5196405053138733
13.129092454910278,0.26180607080459595,-0.30061036348342896,1.1401913166046143,-0.4313443601131439,0.185575470328331,-0.5195041298866272
13.149224519729614,0.26180607080459595,-0.30061036348342896,1.1401913166046143,-0.4313443601131439,0.185575470328331,-0.5195041298866272
13.169299840927124,0.26196151971817017,-0.2998976409435272,1.1401736736297607,-0.431157648563385,0.18550340831279755,-0.5194781422615051
13.189344644546509,0.26178157329559326,-0.3028205633163452,1.1389669179916382,-0.4316566288471222,0.1866280436515808,-0.5192265510559082
13.20943808555603,0.26178157329559326,-0.3028205633163452,1.1389669179916382,-0.4316566288471222,0.1866280436515808,-0.5192265510559082
13.229524612426758,0.2617771625518799,-0.3033038377761841,1.139937400817871,-0.43178489804267883,0.1860751062631607,-0.5189720392227173
13.249599695205688,0.2617771625518799,-0.3033038377761841,1.139937400817871,-0.43178489804267883,0.1860751062631607,-0.5189720392227173
13.269700288772583,0.26118552684783936,-0.30544379353523254,1.1391627788543701,-0.43198728561401367,0.1856837123632431,-0.5186585783958435
13.289767026901245,0.26118552684783936,-0.30544379353523254,1.1391627788543701,-0.43198728561401367,0.1856837123632431,-0.5186585783958435
13.309885740280151,0.2612025737762451,-0.3053838014602661,1.1397335529327393,-0.4321463406085968,0.1861756443977356,-0.5188757181167603
13.32994818687439,0.26070016622543335,-0.30448633432388306,1.140689492225647,-0.43177977204322815,0.18481916189193726,-0.5190767049789429
13.350008249282837,0.26070016622543335,-0.30448633432388306,1.140689492225647,-0.43177977204322815,0.18481916189193726,-0.5190767049789429
13.370172262191772,0.26071274280548096,-0.3061281442642212,1.1395068168640137,-0.4321405589580536,0.18524697422981262,-0.5190492272377014
13.390257120132446,0.26071274280548096,-0.3061281442642212,1.1395068168640137,-0.4321405589580536,0.18524697422981262,-0.5190492272377014
13.410309314727783,0.2604570984840393,-0.3098369836807251,1.1379971504211426,-0.43276074528694153,0.18660129606723785,-0.5184372067451477
13.430510520935059,0.2604566812515259,-0.309348464012146,1.1402060985565186,-0.4326266348361969,0.1858682632446289,-0.5186128616333008
13.45059847831726,0.2604566812515259,-0.309348464012146,1.1402060985565186,-0.4326266348361969,0.1858682632446289,-0.5186128616333008
13.470761775970459,0.2604740858078003,-0.3124207854270935,1.140221357345581,-0.43309229612350464,0.18669100105762482,-0.5182941555976868
13.490823030471802,0.2604740858078003,-0.3124207854270935,1.140221357345581,-0.43309229612350464,0.18669100105762482,-0.5182941555976868
13.510958194732666,0.26029831171035767,-0.3128539025783539,1.140748143196106,-0.43327414989471436,0.1861087530851364,-0.5181589722633362
13.530993461608887,0.26029831171035767,-0.3128539025783539,1.140748143196106,-0.43327414989471436,0.1861087530851364,-0.5181589722633362
13.551103115081787,0.26032429933547974,-0.31343764066696167,1.1402852535247803,-0.43343400955200195,0.186271533370018,-0.5181388258934021
13.57112193107605,0.2599828839302063,-0.31399762630462646,1.1397795677185059,-0.43330538272857666,0.186030775308609,-0.5180791020393372
13.591202735900879,0.2599828839302063,-0.31399762630462646,1.1397795677185059,-0.43330538272857666,0.186030775308609,-0.5180791020393372
13.611270666122437,0.2597082257270813,-0.31412577629089355,1.1396163702011108,-0.43342676758766174,0.18542563915252686,-0.5181024670600891
13.631371259689331,0.2597082257270813,-0.31412577629089355,1.1396163702011108,-0.43342676758766174,0.18542563915252686,-0.5181024670600891
13.651435613632202,0.25946974754333496,-0.3154168725013733,1.1397082805633545,-0.43371403217315674,0.18519559502601624,-0.5181239247322083
13.671497821807861,0.25946974754333496,-0.3154168725013733,1.1397082805633545,-0.43371403217315674,0.18519559502601624,-0.5181239247322083
13.691573858261108,0.2593017816543579,-0.3175547122955322,1.1392803192138672,-0.4339660108089447,0.18628789484500885,-0.5178610682487488
13.711601734161377,0.25938206911087036,-0.31980398297309875,1.1396746635437012,-0.4344656765460968,0.18651925027370453,-0.5175338983535767
13.731725692749023,0.25938206911087036,-0.31980398297309875,1.1396746635437012,-0.4344656765460968,0.18651925027370453,-0.5175338983535767
13.751773595809937,0.2592020034790039,-0.32046300172805786,1.1396517753601074,-0.4344167113304138,0.18637403845787048,-0.5174700617790222
13.77184247970581,0.2592020034790039,-0.32046300172805786,1.1396517753601074,-0.4344167113304138,0.18637403845787048,-0.5174700617790222
13.79193115234375,0.2592819929122925,-0.3216515779495239,1.139735460281372,-0.43457359075546265,0.18665911257266998,-0.5174294114112854
13.81200098991394,0.2592819929122925,-0.3216515779495239,1.139735460281372,-0.43457359075546265,0.18665911257266998,-0.5174294114112854
13.832057237625122,0.25926685333251953,-0.3220888674259186,1.1394211053848267,-0.43456435203552246,0.18677042424678802,-0.5174310207366943
13.852192640304565,0.25865501165390015,-0.32336050271987915,1.1390278339385986,-0.4346226155757904,0.18573065102100372,-0.5170462131500244
13.872222423553467,0.25865501165390015,-0.32336050271987915,1.1390278339385986,-0.4346226155757904,0.18573065102100372,-0.5170462131500244
13.892290353775024,0.2581787705421448,-0.32435864210128784,1.1394352912902832,-0.434760719537735,0.18571977317333221,-0.5171260237693787
13.912358283996582,0.2581787705421448,-0.32435864210128784,1.1394352912902832,-0.434760719537735,0.18571977317333221,-0.5171260237693787
13.932430028915405,0.257993221282959,-0.3250132203102112,1.1395913362503052,-0.43488606810569763,0.18551619350910187,-0.5174248218536377
13.95249056816101,0.25798559188842773,-0.3289485275745392,1.1390973329544067,-0.4354502260684967,0.18695349991321564,-0.5169355273246765
13.972605228424072,0.25798559188842773,-0.3289485275745392,1.1390973329544067,-0.4354502260684967,0.18695349991321564,-0.5169355273246765
13.992654085159302,0.25806546211242676,-0.32911252975463867,1.1391178369522095,-0.43540793657302856,0.18707406520843506,-0.5167287588119507
14.01272177696228,0.25806546211242676,-0.32911252975463867,1.1391178369522095,-0.43540793657302856,0.18707406520843506,-0.5167287588119507
14.0327889919281,0.2581629157066345,-0.33056992292404175,1.1389620304107666,-0.4357397258281708,0.18745699524879456,-0.516571044921875
14.052901268005371,0.2581629157066345,-0.33056992292404175,1.1389620304107666,-0.4357397258281708,0.18745699524879456,-0.516571044921875
14.07295846939087,0.2578967809677124,-0.33293354511260986,1.1383676528930664,-0.4360451102256775,0.18786723911762238,-0.5162699818611145
14.093015909194946,0.25782710313796997,-0.3325970470905304,1.1383442878723145,-0.435874342918396,0.1874755620956421,-0.5161960124969482
14.113107681274414,0.25782710313796997,-0.3325970470905304,1.1383442878723145,-0.435874342918396,0.1874755620956421,-0.5161960124969482
14.133175611495972,0.25763773918151855,-0.3327159881591797,1.1390615701675415,-0.43606436252593994,0.1864883452653885,-0.5163054466247559
14.153247356414795,0.25763773918151855,-0.3327159881591797,1.1390615701675415,-0.43606436252593994,0.1864883452653885,-0.5163054466247559
14.173418283462524,0.2577429413795471,-0.33460333943367004,1.1391581296920776,-0.43639126420021057,0.18675760924816132,-0.5162617564201355
14.193427085876465,0.2577429413795471,-0.33460333943367004,1.1391581296920776,-0.43639126420021057,0.18675760924816132,-0.5162617564201355
14.213501214981079,0.25734639167785645,-0.33710092306137085,1.1382832527160645,-0.4368031919002533,0.18747271597385406,-0.515799880027771
14.233545780181885,0.25708889961242676,-0.33880794048309326,1.1385055780410767,-0.4370328187942505,0.1876835823059082,-0.5155982375144958
14.253679513931274,0.25708889961242676,-0.33880794048309326,1.1385055780410767,-0.4370328187942505,0.1876835823059082,-0.5155982375144958
14.273754835128784,0.2571750283241272,-0.34019291400909424,1.140246868133545,-0.43728920817375183,0.18716207146644592,-0.5156418681144714
14.293790817260742,0.2571750283241272,-0.34019291400909424,1.140246868133545,-0.43728920817375183,0.18716207146644592,-0.5156418681144714
14.313882827758789,0.2573380470275879,-0.3402499258518219,1.1397110223770142,-0.43705734610557556,0.1874692291021347,-0.5156956315040588
14.33391809463501,0.2572784423828125,-0.34217721223831177,1.1384871006011963,-0.4373445510864258,0.1879894733428955,-0.5153284668922424
14.353998899459839,0.2572784423828125,-0.34217721223831177,1.1384871006011963,-0.4373445510864258,0.1879894733428955,-0.5153284668922424
14.374214887619019,0.2569392919540405,-0.3430112898349762,1.1387991905212402,-0.43756726384162903,0.18757419288158417,-0.5151607394218445
14.394261360168457,0.2569392919540405,-0.3430112898349762,1.1387991905212402,-0.43756726384162903,0.18757419288158417,-0.5151607394218445
14.414431810379028,0.25697070360183716,-0.3433840274810791,1.1394860744476318,-0.43763965368270874,0.1873682588338852,-0.5154014229774475
14.434486865997314,0.25697070360183716,-0.3433840274810791,1.1394860744476318,-0.43763965368270874,0.1873682588338852,-0.5154014229774475
14.454542398452759,0.2567217946052551,-0.34363195300102234,1.1394177675247192,-0.43745437264442444,0.18742801249027252,-0.5154675245285034
14.474603176116943,0.2566695213317871,-0.34682145714759827,1.1374396085739136,-0.438131719827652,0.18870946764945984,-0.5150018334388733
14.494683742523193,0.2566695213317871,-0.34682145714759827,1.1374396085739136,-0.438131719827652,0.18870946764945984,-0.5150018334388733
14.51475477218628,0.25613731145858765,-0.34741514921188354,1.1372885704040527,-0.4380301237106323,0.18761257827281952,-0.5145753026008606
14.534830093383789,0.25613731145858765,-0.34741514921188354,1.1372885704040527,-0.4380301237106323,0.18761257827281952,-0.5145753026008606
14.554898023605347,0.2562466263771057,-0.34769123792648315,1.1387336254119873,-0.4383094310760498,0.1875079721212387,-0.5150316953659058
14.574994087219238,0.2562466263771057,-0.34769123792648315,1.1387336254119873,-0.4383094310760498,0.1875079721212387,-0.5150316953659058
14.595072031021118,0.25578683614730835,-0.34971922636032104,1.1385018825531006,-0.43837225437164307,0.18744789063930511,-0.5148178935050964
14.615103006362915,0.2556617259979248,-0.3504384160041809,1.1395740509033203,-0.4384525716304779,0.18670819699764252,-0.5148134827613831
14.635229349136353,0.2556617259979248,-0.3504384160041809,1.1395740509033203,-0.4384525716304779,0.18670819699764252,-0.5148134827613831
14.655259609222412,0.2559093236923218,-0.3513411283493042,1.1396307945251465,-0.438831627368927,0.18709714710712433,-0.5147602558135986
