liuyurong129/humanoid-gym/humanoid/data/target_q_20250522-013130.csv
timestamp,joint_1,joint_2,joint_3,joint_4,joint_5,joint_6
0.00013947486877441406,0.0,0.0,0.0,0.0,0.0,0.0
0.0202333927154541,0.0,0.0,0.0,0.0,0.0,0.0
0.04030656814575195,0.0,0.0,0.0,0.0,0.0,0.0
0.060366153717041016,0.0,0.0,0.0,0.0,0.0,0.0
0.08043551445007324,0.0,0.0,0.0,0.0,0.0,0.0
0.1005094051361084,0.017100518569350243,-0.21403184533119202,0.718230664730072,-0.29837167263031006,0.05273178592324257,0.36578333377838135
0.12061119079589844,0.007270483300089836,-0.18521399796009064,0.6730215549468994,-0.31971389055252075,0.06688176095485687,0.3814709782600403
0.14068150520324707,-0.03778719902038574,-0.19119998812675476,0.6737456917762756,-0.3434589207172394,0.06628644466400146,0.38182950019836426
0.16082525253295898,-0.01839335449039936,-0.18296082317829132,0.7008389830589294,-0.33673548698425293,0.0636991411447525,0.3821183443069458
0.18091773986816406,-0.044670768082141876,-0.19783547520637512,0.6934895515441895,-0.3438374996185303,0.06600220501422882,0.3806394040584564
0.20099353790283203,-0.03603978455066681,-0.19347643852233887,0.6759957075119019,-0.3445248603820801,0.06772489845752716,0.38232487440109253
0.2213139533996582,-0.05133499950170517,-0.19740483164787292,0.6889028549194336,-0.3393629193305969,0.06946273148059845,0.38286736607551575
0.2414107322692871,-0.06084620952606201,-0.20121170580387115,0.6468976736068726,-0.34286928176879883,0.07331478595733643,0.38355475664138794
0.261486291885376,-0.05206555873155594,-0.1917569637298584,0.6531270742416382,-0.3361858129501343,0.06935475766658783,0.38538670539855957
0.28154778480529785,-0.03819965571165085,-0.19230525195598602,0.6647059917449951,-0.3391529321670532,0.0694625973701477,0.38599348068237305
0.30169105529785156,-0.03443172574043274,-0.1899554431438446,0.6655798554420471,-0.34212082624435425,0.06733129918575287,0.38648852705955505
0.3217136859893799,-0.041713304817676544,-0.19018036127090454,0.656204104423523,-0.33425915241241455,0.06698779761791229,0.3872251808643341
0.34175658226013184,-0.03541083633899689,-0.18732063472270966,0.6573874354362488,-0.3342069387435913,0.06693954765796661,0.3884147107601166
0.3618507385253906,-0.04914577305316925,-0.19308319687843323,0.6589792966842651,-0.3327249586582184,0.06531384587287903,0.3875254690647125
0.38193178176879883,-0.04462896287441254,-0.19528217613697052,0.6705519556999207,-0.339504599571228,0.06658267974853516,0.3877243101596832
0.4020063877105713,-0.04282143712043762,-0.19389481842517853,0.6619304418563843,-0.33895397186279297,0.06697700917720795,0.38872817158699036
0.42207932472229004,-0.03167954087257385,-0.18881091475486755,0.6322458982467651,-0.33441048860549927,0.06757450103759766,0.39115646481513977
0.4421563148498535,-0.048328474164009094,-0.1929418295621872,0.6565442085266113,-0.33039331436157227,0.06117470934987068,0.3893972337245941
0.4622199535369873,-0.037393756210803986,-0.19154290854930878,0.634742021560669,-0.3369407653808594,0.06721413135528564,0.3922145366668701
0.4823031425476074,-0.04295048117637634,-0.1953364908695221,0.6624808311462402,-0.33999690413475037,0.06474460661411285,0.3908610939979553
0.5024025440216064,-0.04030138999223709,-0.19610995054244995,0.6431325674057007,-0.3366379737854004,0.06656260788440704,0.3919689357280731
0.5224483013153076,-0.05327610671520233,-0.19993148744106293,0.613669753074646,-0.326034277677536,0.0660904198884964,0.3932703137397766
0.5425276756286621,-0.02162006124854088,-0.18702374398708344,0.6327167749404907,-0.3322135806083679,0.06639216840267181,0.396870881319046
0.5625956058502197,-0.014678804203867912,-0.18686111271381378,0.6195335388183594,-0.32537537813186646,0.063910111784935,0.39903050661087036
0.5826544761657715,-0.00944383256137371,-0.18947380781173706,0.6171696186065674,-0.32483047246932983,0.06480097770690918,0.40033334493637085
0.602869987487793,-0.005327638238668442,-0.1955496370792389,0.594157338142395,-0.3272453546524048,0.07018598914146423,0.402727872133255
0.6229610443115234,-0.02390768751502037,-0.1993926763534546,0.6116620898246765,-0.3361932337284088,0.06950990855693817,0.4000230133533478
0.6430611610412598,-0.029977111145853996,-0.20489153265953064,0.591823399066925,-0.3310033679008484,0.07020391523838043,0.39985033869743347
0.6633303165435791,-0.03237317502498627,-0.2095593512058258,0.5603984594345093,-0.3218989670276642,0.07193170487880707,0.40184280276298523
0.6834182739257812,0.008343778550624847,-0.19382549822330475,0.6112675666809082,-0.32628333568573,0.06781564652919769,0.4057244062423706
0.7034873962402344,0.004242638126015663,-0.2032046616077423,0.5803282260894775,-0.3167678117752075,0.06979994475841522,0.40744444727897644
0.7235672473907471,0.02027829922735691,-0.20689086616039276,0.5860322713851929,-0.3287566602230072,0.07431258261203766,0.4099932312965393
0.7436563968658447,0.0387551486492157,-0.23323747515678406,0.512360692024231,-0.3063986301422119,0.07911442220211029,0.41476961970329285
0.7637767791748047,0.06139640510082245,-0.25758281350135803,0.4939393997192383,-0.27888399362564087,0.07721756398677826,0.4226709008216858
0.7838010787963867,0.10193800181150436,-0.27990537881851196,0.5399619340896606,-0.2661421597003937,0.07785473763942719,0.43655335903167725
0.8038840293884277,0.011026760563254356,-0.3469918966293335,0.3551980257034302,-0.2808157801628113,0.08130151033401489,0.4216128885746002
0.8239536285400391,0.07289807498455048,-0.3918991982936859,0.4160788655281067,-0.24664880335330963,0.09653246402740479,0.4413447082042694
0.844085693359375,0.0854339599609375,-0.4241752624511719,0.44667917490005493,-0.23832710087299347,0.09886591136455536,0.4526456892490387
0.8641080856323242,0.10697977989912033,-0.4033104181289673,0.5373573303222656,-0.24470146000385284,0.09774748980998993,0.46164223551750183
0.8842513561248779,0.10764221847057343,-0.419302374124527,0.5455081462860107,-0.250759094953537,0.0982445627450943,0.4723728895187378
0.9042682647705078,0.09762705862522125,-0.45629143714904785,0.5589166283607483,-0.25154823064804077,0.09447382390499115,0.48463383316993713
0.9253318309783936,0.08003711700439453,-0.4578746259212494,0.558036208152771,-0.249999538064003,0.08331702649593353,0.4899623394012451
0.9454941749572754,0.10110694915056229,-0.45913228392601013,0.5661101341247559,-0.2508745491504669,0.09287871420383453,0.494521826505661
0.9655420780181885,0.059452347457408905,-0.4987603724002838,0.5496532917022705,-0.24699801206588745,0.08192352950572968,0.5011072158813477
0.9855914115905762,0.0604027584195137,-0.5154125690460205,0.565355658531189,-0.24422405660152435,0.0716002881526947,0.5048797130584717
1.0056707859039307,0.08164944499731064,-0.5038597583770752,0.5481476187705994,-0.21876750886440277,0.08350984752178192,0.5064115524291992
1.0257947444915771,0.06825070083141327,-0.5101951360702515,0.533510148525238,-0.23588202893733978,0.0725330114364624,0.5036893486976624
1.0458319187164307,0.03947197645902634,-0.5179821252822876,0.4989505708217621,-0.24319130182266235,0.05472909286618233,0.49627789855003357
1.0659105777740479,0.10267509520053864,-0.4778544008731842,0.6046856641769409,-0.23641924560070038,0.05799301341176033,0.5041825771331787
1.0859851837158203,0.11263921111822128,-0.44408464431762695,0.6205312609672546,-0.24766045808792114,0.04661773517727852,0.5029329061508179
1.1060633659362793,0.08602062612771988,-0.4034809470176697,0.6377023458480835,-0.24879135191440582,0.02696678414940834,0.5006155967712402
1.1261272430419922,0.003822881728410721,-0.36024904251098633,0.6726806163787842,-0.2750515639781952,0.015123579651117325,0.4840362071990967
1.1462154388427734,-0.1606973260641098,-0.36543214321136475,0.7208873629570007,-0.27885162830352783,-0.010061066597700119,0.47449931502342224
1.1662867069244385,-0.17513196170330048,-0.3838953673839569,0.7870607376098633,-0.30006515979766846,-0.0013923607766628265,0.47430065274238586
1.1863787174224854,-0.13457956910133362,-0.39511311054229736,0.7719983458518982,-0.30453115701675415,0.022157389670610428,0.4810631573200226
1.206531286239624,-0.08983214199542999,-0.40713655948638916,0.7565956115722656,-0.2860012948513031,0.031168315559625626,0.4811047315597534
1.2265996932983398,-0.02103501558303833,-0.5051373243331909,0.6938853859901428,-0.27526819705963135,0.10793948173522949,0.47692564129829407
1.2466931343078613,-0.01571340300142765,-0.48874539136886597,0.7434971332550049,-0.19785107672214508,0.10225091874599457,0.4884692132472992
1.2668333053588867,0.018558373674750328,-0.5175637006759644,0.7253783345222473,-0.22356151044368744,0.1299634426832199,0.4942013919353485
1.28688645362854,0.062033407390117645,-0.4907861053943634,0.7206960916519165,-0.23632784187793732,0.1357104778289795,0.5116612315177917
1.3069467544555664,0.06248422712087631,-0.47089168429374695,0.7344023585319519,-0.26915881037712097,0.14422506093978882,0.5318317413330078
1.3270320892333984,-0.008700672537088394,-0.44757720828056335,0.7513957023620605,-0.2797715365886688,0.08905339241027832,0.5350459814071655
1.347154140472412,-0.0419342964887619,-0.4352092742919922,0.7406860589981079,-0.27920210361480713,0.08540548384189606,0.5506394505500793
1.367194414138794,-0.14483138918876648,-0.4436032772064209,0.6955610513687134,-0.26444342732429504,0.057691384106874466,0.5607377290725708
1.3873140811920166,-0.016486072912812233,-0.4737887680530548,0.6527409553527832,-0.2537231743335724,0.10524038970470428,0.5626062750816345
1.4074101448059082,0.017675532028079033,-0.5080698728561401,0.6943606734275818,-0.23715335130691528,0.10658776760101318,0.5720787048339844
1.4275696277618408,-0.018606437370181084,-0.4848984479904175,0.6956571340560913,-0.26981672644615173,0.09245146811008453,0.5864332914352417
1.4475936889648438,0.05044202506542206,-0.47836798429489136,0.7027126550674438,-0.2960057556629181,0.1343296617269516,0.5928934812545776
1.4677693843841553,-0.0012926068156957626,-0.4704526662826538,0.7031286954879761,-0.3143227696418762,0.12220729887485504,0.6063403487205505
1.487776279449463,0.024775685742497444,-0.4390847384929657,0.7517616152763367,-0.29804471135139465,0.10756975412368774,0.6211455464363098
1.5078401565551758,-0.09986740350723267,-0.41941800713539124,0.7374427914619446,-0.32240742444992065,0.056370679289102554,0.6287188529968262
1.5279242992401123,-0.06331285089254379,-0.41308340430259705,0.7288110852241516,-0.2908768951892853,0.050973352044820786,0.6356397867202759
1.5480265617370605,-0.0800103098154068,-0.4619913697242737,0.6582056283950806,-0.2753102779388428,0.029735345393419266,0.6341219544410706
1.5680675506591797,-0.05380091816186905,-0.45176926255226135,0.7236660718917847,-0.28176528215408325,0.036490749567747116,0.6473339796066284
1.5881824493408203,-0.04352071136236191,-0.4566238224506378,0.6855944395065308,-0.2882629334926605,0.06764309108257294,0.6592607498168945
1.6082267761230469,-0.04311222583055496,-0.4572896361351013,0.6740636825561523,-0.3292968273162842,0.06513892114162445,0.6721416115760803
1.6282944679260254,0.03558538109064102,-0.45101308822631836,0.7729690670967102,-0.30745255947113037,0.07625254988670349,0.6897249221801758
1.6484076976776123,0.009614409878849983,-0.4641251564025879,0.7463340163230896,-0.3099867105484009,0.07179468870162964,0.694301426410675
1.668532133102417,-0.11561772972345352,-0.426666796207428,0.7318316698074341,-0.3276720643043518,0.019302193075418472,0.7087178826332092
1.6885645389556885,0.10237998515367508,-0.4803779721260071,0.7324972748756409,-0.31588202714920044,0.07671962678432465,0.7158148884773254
1.7086410522460938,0.04364883899688721,-0.4679066240787506,0.7498748302459717,-0.33507072925567627,0.07725915312767029,0.7227751016616821
1.7287118434906006,-0.20995773375034332,-0.4383280277252197,0.7016266584396362,-0.34954673051834106,-0.01883607730269432,0.7276427149772644
1.748781681060791,-0.10262969881296158,-0.44379761815071106,0.6967653036117554,-0.3554278612136841,0.01650385931134224,0.7430396676063538
1.7689080238342285,0.019891930744051933,-0.4666486382484436,0.6864040493965149,-0.34527409076690674,0.07195663452148438,0.749074399471283
1.788959264755249,-0.025823162868618965,-0.48729565739631653,0.7196117639541626,-0.35476595163345337,0.06711016595363617,0.754014790058136
1.8090167045593262,-0.02287655510008335,-0.4666202962398529,0.7174395322799683,-0.3294312357902527,0.05628592148423195,0.7656689882278442
1.8290982246398926,0.07386087626218796,-0.49918755888938904,0.7110604643821716,-0.34252092242240906,0.09059731662273407,0.7658655047416687
1.8491756916046143,-0.0076622795313596725,-0.4795808494091034,0.7734345197677612,-0.3626687824726105,0.052009452134370804,0.7728355526924133
1.8692409992218018,-0.02456933818757534,-0.4746178686618805,0.6782668232917786,-0.36399590969085693,0.05062611773610115,0.782113790512085
1.8894059658050537,0.0051489900797605515,-0.47262418270111084,0.6970242261886597,-0.3462353050708771,0.05363987758755684,0.7880691885948181
1.909484624862671,-0.13469699025154114,-0.4797602891921997,0.7867565751075745,-0.3654584288597107,0.015201780945062637,0.791812539100647
1.929560899734497,-0.10674311965703964,-0.468462198972702,0.6975180506706238,-0.36139434576034546,0.010612759739160538,0.7958540320396423
1.9498522281646729,0.08025116473436356,-0.5125397443771362,0.7370461821556091,-0.3483579158782959,0.080214723944664,0.8067391514778137
1.9699652194976807,0.04462122172117233,-0.5195914506912231,0.7238298058509827,-0.34951165318489075,0.08520248532295227,0.810490071773529
1.9900615215301514,-0.061720363795757294,-0.488876610994339,0.7358914613723755,-0.3725358247756958,0.03790687397122383,0.8133395314216614
2.0101230144500732,0.15579108893871307,-0.544700562953949,0.7613893151283264,-0.3545069694519043,0.11849345266819,0.819760799407959
2.030242681503296,0.055986449122428894,-0.5370132923126221,0.7595412135124207,-0.36353468894958496,0.093076691031456,0.818734347820282
2.0503013134002686,-0.07987994700670242,-0.4976845979690552,0.7492142915725708,-0.38664066791534424,0.03985984995961189,0.8212029337882996
2.0707924365997314,0.0936475321650505,-0.5005936026573181,0.7164430618286133,-0.35911303758621216,0.10469318926334381,0.8329378962516785
2.0909345149993896,0.059873469173908234,-0.527813732624054,0.7208195328712463,-0.3534586429595947,0.05977923050522804,0.823224663734436
2.1109530925750732,-0.09011644870042801,-0.4908658564090729,0.7620621919631958,-0.37860172986984253,0.005286861211061478,0.8255051970481873
2.131743907928467,-0.01093260757625103,-0.4864392578601837,0.7069458365440369,-0.36994853615760803,0.04690894857048988,0.8333900570869446
2.151839017868042,-0.0031162966042757034,-0.5140436887741089,0.736607015132904,-0.3747514486312866,0.03781626746058464,0.8325020670890808
2.171919822692871,-0.13341061770915985,-0.5093269348144531,0.7538926601409912,-0.3884381651878357,0.009281162172555923,0.8394746780395508
2.1921427249908447,-0.0017548073083162308,-0.5081918239593506,0.7176527976989746,-0.36715757846832275,0.05997435376048088,0.8528919816017151
2.212233781814575,0.09288350492715836,-0.5427128076553345,0.7594494819641113,-0.3740542531013489,0.09424985945224762,0.8545571565628052
2.2323110103607178,-0.06919775158166885,-0.5174008011817932,0.7383527755737305,-0.3816649913787842,0.032784465700387955,0.8526644110679626
2.252366781234741,0.07832804322242737,-0.5475928783416748,0.7221208214759827,-0.37408480048179626,0.09591333568096161,0.8571996688842773
2.2724757194519043,0.09409784525632858,-0.5555160045623779,0.7750990390777588,-0.3754289150238037,0.10118649899959564,0.8615596294403076
2.2925446033477783,-0.00039173103868961334,-0.532751739025116,0.7738296389579773,-0.3857657313346863,0.05762137845158577,0.8609035015106201
2.3125879764556885,-0.05292382836341858,-0.5002113580703735,0.7348235845565796,-0.3850215673446655,0.037005070596933365,0.8701626658439636
2.332681179046631,-0.015794025734066963,-0.5182132124900818,0.7564438581466675,-0.40118634700775146,0.03627978637814522,0.8677621483802795
2.3527462482452393,-0.04465334117412567,-0.5337588787078857,0.7362481355667114,-0.38054341077804565,0.03629687801003456,0.8666881322860718
2.372814893722534,-0.07904231548309326,-0.5183542966842651,0.7553603053092957,-0.38363659381866455,0.027689415961503983,0.8743656277656555
2.392899990081787,0.06834325939416885,-0.554314374923706,0.7453383803367615,-0.3780880272388458,0.0973072201013565,0.8795634508132935
2.4129655361175537,0.054596349596977234,-0.5732887983322144,0.7843826413154602,-0.39086028933525085,0.09648753702640533,0.8772537708282471
2.4330501556396484,-0.051232606172561646,-0.5328235626220703,0.7944214940071106,-0.4044705927371979,0.04250169172883034,0.8792198300361633
2.453110456466675,-0.05167564004659653,-0.5285686254501343,0.7369654774665833,-0.41283130645751953,0.05838266387581825,0.8839173913002014
2.473182439804077,0.10237476974725723,-0.5605044960975647,0.7920786738395691,-0.38881540298461914,0.09931077063083649,0.8851374983787537
2.493238687515259,-0.10185083001852036,-0.5139390230178833,0.7892231941223145,-0.40595996379852295,0.027874011546373367,0.8891816735267639
2.513331174850464,-0.008390946313738823,-0.5466985702514648,0.7223090529441833,-0.38227909803390503,0.05951246991753578,0.8841533064842224
2.5334012508392334,0.008437363430857658,-0.5491198301315308,0.8327779769897461,-0.3997654318809509,0.05269259586930275,0.8873127698898315
2.5534679889678955,-0.19108794629573822,-0.522873044013977,0.6547574996948242,-0.39741331338882446,0.0017551220953464508,0.8858188986778259
2.5737197399139404,0.13572292029857635,-0.582310676574707,0.7679317593574524,-0.39207011461257935,0.11405894160270691,0.8946554064750671
2.5938024520874023,0.08625975251197815,-0.58177649974823,0.7921735644340515,-0.3960898518562317,0.10926356911659241,0.8950292468070984
2.613840103149414,-0.10096000880002975,-0.5478702783584595,0.7760949730873108,-0.4178691506385803,0.03843669965863228,0.8906742930412292
2.634289264678955,0.188371941447258,-0.5952953696250916,0.7554405331611633,-0.3589722216129303,0.15783913433551788,0.8980887532234192
2.654371738433838,0.06487929075956345,-0.5887957811355591,0.7697098255157471,-0.3904653787612915,0.07487034797668457,0.8814948797225952
2.6744537353515625,-0.0003790464252233505,-0.5602933168411255,0.8045998215675354,-0.39396756887435913,0.06185029074549675,0.8855800032615662
2.6945059299468994,-0.035082243382930756,-0.5396121740341187,0.7566224336624146,-0.3960786461830139,0.044747333973646164,0.887274444103241
2.7145934104919434,-0.02916831336915493,-0.535904586315155,0.7715597152709961,-0.4069523215293884,0.050567809492349625,0.891616702079773
2.734668254852295,-0.009948188439011574,-0.550926685333252,0.7821629047393799,-0.40156805515289307,0.06174613907933235,0.8924065232276917
2.7547473907470703,-0.15110361576080322,-0.5344876050949097,0.7491129040718079,-0.4101209342479706,0.008967790752649307,0.89022296667099
2.774871826171875,0.04467880725860596,-0.549886167049408,0.7339155673980713,-0.3819347023963928,0.07671423256397247,0.8928744196891785
2.7949140071868896,-0.0814523994922638,-0.5473489761352539,0.806816577911377,-0.41060858964920044,0.024617720395326614,0.891409695148468
2.814985513687134,0.04829103499650955,-0.5658556222915649,0.7374690771102905,-0.388424813747406,0.09542414546012878,0.8988185524940491
2.8352243900299072,0.08424174040555954,-0.5800161361694336,0.815022349357605,-0.3917161822319031,0.10209868848323822,0.8993765711784363
2.855315923690796,-0.00839049182832241,-0.5608736276626587,0.8192571401596069,-0.40935397148132324,0.07104504108428955,0.8995587229728699
2.8753809928894043,-0.02114037610590458,-0.5460982322692871,0.7362650632858276,-0.40261855721473694,0.06393937766551971,0.9012135863304138
2.8956267833709717,0.022625626996159554,-0.5612881183624268,0.8235304355621338,-0.40339675545692444,0.07195974886417389,0.9032258987426758
2.9157536029815674,-0.17797373235225677,-0.5428964495658875,0.767611563205719,-0.41718238592147827,0.017427939921617508,0.9008399844169617
2.935851812362671,-0.07022541016340256,-0.5160367488861084,0.7310917377471924,-0.39305579662323,0.03834468498826027,0.9058435559272766
2.955895185470581,0.0020382236689329147,-0.5747597217559814,0.7793265581130981,-0.3978171944618225,0.06970129907131195,0.9041736125946045
2.9760026931762695,0.11019296944141388,-0.6093791723251343,0.7791896462440491,-0.3664509057998657,0.10872577130794525,0.9035757780075073
2.9960975646972656,-0.03732478618621826,-0.5670262575149536,0.7733055353164673,-0.39682573080062866,0.050963860005140305,0.9038011431694031
3.0163533687591553,0.056975387036800385,-0.5833442807197571,0.7780060768127441,-0.4075424075126648,0.10541743040084839,0.912865161895752
3.0364627838134766,0.01567736826837063,-0.5614817142486572,0.8349231481552124,-0.4185726046562195,0.07153312861919403,0.9134965538978577
3.0565249919891357,-0.0935041680932045,-0.5474337339401245,0.7392687797546387,-0.42467230558395386,0.048628825694322586,0.9133496284484863
3.0765812397003174,0.11817098408937454,-0.5963834524154663,0.7973656058311462,-0.3866692781448364,0.10254035890102386,0.9089106321334839
3.0966718196868896,-0.11834271997213364,-0.5638871192932129,0.7993651628494263,-0.4200930595397949,0.022664178162813187,0.9031863808631897
3.116741418838501,0.02338421531021595,-0.5639010667800903,0.7449498772621155,-0.3943042755126953,0.07626448571681976,0.9090752005577087
3.136800765991211,-0.02646794356405735,-0.5753743648529053,0.8334506750106812,-0.40935248136520386,0.056275997310876846,0.9077216982841492
3.156925916671753,-0.019047068431973457,-0.5691196918487549,0.7927606701850891,-0.39735910296440125,0.0736999660730362,0.9126645922660828
3.176971435546875,0.014176247641444206,-0.5590236783027649,0.7705252170562744,-0.4051703214645386,0.07103607058525085,0.9128156900405884
3.197044849395752,-0.023184632882475853,-0.586110532283783,0.8212431073188782,-0.41445958614349365,0.08466655015945435,0.9158859848976135
3.217129945755005,-0.0848405733704567,-0.5583760738372803,0.809346616268158,-0.41514986753463745,0.03934391215443611,0.9123769402503967
3.2372119426727295,0.11707504838705063,-0.5811623334884644,0.7539166808128357,-0.3795320987701416,0.10359816253185272,0.9109545350074768
3.2572624683380127,0.08423978090286255,-0.5983296036720276,0.8030965328216553,-0.39101141691207886,0.10764673352241516,0.910261332988739
3.277364492416382,-0.06607293337583542,-0.5662657022476196,0.786881148815155,-0.4022529125213623,0.03543925657868385,0.903241753578186
3.297417640686035,0.013696296140551567,-0.5568774938583374,0.7702872157096863,-0.401275098323822,0.07783004641532898,0.9135692119598389
3.3174819946289062,-0.12442526966333389,-0.5518833994865417,0.8036694526672363,-0.4232240319252014,0.026180241256952286,0.9107424020767212
3.337568521499634,-0.1815076768398285,-0.5413947701454163,0.7839136123657227,-0.41847139596939087,0.002277616411447525,0.9100370407104492
3.3576414585113525,0.031372569501399994,-0.5781365633010864,0.8007923364639282,-0.40488478541374207,0.07483838498592377,0.9143732190132141
3.377703905105591,-0.2564048171043396,-0.5357276201248169,0.7732518315315247,-0.4234662652015686,-0.032534774392843246,0.9079921245574951
3.397822141647339,-0.1286335438489914,-0.5297877788543701,0.7443118095397949,-0.4057636260986328,0.0036131180822849274,0.9098567366600037
3.4180009365081787,0.06093314290046692,-0.5877419114112854,0.779574453830719,-0.39712896943092346,0.09107370674610138,0.9192079305648804
3.4379897117614746,-0.1307784616947174,-0.5595195293426514,0.7874413132667542,-0.4185619354248047,0.009441856294870377,0.9113403558731079
3.4580750465393066,-0.1074456200003624,-0.5533249378204346,0.777554452419281,-0.41236692667007446,0.025015939027071,0.9172482490539551
3.4781341552734375,0.12988163530826569,-0.6115094423294067,0.7999151349067688,-0.39041751623153687,0.11409048736095428,0.919304370880127
3.498276948928833,-0.16038253903388977,-0.5608615875244141,0.8126078844070435,-0.42536044120788574,-0.0021795444190502167,0.9104403853416443
3.5183537006378174,-0.0826234295964241,-0.5637749433517456,0.795820951461792,-0.4130229949951172,0.02668377384543419,0.9186830520629883
3.538407564163208,0.16193728148937225,-0.6332300901412964,0.7926774024963379,-0.3719048798084259,0.13242210447788239,0.9190365672111511
3.558497190475464,0.020963286980986595,-0.6007077097892761,0.8019647598266602,-0.40435659885406494,0.08310849964618683,0.9145305156707764
3.5785629749298096,-0.07438857108354568,-0.5604815483093262,0.7954986095428467,-0.41940394043922424,0.0389740951359272,0.9167611002922058
3.5986411571502686,0.13308139145374298,-0.596047043800354,0.774448573589325,-0.3880782723426819,0.11919926106929779,0.919337809085846
3.6187427043914795,0.019332149997353554,-0.5849766135215759,0.7914142608642578,-0.3987172842025757,0.06007688120007515,0.9103814959526062
3.638836622238159,-0.1110779419541359,-0.5662775039672852,0.7985409498214722,-0.41905519366264343,0.027405623346567154,0.9118930697441101
3.6588973999023438,0.11403844505548477,-0.5949113368988037,0.7752307057380676,-0.3890707492828369,0.11933131515979767,0.9187307357788086
3.6790072917938232,0.004285773262381554,-0.5775935649871826,0.7708881497383118,-0.39841172099113464,0.045068372040987015,0.9046369791030884
3.6991400718688965,-0.049298547208309174,-0.5775560140609741,0.8132097125053406,-0.4165842533111572,0.06030214950442314,0.9153085350990295
3.719155788421631,0.01074165664613247,-0.5616650581359863,0.7555996179580688,-0.4007987678050995,0.07138335704803467,0.9142795205116272
3.7392611503601074,0.17110736668109894,-0.6190307140350342,0.7889299988746643,-0.36688336730003357,0.14775551855564117,0.9173060655593872
3.759350061416626,0.07272367179393768,-0.5789425373077393,0.7889519929885864,-0.38457468152046204,0.11063791811466217,0.9155392050743103
3.779397964477539,-0.044040240347385406,-0.5643245577812195,0.7925312519073486,-0.41202253103256226,0.053284917026758194,0.9115437865257263
3.7994914054870605,-0.04138510674238205,-0.5581380128860474,0.7790720462799072,-0.40877145528793335,0.0586940236389637,0.9141093492507935
3.8195645809173584,0.040496982634067535,-0.5738480091094971,0.7847850918769836,-0.3983778953552246,0.08224263787269592,0.9131187796592712
3.8396334648132324,-0.1961250752210617,-0.5439193248748779,0.7928237915039062,-0.42074117064476013,0.012432996183633804,0.9149778485298157
3.859741687774658,-0.043199293315410614,-0.5538926124572754,0.762329638004303,-0.4015573561191559,0.059871215373277664,0.9176957607269287
3.879817485809326,-0.011387204751372337,-0.5726633071899414,0.7901521921157837,-0.40320703387260437,0.05938542261719704,0.9155132174491882
3.8998754024505615,-0.05663274973630905,-0.5633573532104492,0.7925047874450684,-0.4091476500034332,0.04338407889008522,0.9171643853187561
3.91999888420105,-0.04735862463712692,-0.5645852088928223,0.7933877110481262,-0.4066287875175476,0.03986463323235512,0.9158635139465332
3.940049648284912,0.03925022482872009,-0.5862024426460266,0.7840851545333862,-0.40329426527023315,0.08339996635913849,0.9178356528282166
3.9601340293884277,-0.1036825105547905,-0.5581870675086975,0.8038215637207031,-0.42559581995010376,0.04151364043354988,0.9222699999809265
3.980727434158325,0.06373431533575058,-0.5965100526809692,0.7793745398521423,-0.4072885811328888,0.09546680748462677,0.9174110293388367
4.000827789306641,0.017095541581511497,-0.5803854465484619,0.8049416542053223,-0.4117923974990845,0.08567102253437042,0.9192270040512085
4.020901441574097,-0.14857059717178345,-0.5469090938568115,0.7775022983551025,-0.42032524943351746,0.015216026455163956,0.9146439433097839
4.04096531867981,0.05803416669368744,-0.5794804096221924,0.7855938076972961,-0.39302361011505127,0.0869825929403305,0.9169774651527405
4.0610511302948,-0.010868044570088387,-0.575671911239624,0.8023062944412231,-0.404695063829422,0.05701741203665733,0.9134286046028137
4.081128835678101,-0.06523122638463974,-0.5561675429344177,0.7619168758392334,-0.40813499689102173,0.03707783296704292,0.9134825468063354
4.101187229156494,0.13499896228313446,-0.6072892546653748,0.8007891774177551,-0.38756024837493896,0.14119243621826172,0.923256516456604
4.121286153793335,-0.10125678777694702,-0.5745795369148254,0.7963681221008301,-0.4212770462036133,0.034754905849695206,0.9126253724098206
4.141361474990845,0.10934937000274658,-0.5970165729522705,0.7590040564537048,-0.3790971040725708,0.10792796313762665,0.91446453332901
4.161421775817871,0.08191018551588058,-0.5894408226013184,0.7995562553405762,-0.3934158980846405,0.1133226603269577,0.9172707200050354
4.18151593208313,-0.020650560036301613,-0.5759248733520508,0.7899974584579468,-0.4052329659461975,0.0626012533903122,0.9112517833709717
4.201579570770264,0.008120661601424217,-0.5613948106765747,0.7894885540008545,-0.4034901261329651,0.07715743780136108,0.9181368947029114
4.221632957458496,-0.08437063544988632,-0.5613632202148438,0.7970585227012634,-0.4093645513057709,0.02875310555100441,0.9104676842689514
4.241936922073364,0.09122388064861298,-0.5851523876190186,0.7583810091018677,-0.3816177248954773,0.09644471108913422,0.9109986424446106
4.262035608291626,0.04728119820356369,-0.5814228057861328,0.7821946144104004,-0.39139890670776367,0.06062764301896095,0.9041476845741272
4.2821409702301025,-0.2043105661869049,-0.5465881824493408,0.7961686849594116,-0.4236931800842285,-0.012853126972913742,0.9042713046073914
4.302183389663696,-0.044977881014347076,-0.5593643188476562,0.7871721982955933,-0.4114346206188202,0.057483550161123276,0.9196958541870117
4.32227349281311,0.16115199029445648,-0.6145601272583008,0.759273111820221,-0.3760397434234619,0.14952024817466736,0.9182991981506348
4.342349052429199,0.1265912652015686,-0.6026731729507446,0.8029927015304565,-0.3770560622215271,0.13700513541698456,0.9160917401313782
4.362412452697754,-0.041763126850128174,-0.5604626536369324,0.7892394661903381,-0.4063723683357239,0.05833796039223671,0.9128633737564087
4.382509469985962,-0.05312497168779373,-0.5596485137939453,0.779149055480957,-0.41046297550201416,0.05070507153868675,0.9130035042762756
4.402592897415161,-0.020228030160069466,-0.5639063715934753,0.7889217138290405,-0.40068739652633667,0.0571020133793354,0.9128838181495667
4.422653913497925,-0.06232292950153351,-0.5552999973297119,0.7864651679992676,-0.40312135219573975,0.030422303825616837,0.909898579120636
4.442718744277954,-0.016316870227456093,-0.5629180669784546,0.7916497588157654,-0.39668336510658264,0.05452931299805641,0.9135618805885315
4.462810039520264,-0.03785286098718643,-0.5683318376541138,0.7737829089164734,-0.40324002504348755,0.04852806404232979,0.9125057458877563
4.482877016067505,-0.06989414244890213,-0.5552902221679688,0.7846742272377014,-0.40775275230407715,0.03950298950076103,0.9173097610473633
4.503003358840942,0.11338352411985397,-0.6033799648284912,0.7906699776649475,-0.38515475392341614,0.11727602779865265,0.9196773171424866
4.523099184036255,-0.07384837418794632,-0.5764124393463135,0.8064413070678711,-0.4153643846511841,0.04311833158135414,0.9157118201255798
4.5431718826293945,0.08802063018083572,-0.5806912183761597,0.7500359416007996,-0.3848404884338379,0.09235285222530365,0.9154911041259766
4.563228607177734,0.008992498740553856,-0.5919075012207031,0.8212240934371948,-0.4048040211200714,0.06864795088768005,0.9114969372749329
4.583325386047363,0.03306607902050018,-0.5796564817428589,0.7752422094345093,-0.3944108486175537,0.08111949265003204,0.9127953052520752
4.603394985198975,-0.13790766894817352,-0.5419298410415649,0.8154098987579346,-0.42607584595680237,0.008046615868806839,0.9144706130027771
4.623459100723267,0.041508473455905914,-0.6006032228469849,0.8018702864646912,-0.4187113046646118,0.09114408493041992,0.9130831360816956
4.643572568893433,-0.0023036394268274307,-0.5728503465652466,0.7954535484313965,-0.4013548493385315,0.06399127840995789,0.9110228419303894
4.663741111755371,-0.18715734779834747,-0.5371323823928833,0.7917671203613281,-0.41557320952415466,-0.011270564049482346,0.9106699824333191
4.683733701705933,0.048335470259189606,-0.5821186304092407,0.7985434532165527,-0.40810921788215637,0.09030185639858246,0.9190670847892761
4.703820466995239,-0.24922294914722443,-0.5342270135879517,0.7831333875656128,-0.41308659315109253,-0.030444767326116562,0.910685122013092
4.723914623260498,-0.08134625107049942,-0.5448617339134216,0.7650238871574402,-0.4066818952560425,0.03831276670098305,0.919411838054657
4.743985891342163,0.08117126673460007,-0.5909970998764038,0.7710182666778564,-0.38872718811035156,0.10038338601589203,0.9198985695838928
4.7640416622161865,-0.013715105131268501,-0.5792560577392578,0.78676837682724,-0.3989948332309723,0.059081871062517166,0.914215624332428
4.784134387969971,-0.06581535935401917,-0.563393235206604,0.7951199412345886,-0.4085444211959839,0.03519042208790779,0.915006697177887
4.8042144775390625,0.09644035995006561,-0.5956056118011475,0.7933435440063477,-0.39581775665283203,0.11305557191371918,0.9224722981452942
4.824341535568237,0.004607120528817177,-0.5765873193740845,0.8187444806098938,-0.4114939570426941,0.085593581199646,0.9229543209075928
4.844432592391968,-0.08596830070018768,-0.5634267330169678,0.7759955525398254,-0.41714411973953247,0.03617345169186592,0.9165883660316467
4.8644959926605225,0.12375567108392715,-0.5887693166732788,0.7831004858016968,-0.38558393716812134,0.11137653887271881,0.919194757938385
4.884565114974976,0.04275531321763992,-0.591515302658081,0.7883021831512451,-0.387967586517334,0.08338509500026703,0.9097071886062622
4.904784679412842,-0.14359797537326813,-0.5466501712799072,0.8036354780197144,-0.4084627628326416,-0.0009569637477397919,0.9087997078895569
4.924875020980835,-0.03592737764120102,-0.5566469430923462,0.7963756322860718,-0.40533941984176636,0.06009678170084953,0.9196280241012573
4.944947242736816,0.0008065532892942429,-0.5703403949737549,0.7985779643058777,-0.40381747484207153,0.06216450408101082,0.916158139705658
4.965002536773682,-0.0717434212565422,-0.5686749219894409,0.7950776815414429,-0.41345101594924927,0.039835188537836075,0.9151922464370728
4.985089540481567,-0.1475394368171692,-0.5485502481460571,0.7502540946006775,-0.4173356890678406,0.008990708738565445,0.9130440354347229
5.00519323348999,0.07461148500442505,-0.5987713932991028,0.7893168330192566,-0.3941640853881836,0.09429122507572174,0.9179458022117615
5.025259017944336,-0.11238227039575577,-0.5575125217437744,0.7825621962547302,-0.4091997444629669,0.015876952558755875,0.9124833941459656
5.045344591140747,-0.07806391268968582,-0.5571175813674927,0.769558310508728,-0.40889397263526917,0.037678319960832596,0.9166538715362549
5.0654072761535645,0.1519879549741745,-0.619365930557251,0.8057698011398315,-0.3817782402038574,0.12258236110210419,0.9171101450920105
5.085465908050537,-0.005136651918292046,-0.5716742277145386,0.8040146231651306,-0.4011496305465698,0.06403699517250061,0.9158381223678589
5.105715990066528,-0.061843447387218475,-0.5631630420684814,0.7928568124771118,-0.41024917364120483,0.04095486178994179,0.915968120098114
5.125738143920898,0.05105361342430115,-0.5802477598190308,0.7795708179473877,-0.39870670437812805,0.09205654263496399,0.917874276638031
5.146175146102905,-0.1911882907152176,-0.5527058839797974,0.7788010835647583,-0.4211832582950592,-0.004315342754125595,0.9080137610435486
5.166268587112427,-0.15246951580047607,-0.5409599542617798,0.7756557464599609,-0.4169471859931946,0.016131523996591568,0.9154595136642456
5.186352968215942,-0.03646807372570038,-0.5610499978065491,0.7628642916679382,-0.40737706422805786,0.05755090340971947,0.919725775718689
5.206397294998169,-0.01589217223227024,-0.5866690874099731,0.800269603729248,-0.397853821516037,0.044745031744241714,0.9083836674690247
5.226519823074341,0.0117820855230093,-0.5717856287956238,0.7884805798530579,-0.3848949074745178,0.05102432146668434,0.9089517593383789
5.246587038040161,-0.08012586832046509,-0.5617393255233765,0.8158881664276123,-0.4174034595489502,0.03643341735005379,0.9178440570831299
5.266641616821289,0.06843278557062149,-0.5866153240203857,0.7489418983459473,-0.398173451423645,0.10492667555809021,0.9206792712211609
5.28673529624939,0.04931297153234482,-0.583075761795044,0.7903899550437927,-0.40083855390548706,0.08278636634349823,0.9173566699028015
5.306805849075317,-0.1810479760169983,-0.5510674715042114,0.7828311920166016,-0.4270823001861572,0.004645545035600662,0.9113981127738953
5.326857089996338,-0.09465561807155609,-0.550255298614502,0.7592506408691406,-0.41792815923690796,0.042219821363687515,0.9203506708145142
5.34695291519165,-0.05154458433389664,-0.555789589881897,0.7651354074478149,-0.4097840487957001,0.04401285573840141,0.9186567068099976
5.367019891738892,0.0587221160531044,-0.6032570600509644,0.8166801929473877,-0.3899405598640442,0.08472618460655212,0.9147891402244568
5.387131452560425,-0.12828950583934784,-0.5562392473220825,0.7817410230636597,-0.41015249490737915,0.007565248757600784,0.91050785779953
5.40717887878418,-0.04293450713157654,-0.5548442602157593,0.804896354675293,-0.40493544936180115,0.03582823649048805,0.9183135628700256
5.427258491516113,0.07985896617174149,-0.591022789478302,0.7971686124801636,-0.39754149317741394,0.1024206131696701,0.9233545064926147
5.447321891784668,-0.09304111450910568,-0.5537761449813843,0.7878298759460449,-0.4154570698738098,0.05626789107918739,0.9257819056510925
5.467392921447754,-0.13869592547416687,-0.5569915771484375,0.7689076662063599,-0.4245362877845764,0.019609514623880386,0.9184561371803284
5.487491130828857,0.10244819521903992,-0.6181755661964417,0.7720384001731873,-0.37471264600753784,0.10594157874584198,0.9145053029060364
5.507547378540039,0.01201038621366024,-0.5819826126098633,0.7977179884910583,-0.4005102217197418,0.06513756513595581,0.9109722971916199
5.527760982513428,-0.10596778243780136,-0.5586172342300415,0.7928410768508911,-0.42155134677886963,0.03441162779927254,0.9157395362854004
5.547852039337158,-0.01643533445894718,-0.5585767030715942,0.8035620450973511,-0.4076814353466034,0.06469893455505371,0.921585738658905
5.567945957183838,0.0636175349354744,-0.5911368131637573,0.8117532730102539,-0.39299386739730835,0.08867602050304413,0.9159403443336487
5.587995529174805,-0.08112499862909317,-0.5635184049606323,0.7926087379455566,-0.41480356454849243,0.03422468528151512,0.9109910130500793
5.608084678649902,-0.1874009221792221,-0.5397294759750366,0.7956841588020325,-0.42170387506484985,-0.005589049309492111,0.9124065637588501
5.628199338912964,0.0031726863235235214,-0.5825066566467285,0.7877455949783325,-0.41623884439468384,0.06767122447490692,0.9141486287117004
5.648842096328735,-0.06334171444177628,-0.5609931945800781,0.7927758693695068,-0.411710262298584,0.046592000871896744,0.915735125541687
5.668923854827881,-0.10820082575082779,-0.5546697378158569,0.78057861328125,-0.4171622395515442,0.02300204709172249,0.9133431315422058
5.6889684200286865,0.1531565934419632,-0.6091170310974121,0.7840744256973267,-0.37917160987854004,0.14499244093894958,0.9210051894187927
5.7092814445495605,-0.01784544251859188,-0.5855120420455933,0.824466347694397,-0.4085385203361511,0.06032973900437355,0.9134821891784668
5.729361534118652,0.007070055231451988,-0.5707978010177612,0.7778488397598267,-0.40552693605422974,0.07289175689220428,0.9154963493347168
5.749462127685547,-0.08000960946083069,-0.5653949975967407,0.801750659942627,-0.4233311116695404,0.04665360227227211,0.9171790480613708
5.77019739151001,0.07005767524242401,-0.5734378099441528,0.7481870651245117,-0.38694819808006287,0.10375960171222687,0.9189147353172302
5.790292263031006,0.09801705181598663,-0.6024542450904846,0.7919431924819946,-0.38852614164352417,0.11450596153736115,0.9200714230537415
5.81037163734436,-0.011745186522603035,-0.5737982988357544,0.7902602553367615,-0.4040125608444214,0.06309424340724945,0.9144114255905151
5.830709218978882,-0.12464280426502228,-0.5463681221008301,0.7879848480224609,-0.4136207699775696,0.015385646373033524,0.9161337018013
5.850823163986206,0.039367206394672394,-0.5709433555603027,0.7781578302383423,-0.4011571407318115,0.08984269201755524,0.9232499599456787
5.870930433273315,-0.10177887231111526,-0.5649080276489258,0.8035712242126465,-0.4164886474609375,0.025200504809617996,0.9158262014389038
5.890988349914551,0.06196103245019913,-0.5641045570373535,0.7494574189186096,-0.3895455598831177,0.09513027966022491,0.9216738343238831
5.911084890365601,0.03408309072256088,-0.5887054204940796,0.7926006317138672,-0.41207337379455566,0.07370796799659729,0.9185667037963867
5.931136846542358,-0.19990186393260956,-0.5560804605484009,0.7999867796897888,-0.4238855838775635,-0.008471619337797165,0.9150397181510925
5.951333045959473,-0.07356781512498856,-0.5490585565567017,0.7733601927757263,-0.4125295877456665,0.0361701063811779,0.9243667721748352
5.971418380737305,-0.06405121833086014,-0.5638014078140259,0.7842345833778381,-0.41767972707748413,0.03716522827744484,0.9246718883514404
5.9914915561676025,0.07825341820716858,-0.6129840612411499,0.7845776081085205,-0.39015448093414307,0.08934509754180908,0.9181974530220032
6.011555194854736,-0.0382036417722702,-0.5676497220993042,0.7924101948738098,-0.40309303998947144,0.056363794952631,0.9248732924461365
6.031658887863159,0.0727006196975708,-0.5943758487701416,0.779602587223053,-0.39584070444107056,0.1005951315164566,0.9256254434585571
6.05173397064209,0.025922996923327446,-0.5848891735076904,0.8134881258010864,-0.40750494599342346,0.08594107627868652,0.9255540370941162
6.071799278259277,-0.16829083859920502,-0.548879861831665,0.7787931561470032,-0.42589887976646423,0.007914278656244278,0.9213058352470398
6.091889381408691,0.07820827513933182,-0.5746864080429077,0.7653829455375671,-0.3939899206161499,0.10560224950313568,0.9279335141181946
6.111971139907837,-0.06836307793855667,-0.5660308599472046,0.7904782891273499,-0.4145740568637848,0.03067786619067192,0.916059672832489
6.13204026222229,-0.0036523323506116867,-0.5603169202804565,0.7622416019439697,-0.40199899673461914,0.056091565638780594,0.9176795482635498
6.152101278305054,0.07188288122415543,-0.5967056751251221,0.7832939028739929,-0.39818575978279114,0.09623792767524719,0.9215283989906311
6.172212362289429,-0.12100028991699219,-0.567359209060669,0.7869238257408142,-0.41548991203308105,0.021656814962625504,0.9172244668006897
6.192233562469482,0.05044294893741608,-0.581436276435852,0.7970514297485352,-0.4033769369125366,0.0828322172164917,0.9234169125556946
6.212384223937988,-0.12380117923021317,-0.5734590888023376,0.7971367835998535,-0.42300474643707275,0.027925807982683182,0.9163177609443665
6.232468366622925,-0.050388798117637634,-0.5631002187728882,0.7868280410766602,-0.4137071371078491,0.07114909589290619,0.9263516068458557
6.2525506019592285,0.017576443031430244,-0.5856999754905701,0.7942105531692505,-0.4057992994785309,0.058982718735933304,0.9143666625022888
6.272609710693359,-0.09764156490564346,-0.5696402788162231,0.806658148765564,-0.4240557551383972,0.037462491542100906,0.9182416796684265
6.292691946029663,-0.1674974262714386,-0.545042872428894,0.7901279926300049,-0.41688060760498047,-0.011285435408353806,0.9121178984642029
6.31276535987854,0.0893908217549324,-0.6059167385101318,0.7987991571426392,-0.38530904054641724,0.08843304216861725,0.9151886105537415
6.332827806472778,-0.029464678838849068,-0.5784810781478882,0.7960940599441528,-0.39465996623039246,0.05056736245751381,0.9128429293632507
6.352917432785034,-0.04959501326084137,-0.5667229890823364,0.7936499714851379,-0.41391125321388245,0.05787993595004082,0.9179328083992004
6.373020172119141,0.017597856000065804,-0.5769660472869873,0.7926106452941895,-0.4100942015647888,0.08295062184333801,0.9210329651832581
6.3930816650390625,-0.16132892668247223,-0.5549732446670532,0.7985447645187378,-0.4256904721260071,0.008641976863145828,0.9148226380348206
6.413153648376465,-0.17208395898342133,-0.5433981418609619,0.779740571975708,-0.42032599449157715,0.010546479374170303,0.9190927147865295
6.433222055435181,-0.040766164660453796,-0.5628225803375244,0.7778338193893433,-0.4092594385147095,0.04583079740405083,0.9210144877433777
6.453356027603149,-0.004754239693284035,-0.5832322835922241,0.7925748229026794,-0.40292829275131226,0.061428625136613846,0.9170791506767273
6.473445415496826,-0.12042252719402313,-0.5660552382469177,0.7933623194694519,-0.412082314491272,0.018556255847215652,0.9175464510917664
6.493524789810181,0.08569814264774323,-0.5854918956756592,0.7737176418304443,-0.3899783790111542,0.10536718368530273,0.9261316657066345
6.513786315917969,0.03293834626674652,-0.5915970802307129,0.8071057796478271,-0.405775785446167,0.08520317077636719,0.9219302535057068
6.533915996551514,-0.051774635910987854,-0.572068452835083,0.8159075975418091,-0.41447508335113525,0.04750986769795418,0.920495867729187
6.55395245552063,-0.0192167479544878,-0.5588586926460266,0.7944656014442444,-0.40665993094444275,0.05607541278004646,0.9233350157737732
6.574224472045898,0.0029927846044301987,-0.5843857526779175,0.7937289476394653,-0.40856441855430603,0.07196392118930817,0.9198209047317505
6.594313383102417,-0.05347248911857605,-0.5691113471984863,0.7756669521331787,-0.41096624732017517,0.04585333541035652,0.9160316586494446
6.614391326904297,-0.06338765472173691,-0.5570724010467529,0.7778920531272888,-0.41003841161727905,0.037765223532915115,0.917876124382019
6.6344475746154785,0.03985035419464111,-0.601891815662384,0.7946648597717285,-0.395711213350296,0.08617548644542694,0.9164795875549316
6.6545326709747314,0.03919621556997299,-0.5875962972640991,0.7957209944725037,-0.39296185970306396,0.08372312784194946,0.9164181351661682
6.674616098403931,-0.11586815863847733,-0.5509413480758667,0.8097787499427795,-0.41791409254074097,0.024175915867090225,0.9188539981842041
6.6946656703948975,0.06615415960550308,-0.5952000021934509,0.7980632185935974,-0.4068760871887207,0.09276813268661499,0.916822612285614
6.71476411819458,0.06110954284667969,-0.5893478393554688,0.8074474930763245,-0.39639991521835327,0.10838331282138824,0.9218388199806213
6.734837770462036,-0.10990216583013535,-0.5503861308097839,0.7865362763404846,-0.4153328239917755,0.03571042791008949,0.918190598487854
6.7549073696136475,0.1275397688150406,-0.6082314848899841,0.7871492505073547,-0.3824083209037781,0.11397959291934967,0.915439248085022
6.775105714797974,-0.02008199132978916,-0.5784932374954224,0.7960336804389954,-0.4023193418979645,0.05901386961340904,0.9126608371734619
6.795108079910278,-0.046952635049819946,-0.5611084699630737,0.7740392684936523,-0.40832507610321045,0.04650284722447395,0.9146440029144287
6.815176725387573,0.022023877128958702,-0.5753715634346008,0.7939823269844055,-0.4039025902748108,0.07583759725093842,0.9173155426979065
6.83525013923645,-0.010351145640015602,-0.5765062570571899,0.7834463119506836,-0.40693527460098267,0.07270084321498871,0.9173101782798767
6.855344295501709,-0.062339670956134796,-0.5470888614654541,0.780691385269165,-0.40628182888031006,0.053658220916986465,0.9221961498260498
6.8753955364227295,0.04812786728143692,-0.5792990326881409,0.7714964747428894,-0.3955647647380829,0.09033511579036713,0.9197819828987122
6.895758152008057,0.0810142531991005,-0.600598931312561,0.7807766795158386,-0.38702714443206787,0.09684613347053528,0.9158515930175781
6.915836572647095,-0.0939798429608345,-0.5512484312057495,0.7754760980606079,-0.40594014525413513,0.028915543109178543,0.916258692741394
6.935911178588867,0.10669063776731491,-0.6047525405883789,0.7792531847953796,-0.3858639895915985,0.10748367011547089,0.9182003736495972
6.956110000610352,-0.10464435070753098,-0.5684012174606323,0.8250046372413635,-0.41815444827079773,0.019638869911432266,0.9128525257110596
6.976206541061401,0.004842089489102364,-0.580511212348938,0.7953670024871826,-0.4026699364185333,0.07108573615550995,0.9212355017662048
6.996280193328857,0.007721705362200737,-0.56976318359375,0.7876493334770203,-0.40836822986602783,0.07626210153102875,0.9240943789482117
7.017146348953247,-0.15330766141414642,-0.5513745546340942,0.7870699763298035,-0.4127836227416992,0.007438350468873978,0.9177823662757874
7.037244558334351,-0.11150173097848892,-0.5524880886077881,0.7866652607917786,-0.4153759479522705,0.022620219737291336,0.9206855297088623
7.057311058044434,0.01585223712027073,-0.5787882804870605,0.7869073748588562,-0.3967934250831604,0.04702404513955116,0.9146585464477539
7.0773773193359375,-0.11619088798761368,-0.5643572807312012,0.7998889684677124,-0.41913241147994995,0.016108933836221695,0.920312225818634
7.097450256347656,-0.06112058460712433,-0.5583069324493408,0.7537660598754883,-0.4034794569015503,0.018561694771051407,0.9139184355735779
7.117518424987793,0.057938963174819946,-0.6081976890563965,0.8323436975479126,-0.4065067172050476,0.09710954129695892,0.9251083731651306
7.137571573257446,-0.08928172290325165,-0.5720123052597046,0.8011878132820129,-0.4206436276435852,0.04167858138680458,0.9200618863105774
7.157662391662598,-0.10391576588153839,-0.5542995929718018,0.8217952251434326,-0.4221949577331543,0.02860601618885994,0.9240009784698486
7.177745580673218,0.07692881673574448,-0.6013398170471191,0.7930227518081665,-0.4057709574699402,0.08019319176673889,0.9119120240211487
7.197809219360352,-0.04975210875272751,-0.5799869298934937,0.809177815914154,-0.4127660393714905,0.04290008917450905,0.9098941683769226
7.217888593673706,-0.02619231306016445,-0.5617228746414185,0.8011823892593384,-0.4028145670890808,0.051452506333589554,0.9137652516365051
7.237977981567383,0.02497548796236515,-0.5696401596069336,0.7952648401260376,-0.40181368589401245,0.07683230936527252,0.917903482913971
7.258033752441406,-0.1892632246017456,-0.54758620262146,0.779427707195282,-0.419999897480011,-0.007733847945928574,0.910960853099823
7.278506517410278,-0.0424114391207695,-0.5580085515975952,0.7730300426483154,-0.41044095158576965,0.05204537883400917,0.919981062412262
7.29861307144165,0.10291139036417007,-0.6041443347930908,0.7994746565818787,-0.3856085538864136,0.11626680195331573,0.9203917384147644
7.318697452545166,-0.007667774334549904,-0.5850757360458374,0.7863630056381226,-0.40013587474823,0.07344977557659149,0.9152680039405823
7.3389060497283936,-0.05302346497774124,-0.5647560358047485,0.775492787361145,-0.4105032980442047,0.06296443939208984,0.9228164553642273
7.3590004444122314,0.005416901782155037,-0.5727872848510742,0.7947691082954407,-0.40645813941955566,0.06846028566360474,0.922153115272522
7.3791162967681885,-0.020552949979901314,-0.5770614147186279,0.808451771736145,-0.411149799823761,0.05859765782952309,0.9201703667640686
7.399261951446533,-0.16518186032772064,-0.5496286749839783,0.8067274689674377,-0.42259323596954346,-0.003613825887441635,0.9152144193649292
7.41938853263855,-0.006256910040974617,-0.5682961940765381,0.8031638860702515,-0.40735942125320435,0.057256776839494705,0.9222410321235657
7.439429759979248,-0.04084981977939606,-0.578972578048706,0.764565110206604,-0.41029149293899536,0.048337895423173904,0.9163611531257629
7.459704637527466,-0.03293377161026001,-0.5584388375282288,0.7927880883216858,-0.4080694317817688,0.05807904526591301,0.9249871373176575
7.479791879653931,-0.05743265151977539,-0.5814062356948853,0.7431885600090027,-0.41600513458251953,0.062397945672273636,0.9240028262138367
7.4998695850372314,0.07478460669517517,-0.5973311066627502,0.8593098521232605,-0.3942264914512634,0.08582882583141327,0.9244431853294373
7.51992654800415,-0.05354708433151245,-0.5817468762397766,0.7993003129959106,-0.41322267055511475,0.05449753627181053,0.9207517504692078
7.540016412734985,-0.0873318687081337,-0.5584234595298767,0.7771956920623779,-0.4200581908226013,0.02858138456940651,0.9217842817306519
7.560084104537964,0.155870258808136,-0.6122128367424011,0.7939823269844055,-0.38590288162231445,0.11531032621860504,0.9211647510528564
7.580168962478638,0.007809078320860863,-0.5667252540588379,0.8082975745201111,-0.40156036615371704,0.07462842762470245,0.9248877167701721
7.600322484970093,-0.0459115132689476,-0.576105535030365,0.7704294919967651,-0.4042915105819702,0.030281487852334976,0.912192165851593
7.6203320026397705,-0.05395568907260895,-0.5579760074615479,0.7735843658447266,-0.40757307410240173,0.03916328772902489,0.91959148645401
7.64040732383728,-0.03863399475812912,-0.5801311731338501,0.7663257122039795,-0.4061364531517029,0.04398570582270622,0.9151517152786255
7.6604931354522705,-0.17495423555374146,-0.5547721982002258,0.8009576797485352,-0.41996148228645325,-0.0025564096868038177,0.9172235131263733
7.680576324462891,-0.1055946871638298,-0.576487123966217,0.7725480794906616,-0.4177188575267792,0.025721821933984756,0.9187923669815063
7.7006354331970215,0.1072733923792839,-0.5977199077606201,0.7903127074241638,-0.38709941506385803,0.10452413558959961,0.9245485663414001
7.720776319503784,0.021037494763731956,-0.5948967933654785,0.8122626543045044,-0.4031965732574463,0.058484237641096115,0.9164466261863708
7.740889549255371,-0.12038370221853256,-0.5616043210029602,0.791466236114502,-0.4171741008758545,0.01229073479771614,0.9163070321083069
7.760938405990601,0.05788587033748627,-0.5881307125091553,0.7812854647636414,-0.40221863985061646,0.0902644544839859,0.9245840311050415
7.7810516357421875,0.03729776293039322,-0.5884429216384888,0.7605068683624268,-0.39597201347351074,0.07287891209125519,0.9186956286430359
7.801126718521118,-0.14139963686466217,-0.5553880929946899,0.7923988103866577,-0.4205944240093231,0.013412851840257645,0.9197736382484436
7.821182012557983,0.030233485624194145,-0.5896317958831787,0.788912296295166,-0.4058298170566559,0.07581140100955963,0.9208584427833557
7.841273546218872,-0.004110956564545631,-0.587422251701355,0.8092264533042908,-0.4086686968803406,0.06607398390769958,0.9228917360305786
7.861374855041504,-0.11630196124315262,-0.5488214492797852,0.7784428596496582,-0.4091765284538269,0.014969374984502792,0.920857846736908
7.881421804428101,0.03025585226714611,-0.5822330713272095,0.7837721705436707,-0.40163400769233704,0.0713445395231247,0.925338089466095
7.901522636413574,0.09998347610235214,-0.6134017109870911,0.7806640863418579,-0.38772132992744446,0.09872938692569733,0.9209030270576477
7.921581506729126,-0.06486676633358002,-0.5672850012779236,0.7978558540344238,-0.4161002039909363,0.04507694020867348,0.9249221682548523
7.941643714904785,0.09137170016765594,-0.6098591089248657,0.8118119239807129,-0.39917582273483276,0.10383392870426178,0.9259573817253113
7.96172833442688,0.0417182594537735,-0.6031787395477295,0.8137959241867065,-0.4060641825199127,0.09740883111953735,0.9261303544044495
7.981804370880127,-0.089360810816288,-0.5632815361022949,0.8011023998260498,-0.4138473868370056,0.0332074798643589,0.923754870891571
8.001888751983643,0.15703102946281433,-0.6299054622650146,0.8003575801849365,-0.38621315360069275,0.12762627005577087,0.9198783040046692
8.021983623504639,0.0243584755808115,-0.5971435308456421,0.8135226368904114,-0.40482598543167114,0.08008120954036713,0.9173611998558044
8.042076349258423,-0.16169895231723785,-0.55621337890625,0.7760412693023682,-0.4238087236881256,0.003016415983438492,0.913081705570221
8.062141180038452,-0.0051448289304971695,-0.5620914101600647,0.7899028062820435,-0.40881121158599854,0.06669294834136963,0.9257391095161438
8.082242488861084,-0.02044578827917576,-0.577826976776123,0.7803018093109131,-0.4086552858352661,0.06292842328548431,0.9226871728897095
8.102303266525269,-0.07478772103786469,-0.5655555725097656,0.7808145880699158,-0.41070327162742615,0.03265288844704628,0.9180753827095032
8.122398853302002,0.11282320320606232,-0.6040046215057373,0.7832750082015991,-0.3821324408054352,0.10890674591064453,0.9201825261116028
8.14256238937378,0.048965372145175934,-0.6028692722320557,0.8163909316062927,-0.4000190496444702,0.08986364305019379,0.9207419753074646
8.162666320800781,-0.11858529597520828,-0.5601402521133423,0.7932560443878174,-0.418035626411438,0.021286655217409134,0.9192987680435181
8.182741403579712,0.07656320929527283,-0.596482515335083,0.807067334651947,-0.40661126375198364,0.10329033434391022,0.926552951335907
8.202948331832886,-0.06761147826910019,-0.5671754479408264,0.7882993221282959,-0.419109046459198,0.055870551615953445,0.9244520664215088
8.22307562828064,-0.04348708689212799,-0.56494140625,0.7656125426292419,-0.40926772356033325,0.04871964827179909,0.91966313123703
8.243132829666138,0.004264255985617638,-0.5831899642944336,0.7918257117271423,-0.4047752320766449,0.06949704885482788,0.9195887446403503
8.263290643692017,-0.15610593557357788,-0.5473644733428955,0.787967324256897,-0.41144394874572754,0.006812531501054764,0.9202062487602234
8.283373832702637,-0.0958951935172081,-0.5580828189849854,0.7619040608406067,-0.4126603305339813,0.027939070016145706,0.9212033748626709
8.303445816040039,0.1189040020108223,-0.6155933141708374,0.809622049331665,-0.38477474451065063,0.10799221694469452,0.9231917262077332
8.324126482009888,-0.025667859241366386,-0.5840251445770264,0.8042055368423462,-0.40380924940109253,0.04884323105216026,0.9189935922622681
8.344324111938477,-0.08505348861217499,-0.5661803483963013,0.7882884740829468,-0.4143522381782532,0.028907466679811478,0.9227787852287292
8.364338397979736,0.14491154253482819,-0.6149805784225464,0.7920968532562256,-0.38803377747535706,0.128605455160141,0.9286081790924072
8.384414434432983,0.0227383803576231,-0.5863713026046753,0.790847659111023,-0.40414538979530334,0.08438204228878021,0.9237555861473083
8.40451455116272,-0.08905579894781113,-0.5713508129119873,0.7947444319725037,-0.41887134313583374,0.031370218843221664,0.9191783666610718
8.42457365989685,0.10085218399763107,-0.5842995643615723,0.7622845768928528,-0.38697361946105957,0.10805995762348175,0.9233952164649963
8.44463849067688,0.013892998918890953,-0.5835590362548828,0.7934633493423462,-0.39636749029159546,0.06467171013355255,0.918009340763092
8.464725971221924,-0.16908888518810272,-0.5555204153060913,0.798736572265625,-0.41185614466667175,-0.007443901151418686,0.9157209992408752
8.484796285629272,-0.038990020751953125,-0.5619312524795532,0.7854829430580139,-0.4058900475502014,0.04451887682080269,0.9251387715339661
8.504932641983032,0.01825123466551304,-0.5918546915054321,0.7963275909423828,-0.4029010534286499,0.07537578046321869,0.9253773093223572
8.525200843811035,-0.07456260174512863,-0.577855110168457,0.8014132976531982,-0.41673383116722107,0.04156625643372536,0.9248307943344116
8.545285701751709,0.08728846162557602,-0.5889558792114258,0.7650564312934875,-0.3878578543663025,0.10359266400337219,0.9266625046730042
8.565349578857422,0.04331398010253906,-0.5971437692642212,0.8063784837722778,-0.40331196784973145,0.092694953083992,0.9248208403587341
8.585407495498657,-0.17202016711235046,-0.5514907836914062,0.8003106117248535,-0.42204663157463074,0.010730955749750137,0.9243898391723633
8.605494022369385,-0.04402735084295273,-0.5620107650756836,0.8016005754470825,-0.41247478127479553,0.04688357934355736,0.9276016354560852
8.625686407089233,0.03600498288869858,-0.5905749797821045,0.8002834320068359,-0.40238896012306213,0.0809735655784607,0.926558792591095
8.645671606063843,-0.2704898715019226,-0.5406912565231323,0.8002469539642334,-0.42846912145614624,-0.05280334874987602,0.9141882658004761
8.665761232376099,-0.11653973907232285,-0.5494474172592163,0.7664663791656494,-0.4156518280506134,0.03274150565266609,0.9288594126701355
8.685848474502563,0.06983713060617447,-0.5869574546813965,0.7476658821105957,-0.39060935378074646,0.10695524513721466,0.9313309788703918
8.705909490585327,-0.004764964804053307,-0.586518406867981,0.8128023147583008,-0.40365222096443176,0.04844516143202782,0.9221187829971313
8.726000785827637,-0.052057407796382904,-0.5832470655441284,0.7927796840667725,-0.4130198359489441,0.04988241568207741,0.9268296957015991
8.746119499206543,0.05193139612674713,-0.5876562595367432,0.7860188484191895,-0.4027196764945984,0.08121351897716522,0.9270169138908386
8.766147136688232,-0.1808202713727951,-0.5672827363014221,0.8170762062072754,-0.4314989745616913,-0.004324834793806076,0.9156154990196228
8.786236763000488,-0.0025137905031442642,-0.5664637088775635,0.8041476011276245,-0.4058005213737488,0.08812515437602997,0.9323611855506897
8.806307792663574,-0.02722438983619213,-0.5826683044433594,0.7902622222900391,-0.419205904006958,0.06889154016971588,0.9269391894340515
8.826428174972534,-0.09237166494131088,-0.5629584789276123,0.7800855040550232,-0.41287869215011597,0.014862369745969772,0.9180487990379333
8.846475839614868,-0.0803523063659668,-0.5570917129516602,0.7759788036346436,-0.41092926263809204,0.018978673964738846,0.9187524914741516
8.86664366722107,0.09822587668895721,-0.6223971843719482,0.7853440642356873,-0.3857688307762146,0.0999084860086441,0.9189994931221008
8.886646509170532,-0.016212301328778267,-0.579303503036499,0.8012624382972717,-0.3994672894477844,0.05177384987473488,0.9205891489982605
8.906742095947266,-0.033992573618888855,-0.5783294439315796,0.7835410833358765,-0.408235639333725,0.051597099751234055,0.9226977229118347
8.926803588867188,0.042273975908756256,-0.5930908918380737,0.8059882521629333,-0.4067854583263397,0.09492470324039459,0.9290547966957092
8.946860551834106,-0.19905512034893036,-0.5530767440795898,0.7905632257461548,-0.4284505844116211,-0.002757679671049118,0.9210720658302307
8.966968774795532,-0.02496934123337269,-0.5597699880599976,0.7726019024848938,-0.4039705693721771,0.06324094533920288,0.9278053045272827
8.987040996551514,-0.0548788458108902,-0.5725957155227661,0.7844714522361755,-0.41533175110816956,0.05146301910281181,0.9255774617195129
9.007088899612427,-0.01886693201959133,-0.5768499374389648,0.803563117980957,-0.4002203345298767,0.0431317575275898,0.9196920990943909
9.027302026748657,-0.04847598820924759,-0.5748521089553833,0.7852118015289307,-0.4102155566215515,0.044696394354104996,0.9241086840629578
9.047395706176758,-0.027082251384854317,-0.573431134223938,0.7857564091682434,-0.4074282646179199,0.044910978525877,0.9223552942276001
9.067477226257324,0.03086276911199093,-0.595777690410614,0.8042640686035156,-0.4041224718093872,0.08101676404476166,0.9250538945198059
9.087571620941162,-0.11207902431488037,-0.5649642944335938,0.7957221865653992,-0.4227061867713928,0.039198968559503555,0.927095353603363
9.107709169387817,-0.018182067200541496,-0.5672364830970764,0.7973957061767578,-0.41266924142837524,0.06956684589385986,0.930573046207428
9.127840280532837,0.005352562293410301,-0.5883303880691528,0.7921472191810608,-0.40612050890922546,0.06309179961681366,0.9187028408050537
9.148116827011108,-0.07324964553117752,-0.5705447196960449,0.7958266735076904,-0.4171271026134491,0.035398971289396286,0.9181725382804871
9.168217897415161,-0.2573700547218323,-0.5374523401260376,0.7903963327407837,-0.4225007891654968,-0.041116561740636826,0.9136728644371033
9.188321113586426,-0.06402990221977234,-0.5633338689804077,0.789661169052124,-0.4124320149421692,0.024074386805295944,0.9177444577217102
9.208633661270142,-0.05326572060585022,-0.572356104850769,0.8003823161125183,-0.405033677816391,0.03835071250796318,0.9181445837020874
9.228744268417358,0.0901043489575386,-0.6039891242980957,0.7380766868591309,-0.38643157482147217,0.12086810171604156,0.9237468242645264
9.248821258544922,0.09802668541669846,-0.6010481119155884,0.7959853410720825,-0.39160096645355225,0.12314401566982269,0.9261348843574524
9.268913984298706,-0.02730853296816349,-0.5631760358810425,0.7836982607841492,-0.41510504484176636,0.08724157512187958,0.93080073595047
9.288997888565063,0.08106765896081924,-0.5968441963195801,0.7793576121330261,-0.4023209810256958,0.10813058912754059,0.9236891865730286
9.309094667434692,0.04373704642057419,-0.5889196395874023,0.7972680330276489,-0.3956288695335388,0.09954904019832611,0.9220206141471863
9.329161882400513,-0.14326906204223633,-0.5421910285949707,0.7810345888137817,-0.41367727518081665,0.0034146495163440704,0.9135938286781311
9.34927487373352,0.03613371402025223,-0.5628482699394226,0.7762578725814819,-0.4063713848590851,0.08029167354106903,0.9205020070075989
9.369363784790039,-0.16149203479290009,-0.5506224632263184,0.8052173852920532,-0.4168524742126465,-0.007082786411046982,0.9133275151252747
9.389413118362427,-0.12160501629114151,-0.5483399629592896,0.7716352939605713,-0.4081847667694092,0.00681820884346962,0.9183903932571411
9.409473180770874,-0.019579162821173668,-0.5654730796813965,0.7834986448287964,-0.41677960753440857,0.05541670694947243,0.9241908192634583
9.429551601409912,-0.007647531107068062,-0.5847839117050171,0.7951265573501587,-0.4048803746700287,0.05736340209841728,0.9213603138923645
9.449621677398682,-0.051498010754585266,-0.5619964003562927,0.7809358835220337,-0.41339653730392456,0.05630691722035408,0.928003191947937
9.469841480255127,0.06001477688550949,-0.5934638381004333,0.8002829551696777,-0.4089309275150299,0.09279999136924744,0.9267721772193909
9.490023136138916,0.014915795996785164,-0.5933194160461426,0.8014086484909058,-0.4067392349243164,0.08284558355808258,0.9271451830863953
9.510067462921143,-0.13815946877002716,-0.551719069480896,0.7824058532714844,-0.42236465215682983,0.0126592256128788,0.9232133626937866
9.530114889144897,-0.011552968993782997,-0.576299786567688,0.7845896482467651,-0.41004085540771484,0.05813891813158989,0.927162230014801
9.55019736289978,0.004115452989935875,-0.5841526389122009,0.7777997851371765,-0.4000971019268036,0.05374685302376747,0.9209859371185303
9.57028079032898,-0.08345098048448563,-0.5690733790397644,0.7916224598884583,-0.41438886523246765,0.02830773964524269,0.9225918650627136
9.590319156646729,0.14806604385375977,-0.6244237422943115,0.7950596213340759,-0.3815252184867859,0.12344446778297424,0.9247776865959167
9.610455751419067,-0.03387153148651123,-0.5947879552841187,0.8163406848907471,-0.4150903820991516,0.06235017254948616,0.9236227869987488
9.630543231964111,0.053705327212810516,-0.5807151198387146,0.7725540399551392,-0.3969167470932007,0.08513288199901581,0.9238809943199158
9.650838136672974,-0.0401044562458992,-0.5881447792053223,0.8051003217697144,-0.4196934103965759,0.06710587441921234,0.921027421951294
9.670930862426758,0.0008310433477163315,-0.5704588890075684,0.801421046257019,-0.4114699363708496,0.08747798204421997,0.92695552110672
9.691012144088745,-0.03422876447439194,-0.565078854560852,0.7910242676734924,-0.4126366376876831,0.060804810374975204,0.9222007393836975
9.711071491241455,-0.08351949602365494,-0.5595438480377197,0.7860732674598694,-0.4141802489757538,0.02862543985247612,0.916203498840332
9.731159448623657,0.0640258714556694,-0.5842459201812744,0.7701903581619263,-0.3882746994495392,0.0854041576385498,0.9167277812957764
9.751224040985107,-0.023026125505566597,-0.5830732583999634,0.8001302480697632,-0.40735191106796265,0.06317608058452606,0.9183200001716614
9.77132797241211,-0.08277343958616257,-0.5663864612579346,0.7841880321502686,-0.41079407930374146,0.035343606024980545,0.9173449873924255
9.791412353515625,0.14437361061573029,-0.6042487621307373,0.7955013513565063,-0.38184261322021484,0.12982456386089325,0.9243687987327576
9.811474323272705,0.07928352802991867,-0.6023296117782593,0.8319355249404907,-0.40286749601364136,0.12090401351451874,0.9229010939598083
9.831567287445068,0.03639315068721771,-0.5931296348571777,0.8108121156692505,-0.40250736474990845,0.09449848532676697,0.9183714985847473
9.8516526222229,-0.1257670372724533,-0.5459191799163818,0.8114862442016602,-0.42155590653419495,0.03714293614029884,0.922993004322052
9.871806621551514,0.04238426685333252,-0.5833569765090942,0.7652748823165894,-0.3968009650707245,0.09085117280483246,0.9184940457344055
9.891931295394897,-0.1649802029132843,-0.5484051704406738,0.7943902611732483,-0.4245089888572693,-0.0015108250081539154,0.910485565662384
9.911998987197876,-0.09326464682817459,-0.5483272075653076,0.7590852975845337,-0.4052015244960785,0.025529954582452774,0.9163859486579895
9.932075500488281,-0.03669809550046921,-0.5617039203643799,0.7801743149757385,-0.4069739878177643,0.049285855144262314,0.9208495020866394
9.952150106430054,0.05330224335193634,-0.600662887096405,0.7962881922721863,-0.39553242921829224,0.09166011214256287,0.9190683364868164
9.972223997116089,-0.10642678290605545,-0.5627031922340393,0.7938872575759888,-0.4172650873661041,0.03309640660881996,0.9195533990859985
9.992318630218506,0.07452931255102158,-0.5795515179634094,0.7787823677062988,-0.3966779410839081,0.11059047281742096,0.9272040724754333
10.012428283691406,-0.03316791355609894,-0.5800048112869263,0.8125793933868408,-0.4162783920764923,0.058762531727552414,0.917340099811554
10.03251576423645,-0.040733449161052704,-0.5714894533157349,0.772438645362854,-0.41309428215026855,0.0510101281106472,0.9152916073799133
10.05261754989624,-0.05618900805711746,-0.5614902973175049,0.8009181618690491,-0.41664713621139526,0.05520884320139885,0.9214316010475159
10.072684526443481,-0.024675259366631508,-0.5685093402862549,0.7557948231697083,-0.40482836961746216,0.05451900139451027,0.915726900100708
10.092737197875977,-0.028459379449486732,-0.5675908327102661,0.7929583787918091,-0.40678319334983826,0.05300784483551979,0.9175856709480286
10.112833261489868,-0.043779194355010986,-0.5686442255973816,0.7769747376441956,-0.4050455093383789,0.046302419155836105,0.916692852973938
10.13291597366333,-0.04093344509601593,-0.5692604780197144,0.7957562208175659,-0.4066813886165619,0.041707124561071396,0.9172375798225403
10.152965545654297,-0.005669945850968361,-0.5740376114845276,0.785819947719574,-0.40667980909347534,0.06076306477189064,0.91929692029953
10.173067808151245,0.011485161259770393,-0.5785858035087585,0.8020687103271484,-0.40592896938323975,0.07528336346149445,0.9225332140922546
10.193140745162964,-0.14660346508026123,-0.5554345846176147,0.7716143131256104,-0.42198196053504944,0.015832800418138504,0.918650209903717
10.2131986618042,0.007521947845816612,-0.5790935754776001,0.7773457169532776,-0.40688222646713257,0.07831211388111115,0.924241840839386
10.233360767364502,-0.12605570256710052,-0.559694766998291,0.7941024303436279,-0.41902199387550354,0.017889637500047684,0.9185294508934021
10.253447771072388,-0.10799557715654373,-0.5531494617462158,0.7799822092056274,-0.41060662269592285,0.01761997863650322,0.9186790585517883
10.273514986038208,0.10618869960308075,-0.6029038429260254,0.795818567276001,-0.38882312178611755,0.1063387542963028,0.923204243183136
10.293730735778809,-0.02969464845955372,-0.5803096294403076,0.7970102429389954,-0.4068884253501892,0.05421179160475731,0.9189582467079163
10.313830614089966,-0.1704159528017044,-0.5494358539581299,0.7578842639923096,-0.4204551875591278,-0.00018319115042686462,0.9182643890380859
10.333900213241577,-0.026314718648791313,-0.5652949213981628,0.7998374700546265,-0.4176199436187744,0.0459870882332325,0.9270355105400085
10.353955268859863,-0.015724653378129005,-0.5839962959289551,0.7730045318603516,-0.4051811695098877,0.05620848014950752,0.9191181063652039
10.374051094055176,-0.03880748897790909,-0.575670599937439,0.7685667276382446,-0.4031253457069397,0.05609436705708504,0.9195409417152405
10.394120216369629,-0.06637987494468689,-0.5674029588699341,0.7833928465843201,-0.41172412037849426,0.047380317002534866,0.9225749969482422
10.414221048355103,0.07254858314990997,-0.6023083925247192,0.7977300882339478,-0.39172035455703735,0.08182184398174286,0.9159995317459106
10.434285879135132,0.07798060774803162,-0.5985299348831177,0.8014944791793823,-0.3927171230316162,0.10461167991161346,0.9207371473312378
10.454394340515137,-0.04724973440170288,-0.5627157688140869,0.8251734972000122,-0.41451677680015564,0.0503959096968174,0.9227038025856018
10.474422693252563,0.07370702922344208,-0.5933804512023926,0.7395398616790771,-0.4009486436843872,0.10310415923595428,0.9184322953224182
10.494521141052246,0.025415444746613503,-0.5751079320907593,0.7994186878204346,-0.405897855758667,0.07627131044864655,0.9186220169067383
10.51459264755249,-0.20296813547611237,-0.5471969842910767,0.7704635858535767,-0.42890533804893494,-0.0006048493087291718,0.9132789373397827
10.534667253494263,-0.10904163867235184,-0.5598996877670288,0.7512769103050232,-0.41575348377227783,0.02678569033741951,0.9147056937217712
10.554814338684082,-0.011625805869698524,-0.5628769993782043,0.7649222016334534,-0.3976936936378479,0.06367780268192291,0.9179991483688354
10.574972867965698,-0.026920663192868233,-0.5876740217208862,0.824829638004303,-0.4055643379688263,0.057198766618967056,0.916036069393158
10.595010042190552,-0.0450483039021492,-0.5624338388442993,0.7562612891197205,-0.4025779664516449,0.05411318317055702,0.9197990298271179
10.615066766738892,0.13063786923885345,-0.6093714237213135,0.8453013300895691,-0.39754918217658997,0.12127231061458588,0.9215269684791565
10.635165214538574,-0.011531198397278786,-0.5862206220626831,0.8061078190803528,-0.4082075357437134,0.062107328325510025,0.9115803837776184
10.655237913131714,0.010659614577889442,-0.5739790201187134,0.8026065826416016,-0.40082618594169617,0.07369360327720642,0.9164823889732361
10.675291299819946,-0.15895603597164154,-0.5420547723770142,0.7931432723999023,-0.4203144311904907,0.01932154968380928,0.9195431470870972
10.695375919342041,-0.05317835509777069,-0.5532897710800171,0.7774584293365479,-0.40821582078933716,0.0536603145301342,0.9220861792564392
10.715447187423706,-0.04136740416288376,-0.5616716146469116,0.7812118530273438,-0.4029865860939026,0.04328202083706856,0.9149622917175293
10.7356116771698,-0.03532799333333969,-0.5734460353851318,0.7874939441680908,-0.40172237157821655,0.04714393988251686,0.9141520261764526
10.75561785697937,-0.054959118366241455,-0.5665487051010132,0.7942841053009033,-0.40515267848968506,0.04145123437047005,0.917057991027832
10.77568793296814,0.04541903734207153,-0.5818359851837158,0.7752645015716553,-0.3938586711883545,0.08222046494483948,0.9191201329231262
10.795758962631226,-0.0774015262722969,-0.5700104236602783,0.822467565536499,-0.4185878336429596,0.03940609470009804,0.9183052182197571
10.816004276275635,0.10037312656641006,-0.5865477919578552,0.736693263053894,-0.38796865940093994,0.1293649822473526,0.9261133074760437
10.836071968078613,0.16210006177425385,-0.6264404058456421,0.7839292883872986,-0.37595468759536743,0.13546277582645416,0.9188665747642517
10.85613751411438,0.03689682483673096,-0.5897278785705566,0.7945775985717773,-0.40547776222229004,0.10689060389995575,0.9176294207572937
10.876331329345703,-0.11597897857427597,-0.5497538447380066,0.7817065715789795,-0.4181734621524811,0.033742595463991165,0.9143569469451904
10.8964204788208,0.08553516119718552,-0.5738786458969116,0.7687597274780273,-0.38865453004837036,0.11129197478294373,0.9181702733039856
10.916499137878418,-0.012967044487595558,-0.5746281147003174,0.799824059009552,-0.4051801562309265,0.06256718933582306,0.9094704985618591
10.936558246612549,-0.04704984277486801,-0.5572191476821899,0.7840138673782349,-0.4065428376197815,0.04653720185160637,0.9111121296882629
10.956648588180542,-0.059674449265003204,-0.557544469833374,0.7931784987449646,-0.41228187084198,0.05343585088849068,0.9155152440071106
10.976724624633789,0.017655620351433754,-0.5721460580825806,0.7807793617248535,-0.39892253279685974,0.08176690340042114,0.9154844880104065
10.996812582015991,-0.19841912388801575,-0.5445470809936523,0.786192774772644,-0.42017069458961487,-0.011628475040197372,0.9075019955635071
11.01686406135559,-0.1340942531824112,-0.5381353497505188,0.7677139639854431,-0.4119841456413269,0.02064809575676918,0.9155097603797913
11.036949872970581,0.032479427754879,-0.5704879760742188,0.7625947594642639,-0.39675989747047424,0.07815609872341156,0.917403519153595
11.057031631469727,-0.14592039585113525,-0.5569944381713867,0.8138020038604736,-0.41698169708251953,-0.004074137657880783,0.9068646430969238
11.0772705078125,-0.07525353878736496,-0.5593997240066528,0.7733878493309021,-0.4076639413833618,0.03251020982861519,0.9146530032157898
11.09738540649414,0.048568934202194214,-0.5772749185562134,0.7782944440841675,-0.39593037962913513,0.0829830914735794,0.9177225232124329
11.117466449737549,-0.11375819891691208,-0.5676783919334412,0.8059184551239014,-0.42314520478248596,0.02379174903035164,0.9114766120910645
11.13776159286499,0.05238792300224304,-0.5785883069038391,0.7839576005935669,-0.39972662925720215,0.09106616675853729,0.9197129607200623
11.15789008140564,-0.0011624637991189957,-0.577756404876709,0.7974798679351807,-0.41047924757003784,0.0680195540189743,0.9168285727500916
11.177960634231567,-0.07511764764785767,-0.5496174693107605,0.7764410376548767,-0.40690338611602783,0.028074253350496292,0.9156421422958374
11.198018789291382,0.0777456983923912,-0.5987549424171448,0.7908301949501038,-0.3938533067703247,0.09432977437973022,0.9150606393814087
11.218108415603638,0.011410819366574287,-0.5805165767669678,0.8048480153083801,-0.4036826491355896,0.06356070935726166,0.9139024615287781
11.238176822662354,-0.0898062214255333,-0.554017961025238,0.7850039005279541,-0.41081035137176514,0.023827794939279556,0.915025532245636
11.258270978927612,0.1372138112783432,-0.6062741279602051,0.7925287485122681,-0.3844054937362671,0.12746496498584747,0.9203925132751465
11.27841830253601,-0.05902179330587387,-0.5805631279945374,0.80576092004776,-0.41794973611831665,0.05290036275982857,0.9152225852012634
11.29850149154663,0.055832087993621826,-0.5884133577346802,0.7745507955551147,-0.39713576436042786,0.09191824495792389,0.9158226251602173
11.318573236465454,-0.08254556357860565,-0.5481652021408081,0.791968584060669,-0.4102327227592468,0.036344487220048904,0.9176861643791199
11.339072704315186,0.08393274992704391,-0.5985440015792847,0.7586327791213989,-0.38781338930130005,0.10993675887584686,0.9159544110298157
11.359165668487549,-0.011794032528996468,-0.5761751532554626,0.7943353652954102,-0.40251946449279785,0.05085890367627144,0.9105866551399231
11.37923812866211,-0.031137587502598763,-0.5646799802780151,0.7847041487693787,-0.40329188108444214,0.05378084257245064,0.915897011756897
11.399301528930664,0.013611910864710808,-0.5747665166854858,0.7997351288795471,-0.4034971594810486,0.07241863012313843,0.9172986149787903
11.419447183609009,0.016756432130932808,-0.5816745758056641,0.7924208045005798,-0.40483346581459045,0.08265917003154755,0.9185553193092346
11.43949294090271,-0.1299746185541153,-0.5489208698272705,0.7849411964416504,-0.421894907951355,0.01965901628136635,0.9167003035545349
11.459846258163452,0.06724459677934647,-0.5957581400871277,0.7905274033546448,-0.39960867166519165,0.0980728268623352,0.9179787039756775
11.479934453964233,-0.005785124376416206,-0.5797641277313232,0.7931084632873535,-0.4067322015762329,0.06328655779361725,0.913450300693512
11.500007629394531,-0.03990276902914047,-0.5621490478515625,0.7826396226882935,-0.4102770686149597,0.05205002799630165,0.9161221385002136
11.520156860351562,-0.0011724922806024551,-0.571293830871582,0.7895854711532593,-0.40514951944351196,0.07054471969604492,0.9183176755905151
11.54022765159607,-0.01150730811059475,-0.571908712387085,0.7934046387672424,-0.4039982855319977,0.061020854860544205,0.9168139100074768
11.560309886932373,-0.023099271580576897,-0.5696531534194946,0.7834910154342651,-0.41092512011528015,0.05907726660370827,0.9167279601097107
11.580362796783447,-0.014651468023657799,-0.5719192028045654,0.7868905663490295,-0.40744373202323914,0.06479088962078094,0.9183124303817749
11.60048508644104,-0.043166384100914,-0.567699670791626,0.7886638641357422,-0.4116053581237793,0.052541788667440414,0.9178541302680969
11.620540857315063,-0.034337908029556274,-0.5654525756835938,0.7813611030578613,-0.4055781662464142,0.04984583333134651,0.9169303774833679
11.640644788742065,-0.01874646730720997,-0.571581244468689,0.7958307266235352,-0.4065857231616974,0.05697451904416084,0.917976975440979
11.660707473754883,-0.02260761894285679,-0.5716354846954346,0.7883164286613464,-0.40685978531837463,0.05521688982844353,0.917401134967804
11.680786848068237,-0.01724904216825962,-0.5701625347137451,0.7899981737136841,-0.407871276140213,0.05632086470723152,0.9179319739341736
11.700828790664673,-0.011566461995244026,-0.572897732257843,0.7930983304977417,-0.40865927934646606,0.06090829148888588,0.9188987612724304
11.720915079116821,-0.019707927480340004,-0.5731467008590698,0.7862489819526672,-0.4082575738430023,0.05904694274067879,0.9187816977500916
11.74098515510559,-0.02271057479083538,-0.5679105520248413,0.7924546003341675,-0.40819400548934937,0.057306919246912,0.9209081530570984
11.761084079742432,-0.01970619149506092,-0.5728263854980469,0.7824409604072571,-0.40869849920272827,0.05855782702565193,0.9196221232414246
11.781319618225098,-0.051998816430568695,-0.5677679777145386,0.8034132719039917,-0.4106549024581909,0.04109649732708931,0.9188641905784607
11.801465511322021,0.0037544239312410355,-0.5715643167495728,0.769584059715271,-0.3994106948375702,0.061105240136384964,0.9184644818305969
11.821513414382935,-0.019641024991869926,-0.5822505950927734,0.8058534264564514,-0.4110889136791229,0.06114398315548897,0.9194167256355286
11.842462062835693,-0.0046533141285181046,-0.5629416704177856,0.7819941639900208,-0.4047953486442566,0.057484839111566544,0.9206281304359436
11.862560033798218,0.09817367792129517,-0.5948992967605591,0.8082348108291626,-0.3900045156478882,0.10582683980464935,0.9235594868659973
11.882642984390259,-0.027463769540190697,-0.572238564491272,0.7926492691040039,-0.40715861320495605,0.05890930816531181,0.9198190569877625
11.902702569961548,-0.08891668170690536,-0.553650975227356,0.7923386096954346,-0.416124165058136,0.021992240101099014,0.9191047549247742
11.922790050506592,0.00413820706307888,-0.5658652782440186,0.78098464012146,-0.4034523665904999,0.062045324593782425,0.920457661151886
11.942888736724854,-0.07587072998285294,-0.5714849233627319,0.7963600158691406,-0.4146464765071869,0.031382400542497635,0.915552020072937
11.962933778762817,0.08541803061962128,-0.588747501373291,0.7710594534873962,-0.3835461139678955,0.09625165164470673,0.9191457033157349
11.983020305633545,0.09125149250030518,-0.6052621006965637,0.7973737716674805,-0.3919047713279724,0.09718011319637299,0.9167404174804688
12.003090381622314,-0.017088407650589943,-0.5751953125,0.7879865169525146,-0.40251946449279785,0.05703536793589592,0.9155045747756958
12.023171663284302,0.013721482828259468,-0.5697076320648193,0.7955840826034546,-0.40519845485687256,0.09315860271453857,0.927570641040802
12.043251991271973,0.053708262741565704,-0.5891585350036621,0.7861775159835815,-0.4001730680465698,0.09561266005039215,0.9226791262626648
12.06331181526184,-0.8652292490005493,-0.9247978925704956,0.8665076494216919,-0.3437303602695465,-0.09335257112979889,1.110446810722351
12.083427667617798,-0.9504446387290955,-0.8586835861206055,0.8455415964126587,-0.31760916113853455,-0.07123683393001556,1.1600722074508667
12.103520631790161,-0.9319002628326416,-0.843773365020752,0.833622395992279,-0.3162326216697693,-0.05027894303202629,1.1628026962280273
12.123597621917725,-0.942892849445343,-0.8444737195968628,0.835421085357666,-0.3156631886959076,-0.05497151240706444,1.1629903316497803
12.14367961883545,-0.9229238033294678,-0.848131537437439,0.8411580920219421,-0.3177909255027771,-0.044220637530088425,1.1659629344940186
12.163965940475464,-0.8956361413002014,-0.8529119491577148,0.8372980952262878,-0.320209264755249,-0.030122142285108566,1.1687971353530884
12.184075593948364,-0.8888779878616333,-0.8571336269378662,0.8380484580993652,-0.3210397958755493,-0.03014422580599785,1.1690315008163452
12.204103231430054,-0.8993661999702454,-0.8549786806106567,0.8453590869903564,-0.3176157772541046,-0.039582978934049606,1.166198968887329
12.224181175231934,-0.9078985452651978,-0.8522840738296509,0.8415270447731018,-0.3172951340675354,-0.042156677693128586,1.16476309299469
12.24422311782837,-0.9192546606063843,-0.8480263948440552,0.841159462928772,-0.31564760208129883,-0.04674730822443962,1.1629480123519897
12.264276266098022,-0.8871275782585144,-0.8556934595108032,0.8586262464523315,-0.30966442823410034,-0.03894120082259178,1.1651890277862549
12.284394979476929,-0.9029121398925781,-0.857072114944458,0.8477864265441895,-0.31418514251708984,-0.04077684506773949,1.1647498607635498
12.304449081420898,-0.8991388082504272,-0.8519750833511353,0.8422107100486755,-0.3152540922164917,-0.034693580120801926,1.1652976274490356
12.324504375457764,-0.874092161655426,-0.8557263612747192,0.8482000827789307,-0.3138977885246277,-0.028714295476675034,1.1659573316574097
12.344624519348145,-0.8922339081764221,-0.8560330867767334,0.8472805023193359,-0.3156454265117645,-0.03576476499438286,1.1649699211120605
12.364713430404663,-0.8843488693237305,-0.8550083637237549,0.8434587717056274,-0.31562429666519165,-0.03347575291991234,1.1645855903625488
12.385062456130981,-0.8968460559844971,-0.8507602214813232,0.8414982557296753,-0.31497177481651306,-0.03759494051337242,1.1627594232559204
12.40514850616455,-0.8981020450592041,-0.8493320941925049,0.8421803116798401,-0.31341689825057983,-0.03684128448367119,1.162703037261963
12.425225973129272,-0.8802342414855957,-0.8536443710327148,0.8424537181854248,-0.3125948905944824,-0.03064265474677086,1.164070963859558
12.446326971054077,-0.8936048746109009,-0.8512004613876343,0.8454478979110718,-0.3125794529914856,-0.03524249419569969,1.1629252433776855
12.466420650482178,-0.8776270151138306,-0.8509939908981323,0.8378034830093384,-0.3129047155380249,-0.027919452637434006,1.1630271673202515
12.486470699310303,-0.8790193796157837,-0.8532178401947021,0.8433129787445068,-0.31239402294158936,-0.030221130698919296,1.163344383239746
12.50654673576355,-0.8671276569366455,-0.8532726764678955,0.840878427028656,-0.31326529383659363,-0.02532760426402092,1.163405418395996
12.52664566040039,-0.8653724193572998,-0.8546222448348999,0.8431310653686523,-0.3130608797073364,-0.024988096207380295,1.1637805700302124
12.546771764755249,-0.8563585877418518,-0.8536468744277954,0.8391513228416443,-0.3112017810344696,-0.019911672919988632,1.1636065244674683
12.566831111907959,-0.8606528043746948,-0.8553886413574219,0.8432336449623108,-0.3105214238166809,-0.023993756622076035,1.163206696510315
12.586894750595093,-0.847611129283905,-0.8558417558670044,0.8434142470359802,-0.3093787729740143,-0.01795811578631401,1.1638456583023071
12.606956720352173,-0.824181318283081,-0.8612734079360962,0.8782901167869568,-0.2992590367794037,-0.01713220402598381,1.1645715236663818
12.62702465057373,-0.8382018804550171,-0.8574008941650391,0.8511162400245667,-0.30772313475608826,-0.014640714973211288,1.1633265018463135
12.647116661071777,-0.8269577026367188,-0.8626964092254639,0.8738182187080383,-0.3006642460823059,-0.017606448382139206,1.1639752388000488
12.667192459106445,-0.8262459635734558,-0.8628756999969482,0.8556015491485596,-0.3063149154186249,-0.012267719954252243,1.163179874420166
12.687268257141113,-0.8250739574432373,-0.863750696182251,0.8521953821182251,-0.3055061399936676,-0.01005123183131218,1.162742257118225
12.707430839538574,-0.8198468685150146,-0.8611193895339966,0.8473950624465942,-0.30644047260284424,-0.005819123238325119,1.1629137992858887
12.727533102035522,-0.8227654695510864,-0.8611775636672974,0.8495050072669983,-0.30735403299331665,-0.008166905492544174,1.162916660308838
12.747666120529175,-0.8190597891807556,-0.8580447435379028,0.8422589898109436,-0.3070327639579773,-0.0042963288724422455,1.1622602939605713
12.768107414245605,-0.8098730444908142,-0.8604105710983276,0.8471323251724243,-0.30729109048843384,-0.001824658364057541,1.1626390218734741
12.788220405578613,-0.8061318397521973,-0.861748218536377,0.8496034145355225,-0.3060850501060486,-0.0007598064839839935,1.1629551649093628
12.808323621749878,-0.8081240653991699,-0.8615918159484863,0.8532072901725769,-0.30629387497901917,-0.0019142292439937592,1.1625374555587769
12.828352212905884,-0.7997661828994751,-0.8642818927764893,0.8580282330513,-0.30312448740005493,-0.00270954892039299,1.161783218383789
12.8484468460083,-0.785729169845581,-0.8633424043655396,0.8542931079864502,-0.3022562563419342,0.007555697113275528,1.1625713109970093
12.86851191520691,-0.7712122201919556,-0.8644589185714722,0.8551150560379028,-0.30443888902664185,0.014446128159761429,1.1632376909255981
12.88857913017273,-0.7772754430770874,-0.8648563623428345,0.8673415184020996,-0.2982157766819,0.005637217313051224,1.1614229679107666
12.909386157989502,-0.7586653232574463,-0.8657951354980469,0.8662825226783752,-0.2964719533920288,0.015363667160272598,1.1621984243392944
12.92948293685913,-0.7917791604995728,-0.8658736944198608,0.8620749115943909,-0.298850417137146,0.003181193023920059,1.1600341796875
12.9495530128479,-0.7991880178451538,-0.8581047058105469,0.8571416735649109,-0.3005942106246948,0.003145430237054825,1.1586166620254517
12.96961784362793,-0.7674145698547363,-0.8623877763748169,0.8556892275810242,-0.30021926760673523,0.01590834930539131,1.1603164672851562
12.989704132080078,-0.790217399597168,-0.8612143993377686,0.8597311973571777,-0.29940032958984375,0.00436638668179512,1.158416748046875
13.00981330871582,-0.7682651281356812,-0.8619463443756104,0.8543540239334106,-0.29979610443115234,0.015722516924142838,1.1589972972869873
13.029910564422607,-0.7727140784263611,-0.8611750602722168,0.8568068146705627,-0.3002052307128906,0.01262165978550911,1.1583079099655151
13.049992561340332,-0.7515195608139038,-0.8609685897827148,0.8492873311042786,-0.29808562994003296,0.02414878085255623,1.159014344215393
13.07006549835205,-0.7531068325042725,-0.8633149862289429,0.8567858934402466,-0.2985139489173889,0.021130386739969254,1.1586816310882568
13.090121984481812,-0.7136920690536499,-0.8678164482116699,0.8687281012535095,-0.2934446632862091,0.03376789763569832,1.160593867301941
13.11022138595581,-0.7415910959243774,-0.8678485155105591,0.85935378074646,-0.29612815380096436,0.024792436510324478,1.1583924293518066
13.13032579421997,-0.7231912612915039,-0.8654690980911255,0.8559781312942505,-0.29492712020874023,0.03255351260304451,1.1583219766616821
13.15042757987976,-0.7147154211997986,-0.8643901348114014,0.8549414277076721,-0.29392075538635254,0.03714274242520332,1.157671570777893
13.1704843044281,-0.7322021722793579,-0.8635355234146118,0.859050452709198,-0.29244863986968994,0.028370428830385208,1.1565250158309937
13.1905677318573,-0.7236907482147217,-0.8653855323791504,0.8594961166381836,-0.29410088062286377,0.029050562530755997,1.1564264297485352
13.210730791091919,-0.7044602632522583,-0.8694816827774048,0.8684797883033752,-0.2902155816555023,0.03807692602276802,1.1581354141235352
13.230885028839111,-0.6884838342666626,-0.867222785949707,0.8735357522964478,-0.2884930372238159,0.04646353796124458,1.1589196920394897
13.250999927520752,-0.7081763744354248,-0.8648775815963745,0.8608603477478027,-0.2914632260799408,0.03880052641034126,1.1559967994689941
13.271054983139038,-0.6617093086242676,-0.8701752424240112,0.8705024123191833,-0.2848219573497772,0.05256124213337898,1.1570285558700562
13.291134119033813,-0.7033748626708984,-0.8664668798446655,0.8796477913856506,-0.28570398688316345,0.0342271663248539,1.1540359258651733
13.311250686645508,-0.671149492263794,-0.867740273475647,0.8674957156181335,-0.2847367823123932,0.050964582711458206,1.1559172868728638
13.331366539001465,-0.6474959254264832,-0.8691834211349487,0.8574345707893372,-0.2849968671798706,0.06501223146915436,1.156112551689148
13.351559162139893,-0.6328829526901245,-0.8706629276275635,0.8602739572525024,-0.2827739417552948,0.07229696214199066,1.1561927795410156
13.371649265289307,-0.6590681672096252,-0.8672585487365723,0.865588903427124,-0.2837177813053131,0.05730276182293892,1.1535943746566772
13.391749382019043,-0.622341513633728,-0.8706082105636597,0.8741647601127625,-0.27912136912345886,0.07306140661239624,1.1554547548294067
13.411797761917114,-0.577191948890686,-0.8738921880722046,0.8792433142662048,-0.27512821555137634,0.0898987203836441,1.1563271284103394
13.431878089904785,-0.6213747262954712,-0.871213436126709,0.8661096096038818,-0.2801990211009979,0.07510994374752045,1.152317762374878
13.451951026916504,-0.6315501928329468,-0.8684918880462646,0.8697125911712646,-0.2785876989364624,0.0695633739233017,1.1490592956542969
13.472009181976318,-0.5844521522521973,-0.8742278814315796,0.8710461854934692,-0.27842873334884644,0.0912245661020279,1.1505168676376343
13.492103099822998,-0.5064390301704407,-0.8742375373840332,0.8903448581695557,-0.2612046003341675,0.11398857831954956,1.152475357055664
13.512214660644531,-0.47507837414741516,-0.8762592077255249,0.9017859101295471,-0.2554123103618622,0.126091867685318,1.1516987085342407
13.53221869468689,-0.4723515808582306,-0.8735682964324951,0.907202959060669,-0.25555017590522766,0.12851686775684357,1.149257779121399
13.552301168441772,-0.5018479824066162,-0.8757963180541992,0.8695476651191711,-0.2601580023765564,0.12590844929218292,1.1450425386428833
13.572377920150757,-0.458354115486145,-0.8780744075775146,0.8710424304008484,-0.25149697065353394,0.1474422961473465,1.1442049741744995
13.592437028884888,-0.42566370964050293,-0.8790453672409058,0.863736093044281,-0.24638251960277557,0.1626182347536087,1.1413307189941406
13.612881422042847,-0.3228190243244171,-0.8825292587280273,0.9778452515602112,-0.22905363142490387,0.1584041863679886,1.1431828737258911
13.63296627998352,-0.22340980172157288,-0.8894691467285156,1.010996699333191,-0.20806217193603516,0.1878879964351654,1.1416388750076294
13.653090715408325,-0.17457476258277893,-0.8805227279663086,1.0385348796844482,-0.2158934623003006,0.19737647473812103,1.1357696056365967
13.673224449157715,-0.19218571484088898,-0.8649921417236328,1.0655646324157715,-0.21573133766651154,0.18498271703720093,1.1292647123336792
13.693320274353027,-0.26294052600860596,-0.8784493207931519,0.9336156845092773,-0.23254945874214172,0.22026608884334564,1.1235891580581665
13.713399410247803,-0.228549525141716,-0.873969316482544,0.944675862789154,-0.21840299665927887,0.23419387638568878,1.1192547082901
13.7334566116333,-0.22237339615821838,-0.8620470762252808,0.9685304760932922,-0.23157858848571777,0.2262779325246811,1.1131645441055298
13.753590822219849,-0.14593474566936493,-0.8214865922927856,1.098821759223938,-0.22294259071350098,0.17903319001197815,1.1092029809951782
13.773624658584595,-0.18284790217876434,-0.8182095289230347,1.0709912776947021,-0.22219009697437286,0.17926834523677826,1.1078275442123413
13.793695211410522,-0.18996518850326538,-0.8314574956893921,1.0630379915237427,-0.2272571325302124,0.18815532326698303,1.1061328649520874
13.8138427734375,-0.22253352403640747,-0.8472929000854492,0.9745544195175171,-0.2246839851140976,0.20979072153568268,1.1046539545059204
13.833964347839355,-0.23818467557430267,-0.8456065654754639,1.0024935007095337,-0.22562386095523834,0.20805677771568298,1.1059379577636719
13.854003667831421,-0.22472266852855682,-0.8467872142791748,0.9580801725387573,-0.2328377366065979,0.22121582925319672,1.1054340600967407
13.874093055725098,-0.18450084328651428,-0.836553692817688,0.9925704598426819,-0.22060774266719818,0.213462695479393,1.1054400205612183
13.894173622131348,-0.19107083976268768,-0.8407816886901855,0.9838506579399109,-0.2187115103006363,0.21462829411029816,1.1051504611968994
13.914214134216309,-0.18420501053333282,-0.8490486145019531,0.9819725751876831,-0.21712447702884674,0.22288228571414948,1.1031558513641357
13.934300184249878,-0.25267577171325684,-0.8542290925979614,0.9727782607078552,-0.22907374799251556,0.21010608971118927,1.0981866121292114
13.95438551902771,-0.2600928544998169,-0.8596935272216797,0.9696131944656372,-0.22274120151996613,0.2155689150094986,1.0976283550262451
13.974451065063477,-0.25966405868530273,-0.865837574005127,0.958585798740387,-0.2218203991651535,0.2183767706155777,1.0960749387741089
13.994996547698975,-0.2924152910709381,-0.8708744049072266,0.9567734599113464,-0.2205972969532013,0.21518422663211823,1.094025731086731
14.015087604522705,-0.270673006772995,-0.8666751384735107,0.9496970176696777,-0.22543112933635712,0.22139568626880646,1.093263030052185
14.03515076637268,-0.2613495886325836,-0.8723214864730835,0.9292781352996826,-0.21179009974002838,0.23498784005641937,1.089992642402649
14.055214881896973,-0.24585668742656708,-0.8713479042053223,0.9669743180274963,-0.20524397492408752,0.24546067416667938,1.0880714654922485
14.075301170349121,-0.2571566700935364,-0.8685997724533081,0.9539533853530884,-0.20111435651779175,0.23000390827655792,1.0821096897125244
14.095371007919312,-0.2100166529417038,-0.8709756135940552,0.9641251564025879,-0.19376814365386963,0.26452773809432983,1.0852055549621582
14.115427255630493,-0.19968309998512268,-0.8727512359619141,0.9851454496383667,-0.18651509284973145,0.27260467410087585,1.0860995054244995
14.135523796081543,-0.2401791363954544,-0.8704090118408203,0.9811581373214722,-0.190256729722023,0.2474961131811142,1.0808303356170654
14.155663013458252,-0.26201561093330383,-0.8686650991439819,0.9914258122444153,-0.19164924323558807,0.2511543929576874,1.0827819108963013
14.175714492797852,-0.2722799777984619,-0.863956093788147,0.975653350353241,-0.1904291808605194,0.24650342762470245,1.0809831619262695
14.195788145065308,-0.29397788643836975,-0.8621366024017334,0.9894257187843323,-0.18589209020137787,0.2359956055879593,1.0812433958053589
14.215903997421265,-0.32304301857948303,-0.8560315370559692,0.9486491084098816,-0.1889464408159256,0.21793140470981598,1.075919508934021
14.23593282699585,-0.25643759965896606,-0.8463633060455322,0.9381550550460815,-0.18507343530654907,0.23337675631046295,1.0736180543899536
14.25600528717041,-0.2819575071334839,-0.8529590368270874,0.9537034034729004,-0.1769973337650299,0.22117401659488678,1.0745426416397095
14.276071310043335,-0.2483041137456894,-0.8544189929962158,0.9372569918632507,-0.1790722906589508,0.2457028180360794,1.076769232749939
14.296218872070312,-0.24425429105758667,-0.8542473316192627,0.9498194456100464,-0.17570798099040985,0.25002220273017883,1.0778218507766724
14.317204713821411,-0.2429109811782837,-0.8535330295562744,0.9348194003105164,-0.17547999322414398,0.25823137164115906,1.0770963430404663
14.337299108505249,-0.24320925772190094,-0.8509495258331299,0.9335838556289673,-0.17392019927501678,0.25226038694381714,1.0762099027633667
14.35739254951477,-0.270537793636322,-0.8482446670532227,0.9460982084274292,-0.1661241203546524,0.24586330354213715,1.0781972408294678
14.377444744110107,-0.2984667718410492,-0.8427320718765259,0.9412564635276794,-0.1672748178243637,0.23204229772090912,1.076737403869629
14.39756155014038,-0.3112007975578308,-0.8395031690597534,0.9413492679595947,-0.15544988214969635,0.21714909374713898,1.0759326219558716
14.417721509933472,-0.28206658363342285,-0.8312197923660278,0.9297211766242981,-0.15806718170642853,0.22186888754367828,1.074262261390686
14.438478231430054,-0.30623021721839905,-0.8196893930435181,0.9150360822677612,-0.1695377379655838,0.18331237137317657,1.0639606714248657
14.458572149276733,-0.3281685709953308,-0.8200734853744507,0.9237103462219238,-0.15931060910224915,0.1828487664461136,1.0668514966964722
14.478643655776978,-0.2032213658094406,-0.8319488763809204,0.9060264825820923,-0.15327301621437073,0.24931932985782623,1.072713851928711
14.498712062835693,-0.2527601420879364,-0.8327304124832153,0.9411325454711914,-0.15661337971687317,0.22905035316944122,1.0707587003707886
14.518805742263794,-0.2604902684688568,-0.8319394588470459,0.9271179437637329,-0.14535462856292725,0.22986187040805817,1.0748153924942017
14.5388822555542,-0.26730626821517944,-0.8277695178985596,0.9203929901123047,-0.15214098989963531,0.22449718415737152,1.074097990989685
14.559082269668579,-0.27235254645347595,-0.8232370615005493,0.9259434342384338,-0.1385059803724289,0.2165529876947403,1.0758346319198608
