liuyurong129/humanoid-gym/humanoid/data/target_q_20250522-035330.csv
timestamp,joint_1,joint_2,joint_3,joint_4,joint_5,joint_6
0.0002865791320800781,0.0,0.0,0.0,0.0,0.0,0.0
0.020372390747070312,0.0,0.0,0.0,0.0,0.0,0.0
0.04044938087463379,0.0,0.0,0.0,0.0,0.0,0.0
0.060527801513671875,0.0,0.0,0.0,0.0,0.0,0.0
0.08061671257019043,0.0,0.0,0.0,0.0,0.0,0.0
0.1006917953491211,0.1329791247844696,-1.3055341243743896,0.546894907951355,-0.14595550298690796,0.042673323303461075,0.21972046792507172
0.12078666687011719,0.09182596951723099,-1.315040946006775,0.5658985376358032,-0.1512688249349594,0.057587943971157074,0.21929091215133667
0.14084362983703613,0.05115644633769989,-1.318213701248169,0.5735873579978943,-0.15601147711277008,0.06833770126104355,0.21770258247852325
0.16092538833618164,0.0276821106672287,-1.3151476383209229,0.5673267245292664,-0.15865473449230194,0.07233298569917679,0.21615032851696014
0.1810164451599121,-0.003762325271964073,-1.3211686611175537,0.5942838191986084,-0.16070079803466797,0.08013866096735,0.21429480612277985
0.20119524002075195,-0.02575536072254181,-1.3290120363235474,0.6246722936630249,-0.16168206930160522,0.08694285154342651,0.21297606825828552
0.22134041786193848,-0.031165670603513718,-1.3363696336746216,0.6475656628608704,-0.16142867505550385,0.091111920773983,0.21318359673023224
0.2414233684539795,-0.05012023448944092,-1.341929316520691,0.6648660898208618,-0.1604822427034378,0.09739494323730469,0.21186643838882446
0.2615187168121338,-0.06213102117180824,-1.3413472175598145,0.6598715782165527,-0.16054069995880127,0.10042423009872437,0.21098551154136658
0.2815577983856201,-0.06938733160495758,-1.35102117061615,0.6875982284545898,-0.1586788296699524,0.10770227015018463,0.21126103401184082
0.30173635482788086,-0.07239861786365509,-1.3607378005981445,0.7182298898696899,-0.15648959577083588,0.11242065578699112,0.21117591857910156
0.3217439651489258,-0.0729086771607399,-1.3661527633666992,0.7345176339149475,-0.15547744929790497,0.11481750011444092,0.21129029989242554
0.34190917015075684,-0.07320022583007812,-1.3750028610229492,0.7612060308456421,-0.15336047112941742,0.11850930750370026,0.21106424927711487
0.36229443550109863,-0.06997032463550568,-1.3854598999023438,0.7922154068946838,-0.1516210436820984,0.1229875385761261,0.21136313676834106
0.38247179985046387,-0.06844539195299149,-1.391106128692627,0.80555260181427,-0.14982160925865173,0.125748410820961,0.21174760162830353
0.4024808406829834,-0.06231313571333885,-1.4029158353805542,0.8381994962692261,-0.1479640007019043,0.1308588683605194,0.21251967549324036
0.42258715629577637,-0.058621011674404144,-1.40986168384552,0.8588550686836243,-0.14723682403564453,0.13317745923995972,0.2129974067211151
0.4426746368408203,-0.05559051036834717,-1.4177370071411133,0.8814352750778198,-0.14521275460720062,0.13640755414962769,0.21279917657375336
0.46280598640441895,-0.05716589838266373,-1.4184056520462036,0.8796215653419495,-0.1431514024734497,0.13766025006771088,0.21212920546531677
0.4828529357910156,-0.05449274927377701,-1.4246554374694824,0.8895772099494934,-0.13972727954387665,0.1433153748512268,0.21256126463413239
0.5029191970825195,-0.05535989627242088,-1.4257502555847168,0.8868433833122253,-0.1360263228416443,0.14676564931869507,0.21198603510856628
0.5229923725128174,-0.05283617600798607,-1.428220510482788,0.8938366174697876,-0.134940966963768,0.14923028647899628,0.21233992278575897
0.5430872440338135,-0.04536406323313713,-1.4354913234710693,0.9149372577667236,-0.13320325314998627,0.1551569402217865,0.2137444019317627
0.5631320476531982,-0.043017491698265076,-1.4385185241699219,0.9189513325691223,-0.12965966761112213,0.1589597761631012,0.21369895339012146
0.5832536220550537,-0.041654884815216064,-1.4395899772644043,0.9187366366386414,-0.1285025030374527,0.16159875690937042,0.2137260138988495
0.6033310890197754,-0.0375271812081337,-1.4425358772277832,0.9231945276260376,-0.1255844384431839,0.16586443781852722,0.21377691626548767
0.6236340999603271,-0.03459206223487854,-1.4452722072601318,0.9278854131698608,-0.1239960789680481,0.1689547449350357,0.21427303552627563
0.6436891555786133,-0.028240684419870377,-1.450339674949646,0.9405074715614319,-0.12081198394298553,0.1736237108707428,0.21500402688980103
0.6638035774230957,-0.029010459780693054,-1.449939250946045,0.9312098026275635,-0.11696062982082367,0.17600935697555542,0.21389512717723846
0.683934211730957,-0.029484683647751808,-1.448794960975647,0.9245556592941284,-0.11561377346515656,0.17717576026916504,0.21314658224582672
0.7039899826049805,-0.025188442319631577,-1.4493688344955444,0.9310016632080078,-0.11317425966262817,0.1772126704454422,0.21211731433868408
0.724027156829834,-0.015835681930184364,-1.4545314311981201,0.9517802596092224,-0.11124841123819351,0.17926138639450073,0.21253103017807007
0.7441749572753906,-0.011546473950147629,-1.4566501379013062,0.9621539115905762,-0.11041976511478424,0.17936444282531738,0.21238434314727783
0.7642388343811035,-0.004972768947482109,-1.4618308544158936,0.9706303477287292,-0.10745976865291595,0.18333247303962708,0.21271534264087677
0.7851195335388184,0.0007908595725893974,-1.4653551578521729,0.9796141386032104,-0.1043228879570961,0.1852649599313736,0.21243137121200562
0.8052358627319336,0.00017693702830001712,-1.4666156768798828,0.9723124504089355,-0.10178151726722717,0.18732348084449768,0.2119171917438507
0.8253021240234375,0.005135491490364075,-1.4703571796417236,0.9777183532714844,-0.09781484305858612,0.1895214468240738,0.21136750280857086
0.8454272747039795,0.008961310610175133,-1.472902774810791,0.9830424785614014,-0.09562907367944717,0.19112275540828705,0.21144068241119385
0.8654794692993164,0.01325759943574667,-1.476011037826538,0.9871349930763245,-0.09127531945705414,0.19266246259212494,0.21047461032867432
0.8855376243591309,0.01831827312707901,-1.4810632467269897,0.9907928705215454,-0.08735515177249908,0.19605016708374023,0.210157111287117
0.9056215286254883,0.01939311809837818,-1.4830278158187866,0.9893094897270203,-0.08553881198167801,0.19740723073482513,0.20962008833885193
0.9257059097290039,0.02192080207169056,-1.4871175289154053,0.9876005053520203,-0.08172827214002609,0.19992463290691376,0.2085871398448944
0.9457623958587646,0.02612147107720375,-1.4905188083648682,0.9936347007751465,-0.0780630111694336,0.20036765933036804,0.207504540681839
0.965846061706543,0.023933425545692444,-1.492148756980896,0.9863178133964539,-0.07536621391773224,0.20080675184726715,0.2064245194196701
0.9860341548919678,0.02786271646618843,-1.494797706604004,0.9903555512428284,-0.07156609743833542,0.20058506727218628,0.204703688621521
1.0060861110687256,0.031679727137088776,-1.4981608390808105,0.9920730590820312,-0.06845933943986893,0.20161981880664825,0.20311713218688965
1.0261664390563965,0.0377982035279274,-1.500306248664856,1.004285216331482,-0.06707212328910828,0.20149153470993042,0.20307020843029022
1.046255111694336,0.04133622348308563,-1.50253164768219,1.0124223232269287,-0.0628623440861702,0.19877128303050995,0.20100410282611847
1.0663423538208008,0.04407017305493355,-1.5050451755523682,1.0162125825881958,-0.06102243810892105,0.1987045556306839,0.20041029155254364
1.0864450931549072,0.04912998527288437,-1.5090945959091187,1.0208841562271118,-0.05816614255309105,0.1993456929922104,0.1988670974969864
1.1074655055999756,0.05525650084018707,-1.5141196250915527,1.0282588005065918,-0.0538548044860363,0.19999834895133972,0.19784918427467346
1.1275925636291504,0.056285347789525986,-1.5168461799621582,1.028182029724121,-0.05168314650654793,0.2003587782382965,0.19696250557899475
1.1476531028747559,0.05873524770140648,-1.5237514972686768,1.0268983840942383,-0.04656132683157921,0.2019401341676712,0.19562765955924988
1.167741298675537,0.06216464191675186,-1.527078628540039,1.0312219858169556,-0.04413364827632904,0.20257140696048737,0.1953069269657135
1.1878361701965332,0.06333572417497635,-1.5324918031692505,1.031805157661438,-0.038700226694345474,0.2018449306488037,0.1931993067264557
1.2080001831054688,0.06891454756259918,-1.5373200178146362,1.0421924591064453,-0.03506455197930336,0.19993770122528076,0.19169063866138458
1.2280974388122559,0.06827159225940704,-1.5386179685592651,1.0425057411193848,-0.03240690380334854,0.19793914258480072,0.18985772132873535
1.2481639385223389,0.07542803138494492,-1.5421757698059082,1.0546573400497437,-0.029959583654999733,0.19613344967365265,0.18787048757076263
1.2683076858520508,0.08164487779140472,-1.5479902029037476,1.0613391399383545,-0.026992816478013992,0.19650717079639435,0.18639114499092102
1.2884280681610107,0.0846891775727272,-1.5491372346878052,1.0681939125061035,-0.025432543829083443,0.19466090202331543,0.1850733757019043
1.3084888458251953,0.08940070122480392,-1.5551701784133911,1.07673978805542,-0.021787280216813087,0.19303570687770844,0.1838788241147995
1.3286809921264648,0.09280629456043243,-1.55736243724823,1.082077145576477,-0.01975676603615284,0.19182878732681274,0.1829238384962082
1.3487005233764648,0.1013999804854393,-1.562028169631958,1.0951181650161743,-0.017724592238664627,0.19060629606246948,0.18216297030448914
1.368790626525879,0.10825088620185852,-1.565259337425232,1.1090610027313232,-0.015484271571040154,0.18742763996124268,0.18064650893211365
1.3889200687408447,0.110818050801754,-1.5674970149993896,1.1142197847366333,-0.014204267412424088,0.18645568192005157,0.18017466366291046
1.4090619087219238,0.11317615211009979,-1.5713268518447876,1.1230438947677612,-0.012312489561736584,0.1837860643863678,0.17851270735263824
1.4290835857391357,0.10929568111896515,-1.5798203945159912,1.1183511018753052,-0.008392967283725739,0.18287548422813416,0.17655283212661743
1.4491758346557617,0.1151956170797348,-1.5790828466415405,1.1287577152252197,-0.00857862550765276,0.18054109811782837,0.17589160799980164
1.4693236351013184,0.11059974133968353,-1.586630940437317,1.1270771026611328,-0.005066631827503443,0.17749516665935516,0.1741524040699005
1.4897596836090088,0.11173337697982788,-1.5884746313095093,1.1384518146514893,-0.003338088281452656,0.1709541231393814,0.17356160283088684
1.5099101066589355,0.10825298726558685,-1.5896596908569336,1.1424480676651,-0.0030132848769426346,0.16731004416942596,0.17351476848125458
1.5299878120422363,0.10707858204841614,-1.5936071872711182,1.1528172492980957,-0.0027864102739840746,0.15907642245292664,0.17485854029655457
1.5501351356506348,0.11564226448535919,-1.591058611869812,1.1633808612823486,-0.004242015071213245,0.15614473819732666,0.1743965893983841
1.5702037811279297,0.11001144349575043,-1.591575026512146,1.1782877445220947,-0.005881860386580229,0.14255979657173157,0.17578443884849548
1.5903611183166504,0.09975147992372513,-1.6012794971466064,1.18227219581604,-0.0049763997085392475,0.1292404979467392,0.17914411425590515
1.6104605197906494,0.08748941868543625,-1.6017776727676392,1.193841814994812,-0.008960792794823647,0.11833618581295013,0.1814718246459961
1.630528211593628,0.0953386202454567,-1.6067568063735962,1.206895112991333,-0.012345870025455952,0.10690666735172272,0.18693675100803375
1.6506373882293701,0.09800820797681808,-1.6076761484146118,1.2160651683807373,-0.014420880004763603,0.09854110330343246,0.18921822309494019
1.6707634925842285,0.09054867178201675,-1.6113383769989014,1.2260475158691406,-0.015040278434753418,0.0796080082654953,0.1911298632621765
1.6908063888549805,0.0789419487118721,-1.6105679273605347,1.23648202419281,-0.014230603352189064,0.06597324460744858,0.18980607390403748
1.711033821105957,0.04802696406841278,-1.6174898147583008,1.2518155574798584,-0.0012673893943428993,0.03839179128408432,0.18614940345287323
1.7311348915100098,0.012609723955392838,-1.6280851364135742,1.2617179155349731,0.01965000480413437,0.01537418831139803,0.18097713589668274
1.751225471496582,-0.00495503656566143,-1.634939193725586,1.2577426433563232,0.03074883297085762,0.009113213047385216,0.1786593794822693
1.7713158130645752,-0.030360229313373566,-1.646702527999878,1.2413252592086792,0.04731983691453934,0.0030579259619116783,0.17514574527740479
1.7913689613342285,-0.037519797682762146,-1.651078462600708,1.2267675399780273,0.05264071375131607,0.0049601029604673386,0.17329545319080353
1.8114814758300781,-0.04054230824112892,-1.6513408422470093,1.203187346458435,0.05902766063809395,0.014046795666217804,0.1686795949935913
1.831561803817749,-0.023972230032086372,-1.6442314386367798,1.1928714513778687,0.06331527978181839,0.029116390272974968,0.16381099820137024
1.8516478538513184,-0.00970462430268526,-1.639268398284912,1.1956934928894043,0.06464295089244843,0.0373852476477623,0.16130965948104858
1.8717617988586426,0.02866651676595211,-1.628211498260498,1.207754135131836,0.06736434996128082,0.05606912076473236,0.15614420175552368
1.891815185546875,0.044818032532930374,-1.6229723691940308,1.2174030542373657,0.06685659289360046,0.06454482674598694,0.15296755731105804
1.9118735790252686,0.051228612661361694,-1.614116907119751,1.245802402496338,0.057256028056144714,0.07639613002538681,0.1451767534017563
1.9319419860839844,0.04496793821454048,-1.612155556678772,1.2506904602050781,0.04828173667192459,0.09479568153619766,0.13941827416419983
1.952042818069458,0.03746356442570686,-1.6113849878311157,1.2525336742401123,0.04602977633476257,0.09817557781934738,0.13677345216274261
1.9721736907958984,0.019289623945951462,-1.6108787059783936,1.2439157962799072,0.04920066148042679,0.10070876777172089,0.1323843002319336
1.9923608303070068,-0.008766647428274155,-1.6090787649154663,1.222873330116272,0.05932783707976341,0.0945795550942421,0.12861552834510803
2.012495279312134,-0.01848716288805008,-1.607515811920166,1.22127103805542,0.06802675127983093,0.08608940243721008,0.1274166852235794
2.0325639247894287,-0.015510739758610725,-1.6023571491241455,1.2229998111724854,0.0778748169541359,0.0773513913154602,0.12497793883085251
2.0528452396392822,-0.017949990928173065,-1.5990885496139526,1.2359808683395386,0.09087611734867096,0.06232156977057457,0.12230910360813141
2.0729267597198486,-0.017861967906355858,-1.5987564325332642,1.2438336610794067,0.09541784226894379,0.05784725025296211,0.12098754197359085
2.0930252075195312,0.0044951532036066055,-1.6002687215805054,1.2546656131744385,0.09850674122571945,0.06625105440616608,0.11920898407697678
2.1133103370666504,0.010806983336806297,-1.6024593114852905,1.2582159042358398,0.10014976561069489,0.06909068673849106,0.11816069483757019
2.1335196495056152,0.020266428589820862,-1.6063052415847778,1.2469158172607422,0.09589552879333496,0.0838712751865387,0.11486716568470001
2.1535637378692627,0.025601379573345184,-1.606703519821167,1.2289806604385376,0.08752189576625824,0.10231394320726395,0.11026343703269958
2.1736223697662354,0.02350611425936222,-1.6059355735778809,1.220295786857605,0.08503078669309616,0.10784215480089188,0.10748966783285141
2.193721055984497,0.009938592091202736,-1.6043201684951782,1.209783911705017,0.09075137972831726,0.10828610509634018,0.1026470735669136
2.215172052383423,0.005471308249980211,-1.6016371250152588,1.219417929649353,0.09879346936941147,0.10469619929790497,0.09923878312110901
2.235260009765625,0.0036637280136346817,-1.6011669635772705,1.227427363395691,0.10361586511135101,0.10138805210590363,0.09797248244285583
2.2556118965148926,-0.0051833391189575195,-1.6010018587112427,1.2472858428955078,0.11700496822595596,0.08729401230812073,0.09594949334859848
2.275731325149536,-0.009292145259678364,-1.6006673574447632,1.259087324142456,0.12169799953699112,0.0793139636516571,0.09484585374593735
2.295783042907715,-0.01375296339392662,-1.6039528846740723,1.2665677070617676,0.12716874480247498,0.07198221236467361,0.09249825775623322
2.3158812522888184,-0.011069055646657944,-1.6064914464950562,1.2593854665756226,0.1284482628107071,0.0740140825510025,0.09133755415678024
2.335972547531128,-0.012414682656526566,-1.6097429990768433,1.2385265827178955,0.1288350522518158,0.07580749690532684,0.08737840503454208
2.3560502529144287,-0.010153391398489475,-1.6095340251922607,1.226381540298462,0.1269991099834442,0.0796588584780693,0.0847003310918808
2.3761463165283203,-0.000930755864828825,-1.606802225112915,1.2154853343963623,0.12625688314437866,0.08848237991333008,0.07974798232316971
2.3964903354644775,0.015039509162306786,-1.6016002893447876,1.2211902141571045,0.12302593886852264,0.09941640496253967,0.07517872005701065
2.4165871143341064,0.022974718362092972,-1.5996787548065186,1.2290111780166626,0.12177043408155441,0.10518539696931839,0.07327866554260254
2.4366958141326904,0.025880930945277214,-1.5984437465667725,1.254806399345398,0.12750709056854248,0.10558030754327774,0.07019589096307755
2.456751585006714,0.020043870434165,-1.5996673107147217,1.2645983695983887,0.13158570230007172,0.10215330868959427,0.06872173398733139
2.4768288135528564,0.005048484541475773,-1.6045722961425781,1.253929853439331,0.1360103189945221,0.10064994543790817,0.06537414342164993
2.496894121170044,-0.011933775618672371,-1.6067661046981812,1.232814073562622,0.14134280383586884,0.09652761369943619,0.06163599342107773
2.5170326232910156,-0.020673969760537148,-1.6053658723831177,1.2218198776245117,0.14450907707214355,0.09259966015815735,0.05944130942225456
2.5370967388153076,-0.030513858422636986,-1.5998905897140503,1.2110326290130615,0.14834055304527283,0.08662183582782745,0.054601039737463
2.5571627616882324,-0.02493003010749817,-1.5970021486282349,1.2148786783218384,0.15233218669891357,0.08359699696302414,0.052894286811351776
2.5772252082824707,-0.006819212343543768,-1.5923948287963867,1.2315844297409058,0.15466469526290894,0.08221588283777237,0.049087122082710266
2.5973432064056396,0.0024820384569466114,-1.5915180444717407,1.239410400390625,0.1545138657093048,0.08517658710479736,0.047344133257865906
2.617403268814087,0.02076691761612892,-1.5925724506378174,1.2577458620071411,0.1521136313676834,0.09614932537078857,0.045027971267700195
2.637460947036743,0.03006255254149437,-1.5935710668563843,1.2646632194519043,0.149112731218338,0.10211700201034546,0.04384221136569977
2.657552480697632,0.020724182948470116,-1.596509337425232,1.2513744831085205,0.1448013037443161,0.11288003623485565,0.03973479941487312
2.677602767944336,0.0038547972217202187,-1.5979597568511963,1.2309633493423462,0.14850129187107086,0.11280415952205658,0.03527944162487984
2.697709798812866,-0.0010745436884462833,-1.5964481830596924,1.2202415466308594,0.15012817084789276,0.11241794377565384,0.03288829326629639
2.717855215072632,-0.014919338747859001,-1.5916366577148438,1.2127747535705566,0.15652970969676971,0.1024448424577713,0.028292691335082054
2.738492012023926,-0.026287443935871124,-1.5868232250213623,1.2228420972824097,0.16658174991607666,0.08823028206825256,0.024921175092458725
2.758571147918701,-0.03049199841916561,-1.5850379467010498,1.2307006120681763,0.17095573246479034,0.08198945969343185,0.023496072739362717
2.7786481380462646,-0.020982595160603523,-1.5838961601257324,1.2467148303985596,0.17360107600688934,0.07892858982086182,0.020977327600121498
2.7987911701202393,-0.005551639944314957,-1.5855180025100708,1.2567012310028076,0.1756071001291275,0.07884392142295837,0.01830163039267063
2.81889271736145,0.0009287730790674686,-1.5876773595809937,1.253931999206543,0.174747034907341,0.08204208314418793,0.016732225194573402
2.8389487266540527,0.006386143155395985,-1.5917495489120483,1.2385036945343018,0.17047719657421112,0.09241855889558792,0.012937084771692753
2.859257221221924,0.01467904169112444,-1.5909265279769897,1.2149626016616821,0.15977109968662262,0.11163897067308426,0.008447452448308468
2.879344940185547,0.015127256512641907,-1.5896821022033691,1.2087911367416382,0.1592022031545639,0.1150372251868248,0.006119914352893829
2.8994126319885254,-0.0007666633464396,-1.5867446660995483,1.2181750535964966,0.1654176414012909,0.10793990641832352,0.0019346839981153607
2.9195556640625,-0.0017094548093155026,-1.584584355354309,1.2257338762283325,0.16833719611167908,0.10630733519792557,0.0004891654243692756
2.9396822452545166,-0.0026022279635071754,-1.5849729776382446,1.2387219667434692,0.17355428636074066,0.10252326726913452,-0.001685512252151966
2.959711790084839,-0.007553538307547569,-1.5863749980926514,1.2563544511795044,0.17857329547405243,0.09433962404727936,-0.0035942918621003628
2.979795217514038,-0.012573418207466602,-1.5878016948699951,1.2605270147323608,0.18174882233142853,0.09006667882204056,-0.004517639987170696
2.9999279975891113,-0.021013779565691948,-1.5915544033050537,1.2531074285507202,0.18448755145072937,0.08604229241609573,-0.006728076376020908
3.0200324058532715,-0.01888268068432808,-1.592812418937683,1.2355979681015015,0.18468205630779266,0.08780622482299805,-0.009515874087810516
3.0401298999786377,-0.019064482301473618,-1.5919021368026733,1.225479006767273,0.18475846946239471,0.08736582100391388,-0.011517643928527832
3.0602967739105225,-0.01277362834662199,-1.5887713432312012,1.2176411151885986,0.18334656953811646,0.08947437256574631,-0.015276666730642319
3.0803589820861816,0.0008719391189515591,-1.584478497505188,1.2211748361587524,0.18097583949565887,0.09716106951236725,-0.0181419737637043
3.1004295349121094,0.009005596861243248,-1.5824289321899414,1.2273207902908325,0.17827145755290985,0.10186990350484848,-0.019480444490909576
3.1205875873565674,0.025031309574842453,-1.5787566900253296,1.2401400804519653,0.17524410784244537,0.11369141191244125,-0.0210558008402586
3.1406126022338867,0.008088748902082443,-1.5810422897338867,1.2573896646499634,0.17774397134780884,0.10848504304885864,-0.02357897162437439
3.160752773284912,0.005349414888769388,-1.582168459892273,1.252942442893982,0.1794937700033188,0.10940724611282349,-0.02457655966281891
3.1808106899261475,0.0001376955769956112,-1.5838656425476074,1.2402763366699219,0.183173269033432,0.10966219753026962,-0.026686765253543854
3.2010984420776367,-0.018696146085858345,-1.5835509300231934,1.2302442789077759,0.1892344206571579,0.09754439443349838,-0.029686100780963898
3.2211761474609375,-0.02687704563140869,-1.5827735662460327,1.224310040473938,0.19093582034111023,0.09158051013946533,-0.03142453730106354
3.241281509399414,-0.02914644032716751,-1.580565094947815,1.2205244302749634,0.1939295530319214,0.08637082576751709,-0.033840361982584
3.2614798545837402,-0.017616374418139458,-1.5789579153060913,1.2285696268081665,0.19546207785606384,0.08446024358272552,-0.03584566339850426
3.281583547592163,-0.012214534915983677,-1.57905113697052,1.233009934425354,0.19471846520900726,0.08576709777116776,-0.03682399168610573
3.301652193069458,0.002866529393941164,-1.5778822898864746,1.241866111755371,0.19068565964698792,0.09488408267498016,-0.03821982443332672
3.3218894004821777,0.009410685859620571,-1.5777933597564697,1.2439128160476685,0.1884974241256714,0.10019011050462723,-0.039008766412734985
3.341857671737671,0.024527657777071,-1.5766217708587646,1.2383649349212646,0.18024420738220215,0.1169348657131195,-0.04079179838299751
3.3619208335876465,0.0069671375676989555,-1.5786082744598389,1.2331321239471436,0.18340545892715454,0.11270147562026978,-0.04403354227542877
3.3821725845336914,-0.0014050789177417755,-1.579015851020813,1.228450894355774,0.18503661453723907,0.11051000654697418,-0.04538881778717041
3.402297019958496,-0.008969943039119244,-1.5772074460983276,1.2210193872451782,0.18843355774879456,0.10787075012922287,-0.047682713717222214
3.422370672225952,-0.01651601679623127,-1.5747345685958862,1.2254682779312134,0.19332867860794067,0.09925726056098938,-0.04979768022894859
3.442455530166626,-0.020688777789473534,-1.5740582942962646,1.2290631532669067,0.19588768482208252,0.09452524781227112,-0.05069831386208534
3.4625279903411865,-0.024501049891114235,-1.574650764465332,1.2386308908462524,0.19873002171516418,0.08706893771886826,-0.052283015102148056
3.482645273208618,-0.01945948414504528,-1.5752232074737549,1.2431559562683105,0.19980686902999878,0.08678323030471802,-0.05328228324651718
3.5027003288269043,-0.013178810477256775,-1.5756330490112305,1.2425103187561035,0.199896439909935,0.08885873854160309,-0.053855687379837036
3.5227696895599365,-0.0037847894709557295,-1.5775307416915894,1.2346241474151611,0.1964181661605835,0.09477020800113678,-0.05586480349302292
3.542828321456909,0.004703528247773647,-1.5783027410507202,1.222252368927002,0.19147783517837524,0.10359884798526764,-0.05823155865073204
3.5629749298095703,0.01018117368221283,-1.5770552158355713,1.2161786556243896,0.18708081543445587,0.10990084707736969,-0.05971842631697655
3.583026885986328,0.013766573742032051,-1.5741397142410278,1.2142596244812012,0.18686677515506744,0.11470559239387512,-0.06206250563263893
3.604318141937256,0.002762450836598873,-1.572575569152832,1.2209477424621582,0.18742075562477112,0.11209920048713684,-0.06441279500722885
3.6244475841522217,-0.0017481523100286722,-1.571556568145752,1.227758765220642,0.18892139196395874,0.10956670343875885,-0.065196193754673
3.644566297531128,-0.009707314893603325,-1.5718648433685303,1.2389516830444336,0.19239720702171326,0.10268356651067734,-0.06656109541654587
3.664841890335083,-0.021876126527786255,-1.5735279321670532,1.2401081323623657,0.19859395921230316,0.09339869022369385,-0.0675293505191803
3.6849865913391113,-0.02594846859574318,-1.5747442245483398,1.2374684810638428,0.2004769891500473,0.09053368866443634,-0.06797096133232117
3.705080986022949,-0.025606267154216766,-1.5751739740371704,1.228431224822998,0.20213821530342102,0.08944513648748398,-0.06906171143054962
3.7260897159576416,-0.019126813858747482,-1.574558973312378,1.2184197902679443,0.20359599590301514,0.08984002470970154,-0.07060093432664871
3.746211051940918,-0.013827640563249588,-1.5736322402954102,1.215811014175415,0.2034553587436676,0.0913374051451683,-0.07140959799289703
3.766263723373413,0.0017991941422224045,-1.571734070777893,1.2226978540420532,0.19855277240276337,0.09845837950706482,-0.07291355729103088
3.786339282989502,0.006598552688956261,-1.5711748600006104,1.2274913787841797,0.19611328840255737,0.10129446536302567,-0.073713019490242
3.8064587116241455,0.02171136625111103,-1.5688260793685913,1.2320659160614014,0.1904367357492447,0.11468284577131271,-0.07408230751752853
3.8265066146850586,0.01245009433478117,-1.5706605911254883,1.2426104545593262,0.19041191041469574,0.11362162232398987,-0.07528992742300034
3.846600294113159,0.0024190815165638924,-1.5722728967666626,1.2435510158538818,0.19126398861408234,0.1108003705739975,-0.07607375085353851
3.866692304611206,-0.005027011502534151,-1.573688268661499,1.2374069690704346,0.1941138505935669,0.10808044672012329,-0.0771988034248352
3.8867437839508057,-0.024142049252986908,-1.574305772781372,1.229391098022461,0.20078617334365845,0.09588664025068283,-0.0785922259092331
3.9068360328674316,-0.034738585352897644,-1.574732780456543,1.2258625030517578,0.20337404310703278,0.08907696604728699,-0.07930795103311539
3.926928758621216,-0.031845249235630035,-1.5727473497390747,1.219801902770996,0.20511066913604736,0.08640466630458832,-0.08023984730243683
3.946993350982666,-0.026802008971571922,-1.5719802379608154,1.2206604480743408,0.20668509602546692,0.08454173058271408,-0.08072604238986969
3.9670777320861816,-0.020404692739248276,-1.570777177810669,1.228761076927185,0.20775240659713745,0.08220211416482925,-0.0819348394870758
3.987133264541626,-0.0037790602073073387,-1.570794939994812,1.2328306436538696,0.20366206765174866,0.09116513282060623,-0.08270007371902466
4.0072362422943115,0.00605115108191967,-1.570602536201477,1.2351083755493164,0.19975019991397858,0.09666940569877625,-0.08332902193069458
4.02737021446228,0.022171087563037872,-1.5695666074752808,1.2285600900650024,0.19108088314533234,0.11363095045089722,-0.08435853570699692
4.047533750534058,0.02474585920572281,-1.5697354078292847,1.2275512218475342,0.19056592881679535,0.11691012233495712,-0.0850687101483345
4.067545175552368,0.0037159156054258347,-1.571826457977295,1.229482889175415,0.19111871719360352,0.1139545664191246,-0.08682404458522797
4.087610483169556,-0.00035001710057258606,-1.5719389915466309,1.2298364639282227,0.19138777256011963,0.1129966750741005,-0.08740710467100143
4.107705354690552,-0.013466893695294857,-1.571848750114441,1.2317373752593994,0.19582727551460266,0.10496841371059418,-0.08837392926216125
4.127776145935059,-0.024593068286776543,-1.5714638233184814,1.2350471019744873,0.20306944847106934,0.0925573855638504,-0.08900989592075348
4.1479268074035645,-0.030093291774392128,-1.5717153549194336,1.2364933490753174,0.2058824896812439,0.08669513463973999,-0.08931799232959747
4.168048858642578,-0.027965359389781952,-1.571725606918335,1.2353298664093018,0.2075088769197464,0.084769107401371,-0.08968111127614975
4.188169240951538,-0.020234378054738045,-1.5720261335372925,1.233262538909912,0.20851251482963562,0.0844007357954979,-0.09047286957502365
4.208268880844116,-0.01506100408732891,-1.5720185041427612,1.2315025329589844,0.20851218700408936,0.08624645322561264,-0.09085550904273987
4.228340148925781,-0.002043698448687792,-1.571845531463623,1.227105975151062,0.2038181871175766,0.09541503340005875,-0.09175020456314087
4.248690605163574,0.004120998550206423,-1.5714516639709473,1.225207805633545,0.2007717490196228,0.10107183456420898,-0.0922141820192337
4.26877760887146,0.02006109058856964,-1.5687406063079834,1.2202801704406738,0.19343838095664978,0.11616609990596771,-0.09285750985145569
4.2891223430633545,0.008228722028434277,-1.5693070888519287,1.2281956672668457,0.19262030720710754,0.11426526308059692,-0.0943952351808548
4.309208393096924,0.0010438268072903156,-1.5693036317825317,1.2315329313278198,0.19270053505897522,0.11332572251558304,-0.09474430978298187
4.329254150390625,-0.008830620907247066,-1.5694799423217773,1.234871745109558,0.19575859606266022,0.1079678162932396,-0.09537232667207718
4.349677801132202,-0.015238650143146515,-1.5697072744369507,1.2349059581756592,0.19855982065200806,0.10353334248065948,-0.09561748802661896
4.3696794509887695,-0.030048873275518417,-1.569806456565857,1.2329096794128418,0.20514076948165894,0.09158869087696075,-0.09599818289279938
4.389734506607056,-0.03238671272993088,-1.569838285446167,1.2322378158569336,0.20692682266235352,0.08855342864990234,-0.09609238058328629
4.409829616546631,-0.02258651703596115,-1.5695719718933105,1.2262171506881714,0.20789533853530884,0.08963419497013092,-0.09640099108219147
4.429991006851196,-0.017572535201907158,-1.5693939924240112,1.224487066268921,0.20886990427970886,0.08870457112789154,-0.09710830450057983
4.450000286102295,-0.01218627579510212,-1.5689318180084229,1.2236754894256592,0.20778274536132812,0.09194731712341309,-0.0973358228802681
4.470167398452759,0.003129497403278947,-1.5675160884857178,1.2248284816741943,0.2023026943206787,0.10189240425825119,-0.09787648171186447
4.490183353424072,0.015503980219364166,-1.565529704093933,1.2247148752212524,0.19540300965309143,0.11359278857707977,-0.09845585376024246
4.5103559494018555,0.020682519301772118,-1.5643486976623535,1.2259737253189087,0.19414807856082916,0.11776137351989746,-0.09865456074476242
4.53045392036438,0.003208559937775135,-1.5663334131240845,1.2328529357910156,0.19553202390670776,0.11291724443435669,-0.09976557642221451
4.5505194664001465,-0.0017996267415583134,-1.567124366760254,1.233349084854126,0.1962715983390808,0.1115044504404068,-0.10017911344766617
4.570634365081787,-0.007623870857059956,-1.567747950553894,1.2331334352493286,0.19770847260951996,0.10805337131023407,-0.10051623731851578
4.590682506561279,-0.021917063742876053,-1.5688844919204712,1.2307697534561157,0.20280666649341583,0.09830939024686813,-0.10092142224311829
4.610718250274658,-0.028726894408464432,-1.5692811012268066,1.2295238971710205,0.2054663598537445,0.09257373213768005,-0.10108794271945953
4.630820274353027,-0.027691906318068504,-1.569164514541626,1.2263990640640259,0.20783236622810364,0.08922142535448074,-0.10107945650815964
4.650940179824829,-0.01912539079785347,-1.569021224975586,1.2267898321151733,0.20913569629192352,0.08816450834274292,-0.10140760242938995
4.6710264682769775,-0.012824464589357376,-1.5687322616577148,1.2271591424942017,0.20867446064949036,0.08972584456205368,-0.1015968918800354
4.691080331802368,0.003402788657695055,-1.5672025680541992,1.226970911026001,0.20517556369304657,0.09866027534008026,-0.10192449390888214
4.711201429367065,0.014289763756096363,-1.566455364227295,1.224261999130249,0.1997692883014679,0.10925042629241943,-0.10260583460330963
4.731329441070557,0.021093426272273064,-1.5651347637176514,1.221414566040039,0.1956556886434555,0.11705462634563446,-0.10282905399799347
4.751414775848389,0.008677201345562935,-1.5659821033477783,1.2259526252746582,0.19469347596168518,0.11599881947040558,-0.10405056923627853
4.771464586257935,-0.005967684090137482,-1.5670104026794434,1.2294567823410034,0.1955348253250122,0.11174891889095306,-0.10474973917007446
4.791611433029175,-0.01046614907681942,-1.5672247409820557,1.2304751873016357,0.19682163000106812,0.1085377186536789,-0.10504317283630371
4.811686038970947,-0.023186348378658295,-1.5676625967025757,1.2331420183181763,0.20318682491779327,0.09675268828868866,-0.10535844415426254
4.832932233810425,-0.032720230519771576,-1.5689210891723633,1.233673095703125,0.20811066031455994,0.08651600033044815,-0.10538789629936218
4.853138208389282,-0.03166547790169716,-1.56955885887146,1.231367826461792,0.20830273628234863,0.08617960661649704,-0.10528968274593353
4.873199224472046,-0.01717967540025711,-1.569141149520874,1.2264750003814697,0.2085125595331192,0.08983276039361954,-0.10504540055990219
4.89359974861145,-0.01108636986464262,-1.5693063735961914,1.2251471281051636,0.20900534093379974,0.09027641266584396,-0.10549597442150116
4.91374135017395,-0.004685731139034033,-1.5689544677734375,1.2229996919631958,0.20684629678726196,0.09464370459318161,-0.10568150132894516
4.93379020690918,0.012460811994969845,-1.5666658878326416,1.2210639715194702,0.20111997425556183,0.10673132538795471,-0.10587705671787262
4.953873157501221,0.01801580749452114,-1.5655796527862549,1.222127079963684,0.19826817512512207,0.11194626241922379,-0.10600748658180237
4.973938941955566,0.014717661775648594,-1.5656325817108154,1.2259470224380493,0.195272758603096,0.11510420590639114,-0.10680665075778961
4.994005918502808,-0.0014955447986721992,-1.5669571161270142,1.2317447662353516,0.194475457072258,0.11210902035236359,-0.10740115493535995
5.014120578765869,-0.005537784658372402,-1.5673550367355347,1.2320857048034668,0.19489897787570953,0.11106178164482117,-0.10746733099222183
5.034207344055176,-0.015276795253157616,-1.5683637857437134,1.230931282043457,0.19986197352409363,0.10346643626689911,-0.10753656923770905
5.054303884506226,-0.031966131180524826,-1.569869041442871,1.2310870885849,0.2060522437095642,0.08975746482610703,-0.1076444610953331
5.074377536773682,-0.03539898246526718,-1.570497751235962,1.2294921875,0.20766618847846985,0.08628442883491516,-0.10753664374351501
5.094527721405029,-0.02355833351612091,-1.5702526569366455,1.225374460220337,0.20869967341423035,0.08772162348031998,-0.10699549317359924
5.114576578140259,-0.01919039525091648,-1.5705301761627197,1.2270317077636719,0.21087226271629333,0.08441120386123657,-0.10708361864089966
5.134669542312622,-0.013419250957667828,-1.5702153444290161,1.2276101112365723,0.21023374795913696,0.0869511067867279,-0.10700781643390656
5.154747009277344,0.00225233705714345,-1.568749189376831,1.2290303707122803,0.2052159458398819,0.09696100652217865,-0.10699303448200226
5.174798488616943,0.01869945600628853,-1.566629409790039,1.2248615026474,0.19863420724868774,0.11173754930496216,-0.10695265978574753
5.194896936416626,0.02328505553305149,-1.5661622285842896,1.2244720458984375,0.19613002240657806,0.11675992608070374,-0.10721230506896973
5.214998483657837,0.008028116077184677,-1.5675400495529175,1.2311413288116455,0.19691969454288483,0.11265596747398376,-0.10833454132080078
5.235086917877197,-0.00203707511536777,-1.568093180656433,1.2322909832000732,0.1970481127500534,0.11131728440523148,-0.10870041698217392
5.255180358886719,-0.009209896437823772,-1.5685173273086548,1.2328418493270874,0.19887758791446686,0.10729407519102097,-0.10894778370857239
5.275239944458008,-0.019724279642105103,-1.5693793296813965,1.2308621406555176,0.2046869993209839,0.09722893685102463,-0.10913403332233429
5.295389652252197,-0.026156362146139145,-1.5698612928390503,1.2306691408157349,0.20751190185546875,0.09089209884405136,-0.10924281179904938
5.315516948699951,-0.0297061949968338,-1.5708072185516357,1.2299641370773315,0.2092062383890152,0.08629770576953888,-0.10915830731391907
5.335609436035156,-0.021406710147857666,-1.5701823234558105,1.2284578084945679,0.20982015132904053,0.08608932793140411,-0.10912150889635086
5.355704069137573,-0.019637910649180412,-1.5703582763671875,1.2288882732391357,0.21074382960796356,0.08507858216762543,-0.10912290215492249
5.3758156299591064,-0.006360884755849838,-1.5700088739395142,1.2274866104125977,0.20749607682228088,0.0920194536447525,-0.10909360647201538
5.395888805389404,0.012081827968358994,-1.568052053451538,1.2237308025360107,0.20156291127204895,0.10549299418926239,-0.1089567318558693
5.415963888168335,0.018864132463932037,-1.566796064376831,1.2220048904418945,0.1978265345096588,0.11260273307561874,-0.1090179979801178
5.436021089553833,0.018071921542286873,-1.5663340091705322,1.2251938581466675,0.19581857323646545,0.11584031581878662,-0.1097051352262497
5.456082105636597,0.005803981795907021,-1.5671708583831787,1.229435920715332,0.1956828385591507,0.11276569217443466,-0.11018933355808258
5.4761433601379395,-0.00601163087412715,-1.5678050518035889,1.2315728664398193,0.19635333120822906,0.11017792671918869,-0.11034543812274933
5.496387243270874,-0.012557447887957096,-1.5680452585220337,1.2323925495147705,0.1983683556318283,0.10610522329807281,-0.11043383926153183
5.5163843631744385,-0.0310649573802948,-1.5687593221664429,1.2357819080352783,0.20428729057312012,0.09239023178815842,-0.11053430289030075
5.536459684371948,-0.033090703189373016,-1.569535255432129,1.2335035800933838,0.20791038870811462,0.0866217091679573,-0.1099655032157898
5.556538820266724,-0.02233915776014328,-1.5690882205963135,1.23055899143219,0.20798546075820923,0.08894181251525879,-0.10959360003471375
5.576609373092651,-0.01777537725865841,-1.5693806409835815,1.2295986413955688,0.21086835861206055,0.0849759429693222,-0.1096678078174591
5.59667444229126,-0.004928966518491507,-1.5685700178146362,1.2270170450210571,0.2079407125711441,0.09211228787899017,-0.1096358671784401
5.616757154464722,0.0005196705460548401,-1.5685299634933472,1.2254998683929443,0.20560964941978455,0.09658881276845932,-0.10980577766895294
5.636828899383545,0.01785247214138508,-1.5660070180892944,1.2216949462890625,0.19897204637527466,0.11093848943710327,-0.10976240783929825
5.6568827629089355,0.02514561638236046,-1.564016580581665,1.2211610078811646,0.19320252537727356,0.12151674926280975,-0.11018730700016022
5.676997661590576,0.01499795913696289,-1.5649237632751465,1.2248908281326294,0.1928899735212326,0.11913425475358963,-0.11086247861385345
5.697065591812134,0.0013386995997279882,-1.5654667615890503,1.2300641536712646,0.19362400472164154,0.11569889634847641,-0.1113719567656517
5.717129945755005,-0.009670868515968323,-1.5662963390350342,1.2311102151870728,0.1967601180076599,0.10914698243141174,-0.1117112785577774
5.737224340438843,-0.01840878091752529,-1.5667104721069336,1.232242465019226,0.19992981851100922,0.10194052755832672,-0.11193262040615082
5.757297992706299,-0.031701669096946716,-1.5675448179244995,1.2331775426864624,0.2060273289680481,0.08938416093587875,-0.1119069904088974
5.777410984039307,-0.031481992453336716,-1.568015694618225,1.2315378189086914,0.20737101137638092,0.08730846643447876,-0.11170025914907455
5.797528505325317,-0.026262404397130013,-1.5681318044662476,1.2283461093902588,0.20832836627960205,0.08586768805980682,-0.11167600750923157
5.817579984664917,-0.019086815416812897,-1.5679562091827393,1.2270996570587158,0.2090366929769516,0.08572455495595932,-0.1116815134882927
5.837673902511597,-0.00956668145954609,-1.567650556564331,1.2256656885147095,0.2074344903230667,0.09029965102672577,-0.11154744029045105
5.857746124267578,0.005109041463583708,-1.5667308568954468,1.222800612449646,0.20260967314243317,0.101282998919487,-0.11143835633993149
5.877801179885864,0.0203518308699131,-1.5635275840759277,1.2202397584915161,0.1950054168701172,0.11689294874668121,-0.11109611392021179
5.897911310195923,0.023058012127876282,-1.5626804828643799,1.2227416038513184,0.19340093433856964,0.12022175639867783,-0.1112297847867012
5.918079853057861,0.0008382303640246391,-1.5642399787902832,1.2327734231948853,0.19454142451286316,0.11341772228479385,-0.11203411966562271
5.9382359981536865,-0.008888649754226208,-1.564987301826477,1.234811544418335,0.1962226778268814,0.10964871942996979,-0.11218012869358063
5.95832896232605,-0.014651437290012836,-1.565819263458252,1.2328788042068481,0.19840070605278015,0.10619787871837616,-0.1122252345085144
5.978379011154175,-0.031306423246860504,-1.567812204360962,1.229111909866333,0.20444577932357788,0.0937093198299408,-0.11235235631465912
5.998585939407349,-0.0368042066693306,-1.5683822631835938,1.2262637615203857,0.20659257471561432,0.08864705264568329,-0.11239736527204514
6.0186686515808105,-0.028631584718823433,-1.5677752494812012,1.2219926118850708,0.2076166719198227,0.08787054568529129,-0.11204671859741211
6.038726806640625,-0.02031298354268074,-1.5674469470977783,1.218989372253418,0.20993322134017944,0.08614014089107513,-0.11207631230354309
6.058836460113525,-0.016547011211514473,-1.5674583911895752,1.2208805084228516,0.20899733901023865,0.08744816482067108,-0.1120850071310997
6.078937768936157,-0.00017984677106142044,-1.5662500858306885,1.223300576210022,0.20408283174037933,0.09730052202939987,-0.11173830181360245
6.099207639694214,0.019065532833337784,-1.563612937927246,1.224229335784912,0.19714196026325226,0.11278503388166428,-0.11095310002565384
6.119305372238159,0.02615569718182087,-1.562885046005249,1.2253508567810059,0.19396954774856567,0.11928457766771317,-0.11076653748750687
6.139354467391968,0.009082860313355923,-1.56537926197052,1.2325644493103027,0.19355390965938568,0.11616747081279755,-0.11159718781709671
6.159449338912964,0.004435628652572632,-1.565784215927124,1.233474612236023,0.19392457604408264,0.11589770019054413,-0.11158928275108337
6.179551839828491,-0.0016685246955603361,-1.5666358470916748,1.232804775238037,0.1957811862230301,0.11292140185832977,-0.11175704747438431
6.1995933055877686,-0.015646636486053467,-1.5681787729263306,1.2303537130355835,0.20093467831611633,0.10345123708248138,-0.11196909844875336
6.219682455062866,-0.026482529938220978,-1.5687966346740723,1.231704831123352,0.20430412888526917,0.09518341720104218,-0.1120818704366684
6.239753484725952,-0.03958391025662422,-1.5701262950897217,1.2314893007278442,0.20826368033885956,0.08483108878135681,-0.11182667315006256
6.259862184524536,-0.01734176091849804,-1.569000244140625,1.2262789011001587,0.20854461193084717,0.08915349841117859,-0.11108247935771942
6.279898405075073,-0.01541382260620594,-1.569246530532837,1.2277095317840576,0.21010997891426086,0.08690275251865387,-0.11107045412063599
6.299984931945801,-0.0026585599407553673,-1.5693256855010986,1.2266654968261719,0.20757412910461426,0.09347128868103027,-0.11077092587947845
6.3201141357421875,0.0017686146311461926,-1.569401502609253,1.2256718873977661,0.20525546371936798,0.09757059812545776,-0.1107729822397232
6.3402419090271,0.013960218988358974,-1.5667178630828857,1.222328782081604,0.19767656922340393,0.11119183897972107,-0.11061420291662216
6.360248327255249,0.021442674100399017,-1.5646005868911743,1.222847819328308,0.19307106733322144,0.11961598694324493,-0.1109098419547081
6.380352735519409,0.012303043156862259,-1.5653833150863647,1.2264046669006348,0.19387032091617584,0.11660145968198776,-0.11136070638895035
6.40042781829834,0.0002324557863175869,-1.5660468339920044,1.231398344039917,0.19430625438690186,0.11345413327217102,-0.11167808622121811
6.42050313949585,-0.0036250874400138855,-1.5664700269699097,1.2319726943969727,0.1957770437002182,0.11100509017705917,-0.11174289882183075
6.4406023025512695,-0.016560910269618034,-1.567628264427185,1.2324832677841187,0.20132991671562195,0.10146050900220871,-0.11175023019313812
6.460652828216553,-0.03205147758126259,-1.5688413381576538,1.2320053577423096,0.20738598704338074,0.08852016925811768,-0.11168209463357925
6.48076605796814,-0.034578822553157806,-1.5696337223052979,1.2302114963531494,0.2083079069852829,0.08568279445171356,-0.1115863025188446
6.500870227813721,-0.020398613065481186,-1.5693836212158203,1.2257530689239502,0.20830032229423523,0.08873734623193741,-0.11104939877986908
6.521218538284302,-0.010183900594711304,-1.5695111751556396,1.226414442062378,0.20875540375709534,0.09021145105361938,-0.11085405945777893
6.541311502456665,-0.0015240679495036602,-1.5687987804412842,1.224691390991211,0.20611266791820526,0.09613228589296341,-0.11068569123744965
6.5614094734191895,0.012716982513666153,-1.5669877529144287,1.2245001792907715,0.20084235072135925,0.10642488300800323,-0.11070208996534348
6.5815088748931885,0.022693678736686707,-1.5642224550247192,1.2232719659805298,0.1959991455078125,0.11586543917655945,-0.11037082970142365
6.601604223251343,0.015626810491085052,-1.5643677711486816,1.2270700931549072,0.1938094198703766,0.11839696764945984,-0.11094477772712708
6.621650457382202,0.0020136376842856407,-1.5659184455871582,1.2314883470535278,0.19464406371116638,0.11467477679252625,-0.11127431690692902
6.641735792160034,-0.0019686303567141294,-1.5665491819381714,1.2326719760894775,0.19586989283561707,0.11189102381467819,-0.11140130460262299
6.661836385726929,-0.012563124299049377,-1.5679504871368408,1.2325780391693115,0.19924244284629822,0.10377220809459686,-0.11173500120639801
6.681882381439209,-0.03290153294801712,-1.5692505836486816,1.2354106903076172,0.20531147718429565,0.08956235647201538,-0.11177802085876465
6.701972723007202,-0.035985201597213745,-1.570061206817627,1.2341806888580322,0.20680929720401764,0.08618279546499252,-0.1115589588880539
6.7220704555511475,-0.02117338962852955,-1.5696483850479126,1.228716492652893,0.20700383186340332,0.08963677287101746,-0.11079021543264389
6.742362976074219,-0.013900150544941425,-1.5698015689849854,1.2292473316192627,0.20994603633880615,0.08711772412061691,-0.11057621240615845
6.762514591217041,-0.008279649540781975,-1.569961667060852,1.2282766103744507,0.2082730233669281,0.09026016294956207,-0.11055347323417664
6.7826197147369385,0.006464781239628792,-1.5690441131591797,1.224625587463379,0.20259049534797668,0.10161183774471283,-0.11033038794994354
6.802626848220825,0.011924137361347675,-1.568151831626892,1.2235299348831177,0.19955220818519592,0.10739874839782715,-0.11031106114387512
6.822732448577881,0.021361684426665306,-1.5662245750427246,1.222151756286621,0.19270925223827362,0.11807715892791748,-0.11067251861095428
6.842826843261719,0.004881261847913265,-1.5673085451126099,1.2283884286880493,0.1935397833585739,0.11312685906887054,-0.1115691214799881
6.862939119338989,0.0008951874915510416,-1.5673797130584717,1.2296584844589233,0.19374240934848785,0.11229589581489563,-0.11168175935745239
6.88302206993103,-0.007234620396047831,-1.567859172821045,1.2308425903320312,0.19679273664951324,0.10705050081014633,-0.11185726523399353
6.903134822845459,-0.022529099136590958,-1.568860650062561,1.2334662675857544,0.20259861648082733,0.09493798762559891,-0.11196477711200714
6.923210144042969,-0.029340310022234917,-1.5693414211273193,1.2346222400665283,0.2057836353778839,0.08831591159105301,-0.11185457557439804
6.943334341049194,-0.026553526520729065,-1.5702650547027588,1.2312939167022705,0.20780614018440247,0.08617307990789413,-0.11127199232578278
6.963718414306641,-0.017809566110372543,-1.5702128410339355,1.2305063009262085,0.2091672122478485,0.08599268645048141,-0.1109338253736496
6.9838056564331055,-0.014778254553675652,-1.5704947710037231,1.2306015491485596,0.20940613746643066,0.08609236776828766,-0.11088497936725616
7.003917455673218,-0.001938533503562212,-1.5700322389602661,1.2272440195083618,0.20584306120872498,0.09465401619672775,-0.11062176525592804
7.0239551067352295,0.006370429880917072,-1.569049596786499,1.2246631383895874,0.20299693942070007,0.10099418461322784,-0.11054164171218872
7.044076681137085,0.01950497180223465,-1.5661988258361816,1.220958948135376,0.195830300450325,0.1148892268538475,-0.11050470173358917
7.064130783081055,0.014416934922337532,-1.5666903257369995,1.2244592905044556,0.19358420372009277,0.11595778167247772,-0.11142506450414658
7.084246635437012,0.008506321348249912,-1.5671919584274292,1.2273443937301636,0.19398090243339539,0.11420470476150513,-0.11170630902051926
7.104318618774414,0.0017051957547664642,-1.5671671628952026,1.2320635318756104,0.19488738477230072,0.11151867359876633,-0.11187809705734253
7.1243836879730225,-0.013561956584453583,-1.568427324295044,1.2334409952163696,0.19928979873657227,0.10249754786491394,-0.11209024488925934
7.14454460144043,-0.02362687885761261,-1.5691044330596924,1.2351046800613403,0.20225772261619568,0.09547343850135803,-0.11212185025215149
7.1645588874816895,-0.03591788560152054,-1.5706857442855835,1.2318577766418457,0.2074660360813141,0.08591575175523758,-0.11153911054134369
7.1846020221710205,-0.027127094566822052,-1.570229411125183,1.2287757396697998,0.20737028121948242,0.08810319751501083,-0.11111529171466827
7.204702854156494,-0.020525969564914703,-1.5701223611831665,1.2263151407241821,0.21015143394470215,0.08546248078346252,-0.11099494993686676
7.224785089492798,-0.007494727149605751,-1.5694185495376587,1.223677635192871,0.20811708271503448,0.09116900712251663,-0.11091194301843643
7.244854927062988,-0.0002011856995522976,-1.5688039064407349,1.223097562789917,0.20544156432151794,0.09640878438949585,-0.11083739995956421
7.26501989364624,0.017051594331860542,-1.5659714937210083,1.22506844997406,0.19991673529148102,0.10767339169979095,-0.11085107922554016
7.285137176513672,0.02352311834692955,-1.564085841178894,1.2246702909469604,0.19612543284893036,0.11506029218435287,-0.11079941689968109
7.305257558822632,0.00912085734307766,-1.5644575357437134,1.232925295829773,0.19380173087120056,0.11497462540864944,-0.11143209785223007
7.325284719467163,-0.002226889366284013,-1.5655361413955688,1.2370272874832153,0.19510728120803833,0.11106214672327042,-0.11164959520101547
7.345383405685425,-0.00829040165990591,-1.566293478012085,1.2352972030639648,0.1973990648984909,0.107709601521492,-0.111712746322155
7.365483045578003,-0.020713288336992264,-1.5677495002746582,1.2294466495513916,0.2021910399198532,0.0997096374630928,-0.11178717762231827
7.385575771331787,-0.02959267795085907,-1.568359613418579,1.2244398593902588,0.20556645095348358,0.09343121945858002,-0.11181934177875519
7.4057042598724365,-0.0311909057199955,-1.5685234069824219,1.220280408859253,0.20736238360404968,0.08881185948848724,-0.11167272925376892
7.425793170928955,-0.018689606338739395,-1.5675081014633179,1.2188100814819336,0.2083027958869934,0.08926629275083542,-0.11142247915267944
7.44585108757019,-0.012655298225581646,-1.56728994846344,1.2214899063110352,0.20800913870334625,0.09019945561885834,-0.11126524209976196
7.465970039367676,0.0024025654420256615,-1.5664894580841064,1.2258330583572388,0.20358462631702423,0.09847712516784668,-0.1108151376247406
7.486009836196899,0.013608966022729874,-1.5657349824905396,1.226850152015686,0.19849801063537598,0.10862311720848083,-0.11049625277519226
7.506096363067627,0.02067624032497406,-1.5646343231201172,1.2254739999771118,0.19498300552368164,0.11623536050319672,-0.11015281081199646
7.5261640548706055,0.009478052146732807,-1.5660600662231445,1.228832721710205,0.19360418617725372,0.11542271077632904,-0.11092419922351837
7.54633641242981,-0.0006564334034919739,-1.566857099533081,1.230765700340271,0.1944981962442398,0.1118895635008812,-0.11132513731718063
7.566426515579224,-0.007128483150154352,-1.567537784576416,1.2285720109939575,0.196388378739357,0.10929800570011139,-0.11144277453422546
7.586480617523193,-0.02070777863264084,-1.5684571266174316,1.2298979759216309,0.2017919421195984,0.09806987643241882,-0.11171691119670868
7.606619834899902,-0.028177274391055107,-1.5687463283538818,1.231492519378662,0.2048826962709427,0.0913788452744484,-0.11172512173652649
7.626684188842773,-0.03268466889858246,-1.5693926811218262,1.2337071895599365,0.20805130898952484,0.08530019223690033,-0.111280657351017
7.646946668624878,-0.024007942527532578,-1.5689418315887451,1.2321484088897705,0.20805443823337555,0.0875253826379776,-0.11087922751903534
7.667109966278076,-0.019463928416371346,-1.5699946880340576,1.2297546863555908,0.20907023549079895,0.08688220381736755,-0.11082297563552856
7.687145948410034,-0.008262813091278076,-1.570325255393982,1.2261204719543457,0.20610350370407104,0.09309041500091553,-0.11078985035419464
7.707319021224976,-0.0005988334305584431,-1.569862723350525,1.2234517335891724,0.20375977456569672,0.09853453189134598,-0.11069115996360779
7.727427959442139,0.017118513584136963,-1.56700599193573,1.218955636024475,0.19743752479553223,0.11243391036987305,-0.1105383038520813
7.747486352920532,0.018412334844470024,-1.5663269758224487,1.2212333679199219,0.19368736445903778,0.11782585084438324,-0.11120147258043289
7.767585277557373,0.008429624140262604,-1.5668531656265259,1.2250418663024902,0.1937406063079834,0.11588041484355927,-0.11156690120697021
7.787640333175659,0.0036530655343085527,-1.5672380924224854,1.2339444160461426,0.19432872533798218,0.11374655365943909,-0.11149048060178757
7.807740688323975,-0.0024118395522236824,-1.5679832696914673,1.2382678985595703,0.19589479267597198,0.10957013815641403,-0.11158241331577301
7.82780909538269,-0.016800127923488617,-1.569352626800537,1.2385742664337158,0.20100891590118408,0.10044451057910919,-0.11158280074596405
7.847861289978027,-0.03690190985798836,-1.5714192390441895,1.2350687980651855,0.20774637162685394,0.08682453632354736,-0.11137185990810394
7.867997646331787,-0.032906245440244675,-1.5711253881454468,1.2323676347732544,0.20896753668785095,0.08570429682731628,-0.11110317707061768
7.888056993484497,-0.02033654786646366,-1.5705316066741943,1.2244893312454224,0.20970086753368378,0.08693854510784149,-0.11091203987598419
7.908250093460083,-0.012525210157036781,-1.5702645778656006,1.2224889993667603,0.20794256031513214,0.09002026170492172,-0.11101794987916946
7.92837929725647,-0.005345345474779606,-1.5694773197174072,1.2233171463012695,0.20562829077243805,0.09443122148513794,-0.1108938604593277
7.948439598083496,0.012815933674573898,-1.566565990447998,1.2281461954116821,0.19994677603244781,0.10492783784866333,-0.1106993705034256
7.968510866165161,0.023045703768730164,-1.5635929107666016,1.2305853366851807,0.19478771090507507,0.11340810358524323,-0.11052338778972626
7.988694429397583,0.0201114509254694,-1.563072919845581,1.2355823516845703,0.19202937185764313,0.1183524876832962,-0.11090268939733505
8.009024143218994,0.004398077726364136,-1.5650118589401245,1.2359468936920166,0.19297024607658386,0.11594036966562271,-0.1113758459687233
8.029162168502808,0.0011508218012750149,-1.5659205913543701,1.2310987710952759,0.1937553733587265,0.1163540780544281,-0.11135561019182205
8.049252033233643,-0.015596125274896622,-1.566645860671997,1.2277518510818481,0.19960637390613556,0.10483179241418839,-0.111899234354496
8.069324493408203,-0.02501075714826584,-1.5669022798538208,1.2256935834884644,0.20351648330688477,0.09778966754674911,-0.11192791163921356
8.08938479423523,-0.03830854222178459,-1.566867709159851,1.2243139743804932,0.20847086608409882,0.08521376550197601,-0.11209866404533386
8.109601020812988,-0.035071201622486115,-1.566597580909729,1.2243911027908325,0.20912474393844604,0.08457093685865402,-0.11182835698127747
8.12968635559082,-0.024721784517169,-1.566332459449768,1.2269251346588135,0.2120319902896881,0.08151568472385406,-0.11144641041755676
8.150101900100708,-0.01379355601966381,-1.5670942068099976,1.229282259941101,0.2099265158176422,0.08596806228160858,-0.1111244186758995
8.170183897018433,-0.002728470601141453,-1.5661700963974,1.2291946411132812,0.2070232629776001,0.09266713261604309,-0.11082731187343597
8.190264701843262,0.011017609387636185,-1.565313696861267,1.2231366634368896,0.1998729705810547,0.10663408041000366,-0.1107737123966217
8.210408449172974,0.018722306936979294,-1.5638463497161865,1.2192318439483643,0.19549591839313507,0.11537529528141022,-0.11071284115314484
8.23055624961853,0.016667434945702553,-1.5643270015716553,1.2196978330612183,0.1941312700510025,0.11780677735805511,-0.11154569685459137
8.250553369522095,-7.559079676866531e-05,-1.565561056137085,1.2244545221328735,0.19432076811790466,0.11420027911663055,-0.11212630569934845
8.270662784576416,-0.006019950844347477,-1.5658687353134155,1.2260419130325317,0.19515672326087952,0.11204234510660172,-0.11220978200435638
8.29072642326355,-0.017897315323352814,-1.5663989782333374,1.2306582927703857,0.19943325221538544,0.10248982906341553,-0.11234445869922638
8.310845613479614,-0.03464954346418381,-1.5673942565917969,1.2365529537200928,0.20466795563697815,0.08889731019735336,-0.11226969957351685
8.330941915512085,-0.03835722804069519,-1.568037986755371,1.237221360206604,0.20672158896923065,0.08511708676815033,-0.11190376430749893
8.351140022277832,-0.018296148627996445,-1.5677475929260254,1.230362892150879,0.20723843574523926,0.08941784501075745,-0.11100223660469055
8.37126111984253,-0.01659686677157879,-1.5683261156082153,1.2301545143127441,0.20941343903541565,0.0866561084985733,-0.1109391301870346
8.39134430885315,-0.004449722357094288,-1.5691756010055542,1.225241780281067,0.20764367282390594,0.09205533564090729,-0.11079387366771698
8.411436557769775,0.006177021190524101,-1.5686149597167969,1.2213908433914185,0.20227651298046112,0.10200631618499756,-0.11089089512825012
8.431505918502808,0.01416073925793171,-1.5672036409378052,1.219918131828308,0.198965385556221,0.10895636677742004,-0.11076363921165466
8.451578140258789,0.025032849982380867,-1.5640530586242676,1.219064712524414,0.19316484034061432,0.12113845348358154,-0.11075517535209656
8.471677303314209,0.0027725910767912865,-1.565888524055481,1.2289718389511108,0.19447000324726105,0.1142815351486206,-0.11157159507274628
8.49172854423523,0.002426011487841606,-1.5654046535491943,1.231609582901001,0.19402721524238586,0.1148342490196228,-0.11149666458368301
8.511885404586792,-0.004357540979981422,-1.5658189058303833,1.2343600988388062,0.19687774777412415,0.10960733890533447,-0.11168580502271652
8.53190016746521,-0.01907210238277912,-1.5676445960998535,1.2312536239624023,0.20208649337291718,0.09917286038398743,-0.11192935705184937
8.552016019821167,-0.029777731746435165,-1.568758249282837,1.2301547527313232,0.2053394913673401,0.09131596237421036,-0.11196893453598022
8.57216501235962,-0.03318824991583824,-1.5697492361068726,1.2255312204360962,0.20841814577579498,0.08562803268432617,-0.11150956898927689
8.592597961425781,-0.01954946108162403,-1.5692427158355713,1.22398841381073,0.21026822924613953,0.0850619524717331,-0.11114220321178436
8.612799167633057,-0.014612779021263123,-1.56932532787323,1.2246731519699097,0.21028049290180206,0.08576102554798126,-0.11105506122112274
8.632800340652466,0.0007804874330759048,-1.5685198307037354,1.2266838550567627,0.20639261603355408,0.09422650933265686,-0.11072798818349838
8.652888059616089,0.007135595194995403,-1.568196415901184,1.2258365154266357,0.2040524184703827,0.0994495078921318,-0.11068157851696014
8.672969341278076,0.0226726233959198,-1.5658601522445679,1.2253119945526123,0.1979624330997467,0.1124875396490097,-0.11041231453418732
8.693003416061401,0.011153833009302616,-1.5672974586486816,1.2290124893188477,0.19519175589084625,0.11367476731538773,-0.11125704646110535
8.71308159828186,0.000536477193236351,-1.5682709217071533,1.230819821357727,0.1956319808959961,0.11121673882007599,-0.11157284677028656
8.73315978050232,-0.00469367066398263,-1.5680618286132812,1.2305759191513062,0.19527770578861237,0.11109371483325958,-0.1117917075753212
8.753331899642944,-0.014642072841525078,-1.568336844444275,1.2317023277282715,0.19915878772735596,0.10391417890787125,-0.11199181526899338
8.773340702056885,-0.020284762606024742,-1.5686510801315308,1.232515573501587,0.20207032561302185,0.09832938760519028,-0.11201583594083786
8.793412446975708,-0.02971651777625084,-1.5697929859161377,1.2317864894866943,0.2070731818675995,0.08882182836532593,-0.11183071881532669
8.813481330871582,-0.02678091824054718,-1.5702470541000366,1.2296106815338135,0.20753750205039978,0.08872304111719131,-0.11138913035392761
8.833599090576172,-0.021823793649673462,-1.5698589086532593,1.2291197776794434,0.2084599882364273,0.08821942657232285,-0.11131417006254196
8.853654861450195,-0.01062059961259365,-1.5696262121200562,1.2280895709991455,0.2077416479587555,0.09118048846721649,-0.11123017221689224
8.873724699020386,-0.0028593619354069233,-1.5692784786224365,1.2263472080230713,0.20529161393642426,0.09607136249542236,-0.11122305691242218
8.893829822540283,0.012157896533608437,-1.5679116249084473,1.2232356071472168,0.2014872431755066,0.10604879260063171,-0.11134481430053711
8.913898229598999,0.02428104355931282,-1.565152645111084,1.2199289798736572,0.1941758692264557,0.11975391209125519,-0.11147231608629227
8.933974266052246,0.016538165509700775,-1.565663456916809,1.2227855920791626,0.19315104186534882,0.11936988681554794,-0.11194920539855957
8.954050064086914,0.0015652237925678492,-1.5662156343460083,1.2278053760528564,0.19318482279777527,0.11624094843864441,-0.11242368817329407
8.974099397659302,-0.006055582780390978,-1.5666948556900024,1.2296661138534546,0.19599910080432892,0.1107112318277359,-0.11261919140815735
8.994194507598877,-0.012406759895384312,-1.567081093788147,1.231274962425232,0.19880394637584686,0.10524290800094604,-0.1127057820558548
9.014312744140625,-0.02758360095322132,-1.5680038928985596,1.232900857925415,0.20552492141723633,0.0921931266784668,-0.11255238950252533
9.034939289093018,-0.03280835598707199,-1.5691502094268799,1.2317428588867188,0.20817099511623383,0.08654098212718964,-0.1121470183134079
9.055105447769165,-0.02652899920940399,-1.56926429271698,1.2294707298278809,0.2086786925792694,0.08756156265735626,-0.1117454394698143
9.075144052505493,-0.019883235916495323,-1.569505214691162,1.2289737462997437,0.21149879693984985,0.08460742980241776,-0.11151255667209625
9.095237731933594,-0.006624321918934584,-1.5694348812103271,1.226677417755127,0.20843854546546936,0.09168379753828049,-0.11136625707149506
9.115366220474243,0.002103924285620451,-1.56867253780365,1.224924921989441,0.20581425726413727,0.09750690311193466,-0.1112767904996872
9.135410785675049,0.01804153248667717,-1.5656509399414062,1.2205538749694824,0.1987026333808899,0.11242695152759552,-0.11117245256900787
9.15552806854248,0.02362772822380066,-1.5645469427108765,1.2200307846069336,0.1954953819513321,0.11798129975795746,-0.11144574731588364
9.175591468811035,0.006439367309212685,-1.5658233165740967,1.226423740386963,0.19535407423973083,0.11445176601409912,-0.11244331300258636
9.195689916610718,0.00052663404494524,-1.5657633543014526,1.2294012308120728,0.19529443979263306,0.11353102326393127,-0.11255142092704773
9.215779781341553,-0.00944388099014759,-1.5663952827453613,1.2316869497299194,0.19753189384937286,0.1085381731390953,-0.1127672791481018
9.236173391342163,-0.026791345328092575,-1.5674045085906982,1.2328343391418457,0.20345647633075714,0.09645481407642365,-0.1128571406006813
9.256268739700317,-0.035278357565402985,-1.5678257942199707,1.232125997543335,0.2067803293466568,0.08915961533784866,-0.11282213777303696
9.276405572891235,-0.03081577457487583,-1.568137526512146,1.2288951873779297,0.20850855112075806,0.08717916905879974,-0.11220706254243851
9.296433448791504,-0.02121662348508835,-1.5679881572723389,1.225648283958435,0.20788337290287018,0.09001266211271286,-0.11189129203557968
9.316526889801025,-0.01545780710875988,-1.568861722946167,1.2249276638031006,0.20874233543872833,0.08908973634243011,-0.11184689402580261
9.336579084396362,-0.009152205660939217,-1.5686635971069336,1.2240662574768066,0.20667627453804016,0.09312981367111206,-0.11174918711185455
9.356663703918457,0.006623337510973215,-1.5671873092651367,1.222864031791687,0.20097631216049194,0.10427501052618027,-0.11150150001049042
9.376746654510498,0.02366429567337036,-1.5639134645462036,1.2214078903198242,0.19415965676307678,0.11890174448490143,-0.1111459955573082
9.396840810775757,0.02773539163172245,-1.5633056163787842,1.2223068475723267,0.1927611380815506,0.12258682399988174,-0.11128781735897064
9.417071342468262,0.00014918670058250427,-1.5654492378234863,1.2302350997924805,0.19280162453651428,0.11581850051879883,-0.11238652467727661
9.437072277069092,-0.006082211155444384,-1.5655999183654785,1.2322198152542114,0.19267675280570984,0.11439479142427444,-0.11249595135450363
9.457121133804321,-0.018297020345926285,-1.5662596225738525,1.2324016094207764,0.19745734333992004,0.10667741298675537,-0.11250992864370346
9.477165699005127,-0.031244250014424324,-1.5672287940979004,1.2301777601242065,0.2045060694217682,0.0934729278087616,-0.11248526722192764
9.497251987457275,-0.03566736355423927,-1.5677993297576904,1.229979395866394,0.20697277784347534,0.08821218460798264,-0.11239570379257202
9.517328262329102,-0.02403310127556324,-1.567932367324829,1.2244396209716797,0.2076423466205597,0.08987940102815628,-0.11191695183515549
9.537602186203003,-0.022291896864771843,-1.568239688873291,1.2235496044158936,0.2098524421453476,0.0871572196483612,-0.11189036071300507
9.557753324508667,-0.013860262930393219,-1.5683391094207764,1.2239887714385986,0.20918351411819458,0.08933153748512268,-0.11183487623929977
9.57792043685913,0.0015823324210941792,-1.5670585632324219,1.224002718925476,0.20469951629638672,0.09937705844640732,-0.11161638796329498
9.598057746887207,0.009775763377547264,-1.565989375114441,1.2235885858535767,0.20131567120552063,0.10576778650283813,-0.1115628182888031
9.618059396743774,0.022874386981129646,-1.563835859298706,1.2218499183654785,0.19456747174263,0.11966945230960846,-0.11122597754001617
9.638748407363892,0.014507610350847244,-1.5647006034851074,1.2258338928222656,0.1947356015443802,0.11741256713867188,-0.11173412203788757
9.65894889831543,0.0010146407876163721,-1.565690279006958,1.2311701774597168,0.19483771920204163,0.1142498031258583,-0.11213206499814987
9.679014921188354,-0.007920648902654648,-1.5663875341415405,1.2326903343200684,0.19773229956626892,0.10843974351882935,-0.11235728859901428
9.699129104614258,-0.01584089733660221,-1.5673507452011108,1.2317016124725342,0.2007962316274643,0.10249835252761841,-0.1124664768576622
9.71917200088501,-0.033951446413993835,-1.569005012512207,1.2318800687789917,0.20746468007564545,0.08818171173334122,-0.11239522695541382
9.739431858062744,-0.03540264815092087,-1.5699551105499268,1.2294057607650757,0.2082594484090805,0.0864693820476532,-0.11215613037347794
9.759604692459106,-0.02254474349319935,-1.5699472427368164,1.224959135055542,0.20850615203380585,0.08817543834447861,-0.11172609031200409
9.780189037322998,-0.016855208203196526,-1.570353627204895,1.2262146472930908,0.20983363687992096,0.08705852925777435,-0.11161737143993378
9.800261735916138,-0.00976361520588398,-1.5700303316116333,1.2256358861923218,0.2077140510082245,0.09136860817670822,-0.11149153858423233
9.820351600646973,0.010547705926001072,-1.5673060417175293,1.2237920761108398,0.20210322737693787,0.1044001579284668,-0.11121563613414764
9.840430736541748,0.02172190696001053,-1.564653754234314,1.2214418649673462,0.19742083549499512,0.11419175565242767,-0.11094767600297928
9.860549449920654,0.023017391562461853,-1.5632832050323486,1.223780632019043,0.19272543489933014,0.12176141887903214,-0.11144378036260605
9.880634307861328,0.004495948553085327,-1.5646281242370605,1.2290414571762085,0.19283923506736755,0.11811311542987823,-0.11220842599868774
9.900684833526611,0.0014688619412481785,-1.5645066499710083,1.2303006649017334,0.19258169829845428,0.11801014840602875,-0.11224059760570526
9.92079472541809,-0.010932998731732368,-1.5650666952133179,1.2316560745239258,0.1968020498752594,0.10990311950445175,-0.11253480613231659
9.940989255905151,-0.027399640530347824,-1.5662544965744019,1.232121229171753,0.20420855283737183,0.09478563070297241,-0.11259374022483826
9.96109938621521,-0.03164094686508179,-1.5668725967407227,1.2317050695419312,0.20656932890415192,0.0901300460100174,-0.11245591193437576
9.98115348815918,-0.02920219674706459,-1.5674591064453125,1.2297419309616089,0.2081654965877533,0.08775263279676437,-0.11197233200073242
10.00159215927124,-0.020220134407281876,-1.5673538446426392,1.2270615100860596,0.20882903039455414,0.08924899995326996,-0.11163737624883652
10.021792888641357,-0.007993769831955433,-1.5677326917648315,1.2256853580474854,0.20852841436862946,0.09229221940040588,-0.11141307651996613
10.0418541431427,0.006173610687255859,-1.5670726299285889,1.2229526042938232,0.2041160762310028,0.10213054716587067,-0.11122672259807587
10.06192946434021,0.010534973815083504,-1.5668725967407227,1.2236965894699097,0.20287011563777924,0.10503420978784561,-0.11137957870960236
10.082022428512573,0.024195753037929535,-1.5635149478912354,1.2220752239227295,0.19511747360229492,0.11957612633705139,-0.1112048402428627
10.10220980644226,0.00576259009540081,-1.5649031400680542,1.2281913757324219,0.193787083029747,0.11713355779647827,-0.11201222240924835
10.12233829498291,0.0018664165399968624,-1.565203070640564,1.2294340133666992,0.1940010040998459,0.11598559468984604,-0.11211537569761276
10.142438173294067,-0.004070651717483997,-1.565596342086792,1.2293710708618164,0.19608110189437866,0.11203072965145111,-0.11229216307401657
10.162639617919922,-0.012895352207124233,-1.5662750005722046,1.2303359508514404,0.19918037950992584,0.10574735701084137,-0.11242319643497467
10.182730674743652,-0.031089263036847115,-1.567674160003662,1.2323217391967773,0.20473772287368774,0.09201030433177948,-0.11248261481523514
10.20278811454773,-0.029321445152163506,-1.5678701400756836,1.2304210662841797,0.20729732513427734,0.08839733898639679,-0.11182834208011627
10.222896099090576,-0.019994037225842476,-1.567318320274353,1.2288702726364136,0.20690013468265533,0.09079578518867493,-0.11150218546390533
10.243021965026855,-0.017155786976218224,-1.5681185722351074,1.2302920818328857,0.21012601256370544,0.08625038713216782,-0.11134565621614456
10.26314115524292,-0.0023071635514497757,-1.5680776834487915,1.2235363721847534,0.2056456059217453,0.0972328633069992,-0.11088903248310089
10.283243179321289,0.001459765713661909,-1.567866563796997,1.2233465909957886,0.2032933533191681,0.10108774155378342,-0.11097545921802521
10.303425312042236,0.011475509032607079,-1.566085696220398,1.2210972309112549,0.1972280740737915,0.11143898218870163,-0.11110501736402512
10.323478937149048,0.01594492606818676,-1.5648689270019531,1.2216109037399292,0.1947801113128662,0.11602005362510681,-0.11117632687091827
10.343577861785889,0.009924722835421562,-1.5652165412902832,1.2267377376556396,0.19590552151203156,0.11356346309185028,-0.11185887455940247
10.363631248474121,0.0027423168066889048,-1.5661450624465942,1.232086420059204,0.19548720121383667,0.11157235503196716,-0.11205258220434189
10.383804559707642,-0.0007296181283891201,-1.5666853189468384,1.2325170040130615,0.19671376049518585,0.1092509925365448,-0.11212058365345001
10.403856992721558,-0.018580220639705658,-1.5683308839797974,1.2329031229019165,0.20246194303035736,0.09750678390264511,-0.11221776157617569
10.423964500427246,-0.024894194677472115,-1.5691028833389282,1.2328016757965088,0.2050074189901352,0.09214737266302109,-0.1121300458908081
10.444050788879395,-0.03509986400604248,-1.570672869682312,1.23153555393219,0.2074558585882187,0.08468851447105408,-0.11185000091791153
10.464114427566528,-0.016608836129307747,-1.5697875022888184,1.226736307144165,0.20890280604362488,0.08748966455459595,-0.1110900416970253
10.48421335220337,-0.012438654899597168,-1.5698736906051636,1.2275099754333496,0.20913901925086975,0.08721478283405304,-0.1111222356557846
10.50428295135498,0.0019346573390066624,-1.5691113471984863,1.2247289419174194,0.20483972132205963,0.09709677845239639,-0.11084191501140594
10.524358749389648,0.006236772518604994,-1.568608045578003,1.2248526811599731,0.20262278616428375,0.10145833343267441,-0.1108197495341301
10.544452905654907,0.018443837761878967,-1.5656030178070068,1.2236636877059937,0.19561736285686493,0.1146559864282608,-0.1106286495923996
10.564615964889526,0.010074853897094727,-1.5662009716033936,1.228571891784668,0.19497516751289368,0.11420797556638718,-0.11121056228876114
10.58471131324768,0.002517248038202524,-1.5669031143188477,1.2319661378860474,0.1951133906841278,0.11244973540306091,-0.11134040355682373
10.604799747467041,-0.00536325853317976,-1.5680018663406372,1.2339816093444824,0.19666853547096252,0.10864072293043137,-0.11151840537786484
10.624969244003296,-0.011298654600977898,-1.5686030387878418,1.233032464981079,0.19880910217761993,0.10476361215114594,-0.1116141527891159
10.645018815994263,-0.026020336896181107,-1.5699697732925415,1.2318061590194702,0.20416241884231567,0.0933646485209465,-0.11176150292158127
10.665493488311768,-0.02841830439865589,-1.5710182189941406,1.2274638414382935,0.2071044147014618,0.08867450058460236,-0.11142988502979279
10.68557858467102,-0.023933330550789833,-1.5705684423446655,1.2263569831848145,0.2069653868675232,0.08938352018594742,-0.11132998019456863
10.705644130706787,-0.01630976051092148,-1.570320963859558,1.2263363599777222,0.2083403766155243,0.08862380683422089,-0.11127502471208572
10.725724935531616,-0.009839551523327827,-1.569750428199768,1.2277506589889526,0.20704129338264465,0.09162173420190811,-0.11117082834243774
10.745785474777222,0.0070234183222055435,-1.5675920248031616,1.2280032634735107,0.20175614953041077,0.10277748107910156,-0.11093780398368835
10.765867233276367,0.018438728526234627,-1.5650575160980225,1.225132703781128,0.1968957781791687,0.11314025521278381,-0.11054287105798721
10.785934925079346,0.023857643827795982,-1.564357042312622,1.2238777875900269,0.19244734942913055,0.12242177873849869,-0.11081690341234207
10.805996894836426,0.004571558441966772,-1.565640926361084,1.230878233909607,0.19262899458408356,0.11750629544258118,-0.11170987039804459
10.826091289520264,0.0009146642405539751,-1.5657027959823608,1.2313086986541748,0.19277045130729675,0.11679047346115112,-0.11182279884815216
10.846168279647827,-0.013523450121283531,-1.5666322708129883,1.2325226068496704,0.1966480016708374,0.10784925520420074,-0.1122458353638649
10.866254329681396,-0.02014216035604477,-1.5669231414794922,1.232313632965088,0.1999412477016449,0.10163963586091995,-0.11226983368396759
10.886404752731323,-0.03432074189186096,-1.5681278705596924,1.2321661710739136,0.20727702975273132,0.08769116550683975,-0.11197201907634735
10.906473398208618,-0.02860480546951294,-1.5684583187103271,1.2304730415344238,0.20940548181533813,0.08540748804807663,-0.1112632304430008
10.926591873168945,-0.019347043707966805,-1.5680012702941895,1.2289503812789917,0.2113044559955597,0.08578334003686905,-0.11079871654510498
10.946727514266968,-0.006827083881944418,-1.568141222000122,1.2249826192855835,0.21036584675312042,0.08970756083726883,-0.11073553562164307
10.966757535934448,-0.000886725727468729,-1.5678813457489014,1.2233957052230835,0.20739200711250305,0.0948745384812355,-0.11069685220718384
10.986842632293701,0.010819969698786736,-1.5667130947113037,1.2207854986190796,0.2007901817560196,0.10648249089717865,-0.11072944104671478
11.006896018981934,0.017353521659970284,-1.5650510787963867,1.2198705673217773,0.1966056078672409,0.11380545794963837,-0.11069037765264511
11.026991605758667,0.014707071706652641,-1.565049648284912,1.2236849069595337,0.1933068335056305,0.11574557423591614,-0.11172039806842804
11.047054052352905,0.0006729597225785255,-1.5656369924545288,1.2292932271957397,0.19347628951072693,0.11322760581970215,-0.11203740537166595
11.06714653968811,-0.0030347746796905994,-1.5659701824188232,1.2305660247802734,0.1946617215871811,0.11110953986644745,-0.11211854219436646
11.087231397628784,-0.013164544478058815,-1.566815733909607,1.231491208076477,0.1989404857158661,0.10371720790863037,-0.112247034907341
11.107401609420776,-0.026928864419460297,-1.5684024095535278,1.2310220003128052,0.2047465443611145,0.09267082065343857,-0.11208835244178772
11.127495765686035,-0.03042958676815033,-1.569067120552063,1.231048583984375,0.20640236139297485,0.08891642093658447,-0.11195811629295349
11.147644758224487,-0.023141978308558464,-1.5692014694213867,1.2280195951461792,0.20749180018901825,0.09009673446416855,-0.11133473366498947
11.167736530303955,-0.02164704166352749,-1.5695750713348389,1.2284632921218872,0.20803016424179077,0.08913663029670715,-0.11132977902889252
11.187928676605225,-0.008990460075438023,-1.5691709518432617,1.2271668910980225,0.20617744326591492,0.09484799951314926,-0.11100062727928162
11.207916736602783,0.0037987283430993557,-1.5678651332855225,1.2251478433609009,0.20153361558914185,0.1042911559343338,-0.11092256009578705
11.228010416030884,0.013278258964419365,-1.5657364130020142,1.2217422723770142,0.19729194045066833,0.11308595538139343,-0.11066936701536179
11.248072862625122,0.020671676844358444,-1.5643856525421143,1.22188138961792,0.19464311003684998,0.11916625499725342,-0.11120004951953888
11.268574714660645,0.006026135757565498,-1.56573486328125,1.2261985540390015,0.1951274871826172,0.11419288069009781,-0.11196239292621613
11.288666725158691,-0.008831863291561604,-1.5664761066436768,1.2300184965133667,0.1955912709236145,0.11026443541049957,-0.11234401166439056
11.308724641799927,-0.014492024667561054,-1.566678524017334,1.2310513257980347,0.19908829033374786,0.1043241024017334,-0.1123376190662384
11.328824520111084,-0.01804828830063343,-1.566811442375183,1.2317975759506226,0.20184151828289032,0.10001634806394577,-0.11227203905582428
11.348946809768677,-0.027002330869436264,-1.568419098854065,1.2320033311843872,0.20609933137893677,0.09066641330718994,-0.11216536164283752
11.36899471282959,-0.02187296561896801,-1.5691379308700562,1.2284308671951294,0.20610454678535461,0.09148015081882477,-0.11173822730779648
11.389069557189941,-0.017458517104387283,-1.569278359413147,1.2263801097869873,0.2062290757894516,0.09255966544151306,-0.11157672107219696
11.409152746200562,-0.008735870942473412,-1.5695173740386963,1.225019931793213,0.20587483048439026,0.09472145140171051,-0.11148909479379654
11.430300235748291,0.006726913154125214,-1.5679291486740112,1.2234513759613037,0.20216180384159088,0.10376220941543579,-0.11126302927732468
11.45042896270752,0.010523437522351742,-1.567679762840271,1.2246990203857422,0.20150208473205566,0.10568010807037354,-0.11143656820058823
11.47046947479248,0.022015661001205444,-1.5651336908340454,1.2266446352005005,0.1960848569869995,0.11608239263296127,-0.1113642007112503
11.490696668624878,0.0057053035125136375,-1.5667603015899658,1.2327672243118286,0.19581496715545654,0.11315139383077621,-0.11197611689567566
11.510926723480225,0.003240254707634449,-1.5671356916427612,1.2348662614822388,0.19558149576187134,0.11299878358840942,-0.11195151507854462
11.53091835975647,-0.004971569869667292,-1.5683224201202393,1.235031008720398,0.19900131225585938,0.10794238746166229,-0.1120019257068634
11.55133056640625,-0.010976482182741165,-1.568779468536377,1.2344286441802979,0.20111459493637085,0.1038680225610733,-0.11207154393196106
11.571467161178589,-0.028510818257927895,-1.5706350803375244,1.2318828105926514,0.20687849819660187,0.09162478893995285,-0.11213332414627075
11.591536521911621,-0.02818547934293747,-1.5709999799728394,1.2291486263275146,0.2079658806324005,0.0891699492931366,-0.1117640882730484
11.611608505249023,-0.020638056099414825,-1.5704565048217773,1.2264832258224487,0.2075687050819397,0.0914493054151535,-0.11154651641845703
11.63175106048584,-0.015638571232557297,-1.5705163478851318,1.2281723022460938,0.20859821140766144,0.08941559493541718,-0.11153814941644669
11.651822566986084,-0.0012926519848406315,-1.569516658782959,1.2258615493774414,0.2045063078403473,0.09849299490451813,-0.11122890561819077
11.671962022781372,0.005004171282052994,-1.568611979484558,1.2266963720321655,0.20243975520133972,0.1026296317577362,-0.11122143268585205
11.691978931427002,0.018299711868166924,-1.56679368019104,1.2257274389266968,0.19803234934806824,0.1128285750746727,-0.11116021126508713
11.71248483657837,0.01625031977891922,-1.5669119358062744,1.226652979850769,0.19667218625545502,0.11509183049201965,-0.11186900734901428
11.73258924484253,0.007984913885593414,-1.5673164129257202,1.2284748554229736,0.19569708406925201,0.11464444547891617,-0.11217815428972244
11.752667665481567,-0.0026563939172774553,-1.5677438974380493,1.2302558422088623,0.19615599513053894,0.11175179481506348,-0.11248024553060532
11.772797346115112,-0.010782629251480103,-1.5681072473526,1.2312572002410889,0.19857223331928253,0.10690060257911682,-0.11259100586175919
11.79293155670166,-0.029364783316850662,-1.569142460823059,1.234731674194336,0.20394982397556305,0.09326716512441635,-0.1127040907740593
11.812986850738525,-0.035418059676885605,-1.5698055028915405,1.2355313301086426,0.20810353755950928,0.08529535681009293,-0.11207443475723267
11.833073854446411,-0.025201916694641113,-1.5692046880722046,1.2333089113235474,0.20814092457294464,0.0873946100473404,-0.11162504553794861
11.85315728187561,-0.02010609209537506,-1.5697407722473145,1.2338917255401611,0.21164339780807495,0.08341449499130249,-0.1112896203994751
11.873223304748535,-0.008036935701966286,-1.5701754093170166,1.2283471822738647,0.20882686972618103,0.09102801978588104,-0.1109236478805542
11.893320322036743,-0.002359515056014061,-1.5700042247772217,1.226606011390686,0.20650406181812286,0.09521408379077911,-0.11099094152450562
11.913480281829834,0.013640139251947403,-1.5673716068267822,1.2204692363739014,0.19889786839485168,0.11018836498260498,-0.11085145175457001
11.933483123779297,0.02408433146774769,-1.5641523599624634,1.2192624807357788,0.19313769042491913,0.12174037843942642,-0.11108261346817017
11.953577041625977,0.015425361692905426,-1.5646743774414062,1.2240967750549316,0.19363783299922943,0.1186714917421341,-0.11171022057533264
11.973666906356812,0.0029357057064771652,-1.564767599105835,1.2317655086517334,0.19367261230945587,0.11554311215877533,-0.11213517934083939
11.993802070617676,0.0018480152357369661,-1.564626693725586,1.2340513467788696,0.1941484659910202,0.11452576518058777,-0.11208826303482056
12.013890743255615,-0.0158421378582716,-1.5663658380508423,1.234840750694275,0.20043756067752838,0.10281965136528015,-0.11222328990697861
12.03410792350769,-0.03272981196641922,-1.5681960582733154,1.2320475578308105,0.20549799501895905,0.09049904346466064,-0.11230897158384323
12.054196119308472,-0.03352338820695877,-1.5685611963272095,1.2289067506790161,0.2072448879480362,0.08802229166030884,-0.11208631843328476
12.074296951293945,-0.020363925024867058,-1.5676641464233398,1.224100947380066,0.2082214504480362,0.0886281281709671,-0.11179812252521515
12.094381093978882,-0.012592718005180359,-1.5674359798431396,1.2226154804229736,0.20825016498565674,0.08948764950037003,-0.11180141568183899
12.114472150802612,-0.006452036555856466,-1.567371129989624,1.2223795652389526,0.20645637810230255,0.09353803843259811,-0.1116696149110794
12.134544849395752,0.006259330082684755,-1.5661671161651611,1.2236976623535156,0.200702965259552,0.10376012325286865,-0.1114392876625061
12.154803991317749,0.016376180574297905,-1.5633682012557983,1.221474289894104,0.1953393667936325,0.11420056968927383,-0.11092216521501541
12.174911260604858,0.024054430425167084,-1.5626362562179565,1.2241551876068115,0.19229674339294434,0.12106054276227951,-0.11097513884305954
12.19500732421875,0.000869053415954113,-1.5653687715530396,1.2320239543914795,0.19426411390304565,0.11264155805110931,-0.11182837188243866
12.215090990066528,-0.00663404818624258,-1.5661125183105469,1.2337087392807007,0.19498659670352936,0.10985734313726425,-0.1119760274887085
12.235225677490234,-0.019169921055436134,-1.5675709247589111,1.2304434776306152,0.2007841169834137,0.10078758746385574,-0.11194824427366257
12.255360841751099,-0.028055813163518906,-1.5678564310073853,1.2316524982452393,0.20477204024791718,0.09225612878799438,-0.11199255287647247
12.275487184524536,-0.03509465977549553,-1.5684285163879395,1.2307865619659424,0.20828677713871002,0.08470700681209564,-0.1118735671043396
12.295543670654297,-0.017969395965337753,-1.5677388906478882,1.226071834564209,0.20809531211853027,0.08944103121757507,-0.11129127442836761
12.315651178359985,-0.014933299273252487,-1.5680924654006958,1.2271710634231567,0.20902526378631592,0.08866120874881744,-0.11125310510396957
12.33572506904602,-0.0016269027255475521,-1.5682438611984253,1.224746823310852,0.20591509342193604,0.0959198921918869,-0.11111404001712799
12.35582184791565,0.0044661713764071465,-1.5679353475570679,1.2237721681594849,0.20299628376960754,0.10107922554016113,-0.1111077070236206
12.375985383987427,0.019017521291971207,-1.5651805400848389,1.2206621170043945,0.19534309208393097,0.11576442420482635,-0.11085828393697739
12.396491050720215,0.013156170956790447,-1.5656629800796509,1.2256935834884644,0.19473667442798615,0.1160004734992981,-0.11148299276828766
12.416629791259766,0.005880314856767654,-1.566259503364563,1.2285239696502686,0.19382651150226593,0.11519971489906311,-0.11175042390823364
12.436820268630981,-0.0037668151780962944,-1.5669173002243042,1.2326381206512451,0.19470545649528503,0.11139680445194244,-0.11200067400932312
12.456867694854736,-0.010587489232420921,-1.5674792528152466,1.2331308126449585,0.19751755893230438,0.10657431930303574,-0.11206966638565063
12.476929187774658,-0.02388387732207775,-1.5690491199493408,1.2310328483581543,0.20460417866706848,0.09467072784900665,-0.11191536486148834
12.49699878692627,-0.03076973184943199,-1.5697969198226929,1.231246829032898,0.20721521973609924,0.08834195882081985,-0.11190541088581085
12.517071723937988,-0.04645691439509392,-1.553847074508667,1.230525016784668,0.21100850403308868,0.08596605062484741,-0.10052937269210815
12.537149906158447,-0.06109362840652466,-1.5373369455337524,1.2324854135513306,0.21409077942371368,0.08479447662830353,-0.08941777050495148
12.557271718978882,-0.08609534800052643,-1.5017493963241577,1.2363003492355347,0.2196369171142578,0.08580650389194489,-0.06573670357465744
12.57793927192688,-0.10786532610654831,-1.4647973775863647,1.2382781505584717,0.22457201778888702,0.08962004631757736,-0.04091165214776993
12.598067045211792,-0.11697731912136078,-1.4457979202270508,1.2378437519073486,0.22638745605945587,0.09321826696395874,-0.02808346040546894
12.618161916732788,-0.13317717611789703,-1.4077889919281006,1.23420250415802,0.22917045652866364,0.10266979783773422,-0.0020740535110235214
12.638278484344482,-0.13971175253391266,-1.38893461227417,1.2306722402572632,0.2298949509859085,0.10925929248332977,0.010979768820106983
12.65830945968628,-0.15267248451709747,-1.35230553150177,1.2204606533050537,0.23042164742946625,0.12340809404850006,0.03714963421225548
12.678403615951538,-0.15821488201618195,-1.3339941501617432,1.2145819664001465,0.23046758770942688,0.13099800050258636,0.05006495490670204
12.698503971099854,-0.16902664303779602,-1.2988439798355103,1.2000963687896729,0.2297961562871933,0.1481139361858368,0.07544110715389252
12.718950033187866,-0.17899012565612793,-1.2622275352478027,1.1875587701797485,0.23004715144634247,0.16464927792549133,0.10044880956411362
12.739109754562378,-0.18508855998516083,-1.2439935207366943,1.1811634302139282,0.23041751980781555,0.17261315882205963,0.11273165047168732
12.759127140045166,-0.19903303682804108,-1.2103322744369507,1.1640695333480835,0.22935457527637482,0.18961381912231445,0.13665993511676788
12.779266119003296,-0.20564311742782593,-1.193490982055664,1.1542940139770508,0.2285582274198532,0.19782185554504395,0.14824049174785614
12.799354314804077,-0.22351746261119843,-1.1597437858581543,1.1370865106582642,0.22800186276435852,0.21230322122573853,0.17118744552135468
12.819448947906494,-0.23553547263145447,-1.145542025566101,1.126491665840149,0.2266659140586853,0.2191036194562912,0.18207766115665436
12.839585781097412,-0.2597617208957672,-1.1153112649917603,1.1077253818511963,0.2246023267507553,0.23077349364757538,0.2039717584848404
12.859641551971436,-0.2879777252674103,-1.0859392881393433,1.0899114608764648,0.22237515449523926,0.2394626885652542,0.2247692495584488
12.879728317260742,-0.3027774691581726,-1.0727524757385254,1.079293131828308,0.22030550241470337,0.24356479942798615,0.23467972874641418
12.899802923202515,-0.3315572738647461,-1.0427099466323853,1.0625416040420532,0.21693232655525208,0.24865688383579254,0.25483840703964233
12.92007064819336,-0.35608959197998047,-1.0142765045166016,1.042409062385559,0.21051020920276642,0.25505778193473816,0.2742886245250702
12.940224170684814,-0.3681288957595825,-1.0031158924102783,1.0317866802215576,0.205943763256073,0.25825151801109314,0.282639741897583
12.960286378860474,-0.3781123757362366,-0.9808846116065979,1.0144069194793701,0.19868290424346924,0.2647918462753296,0.29695823788642883
12.9804208278656,-0.37534067034721375,-0.9683091640472412,1.0085504055023193,0.19643300771713257,0.26806309819221497,0.3032205104827881
13.000541687011719,-0.3700975477695465,-0.9473661184310913,0.9979372024536133,0.19183960556983948,0.2742216885089874,0.31361153721809387
13.020617485046387,-0.36608102917671204,-0.9350231289863586,0.9841868877410889,0.18514271080493927,0.2815740406513214,0.32143858075141907
13.040728569030762,-0.3701280951499939,-0.9294573664665222,0.9794313907623291,0.18295960128307343,0.28186434507369995,0.324611097574234
13.060850858688354,-0.3661198914051056,-0.9215459227561951,0.962544322013855,0.17701785266399384,0.289152055978775,0.32981282472610474
13.081565618515015,-0.36034876108169556,-0.9142524003982544,0.9518980979919434,0.17491327226161957,0.2917701005935669,0.33395567536354065
13.101660966873169,-0.34875741600990295,-0.9165078401565552,0.9414157867431641,0.17004306614398956,0.30110254883766174,0.33565080165863037
13.121772050857544,-0.34447547793388367,-0.9179524779319763,0.927574098110199,0.16693273186683655,0.30815815925598145,0.3382475972175598
13.142005205154419,-0.3497363328933716,-0.9189282059669495,0.9245797991752625,0.1653096228837967,0.31251001358032227,0.3389834761619568
13.161996841430664,-0.34884580969810486,-0.9214715957641602,0.9066034555435181,0.1610981673002243,0.32080528140068054,0.3402450978755951
13.182164192199707,-0.3549598753452301,-0.9364384412765503,0.8890351057052612,0.1541643738746643,0.335748553276062,0.3410695493221283
13.202286958694458,-0.3424510061740875,-0.9423494338989258,0.8803186416625977,0.15188682079315186,0.34686464071273804,0.3420454263687134
13.22247052192688,-0.3410266041755676,-0.9609554409980774,0.8699445724487305,0.1484108567237854,0.36404556035995483,0.343283087015152
13.242482423782349,-0.35129231214523315,-0.9749520421028137,0.874358057975769,0.1482304036617279,0.3697502017021179,0.3439466059207916
13.262704849243164,-0.34753862023353577,-0.9970195889472961,0.8678197264671326,0.1479443609714508,0.38466814160346985,0.34582382440567017
13.282742738723755,-0.3403130769729614,-1.0059891939163208,0.8576289415359497,0.1499537229537964,0.3951161503791809,0.3472749888896942
13.302832126617432,-0.3182222545146942,-1.0000134706497192,0.8533130288124084,0.15151068568229675,0.4040398895740509,0.34805071353912354
13.322908163070679,-0.30059748888015747,-0.992246150970459,0.8491167426109314,0.15715426206588745,0.4116874635219574,0.3492222726345062
13.343515157699585,-0.28558269143104553,-0.9789910912513733,0.8409521579742432,0.16393683850765228,0.4164138436317444,0.34955650568008423
13.36360788345337,-0.28644025325775146,-0.9709636569023132,0.8326916098594666,0.1638478934764862,0.42501765489578247,0.3484674394130707
13.3836829662323,-0.27046307921409607,-0.9559038281440735,0.8280616402626038,0.17145909368991852,0.4271802306175232,0.3483874499797821
13.403766870498657,-0.24920141696929932,-0.9443676471710205,0.8281704783439636,0.17703695595264435,0.4300289750099182,0.34917357563972473
13.423860311508179,-0.22037304937839508,-0.9162002205848694,0.8209847211837769,0.1903020143508911,0.43434739112854004,0.34966033697128296
13.443920373916626,-0.19532735645771027,-0.885250449180603,0.810394823551178,0.2009858340024948,0.4358319044113159,0.34966376423835754
13.464069604873657,-0.19164437055587769,-0.8672208189964294,0.7967867255210876,0.20470258593559265,0.4301232695579529,0.34896552562713623
13.484124422073364,-0.1712745726108551,-0.8374409675598145,0.772633969783783,0.21275028586387634,0.4277098774909973,0.34925106167793274
13.504223346710205,-0.15623368322849274,-0.8225048184394836,0.7607699036598206,0.2185044288635254,0.4267098903656006,0.35015514492988586
13.524316549301147,-0.13447044789791107,-0.7986553907394409,0.749820351600647,0.22701551020145416,0.42047637701034546,0.35159358382225037
13.544387817382812,-0.1137600690126419,-0.7812838554382324,0.7466742992401123,0.23468883335590363,0.4159548878669739,0.35374194383621216
13.564464569091797,-0.10359178483486176,-0.7748764157295227,0.7456359267234802,0.23781141638755798,0.4131055176258087,0.35477012395858765
13.584540605545044,-0.0916428491473198,-0.7648527026176453,0.7432588934898376,0.24098443984985352,0.4098362326622009,0.35640352964401245
13.604734420776367,-0.0873010978102684,-0.761307418346405,0.7394214272499084,0.24220716953277588,0.4080311357975006,0.35719114542007446
13.624929904937744,-0.0772031620144844,-0.7555800676345825,0.7331545352935791,0.2433069944381714,0.40548983216285706,0.3583660423755646
13.644948482513428,-0.0714416354894638,-0.7518290281295776,0.7268635630607605,0.2435535490512848,0.4029836356639862,0.3593755066394806
13.665026187896729,-0.06937187910079956,-0.7501322627067566,0.7249425649642944,0.24343299865722656,0.402106374502182,0.35997235774993896
13.685094594955444,-0.06593404710292816,-0.7471410632133484,0.7194236516952515,0.2442379593849182,0.3995513319969177,0.36097097396850586
13.705235242843628,-0.06506454944610596,-0.7444747686386108,0.7208371758460999,0.2432253509759903,0.39790910482406616,0.3617570996284485
13.725324153900146,-0.06404434889554977,-0.7436782717704773,0.7197439670562744,0.24307739734649658,0.3971233665943146,0.36227744817733765
13.745406150817871,-0.06166893243789673,-0.7421322464942932,0.7208091020584106,0.24312640726566315,0.39459070563316345,0.3634340763092041
13.765461683273315,-0.06399573385715485,-0.7418413758277893,0.7206429839134216,0.24293993413448334,0.39179715514183044,0.36394202709198
13.785561800003052,-0.06453161686658859,-0.7417750954627991,0.7161353230476379,0.24192707240581512,0.389191597700119,0.3649831712245941
13.80565333366394,-0.06785517930984497,-0.7411277294158936,0.7151280641555786,0.2407335340976715,0.3871487081050873,0.36607539653778076
13.825726509094238,-0.06629502773284912,-0.7409959435462952,0.7140068411827087,0.2412767857313156,0.3855701684951782,0.3668830692768097
13.845802783966064,-0.07107917219400406,-0.7407554984092712,0.7102465033531189,0.23923303186893463,0.3841334581375122,0.3678807020187378
13.86587405204773,-0.07019723951816559,-0.7403115034103394,0.7121285796165466,0.23849117755889893,0.3824056386947632,0.3692760467529297
13.885957479476929,-0.06931706517934799,-0.740006685256958,0.7126269936561584,0.23818068206310272,0.3817387819290161,0.3700239062309265
13.906028032302856,-0.07054825127124786,-0.7395926713943481,0.712243914604187,0.23777098953723907,0.3793577551841736,0.3715205490589142
13.926149129867554,-0.06936123222112656,-0.7392013072967529,0.7131041884422302,0.2378474771976471,0.37780511379241943,0.3731481432914734
13.946185827255249,-0.07190416008234024,-0.7391852140426636,0.7136392593383789,0.23750542104244232,0.3760935664176941,0.3738689422607422
13.96626329421997,-0.07501626014709473,-0.7391358613967896,0.7157838940620422,0.23608192801475525,0.37444132566452026,0.37543007731437683
13.986327409744263,-0.07844938337802887,-0.739287257194519,0.7138685584068298,0.23443305492401123,0.3732520639896393,0.3768027424812317
14.00641942024231,-0.07828356325626373,-0.7388617992401123,0.7148763537406921,0.2341289073228836,0.37290364503860474,0.37758293747901917
14.02648639678955,-0.08159784972667694,-0.739102840423584,0.7159044742584229,0.23324137926101685,0.36894193291664124,0.37916263937950134
14.047428846359253,-0.08415085077285767,-0.7395650744438171,0.7161545753479004,0.23260337114334106,0.3657703995704651,0.38092711567878723
14.067523717880249,-0.08431315422058105,-0.7393737435340881,0.7158299088478088,0.23210641741752625,0.3657170236110687,0.38175255060195923
14.08759355545044,-0.09015440940856934,-0.7399725914001465,0.7141252160072327,0.23021313548088074,0.3631158769130707,0.3833085298538208
14.108111381530762,-0.09008701145648956,-0.7393884658813477,0.7163368463516235,0.2296835333108902,0.36189600825309753,0.38539233803749084
14.128211498260498,-0.09638180583715439,-0.7398311495780945,0.7146543264389038,0.22806699573993683,0.3596563935279846,0.386132150888443
14.14838981628418,-0.09669620543718338,-0.73958420753479,0.7144827842712402,0.22792646288871765,0.3570564091205597,0.3882021903991699
14.168467044830322,-0.09513707458972931,-0.739255428314209,0.7145794630050659,0.22737109661102295,0.3576478362083435,0.38907286524772644
14.188548564910889,-0.09993759542703629,-0.7393307089805603,0.7147740125656128,0.22637739777565002,0.35471856594085693,0.3910079300403595
14.208594560623169,-0.10774168372154236,-0.7399670481681824,0.7137590050697327,0.2242637276649475,0.3507850766181946,0.3930608630180359
14.228675603866577,-0.12183540314435959,-0.7409473061561584,0.7150649428367615,0.22215692698955536,0.3447607159614563,0.3940088152885437
14.24882698059082,-0.13311123847961426,-0.7412383556365967,0.7167122960090637,0.22020961344242096,0.33930203318595886,0.396504670381546
14.269078731536865,-0.13984282314777374,-0.7406696677207947,0.71856689453125,0.2181314080953598,0.335284024477005,0.39905908703804016
14.289170980453491,-0.13946212828159332,-0.7402201890945435,0.7180110216140747,0.21709176898002625,0.33528783917427063,0.4002794027328491
14.309289693832397,-0.15388208627700806,-0.7408649921417236,0.7177796363830566,0.21331489086151123,0.32924777269363403,0.4025688171386719
14.329358577728271,-0.15998385846614838,-0.7410733699798584,0.7192559838294983,0.211389422416687,0.3273407220840454,0.4037720859050751
14.349509477615356,-0.17095491290092468,-0.7416247129440308,0.7178032398223877,0.20760613679885864,0.32277581095695496,0.40659356117248535
14.369569301605225,-0.17080996930599213,-0.7409980893135071,0.7179125547409058,0.20664483308792114,0.32284340262413025,0.4083746373653412
14.38964581489563,-0.1731119155883789,-0.7402347922325134,0.7166228890419006,0.20506370067596436,0.31937143206596375,0.41212528944015503
14.409719228744507,-0.17578889429569244,-0.7394505143165588,0.7156288623809814,0.20427721738815308,0.3156141936779022,0.41579294204711914
14.429800033569336,-0.18235796689987183,-0.739921510219574,0.7151213884353638,0.2021503746509552,0.31263262033462524,0.41717851161956787
14.449897289276123,-0.18502305448055267,-0.7386815547943115,0.7151961326599121,0.20104838907718658,0.30989447236061096,0.42089009284973145
14.470607042312622,-0.18495945632457733,-0.7376697063446045,0.7158867716789246,0.20014983415603638,0.3082355856895447,0.4245263636112213
