liuyurong129/humanoid-gym/humanoid/data/target_q_20250521-003427.csv
timestamp,joint_1,joint_2,joint_3,joint_4,joint_5,joint_6
5.53131103515625e-05,0.0,0.0,0.0,0.0,0.0,0.0
0.020113229751586914,0.0,0.0,0.0,0.0,0.0,0.0
0.040181636810302734,0.0,0.0,0.0,0.0,0.0,0.0
0.06024622917175293,-0.4689810872077942,-1.5729954242706299,1.2098898887634277,1.7950310707092285,-0.4262460470199585,0.30019044876098633
0.08034944534301758,-1.0276613235473633,-2.195601463317871,1.946716070175171,1.5778350830078125,0.010274908505380154,0.4687385559082031
0.1005105972290039,-1.0833927392959595,-2.2211101055145264,1.929304599761963,1.485628604888916,0.0029969802126288414,0.4839491844177246
0.12057161331176758,-1.1115386486053467,-2.240710735321045,1.8978935480117798,1.4633294343948364,-0.02465321496129036,0.4836837351322174
0.14072680473327637,-1.103771686553955,-2.2538862228393555,1.9047503471374512,1.4534209966659546,-0.026439178735017776,0.4821176826953888
0.16072607040405273,-1.100492000579834,-2.2470285892486572,1.9207473993301392,1.468139410018921,-0.012492659501731396,0.48102280497550964
0.18083405494689941,-1.0789185762405396,-2.2479782104492188,1.9499770402908325,1.48135507106781,0.003206673078238964,0.478424996137619
0.2008805274963379,-1.0777965784072876,-2.237445592880249,1.9528214931488037,1.4695556163787842,0.006069987080991268,0.48033151030540466
0.220963716506958,-1.05832839012146,-2.2479896545410156,1.9546819925308228,1.4760228395462036,0.0032957391813397408,0.4752648174762726
0.24103355407714844,-1.0293502807617188,-2.26261043548584,1.9727041721343994,1.4771153926849365,0.01055393647402525,0.46980759501457214
0.2612030506134033,-1.0493954420089722,-2.2588272094726562,1.9303765296936035,1.4518622159957886,0.0005156295374035835,0.4757474362850189
0.2812638282775879,-1.0727859735488892,-2.2396278381347656,1.9161382913589478,1.4509475231170654,-0.008118703030049801,0.47773486375808716
0.30133581161499023,-1.0573022365570068,-2.2383530139923096,1.9336881637573242,1.4709395170211792,0.004157186485826969,0.4746864438056946
0.32150983810424805,-1.0196388959884644,-2.2533018589019775,1.9689652919769287,1.4672294855117798,0.02220984548330307,0.4693811237812042
0.3415558338165283,-1.016611099243164,-2.249030828475952,1.977156400680542,1.465484380722046,0.017995227128267288,0.46837297081947327
0.36159348487854004,-1.0121455192565918,-2.2421445846557617,1.9809719324111938,1.4641201496124268,0.023223992437124252,0.4675500690937042
0.38173484802246094,-1.031398057937622,-2.2298967838287354,1.9517637491226196,1.4639278650283813,0.01114231813699007,0.4683534801006317
0.40174126625061035,-1.0175851583480835,-2.2354917526245117,1.9451708793640137,1.4614739418029785,0.01634138822555542,0.4660269320011139
0.42182326316833496,-1.023078203201294,-2.230280876159668,1.9444730281829834,1.4668822288513184,0.015302692539989948,0.4662681519985199
0.442035436630249,-1.0204391479492188,-2.228614091873169,1.944962978363037,1.4510064125061035,0.010275590233504772,0.4660795032978058
0.46207380294799805,-1.0123906135559082,-2.2188055515289307,1.960752010345459,1.473474383354187,0.024916350841522217,0.46398138999938965
0.48219871520996094,-1.011230230331421,-2.216700553894043,1.9519189596176147,1.4709961414337158,0.022590283304452896,0.4633975625038147
0.5022115707397461,-0.9796013832092285,-2.226243495941162,1.9823445081710815,1.4782352447509766,0.03517437353730202,0.4571051001548767
0.522287130355835,-0.9838963150978088,-2.2247869968414307,1.9674382209777832,1.471657156944275,0.02638540044426918,0.4559251070022583
0.5423634052276611,-0.98314368724823,-2.2220654487609863,1.9751965999603271,1.481227159500122,0.03482895717024803,0.45616212487220764
0.5624294281005859,-0.9947766065597534,-2.2063708305358887,1.960367202758789,1.4829158782958984,0.0309879370033741,0.45753470063209534
0.582512617111206,-0.9792577028274536,-2.212825298309326,1.9667654037475586,1.4837311506271362,0.03471893072128296,0.45557472109794617
0.6025698184967041,-0.9316047430038452,-2.2339117527008057,1.9989359378814697,1.489008903503418,0.04996249079704285,0.4477766454219818
0.6226475238800049,-0.977091908454895,-2.2050228118896484,1.957931399345398,1.473016381263733,0.03376982361078262,0.45443210005760193
0.6427392959594727,-0.9760866165161133,-2.201521873474121,1.9538774490356445,1.4794485569000244,0.03427084535360336,0.45340052247047424
0.6628522872924805,-0.972922146320343,-2.20291805267334,1.9518839120864868,1.4723528623580933,0.034889500588178635,0.45300355553627014
0.6829149723052979,-0.9549413323402405,-2.2080001831054688,1.954115390777588,1.4657305479049683,0.03620880842208862,0.4493929445743561
0.7030088901519775,-0.9519268870353699,-2.203920602798462,1.9531135559082031,1.4622855186462402,0.036874234676361084,0.44825631380081177
0.7230541706085205,-0.956010103225708,-2.198537826538086,1.9487519264221191,1.459113597869873,0.0371975414454937,0.4491612911224365
0.7431724071502686,-0.9594281911849976,-2.188307762145996,1.95530104637146,1.473318338394165,0.03869194537401199,0.44774776697158813
0.7632448673248291,-0.9654141664505005,-2.1812877655029297,1.9436227083206177,1.477381944656372,0.037585195153951645,0.4477282762527466
0.7832839488983154,-0.9593169093132019,-2.179666757583618,1.9430017471313477,1.4758164882659912,0.04598073288798332,0.4472653269767761
0.8033397197723389,-0.9285998940467834,-2.1925387382507324,1.9624074697494507,1.4922443628311157,0.05504482984542847,0.4415091276168823
0.823420524597168,-0.943894624710083,-2.1838881969451904,1.9460465908050537,1.4761676788330078,0.04739609733223915,0.4446486532688141
0.8434901237487793,-0.9318228960037231,-2.1884827613830566,1.9582310914993286,1.4772700071334839,0.04914751276373863,0.44181159138679504
0.8635971546173096,-0.9205693006515503,-2.186566114425659,1.9484028816223145,1.4602587223052979,0.05154736340045929,0.4405883252620697
0.8837625980377197,-0.9008207321166992,-2.186957836151123,1.9809346199035645,1.4762165546417236,0.06032853573560715,0.43474432826042175
0.9039402008056641,-0.9090369939804077,-2.1836462020874023,1.9579253196716309,1.4697151184082031,0.0498967319726944,0.43389925360679626
0.9240169525146484,-0.9155709743499756,-2.177729606628418,1.9505383968353271,1.472510576248169,0.052969224750995636,0.4352819323539734
0.9440302848815918,-0.8939666748046875,-2.181244373321533,1.9570913314819336,1.489066243171692,0.062067557126283646,0.429902583360672
0.9641828536987305,-0.9110884666442871,-2.1738178730010986,1.9327644109725952,1.4659512042999268,0.051544010639190674,0.4342084228992462
0.9842729568481445,-0.9153709411621094,-2.163728952407837,1.9289772510528564,1.467719554901123,0.05099082738161087,0.43495675921440125
1.0043582916259766,-0.8984813690185547,-2.1689462661743164,1.937308430671692,1.4664044380187988,0.052801452577114105,0.43115660548210144
1.0244040489196777,-0.9033856987953186,-2.154871940612793,1.9446721076965332,1.4720407724380493,0.05761764943599701,0.4292997121810913
1.044501781463623,-0.8895444273948669,-2.158189058303833,1.9511475563049316,1.4750938415527344,0.059703949838876724,0.4265424907207489
1.0645709037780762,-0.9010486006736755,-2.155874252319336,1.9367702007293701,1.475541353225708,0.06202299892902374,0.4277031719684601
1.0846421718597412,-0.8766070604324341,-2.1605172157287598,1.9587489366531372,1.4855586290359497,0.0700540691614151,0.4237065017223358
1.1047160625457764,-0.8663409948348999,-2.15985107421875,1.9620883464813232,1.4901719093322754,0.06768471747636795,0.42070287466049194
1.1259338855743408,-0.8600339889526367,-2.161806344985962,1.9593744277954102,1.4763820171356201,0.06873473525047302,0.4195701777935028
1.146026611328125,-0.8672813773155212,-2.1591107845306396,1.9378498792648315,1.4634277820587158,0.05857197940349579,0.4208333194255829
1.1661272048950195,-0.8596406579017639,-2.1569275856018066,1.9384099245071411,1.4701285362243652,0.06002721190452576,0.41819268465042114
1.1862046718597412,-0.8453888297080994,-2.1574783325195312,1.9408397674560547,1.4624885320663452,0.0665101706981659,0.4145401418209076
1.2065298557281494,-0.8457509279251099,-2.155090093612671,1.943171739578247,1.461962103843689,0.06550846248865128,0.4142947196960449
1.226611614227295,-0.8066892027854919,-2.1667678356170654,1.9952893257141113,1.4954028129577637,0.08783503621816635,0.4054950177669525
1.2466905117034912,-0.842963457107544,-2.135739803314209,1.964076042175293,1.4856235980987549,0.07948245108127594,0.4122457802295685
1.2667510509490967,-0.8410497307777405,-2.1313555240631104,1.950703740119934,1.4823087453842163,0.07735327631235123,0.4102904498577118
1.2868280410766602,-0.8080435991287231,-2.143369674682617,1.9708209037780762,1.4805562496185303,0.08063171803951263,0.4052334129810333
1.306999683380127,-0.8093554973602295,-2.1470439434051514,1.9412407875061035,1.4674813747406006,0.07879745960235596,0.4064384400844574
1.3270666599273682,-0.856636643409729,-2.115177631378174,1.898285150527954,1.4459221363067627,0.05909577012062073,0.4136009216308594
1.347076416015625,-0.8504428863525391,-2.1089892387390137,1.925522804260254,1.4816250801086426,0.07759824395179749,0.40973639488220215
1.3672597408294678,-0.8145588040351868,-2.1200220584869385,1.9724466800689697,1.4993512630462646,0.08635254204273224,0.4015391170978546
1.3872692584991455,-0.8013867139816284,-2.1237754821777344,1.969677209854126,1.4943941831588745,0.08694635331630707,0.3991328179836273
1.4073340892791748,-0.7747662663459778,-2.132286787033081,1.9858307838439941,1.4963819980621338,0.10022326558828354,0.39476993680000305
1.4273641109466553,-0.781518280506134,-2.1199159622192383,1.9780361652374268,1.492121934890747,0.09591590613126755,0.3951062858104706
1.4474444389343262,-0.8209699392318726,-2.103917360305786,1.912912130355835,1.4666411876678467,0.07906773686408997,0.4035237729549408
1.467519998550415,-0.7787756323814392,-2.11222243309021,1.9357893466949463,1.4596619606018066,0.09689929336309433,0.39688315987586975
1.48758864402771,-0.7495357394218445,-2.119396686553955,1.9665634632110596,1.4735181331634521,0.10542245954275131,0.3905259668827057
1.5076310634613037,-0.7700251340866089,-2.1015381813049316,1.945831537246704,1.4702425003051758,0.09901028126478195,0.3926103115081787
1.527742862701416,-0.7670027017593384,-2.0952038764953613,1.9666295051574707,1.4899883270263672,0.10146141052246094,0.38902464509010315
1.5477936267852783,-0.7652275562286377,-2.0872111320495605,1.9715005159378052,1.5059020519256592,0.10789476335048676,0.38675782084465027
1.5679259300231934,-0.7480315566062927,-2.0925958156585693,1.9668205976486206,1.491060495376587,0.09441874176263809,0.3828538656234741
1.5879709720611572,-0.7310681939125061,-2.097829818725586,1.9628305435180664,1.4797039031982422,0.09365880489349365,0.37905433773994446
1.6080524921417236,-0.7776345014572144,-2.0783932209014893,1.9009698629379272,1.4616076946258545,0.08389223366975784,0.3882826566696167
1.6281206607818604,-0.7827576398849487,-2.0730369091033936,1.897460699081421,1.466930627822876,0.09256011247634888,0.38857993483543396
1.648193597793579,-0.777079701423645,-2.070858955383301,1.9038848876953125,1.4761459827423096,0.0972711369395256,0.3870220184326172
1.6682608127593994,-0.7486200928688049,-2.0719523429870605,1.9393497705459595,1.486847162246704,0.11535901576280594,0.38249140977859497
1.6883468627929688,-0.707892119884491,-2.081787109375,1.9924495220184326,1.5095198154449463,0.1183486133813858,0.3726799190044403
1.7084121704101562,-0.6997594237327576,-2.078970432281494,1.9897534847259521,1.5119507312774658,0.12312503159046173,0.3708609342575073
1.7284750938415527,-0.7131994366645813,-2.0645751953125,1.9650152921676636,1.4836549758911133,0.1201644241809845,0.37185150384902954
1.7485239505767822,-0.6899614930152893,-2.0728530883789062,1.969057559967041,1.499488353729248,0.11962011456489563,0.36567214131355286
1.7686195373535156,-0.730181872844696,-2.0608789920806885,1.9087804555892944,1.4723491668701172,0.10125193744897842,0.37427449226379395
1.788675308227539,-0.7194826006889343,-2.06052565574646,1.907888412475586,1.4654910564422607,0.10193087160587311,0.3724803030490875
1.808746337890625,-0.702872097492218,-2.054741859436035,1.9427263736724854,1.4848482608795166,0.12764905393123627,0.3674544394016266
1.828801155090332,-0.6834937930107117,-2.051595687866211,1.9482927322387695,1.4748969078063965,0.12190686911344528,0.36240673065185547
1.848938226699829,-0.6829883456230164,-2.0485856533050537,1.9517958164215088,1.4800513982772827,0.12453500926494598,0.360521137714386
1.8691325187683105,-0.705380916595459,-2.0357120037078857,1.923954963684082,1.4840221405029297,0.12299206852912903,0.36376625299453735
1.889129400253296,-0.6842800378799438,-2.040886640548706,1.9418599605560303,1.4896366596221924,0.1283991038799286,0.36032480001449585
1.9093773365020752,-0.6529380083084106,-2.055915355682373,1.9561901092529297,1.4912480115890503,0.13014568388462067,0.35326912999153137
1.929471492767334,-0.6779661178588867,-2.031777858734131,1.9428813457489014,1.479007601737976,0.12749812006950378,0.3562205731868744
1.9495420455932617,-0.6736412644386292,-2.024284839630127,1.9434096813201904,1.4905400276184082,0.12963923811912537,0.35200628638267517
1.9695892333984375,-0.6705896854400635,-2.0229296684265137,1.936258316040039,1.496494174003601,0.13089531660079956,0.3513789176940918
1.9900193214416504,-0.6328548192977905,-2.0316126346588135,1.9636008739471436,1.5038784742355347,0.14245834946632385,0.34403547644615173
2.0101137161254883,-0.655014157295227,-2.023960590362549,1.9213939905166626,1.4814305305480957,0.12570807337760925,0.3497699201107025
2.03018856048584,-0.66375333070755,-2.0161991119384766,1.901326060295105,1.470154047012329,0.12295006960630417,0.3503391146659851
2.0503504276275635,-0.6405352354049683,-2.0204710960388184,1.895864486694336,1.4600189924240112,0.1278899610042572,0.34677132964134216
2.0703635215759277,-0.6316943764686584,-2.015692949295044,1.9043617248535156,1.4735959768295288,0.1398743838071823,0.3434998095035553
2.090441942214966,-0.6006827354431152,-2.01802396774292,1.9820661544799805,1.511993646621704,0.1440347135066986,0.3321031928062439
2.11055326461792,-0.6048021912574768,-2.0063247680664062,1.9857196807861328,1.5135374069213867,0.15200135111808777,0.3324924111366272
2.1306281089782715,-0.602906346321106,-2.002458333969116,1.948914885520935,1.4958744049072266,0.13185757398605347,0.3314915895462036
2.150664806365967,-0.5851714015007019,-2.00502872467041,1.9521821737289429,1.492120623588562,0.14253003895282745,0.32584357261657715
2.1709184646606445,-0.6088076829910278,-1.9959783554077148,1.9104012250900269,1.4815309047698975,0.13860063254833221,0.33231860399246216
2.1910600662231445,-0.6059555411338806,-1.9902801513671875,1.913957118988037,1.4836299419403076,0.14999288320541382,0.33121219277381897
2.211099147796631,-0.6101835370063782,-1.9833805561065674,1.8915492296218872,1.467344880104065,0.14614352583885193,0.33115631341934204
2.2311480045318604,-0.6156350374221802,-1.977651596069336,1.8753798007965088,1.464914083480835,0.1327567994594574,0.32883352041244507
2.2513415813446045,-0.5838077664375305,-1.987635612487793,1.9147928953170776,1.4815583229064941,0.13875070214271545,0.31816405057907104
2.2714061737060547,-0.5621181726455688,-1.989792823791504,1.943740725517273,1.5123615264892578,0.14553825557231903,0.3122555911540985
2.2914137840270996,-0.5551296472549438,-1.9856618642807007,1.9495357275009155,1.5086091756820679,0.15179966390132904,0.31195518374443054
2.311523914337158,-0.5740498304367065,-1.9732780456542969,1.9083881378173828,1.4861764907836914,0.14048755168914795,0.31626206636428833
2.331568479537964,-0.5661352276802063,-1.9834624528884888,1.8611390590667725,1.4760268926620483,0.1374695599079132,0.3162229359149933
2.351644992828369,-0.5605517029762268,-1.9675387144088745,1.8940002918243408,1.4663705825805664,0.15689346194267273,0.3141990303993225
2.371730327606201,-0.555768609046936,-1.9682533740997314,1.8810642957687378,1.4791260957717896,0.14356161653995514,0.31065982580184937
2.391789674758911,-0.553857684135437,-1.9587428569793701,1.8971976041793823,1.485276460647583,0.15616834163665771,0.3095071315765381
2.4119558334350586,-0.569437563419342,-1.9384793043136597,1.8931113481521606,1.5043423175811768,0.15976059436798096,0.3098534643650055
2.4320578575134277,-0.5529576539993286,-1.9445750713348389,1.9074056148529053,1.5016933679580688,0.1625538468360901,0.3047653138637543
2.4522266387939453,-0.5642688870429993,-1.9330253601074219,1.883347511291504,1.4996545314788818,0.15037883818149567,0.30633971095085144
2.4722306728363037,-0.5363982915878296,-1.9410088062286377,1.9046781063079834,1.5052074193954468,0.16370585560798645,0.2998727858066559
2.4925310611724854,-0.5143138766288757,-1.9438953399658203,1.9283692836761475,1.507277011871338,0.16753250360488892,0.29512789845466614
2.5126867294311523,-0.5149402022361755,-1.9482839107513428,1.883629560470581,1.4907100200653076,0.16501668095588684,0.29776912927627563
2.5327179431915283,-0.5403636693954468,-1.928655982017517,1.8702338933944702,1.4820817708969116,0.15895283222198486,0.30055612325668335
2.5527737140655518,-0.5392507314682007,-1.9199936389923096,1.8647434711456299,1.4796689748764038,0.1571534425020218,0.29737389087677
2.5730297565460205,-0.5324083566665649,-1.915118932723999,1.873235821723938,1.4965965747833252,0.15671123564243317,0.29218360781669617
2.593118190765381,-0.5192686915397644,-1.9190807342529297,1.8867355585098267,1.5070924758911133,0.1639150083065033,0.28861215710639954
2.613215923309326,-0.49641913175582886,-1.9206593036651611,1.9047110080718994,1.5066163539886475,0.1653338372707367,0.28445252776145935
2.633279800415039,-0.47650831937789917,-1.9236481189727783,1.9110664129257202,1.5064247846603394,0.1767355501651764,0.28005021810531616
2.6533758640289307,-0.48891353607177734,-1.9113510847091675,1.8948390483856201,1.4920592308044434,0.17504069209098816,0.27972787618637085
2.6734650135040283,-0.4791272282600403,-1.9142639636993408,1.892676830291748,1.4928574562072754,0.1777336746454239,0.2778684198856354
2.6938064098358154,-0.4610358476638794,-1.912811040878296,1.898546576499939,1.4949771165847778,0.17381557822227478,0.27477696537971497
2.7139012813568115,-0.44788140058517456,-1.9094178676605225,1.8917992115020752,1.4856986999511719,0.1808621883392334,0.27197569608688354
2.7340362071990967,-0.46372389793395996,-1.8957910537719727,1.8730275630950928,1.4856449365615845,0.17223796248435974,0.27054572105407715
2.7541158199310303,-0.47349995374679565,-1.884488821029663,1.890528917312622,1.5097472667694092,0.18243326246738434,0.2691102623939514
2.77422833442688,-0.46213096380233765,-1.8896336555480957,1.8782790899276733,1.5138614177703857,0.18062680959701538,0.26522114872932434
2.794278621673584,-0.43488943576812744,-1.8956025838851929,1.8882548809051514,1.4943490028381348,0.18519067764282227,0.26118338108062744
2.8144779205322266,-0.42280203104019165,-1.8994792699813843,1.857701063156128,1.4829838275909424,0.1788402795791626,0.26111900806427
2.8345468044281006,-0.4090839922428131,-1.9017715454101562,1.8637193441390991,1.4829192161560059,0.1865430325269699,0.25561052560806274
2.854604482650757,-0.44414693117141724,-1.8746051788330078,1.8600350618362427,1.4955470561981201,0.18370676040649414,0.25841060280799866
2.8746438026428223,-0.4337831735610962,-1.870354175567627,1.8624391555786133,1.4947364330291748,0.18282021582126617,0.2551998198032379
2.8947789669036865,-0.4421425461769104,-1.864579439163208,1.8407962322235107,1.4884676933288574,0.1767498403787613,0.25575530529022217
2.9148237705230713,-0.4289030134677887,-1.8626493215560913,1.840092420578003,1.4848153591156006,0.1772199273109436,0.2510300576686859
2.9348835945129395,-0.41595152020454407,-1.8674651384353638,1.8450111150741577,1.4985511302947998,0.17762380838394165,0.2455207109451294
2.954932451248169,-0.4228542745113373,-1.86336088180542,1.8046656847000122,1.4821250438690186,0.161062091588974,0.2480899691581726
2.975018262863159,-0.3777255713939667,-1.8761870861053467,1.868914246559143,1.5021271705627441,0.19489750266075134,0.23593026399612427
2.995091199874878,-0.4130241572856903,-1.8541241884231567,1.8309400081634521,1.4921963214874268,0.18401354551315308,0.24246367812156677
3.015158176422119,-0.42477869987487793,-1.8425886631011963,1.8220120668411255,1.4939746856689453,0.18757477402687073,0.24311530590057373
3.035212278366089,-0.3873210549354553,-1.8494620323181152,1.848722219467163,1.496184229850769,0.19535839557647705,0.23556789755821228
3.0553207397460938,-0.3863065838813782,-1.8531135320663452,1.820652723312378,1.4844613075256348,0.1752530038356781,0.23476609587669373
3.075551748275757,-0.37305811047554016,-1.8402104377746582,1.8256349563598633,1.4782180786132812,0.17037448287010193,0.23123955726623535
3.095513343811035,-0.36917778849601746,-1.836783528327942,1.8295429944992065,1.4911235570907593,0.18220412731170654,0.22837403416633606
3.1156363487243652,-0.3645538091659546,-1.8323643207550049,1.8329815864562988,1.487964153289795,0.19076725840568542,0.2239077389240265
3.1357226371765137,-0.36600106954574585,-1.8252301216125488,1.829748272895813,1.484271764755249,0.19813385605812073,0.2228299081325531
3.155795097351074,-0.357992023229599,-1.8301502466201782,1.8085459470748901,1.4874377250671387,0.1897667944431305,0.21866944432258606
3.175849676132202,-0.3271433711051941,-1.835358738899231,1.8213062286376953,1.4917855262756348,0.193693608045578,0.2140999436378479
3.196065902709961,-0.35846173763275146,-1.8137483596801758,1.8246374130249023,1.5086889266967773,0.19812151789665222,0.21430552005767822
3.216200590133667,-0.3725476861000061,-1.8067878484725952,1.7847731113433838,1.4828121662139893,0.18573176860809326,0.21851247549057007
3.2362422943115234,-0.3457867503166199,-1.8097453117370605,1.7942540645599365,1.480399489402771,0.18568676710128784,0.21073797345161438
3.256319046020508,-0.3467603325843811,-1.8059887886047363,1.7913036346435547,1.4830610752105713,0.1802540421485901,0.20718041062355042
3.276384115219116,-0.3397288918495178,-1.8052672147750854,1.7874760627746582,1.4738013744354248,0.18989220261573792,0.2050573229789734
3.296449661254883,-0.35505789518356323,-1.7970646619796753,1.7479944229125977,1.476106882095337,0.17730110883712769,0.2057146430015564
3.316602945327759,-0.35233962535858154,-1.7938511371612549,1.7450885772705078,1.4781020879745483,0.17926841974258423,0.20377454161643982
3.336636781692505,-0.3423815071582794,-1.7934991121292114,1.7465813159942627,1.4920811653137207,0.17201977968215942,0.19902023673057556
3.3568263053894043,-0.31692472100257874,-1.7993073463439941,1.7675302028656006,1.4866182804107666,0.18727269768714905,0.19262808561325073
3.3769068717956543,-0.3317864239215851,-1.785489797592163,1.7717088460922241,1.5136334896087646,0.1880761682987213,0.19189170002937317
3.397061824798584,-0.3015505075454712,-1.7917016744613647,1.762791395187378,1.4922065734863281,0.19646084308624268,0.1892387568950653
3.4170916080474854,-0.3132465183734894,-1.7735059261322021,1.7896192073822021,1.5053222179412842,0.20725300908088684,0.1863728165626526
3.437274217605591,-0.3193882405757904,-1.7704341411590576,1.7602155208587646,1.4918129444122314,0.1909225434064865,0.18801406025886536
3.4574055671691895,-0.30206507444381714,-1.7742869853973389,1.7463680505752563,1.4803519248962402,0.1893078088760376,0.18230590224266052
3.477499485015869,-0.27734479308128357,-1.7813937664031982,1.7478995323181152,1.4894381761550903,0.19478625059127808,0.17747312784194946
3.4975368976593018,-0.26800984144210815,-1.776071548461914,1.7677066326141357,1.5000883340835571,0.2082710862159729,0.17384134232997894
3.5176260471343994,-0.27551111578941345,-1.7703402042388916,1.7341300249099731,1.4745423793792725,0.18749083578586578,0.1764160394668579
3.5377159118652344,-0.27722999453544617,-1.76688814163208,1.7154297828674316,1.4693223237991333,0.18654948472976685,0.17241501808166504
3.55777907371521,-0.2842828035354614,-1.7625643014907837,1.7010165452957153,1.4757710695266724,0.18436139822006226,0.17075210809707642
3.5778415203094482,-0.2572728991508484,-1.7523069381713867,1.7492694854736328,1.495147466659546,0.20037627220153809,0.1635332554578781
3.5979342460632324,-0.24475190043449402,-1.7518318891525269,1.746019721031189,1.4813826084136963,0.2034023404121399,0.16100329160690308
3.618053913116455,-0.2609344720840454,-1.7423175573349,1.7328572273254395,1.4912176132202148,0.18821963667869568,0.15934202075004578
3.638101816177368,-0.272226482629776,-1.7286856174468994,1.7299916744232178,1.5059905052185059,0.2006513476371765,0.15983690321445465
3.6582882404327393,-0.24122777581214905,-1.7379117012023926,1.7428958415985107,1.4970629215240479,0.21153488755226135,0.15464699268341064
3.6783671379089355,-0.19991429150104523,-1.7369588613510132,1.7709828615188599,1.4841017723083496,0.21486440300941467,0.14290422201156616
3.6984570026397705,-0.22465333342552185,-1.7134041786193848,1.7700371742248535,1.5017083883285522,0.2157531976699829,0.14397959411144257
3.718499183654785,-0.22594287991523743,-1.7135177850723267,1.7142333984375,1.4682471752166748,0.1986331045627594,0.1430116891860962
3.7386882305145264,-0.23957736790180206,-1.7108509540557861,1.6942219734191895,1.4901559352874756,0.19569963216781616,0.14445748925209045
3.758807897567749,-0.2277461439371109,-1.7141356468200684,1.6882450580596924,1.4891836643218994,0.20162822306156158,0.14181402325630188
3.778888463973999,-0.21202382445335388,-1.70437753200531,1.714231014251709,1.4780137538909912,0.21486932039260864,0.13676205277442932
3.7989914417266846,-0.24263429641723633,-1.6995387077331543,1.6546564102172852,1.4842102527618408,0.18694455921649933,0.13948386907577515
3.81897234916687,-0.23144406080245972,-1.6990361213684082,1.6584699153900146,1.474918007850647,0.1962076723575592,0.1358884572982788
3.8391294479370117,-0.23136579990386963,-1.700509786605835,1.6437199115753174,1.475563645362854,0.1860254555940628,0.13362617790699005
3.8591909408569336,-0.21982142329216003,-1.6967909336090088,1.6654980182647705,1.482048749923706,0.199009507894516,0.12863869965076447
3.8792359828948975,-0.2198607325553894,-1.6947813034057617,1.6592130661010742,1.5022237300872803,0.18718336522579193,0.12470081448554993
3.899290084838867,-0.21271663904190063,-1.6855137348175049,1.6899665594100952,1.5054843425750732,0.2092703878879547,0.12291558086872101
3.919407844543457,-0.19161918759346008,-1.682425618171692,1.682115912437439,1.4908560514450073,0.21384182572364807,0.12166055291891098
3.9394497871398926,-0.18514761328697205,-1.676320195198059,1.6797384023666382,1.4839556217193604,0.21359053254127502,0.11593526601791382
3.9595253467559814,-0.17354853451251984,-1.6724207401275635,1.6791948080062866,1.478492021560669,0.20992761850357056,0.11033309251070023
3.9800145626068115,-0.13190019130706787,-1.6881083250045776,1.6583623886108398,1.4755487442016602,0.20712372660636902,0.1023159921169281
4.000092506408691,-0.17226776480674744,-1.6723682880401611,1.6435768604278564,1.4837653636932373,0.20055648684501648,0.1081051379442215
4.020168781280518,-0.18590368330478668,-1.6593706607818604,1.6455280780792236,1.4904255867004395,0.20391777157783508,0.10562121123075485
4.0402162075042725,-0.1803082823753357,-1.6576189994812012,1.6264915466308594,1.4873332977294922,0.19816932082176208,0.10330259799957275
4.060270547866821,-0.16891449689865112,-1.6559126377105713,1.6090078353881836,1.4697932004928589,0.1967434585094452,0.09914571046829224
4.080346584320068,-0.14506593346595764,-1.654056429862976,1.6515624523162842,1.4797598123550415,0.20126280188560486,0.09019383788108826
4.100414037704468,-0.11938159167766571,-1.6523380279541016,1.6393332481384277,1.467731237411499,0.1977376937866211,0.08574195206165314
4.120481729507446,-0.14153388142585754,-1.6295490264892578,1.639219880104065,1.4800875186920166,0.2082996666431427,0.08776333183050156
4.1405346393585205,-0.14322572946548462,-1.630444049835205,1.5930290222167969,1.4704639911651611,0.20166613161563873,0.08616254478693008
4.160648584365845,-0.1308436393737793,-1.6251035928726196,1.6514114141464233,1.492814302444458,0.22335171699523926,0.07725057005882263
4.180811405181885,-0.09272947162389755,-1.6200352907180786,1.6550095081329346,1.483003854751587,0.21962541341781616,0.07363249361515045
4.200823783874512,-0.11169265955686569,-1.6131112575531006,1.6144076585769653,1.4632389545440674,0.2109864354133606,0.0714927390217781
4.220921039581299,-0.11561910063028336,-1.6102790832519531,1.6175018548965454,1.480236291885376,0.21817347407341003,0.06994063407182693
4.24098014831543,-0.10928884148597717,-1.6012022495269775,1.6338779926300049,1.4874733686447144,0.22088193893432617,0.06535490602254868
4.261030673980713,-0.11824981123209,-1.5977840423583984,1.5913231372833252,1.4850469827651978,0.20312634110450745,0.06441863626241684
4.28126335144043,-0.11594827473163605,-1.5962222814559937,1.5697603225708008,1.475292682647705,0.19944950938224792,0.06159351021051407
4.301385402679443,-0.10218380391597748,-1.5931909084320068,1.5952273607254028,1.4768433570861816,0.2042861133813858,0.05506226420402527
4.321432590484619,-0.07980401813983917,-1.591426134109497,1.5891571044921875,1.4701076745986938,0.20998623967170715,0.04821939021348953
4.341495037078857,-0.06320392340421677,-1.589022159576416,1.5665606260299683,1.45864999294281,0.20643290877342224,0.04471217840909958
4.361765146255493,-0.08786556124687195,-1.574729561805725,1.5853289365768433,1.4886250495910645,0.2076898217201233,0.04507315903902054
4.38184666633606,-0.08905601501464844,-1.567734956741333,1.5863380432128906,1.4860835075378418,0.2210111916065216,0.041014887392520905
4.402012586593628,-0.08906441181898117,-1.560300588607788,1.578678846359253,1.4966825246810913,0.21652522683143616,0.037546902894973755
4.422009706497192,-0.07515218108892441,-1.5545744895935059,1.57145094871521,1.479187250137329,0.2163148820400238,0.033998049795627594
4.442129135131836,-0.07711772620677948,-1.5551183223724365,1.5302038192749023,1.460787057876587,0.20068097114562988,0.035156987607479095
4.462209224700928,-0.07932455837726593,-1.5521612167358398,1.5210832357406616,1.4686378240585327,0.1968708336353302,0.03212202340364456
4.482267379760742,-0.06702312082052231,-1.5519211292266846,1.5158840417861938,1.455200433731079,0.19553585350513458,0.025420457124710083
4.502331972122192,-0.05657893419265747,-1.547351360321045,1.5247130393981934,1.4661531448364258,0.200027197599411,0.0200842022895813
4.522418260574341,-0.05400398373603821,-1.541379690170288,1.5272526741027832,1.4545667171478271,0.21003544330596924,0.017733313143253326
4.542489767074585,-0.04275411367416382,-1.532503604888916,1.5342741012573242,1.4660942554473877,0.21205303072929382,0.0113334059715271
4.562589645385742,-0.04465273767709732,-1.5258255004882812,1.5153625011444092,1.4639949798583984,0.20360922813415527,0.008230514824390411
4.582661390304565,-0.05379779636859894,-1.5198931694030762,1.5278159379959106,1.486975908279419,0.21363765001296997,0.006513230502605438
4.602764129638672,-0.04677174240350723,-1.5151373147964478,1.5149590969085693,1.4753339290618896,0.20763030648231506,0.0023822933435440063
4.623016595840454,-0.02706492505967617,-1.5079193115234375,1.5260467529296875,1.4727226495742798,0.2076033651828766,-0.006065212190151215
4.643124580383301,-0.022049451246857643,-1.5039646625518799,1.4931130409240723,1.451993703842163,0.20174962282180786,-0.007799617946147919
4.6631340980529785,-0.016413593664765358,-1.5015931129455566,1.488196611404419,1.4481263160705566,0.1988057792186737,-0.011383675038814545
4.68320369720459,-0.02674882672727108,-1.4965312480926514,1.4754184484481812,1.4665803909301758,0.18721690773963928,-0.014335636049509048
4.703318119049072,-0.021345170214772224,-1.4881341457366943,1.4578925371170044,1.4606842994689941,0.1831035614013672,-0.015895184129476547
4.723349094390869,-0.030002379789948463,-1.489101767539978,1.4040915966033936,1.4464898109436035,0.16994386911392212,-0.015439163893461227
4.743526220321655,-0.018811197951436043,-1.4850924015045166,1.4545714855194092,1.4685790538787842,0.1943463385105133,-0.023821145296096802
4.763605356216431,-0.010304057970643044,-1.4826065301895142,1.4483211040496826,1.4648603200912476,0.19634655117988586,-0.029002122581005096
4.783659934997559,-0.008309433236718178,-1.474912405014038,1.4321891069412231,1.4616827964782715,0.19850614666938782,-0.03263547644019127
4.803741693496704,-0.005757389590144157,-1.4604589939117432,1.4317433834075928,1.4511663913726807,0.19148822128772736,-0.03801119327545166
4.823829889297485,0.015064677223563194,-1.4643782377243042,1.4147565364837646,1.4443917274475098,0.18400199711322784,-0.04300687462091446
4.843884468078613,0.017424630001187325,-1.4533960819244385,1.4416723251342773,1.4628325700759888,0.1981237530708313,-0.048718202859163284
4.863974332809448,0.011352142319083214,-1.4451754093170166,1.4266178607940674,1.467650294303894,0.1944093108177185,-0.05101587250828743
4.884034156799316,0.021592067554593086,-1.436995506286621,1.4418210983276367,1.474294900894165,0.1976224184036255,-0.05656541883945465
4.904119968414307,0.01793813891708851,-1.4283223152160645,1.4315996170043945,1.4580718278884888,0.20374661684036255,-0.05586691573262215
4.92420768737793,0.023340364918112755,-1.4270379543304443,1.4117298126220703,1.465219497680664,0.1942194700241089,-0.06138908118009567
4.944391489028931,0.03048918955028057,-1.4262359142303467,1.3759783506393433,1.4479241371154785,0.1775158941745758,-0.06570662558078766
4.964447736740112,0.033423662185668945,-1.4194172620773315,1.3738163709640503,1.4369748830795288,0.18309223651885986,-0.07085509598255157
4.984796524047852,0.029491106048226357,-1.4184362888336182,1.3615131378173828,1.4620835781097412,0.17563346028327942,-0.07380673289299011
5.004913330078125,0.02636069990694523,-1.4113266468048096,1.3488374948501587,1.4371038675308228,0.17181673645973206,-0.07442684471607208
5.025004148483276,0.04527990520000458,-1.402464509010315,1.3863242864608765,1.4521856307983398,0.19546550512313843,-0.08350519090890884
5.045051097869873,0.04615600407123566,-1.3920046091079712,1.3640131950378418,1.451331615447998,0.18359215557575226,-0.08762563765048981
5.065310716629028,0.03308079391717911,-1.3739814758300781,1.360166311264038,1.4467434883117676,0.18886533379554749,-0.08916075527667999
5.085367918014526,0.07206017524003983,-1.379878282546997,1.3507150411605835,1.4345656633377075,0.18717870116233826,-0.10025292634963989
5.105441093444824,0.05434440076351166,-1.372225284576416,1.3438119888305664,1.450903296470642,0.18639016151428223,-0.10290585458278656
5.125598192214966,0.05535747855901718,-1.3618533611297607,1.3165032863616943,1.4350699186325073,0.17355698347091675,-0.10544277727603912
5.145693063735962,0.057442158460617065,-1.358183741569519,1.3049852848052979,1.4226239919662476,0.16588762402534485,-0.10904102772474289
5.165886163711548,0.06284043937921524,-1.3481810092926025,1.2964770793914795,1.409155011177063,0.16341201961040497,-0.11689518392086029
5.1859166622161865,0.0571480467915535,-1.329869270324707,1.3172742128372192,1.4288030862808228,0.17034301161766052,-0.12412633001804352
5.205991268157959,0.04367472976446152,-1.3218843936920166,1.3062982559204102,1.4352421760559082,0.17293503880500793,-0.12314482033252716
5.226049423217773,0.02610023505985737,-1.3114349842071533,1.2857635021209717,1.431496024131775,0.16294467449188232,-0.12866947054862976
5.2461159229278564,0.05359847843647003,-1.3106646537780762,1.2555917501449585,1.4124367237091064,0.16332010924816132,-0.13466104865074158
5.266162872314453,0.050306424498558044,-1.3013187646865845,1.2068707942962646,1.392977237701416,0.15038427710533142,-0.13698157668113708
5.286252021789551,0.04367496073246002,-1.2905641794204712,1.2448430061340332,1.4188568592071533,0.14700788259506226,-0.14979398250579834
5.30640172958374,0.07221262902021408,-1.2875736951828003,1.2415916919708252,1.4273145198822021,0.16915279626846313,-0.15471933782100677
5.326478719711304,0.09045907109975815,-1.2739837169647217,1.265500545501709,1.4241210222244263,0.16781629621982574,-0.16542860865592957
5.3465282917022705,0.10004232823848724,-1.2688636779785156,1.250978946685791,1.4158908128738403,0.15878517925739288,-0.16994503140449524
5.366651773452759,0.0742272436618805,-1.2611321210861206,1.2317824363708496,1.4245115518569946,0.16240181028842926,-0.16602224111557007
5.386705160140991,0.07797001302242279,-1.2464780807495117,1.2406823635101318,1.4104464054107666,0.17363253235816956,-0.17591145634651184
5.406778335571289,0.06797885149717331,-1.23579740524292,1.2125778198242188,1.3958189487457275,0.16298383474349976,-0.18157897889614105
5.42682671546936,0.05713765323162079,-1.2181510925292969,1.2220492362976074,1.3952311277389526,0.15919913351535797,-0.1919403076171875
5.446929216384888,0.04030699282884598,-1.2050769329071045,1.2119104862213135,1.382554054260254,0.1499708592891693,-0.19976013898849487
5.467001438140869,0.09335730969905853,-1.2091573476791382,1.1784570217132568,1.3664968013763428,0.17711219191551208,-0.20541363954544067
5.487058401107788,0.08492588251829147,-1.2035417556762695,1.1658461093902588,1.3788847923278809,0.15899567306041718,-0.2136211097240448
5.507206916809082,0.04663405567407608,-1.1874409914016724,1.1422886848449707,1.3772789239883423,0.15311287343502045,-0.21385204792022705
5.52724027633667,0.0036797504872083664,-1.165832281112671,1.142723560333252,1.3386378288269043,0.12284062802791595,-0.22279568016529083
5.547330379486084,0.020959747955203056,-1.1624584197998047,1.0706350803375244,1.302829623222351,0.09932901710271835,-0.2351578027009964
5.567419528961182,0.015638424083590508,-1.1418683528900146,1.0564680099487305,1.2857327461242676,0.08832967281341553,-0.2504550516605377
5.587443828582764,0.052418529987335205,-1.1134319305419922,1.1146020889282227,1.2824095487594604,0.1450856328010559,-0.2777811288833618
5.607528209686279,0.03602258861064911,-1.0976272821426392,1.0596287250518799,1.2566065788269043,0.12429016828536987,-0.28192925453186035
5.627594470977783,0.00836150161921978,-1.070813536643982,1.0610018968582153,1.2484601736068726,0.14782506227493286,-0.3001331090927124
5.64768123626709,0.008185794577002525,-1.0490314960479736,1.0334876775741577,1.2617168426513672,0.11945509910583496,-0.3141586482524872
5.66773796081543,-0.026568258181214333,-1.0280852317810059,0.9560657739639282,1.183755874633789,0.14429904520511627,-0.33204346895217896
5.687825918197632,-0.012108737602829933,-1.0194965600967407,0.917570948600769,1.1787171363830566,0.09952546656131744,-0.34725266695022583
5.707886219024658,0.013290194794535637,-1.00086510181427,0.9117946028709412,1.1424648761749268,0.07936931401491165,-0.3818458020687103
5.727969408035278,-0.0538291335105896,-0.9692804217338562,0.887653648853302,1.049680233001709,0.04369303584098816,-0.4072326421737671
5.748049974441528,-0.04440943896770477,-0.9288839101791382,0.9836097955703735,0.6732661724090576,0.1095331609249115,-0.473281592130661
5.768143892288208,0.024333743378520012,-0.8926702737808228,1.2578186988830566,0.5979353785514832,0.20420143008232117,-0.4976382851600647
5.78820276260376,-0.009046973660588264,-0.9690669178962708,1.1438961029052734,0.8149825930595398,0.28075316548347473,-0.4798012375831604
5.80826735496521,-0.0349358469247818,-1.0047266483306885,1.0745042562484741,1.1215333938598633,0.2084062695503235,-0.461200475692749
5.828363656997681,-0.04629141092300415,-1.0342129468917847,0.9058018326759338,1.1107572317123413,0.08519645035266876,-0.4560108184814453
5.8484413623809814,-0.10292570292949677,-1.0281392335891724,0.7839390635490417,0.9362049102783203,0.04779450595378876,-0.4714648723602295
5.868542432785034,0.04019894450902939,-1.0204588174819946,1.0916905403137207,1.057659387588501,0.16837343573570251,-0.5102344751358032
5.888569116592407,-0.03350357711315155,-1.0124578475952148,1.1931723356246948,1.0681647062301636,0.20647412538528442,-0.5150903463363647
5.908698320388794,0.013589048758149147,-1.0111501216888428,1.2517549991607666,1.1552255153656006,0.2941145598888397,-0.5245131254196167
5.928804874420166,-0.02479916252195835,-0.9920164346694946,1.310267448425293,1.236568570137024,0.2676302194595337,-0.5266468524932861
5.948911428451538,-0.004702543839812279,-0.9986133575439453,1.2412950992584229,1.2554763555526733,0.2434867024421692,-0.521522045135498
5.968925952911377,-0.06990267336368561,-1.0369471311569214,1.0226967334747314,1.2520676851272583,0.15346728265285492,-0.5105499029159546
5.989052057266235,-0.1107410117983818,-1.1078507900238037,0.645986795425415,1.1423530578613281,-0.051008809357881546,-0.5041533708572388
6.009079456329346,-0.15497466921806335,-1.0863492488861084,0.6887372136116028,1.0664360523223877,-0.0434807725250721,-0.5215988159179688
6.029178142547607,-0.09430383145809174,-1.1086833477020264,0.7678812146186829,1.1849191188812256,-0.021503198891878128,-0.5285913944244385
6.049255132675171,-0.026376480236649513,-1.0668237209320068,1.0576603412628174,1.2293108701705933,0.12228937447071075,-0.5472335815429688
6.069534063339233,-0.015197960659861565,-1.0086703300476074,1.3144314289093018,0.9830210208892822,0.3006092309951782,-0.5880094766616821
6.089637279510498,0.0043739620596170425,-1.0036977529525757,1.3451905250549316,1.0709859132766724,0.2958199083805084,-0.5904343128204346
6.109703302383423,-0.018955444917082787,-0.9973741769790649,1.2979068756103516,1.169083833694458,0.2554079592227936,-0.5864386558532715
6.129747629165649,-0.006142197176814079,-1.0375611782073975,1.0743300914764404,1.1718488931655884,0.18996113538742065,-0.5786001682281494
6.150017976760864,-0.027737243101000786,-1.0956461429595947,0.7620623111724854,1.1323440074920654,0.030902080237865448,-0.5667068958282471
6.16998028755188,-0.18583279848098755,-1.150702953338623,0.5188205242156982,1.1890246868133545,-0.15867048501968384,-0.5608524084091187
6.190056800842285,-0.16008979082107544,-1.176889419555664,0.5901909470558167,1.265830636024475,-0.12255494296550751,-0.5533802509307861
6.21016263961792,-0.12943363189697266,-1.1210743188858032,0.8534579873085022,1.292424201965332,0.004293923266232014,-0.5668908357620239
6.23029088973999,-0.09195411950349808,-1.094010591506958,0.9671673774719238,1.2895718812942505,0.07344979047775269,-0.5727287530899048
6.250308036804199,0.04576452821493149,-1.013526201248169,1.3958311080932617,1.1100177764892578,0.31635838747024536,-0.6310763955116272
6.27041220664978,0.00892227329313755,-0.9954547882080078,1.3667175769805908,1.0785877704620361,0.3373225927352905,-0.6414326429367065
6.290447473526001,0.02603829838335514,-1.0086123943328857,1.2334873676300049,1.153520941734314,0.2577061057090759,-0.6267334222793579
6.310532808303833,0.05493069440126419,-1.0364381074905396,1.071905493736267,1.1458208560943604,0.22116610407829285,-0.6185530424118042
6.330597639083862,-0.09390787035226822,-1.130258560180664,0.5571001172065735,1.112919569015503,-0.07461586594581604,-0.600986123085022
6.3506996631622314,-0.18101680278778076,-1.1027517318725586,0.7849361896514893,1.2098109722137451,-0.05385903641581535,-0.613641619682312
6.370815753936768,-0.10888262093067169,-1.098889946937561,0.895302414894104,1.2357449531555176,0.027925711125135422,-0.6118675470352173
6.390977382659912,-0.05721801519393921,-1.0544060468673706,1.1632153987884521,1.2765510082244873,0.1626931130886078,-0.62430739402771
6.411149024963379,-0.012993911281228065,-1.0221388339996338,1.2720001935958862,1.1895582675933838,0.2366122007369995,-0.6316497325897217
6.431177377700806,-0.0348154678940773,-0.9955999851226807,1.318094253540039,1.2143670320510864,0.257236123085022,-0.6411306858062744
6.451203107833862,-0.014256427064538002,-0.9896891117095947,1.3477259874343872,1.2204879522323608,0.2879157066345215,-0.6431277990341187
6.4712793827056885,0.02689460478723049,-1.0147733688354492,1.2241854667663574,1.1764007806777954,0.2642349302768707,-0.6428829431533813
6.491357803344727,-0.04783996194601059,-1.093228816986084,0.8399510979652405,1.1984689235687256,0.02143220603466034,-0.6294273734092712
6.511394739151001,-0.08994241803884506,-1.122444987297058,0.6468112468719482,1.1698412895202637,-0.05531352013349533,-0.6324400901794434
6.531511068344116,-0.11292026191949844,-1.1330379247665405,0.6790328621864319,1.223613977432251,-0.09419059753417969,-0.6324310302734375
6.551596403121948,-0.12228783220052719,-1.118254542350769,0.8227377533912659,1.2555525302886963,-0.008640068583190441,-0.6338200569152832
6.571663856506348,-0.07372883707284927,-1.0484130382537842,1.1773619651794434,1.2796775102615356,0.17065784335136414,-0.6478656530380249
6.59175181388855,-0.015956522896885872,-1.0058588981628418,1.356152057647705,1.11233389377594,0.271802693605423,-0.6761782169342041
6.6118385791778564,0.007328169420361519,-0.9906919598579407,1.412308931350708,1.1678868532180786,0.3242138922214508,-0.6776148676872253
6.6320295333862305,0.028346093371510506,-0.9947928786277771,1.355731725692749,1.1832096576690674,0.302783727645874,-0.6746071577072144
6.652055263519287,0.019630378112196922,-1.0348906517028809,1.1552091836929321,1.1850738525390625,0.20433653891086578,-0.6686162352561951
6.672100305557251,-0.06715460866689682,-1.1183605194091797,0.7287011742591858,1.198756217956543,-0.04236830398440361,-0.6543488502502441
6.692222595214844,-0.29642778635025024,-1.0952997207641602,0.6881163120269775,1.0928051471710205,-0.09287171065807343,-0.6599245071411133
6.712332248687744,-0.10455004870891571,-1.1239562034606934,0.7686177492141724,1.2335790395736694,-0.04347594454884529,-0.6675233244895935
6.732383489608765,-0.10702013969421387,-1.0777535438537598,1.008763313293457,1.2465049028396606,0.0761246457695961,-0.6771799325942993
6.7524614334106445,0.15222156047821045,-1.01996910572052,1.3018722534179688,0.9640759229660034,0.3410826027393341,-0.7305797338485718
6.772629499435425,0.04099766165018082,-1.03572416305542,1.1845827102661133,1.1558347940444946,0.20053397119045258,-0.7214822769165039
6.792786598205566,-0.03177370876073837,-1.0448832511901855,1.0564062595367432,1.1282284259796143,0.1594097912311554,-0.7172418832778931
6.812835931777954,-0.04893376678228378,-1.0912030935287476,0.7134943008422852,1.1004271507263184,0.037394389510154724,-0.7137424945831299
6.832920074462891,-0.1736239194869995,-1.1089699268341064,0.802987813949585,1.2411975860595703,-0.009083242155611515,-0.7095819711685181
6.852994203567505,-0.229745551943779,-1.1351118087768555,0.7031017541885376,1.2741048336029053,-0.13218650221824646,-0.7013911008834839
6.873086452484131,-0.09359444677829742,-1.087627649307251,0.9816306829452515,1.304334282875061,0.06617692112922668,-0.7106528878211975
6.893131971359253,-0.035785578191280365,-1.0168485641479492,1.4171454906463623,1.0291080474853516,0.28556567430496216,-0.761976957321167
6.913174867630005,-0.01868397183716297,-1.004047155380249,1.4102251529693604,1.176939845085144,0.2996141314506531,-0.7573687434196472
6.933282852172852,-0.0382118821144104,-1.0001440048217773,1.3849321603775024,1.2026500701904297,0.2408764362335205,-0.7547038793563843
6.953368186950684,0.021174335852265358,-0.9895346760749817,1.3886916637420654,1.2296791076660156,0.3205235004425049,-0.7556946873664856
6.97342848777771,0.011638166382908821,-1.0332777500152588,1.179618000984192,1.221383810043335,0.19681069254875183,-0.7507526874542236
6.993473052978516,-0.08294656127691269,-1.122334599494934,0.7435024976730347,1.2581806182861328,-0.0641050934791565,-0.7350265979766846
7.0135657787323,-0.3592572808265686,-1.1153380870819092,0.6489414572715759,1.1720331907272339,-0.13870730996131897,-0.7378045320510864
7.033672571182251,-0.11922559887170792,-1.142857551574707,0.7364288568496704,1.325073003768921,-0.09916196018457413,-0.7413824796676636
7.053731679916382,-0.12850181758403778,-1.1032731533050537,0.9217180013656616,1.353603482246399,0.010925847105681896,-0.7467936873435974
7.0738420486450195,-0.007688948884606361,-1.0222418308258057,1.3376798629760742,1.310425043106079,0.247250497341156,-0.7633081674575806
7.093887567520142,0.01885787956416607,-1.019904375076294,1.2970653772354126,1.2147270441055298,0.2548627257347107,-0.769952654838562
7.113969802856445,0.017121674492955208,-1.0129296779632568,1.2897487878799438,1.238389015197754,0.2568923532962799,-0.7741411328315735
7.134031295776367,-0.0026017483323812485,-1.047308325767517,1.1216015815734863,1.256765604019165,0.15347778797149658,-0.7693997025489807
7.154173851013184,-0.04885032773017883,-1.124845266342163,0.683043360710144,1.2064474821090698,-0.043870799243450165,-0.7599783539772034
7.174277305603027,-0.2677954435348511,-1.1118690967559814,0.6533645987510681,1.1411242485046387,-0.09601838886737823,-0.7665730118751526
7.194355726242065,-0.16364000737667084,-1.160025715827942,0.6715267896652222,1.3548327684402466,-0.15027160942554474,-0.7610960006713867
7.214457035064697,-0.13125258684158325,-1.1368279457092285,0.7984809279441833,1.3767169713974,-0.05534632131457329,-0.7625144720077515
7.234469175338745,-0.11003994941711426,-1.089876413345337,1.0128223896026611,1.4020509719848633,0.051055703312158585,-0.7692255973815918
7.254577875137329,0.051286570727825165,-1.0333888530731201,1.299394130706787,1.190267562866211,0.24637916684150696,-0.7983797192573547
7.274659156799316,-0.017757056280970573,-1.019350528717041,1.324098825454712,1.2092547416687012,0.2642621695995331,-0.8026599884033203
7.294706106185913,0.004117297008633614,-1.0417978763580322,1.170210361480713,1.2586710453033447,0.18154194951057434,-0.7976573705673218
7.314798593521118,-0.0027868542820215225,-1.0611178874969482,1.0559589862823486,1.2479453086853027,0.13469210267066956,-0.7985581159591675
7.334871768951416,-0.11251942813396454,-1.1227872371673584,0.6509492993354797,1.2111207246780396,-0.057658083736896515,-0.7936368584632874
7.354973554611206,-0.17773205041885376,-1.1740553379058838,0.5977661609649658,1.3733875751495361,-0.19148464500904083,-0.7814397811889648
7.375118255615234,-0.15475210547447205,-1.155302882194519,0.7162058353424072,1.370048999786377,-0.10965105146169662,-0.7849807739257812
7.3951239585876465,-0.11615514010190964,-1.1281213760375977,0.8386005163192749,1.3840923309326172,-0.028655409812927246,-0.7892094254493713
7.41520094871521,-0.08374932408332825,-1.0537400245666504,1.194648265838623,1.4070415496826172,0.14463840425014496,-0.7979696989059448
7.435281991958618,-0.05377749353647232,-1.000701904296875,1.4442082643508911,1.2811776399612427,0.2918526232242584,-0.8058854341506958
7.45533561706543,0.027286933735013008,-0.988834023475647,1.4753888845443726,1.2674572467803955,0.34529003500938416,-0.8137759566307068
7.475489616394043,0.02802274189889431,-1.0157139301300049,1.3318564891815186,1.2847243547439575,0.2525712251663208,-0.8099786639213562
7.495611190795898,0.003058427944779396,-1.0465441942214966,1.1723979711532593,1.2816615104675293,0.16160815954208374,-0.8073773384094238
7.5156800746917725,-0.073497474193573,-1.1201292276382446,0.771521806716919,1.28299880027771,-0.03581273928284645,-0.8002883791923523
7.535788536071777,-0.1409454047679901,-1.1346619129180908,0.7135887145996094,1.2838695049285889,-0.10512305796146393,-0.8069198727607727
7.555808782577515,-0.13509684801101685,-1.135662317276001,0.7960864305496216,1.3880332708358765,-0.06391218304634094,-0.8019709587097168
7.575895547866821,-0.09193731099367142,-1.1037490367889404,0.9374103546142578,1.3960292339324951,0.021998945623636246,-0.8073989152908325
7.595970392227173,-0.06711547076702118,-1.0123454332351685,1.4119288921356201,1.3586466312408447,0.25728318095207214,-0.8240779638290405
7.616060495376587,-0.01693440042436123,-1.030412197113037,1.2751812934875488,1.2715024948120117,0.2127746343612671,-0.8286874294281006
7.636239528656006,-0.021082984283566475,-1.0295734405517578,1.2382962703704834,1.2676559686660767,0.19773131608963013,-0.8323540687561035
7.656323671340942,0.0163626316934824,-1.0411105155944824,1.1505706310272217,1.2990933656692505,0.18299609422683716,-0.8321260213851929
7.6764373779296875,-0.0824861228466034,-1.1291285753250122,0.7132505774497986,1.2867125272750854,-0.08218540996313095,-0.8195912837982178
7.696492910385132,-0.1804516315460205,-1.1678364276885986,0.607254147529602,1.3513975143432617,-0.15663091838359833,-0.8143678307533264
7.716600656509399,-0.18187981843948364,-1.174963355064392,0.622272789478302,1.409925937652588,-0.18378859758377075,-0.8117678165435791
7.73668909072876,-0.15653617680072784,-1.1508028507232666,0.7462949156761169,1.4201260805130005,-0.09376376867294312,-0.8137301206588745
7.75676417350769,-0.10474446415901184,-1.088328242301941,1.027948021888733,1.4278125762939453,0.043347544968128204,-0.8241555690765381
7.7768425941467285,0.1137857660651207,-1.0159642696380615,1.389097809791565,1.203093409538269,0.3199259042739868,-0.8534937500953674
7.796910762786865,0.0003042686730623245,-1.0199540853500366,1.3738535642623901,1.224011778831482,0.26521429419517517,-0.8526226282119751
7.816979169845581,0.011468974873423576,-1.021511197090149,1.3667659759521484,1.2315648794174194,0.25979748368263245,-0.852152943611145
7.837020635604858,0.03666810691356659,-1.0543335676193237,1.1420776844024658,1.3108159303665161,0.15515932440757751,-0.8496010303497314
7.8571202754974365,0.0682520791888237,-1.0885995626449585,0.9615417122840881,1.3079198598861694,0.06899741291999817,-0.845706045627594
7.877232789993286,-0.5246528387069702,-1.1419363021850586,0.6272422671318054,1.3517277240753174,-0.26046669483184814,-0.8270807862281799
7.897308588027954,-0.3049279451370239,-1.1775071620941162,0.6390445828437805,1.415457010269165,-0.22066563367843628,-0.8224962949752808
7.917362928390503,-0.20398828387260437,-1.1292039155960083,0.841360330581665,1.4315648078918457,-0.07060161978006363,-0.8320550322532654
7.937439680099487,-0.1765652298927307,-1.0964481830596924,0.9772687554359436,1.4391063451766968,0.012041623704135418,-0.8369468450546265
7.95751166343689,0.10009722411632538,-1.0074557065963745,1.4240758419036865,1.3649826049804688,0.31191396713256836,-0.8542909622192383
7.977584600448608,0.0566326379776001,-0.9978742599487305,1.4668431282043457,1.265523076057434,0.3453540802001953,-0.8610879778862
7.997624158859253,0.027622008696198463,-1.012267827987671,1.3897082805633545,1.266021728515625,0.29062578082084656,-0.8612971901893616
8.017708539962769,0.03222702443599701,-1.0360081195831299,1.270264983177185,1.288090705871582,0.21075677871704102,-0.8581669330596924
8.037774085998535,0.04752730578184128,-1.0878478288650513,0.9607661962509155,1.3216583728790283,0.06294386088848114,-0.8554120659828186
8.057852029800415,-0.5825822949409485,-1.141401767730713,0.6373094320297241,1.3857839107513428,-0.2819458544254303,-0.8307602405548096
8.077919006347656,-0.2993429899215698,-1.1579647064208984,0.7215744853019714,1.4032526016235352,-0.15023601055145264,-0.8366292715072632
8.09800386428833,-0.16635440289974213,-1.1311163902282715,0.8392533659934998,1.434412956237793,-0.04566027969121933,-0.8420657515525818
8.118090391159058,-0.15882530808448792,-1.06387460231781,1.1354093551635742,1.458069086074829,0.08554498851299286,-0.8491166830062866
8.138160705566406,-0.016108950600028038,-1.0159140825271606,1.3718059062957764,1.3563051223754883,0.24215149879455566,-0.8604967594146729
8.158228397369385,-0.014009496197104454,-1.0118128061294556,1.3675861358642578,1.3371143341064453,0.24688485264778137,-0.8616877794265747
8.178308010101318,-0.009222256019711494,-1.0168341398239136,1.3241698741912842,1.3251497745513916,0.24067291617393494,-0.8638156056404114
8.198370695114136,-0.03477085381746292,-1.0666732788085938,1.0700876712799072,1.3198283910751343,0.10011622309684753,-0.8610934019088745
8.218433380126953,-0.07816973328590393,-1.1396174430847168,0.6067969799041748,1.263837218284607,-0.09921933710575104,-0.8547974824905396
8.238506555557251,-0.16922025382518768,-1.1486011743545532,0.7548494338989258,1.4323076009750366,-0.1575183868408203,-0.8519822359085083
8.258578062057495,-0.13134656846523285,-1.1301466226577759,0.8675777912139893,1.4466180801391602,-0.053706854581832886,-0.8542903661727905
8.278710842132568,-0.05390079319477081,-1.0583820343017578,1.1836037635803223,1.430143117904663,0.1349198818206787,-0.8637204170227051
8.298785209655762,-0.020526515319943428,-1.0412757396697998,1.261993169784546,1.2603346109390259,0.20497259497642517,-0.88250732421875
8.318813562393188,-0.03779534995555878,-1.0211074352264404,1.2870360612869263,1.3010845184326172,0.23045846819877625,-0.8874404430389404
8.33906602859497,-0.020939575508236885,-1.0396759510040283,1.1604015827178955,1.3555054664611816,0.15808385610580444,-0.8835711479187012
8.359166145324707,-0.03497961163520813,-1.0715738534927368,1.0030348300933838,1.3535006046295166,0.06924055516719818,-0.8798819780349731
8.379256010055542,-0.20588025450706482,-1.1544334888458252,0.5919222235679626,1.3188176155090332,-0.17933061718940735,-0.8693946599960327
8.399313688278198,-0.16052433848381042,-1.1652058362960815,0.6594283580780029,1.4413882493972778,-0.17170599102973938,-0.8668014407157898
8.419355392456055,-0.13811977207660675,-1.1396757364273071,0.795364499092102,1.4579321146011353,-0.07834270596504211,-0.8701184391975403
8.439469814300537,-0.11360201239585876,-1.1100449562072754,0.9429577589035034,1.4616823196411133,-0.008778688497841358,-0.8752344846725464
8.459535598754883,-0.05476468801498413,-1.0333677530288696,1.338194489479065,1.4375619888305664,0.20154604315757751,-0.8834422826766968
8.479611873626709,0.019475681707262993,-1.0140091180801392,1.2700129747390747,1.250832200050354,0.28528183698654175,-0.9075784683227539
8.499661445617676,-0.02950565703213215,-1.0576794147491455,1.1082205772399902,1.3502235412597656,0.07788129150867462,-0.8964145183563232
8.51974630355835,-0.022543882951140404,-1.0802726745605469,0.9663830995559692,1.362081527709961,0.07198964059352875,-0.8975750207901001
8.539838075637817,-0.3301757276058197,-1.1301689147949219,0.7581816911697388,1.4095864295959473,-0.1650003045797348,-0.8904211521148682
8.559900522232056,-0.18848001956939697,-1.1876981258392334,0.6106176376342773,1.4475061893463135,-0.21817970275878906,-0.8721543550491333
8.579941272735596,-0.16311590373516083,-1.1659605503082275,0.6920406818389893,1.4563169479370117,-0.1598012000322342,-0.8789029121398926
8.600025177001953,-0.12420795857906342,-1.1380411386489868,0.8143457174301147,1.4709243774414062,-0.0679270550608635,-0.8843945264816284
8.620101690292358,-0.07754036784172058,-1.0457185506820679,1.2624437808990479,1.492030382156372,0.1596490740776062,-0.8957116603851318
8.640171527862549,-0.0015906449407339096,-0.9900072813034058,1.5823616981506348,1.334338665008545,0.3627721071243286,-0.9060101509094238
8.660269737243652,0.026839999482035637,-0.980506420135498,1.615952968597412,1.2997944355010986,0.40736329555511475,-0.9120078086853027
8.680438756942749,0.026790311560034752,-0.9894874691963196,1.562364101409912,1.327697992324829,0.3553553819656372,-0.9086991548538208
8.700554609298706,0.032439008355140686,-1.0377087593078613,1.2721669673919678,1.3627657890319824,0.19651100039482117,-0.9038994312286377
8.720545530319214,-0.041428521275520325,-1.130967617034912,0.7641322016716003,1.3795204162597656,-0.07163100689649582,-0.8927373886108398
8.740604162216187,-0.22864824533462524,-1.1827572584152222,0.5862894654273987,1.4435601234436035,-0.19424721598625183,-0.8846476078033447
8.760684490203857,-0.28029051423072815,-1.2069100141525269,0.5325301885604858,1.475865364074707,-0.28930404782295227,-0.8750558495521545
8.780756950378418,-0.18930530548095703,-1.1557557582855225,0.7214376926422119,1.4864177703857422,-0.1253710687160492,-0.8864367008209229
8.800847291946411,-0.17342710494995117,-1.0874038934707642,1.0291386842727661,1.4782216548919678,0.03303259238600731,-0.8976726531982422
8.821404218673706,0.2405165135860443,-0.9917648434638977,1.454242467880249,1.3898217678070068,0.35749128460884094,-0.9078513383865356
8.84143352508545,0.05091661214828491,-0.9983616471290588,1.47098708152771,1.360382080078125,0.30323153734207153,-0.9153110980987549
8.861525058746338,0.056552641093730927,-1.0131832361221313,1.414654016494751,1.3534808158874512,0.2615441381931305,-0.91444993019104
8.881587028503418,0.05898893624544144,-1.0424692630767822,1.2401082515716553,1.3712780475616455,0.18274849653244019,-0.9140827655792236
8.901675939559937,0.09933163225650787,-1.06791090965271,1.0818771123886108,1.3810343742370605,0.12207338213920593,-0.9116204977035522
8.921756267547607,-0.2355813980102539,-1.1484853029251099,0.6985859274864197,1.3959977626800537,-0.1802336573600769,-0.9000650644302368
8.941828727722168,-0.19257402420043945,-1.151980996131897,0.8152710199356079,1.5016804933547974,-0.13231340050697327,-0.8937190175056458
8.96187138557434,-0.11129077523946762,-1.079135775566101,1.1079643964767456,1.4926750659942627,0.06340672820806503,-0.9032548666000366
8.981959342956543,-0.046668216586112976,-1.0465378761291504,1.2863446474075317,1.4684275388717651,0.16019731760025024,-0.9069144129753113
9.002059698104858,0.0013296660035848618,-1.0487866401672363,1.1369366645812988,1.3296000957489014,0.15228646993637085,-0.9247407913208008
9.02222204208374,-0.08670637756586075,-1.0792909860610962,0.9423625469207764,1.3326961994171143,0.015540358610451221,-0.923166036605835
9.042315006256104,-0.03549547493457794,-1.081254482269287,0.8859663605690002,1.3951404094696045,0.05541102960705757,-0.9255271553993225
9.062471151351929,-0.05097811669111252,-1.048663854598999,1.2923951148986816,1.4909652471542358,0.13483202457427979,-0.9136577844619751
9.082509756088257,0.07218904793262482,-1.070152759552002,1.0340577363967896,1.3549000024795532,0.14322900772094727,-0.9205782413482666
9.102832078933716,-0.057344950735569,-1.1098405122756958,0.8302250504493713,1.3556818962097168,-0.028737593442201614,-0.9206516742706299
9.122931003570557,-0.1300695836544037,-1.0933263301849365,0.9748067855834961,1.4791558980941772,0.0400439016520977,-0.9259036779403687
9.143142461776733,0.09664895385503769,-1.032862663269043,1.3180054426193237,1.4545457363128662,0.239396333694458,-0.9334403276443481
9.16357707977295,0.0456678569316864,-1.0442399978637695,1.305846929550171,1.3425347805023193,0.19048315286636353,-0.9398877620697021
9.183696031570435,0.03737708181142807,-1.041616678237915,1.2814340591430664,1.3590689897537231,0.2175455242395401,-0.9448554515838623
9.203866481781006,0.023002786561846733,-1.0619820356369019,1.1269943714141846,1.415409803390503,0.11274556070566177,-0.9406203031539917
9.223872900009155,-0.044056348502635956,-1.1071122884750366,0.82896888256073,1.3743395805358887,-0.00719293300062418,-0.9406866431236267
9.243991613388062,-0.44186174869537354,-1.1352849006652832,0.7290366888046265,1.4123754501342773,-0.1867855042219162,-0.9291976690292358
9.264090299606323,-0.2633515000343323,-1.1537784337997437,0.7485828399658203,1.5022614002227783,-0.1502479761838913,-0.9262531399726868
9.284167289733887,-0.1451101005077362,-1.1304419040679932,0.8512154817581177,1.5174033641815186,-0.05849891155958176,-0.9289165735244751
9.304632425308228,-0.12565931677818298,-1.0652636289596558,1.1460191011428833,1.5161962509155273,0.09588262438774109,-0.9364745020866394
9.324763059616089,0.1787441372871399,-1.0181827545166016,1.3497917652130127,1.4418587684631348,0.27530965209007263,-0.9451408386230469
9.344786643981934,0.06061875820159912,-1.0167827606201172,1.3665534257888794,1.379211187362671,0.2700727581977844,-0.9548009634017944
9.364873886108398,0.019763493910431862,-1.0371949672698975,1.264868140220642,1.392986536026001,0.19790183007717133,-0.9520906209945679
9.384925603866577,0.0028670523315668106,-1.075875163078308,1.0277608633041382,1.3879551887512207,0.08880597352981567,-0.9505410194396973
9.405032873153687,0.052994221448898315,-1.107334852218628,0.8347374200820923,1.3920162916183472,0.008531500585377216,-0.9452874660491943
9.425103902816772,-0.23351550102233887,-1.1620843410491943,0.7038811445236206,1.506521224975586,-0.13777771592140198,-0.9310771822929382
9.44524073600769,-0.1733286827802658,-1.1482596397399902,0.7707169055938721,1.5241219997406006,-0.09107259660959244,-0.9335886240005493
9.465284824371338,-0.11272177845239639,-1.097849726676941,0.9908134937286377,1.5242414474487305,0.015944398939609528,-0.9411744475364685
9.48548674583435,-0.12471538782119751,-1.044283151626587,1.2709124088287354,1.5309560298919678,0.16803237795829773,-0.9448973536491394
9.505499839782715,-0.04868807643651962,-1.019649863243103,1.4469976425170898,1.3970578908920288,0.2332298457622528,-0.9496089220046997
9.525593996047974,0.007005924358963966,-0.9958276748657227,1.4935603141784668,1.4035862684249878,0.31139272451400757,-0.9589623212814331
9.545640707015991,0.029420318081974983,-1.0151392221450806,1.3944505453109741,1.3911592960357666,0.26850461959838867,-0.9567670822143555
9.565751791000366,0.010729210451245308,-1.0399264097213745,1.2619597911834717,1.4046926498413086,0.18748635053634644,-0.9544079303741455
9.585814476013184,-0.008097102865576744,-1.0991297960281372,0.9248901605606079,1.4298443794250488,0.0010428568348288536,-0.9493948817253113
9.605883121490479,-0.25085997581481934,-1.1254897117614746,0.8682777881622314,1.5437860488891602,-0.09008675068616867,-0.9461061358451843
9.625932931900024,-0.14490577578544617,-1.10863196849823,1.029350757598877,1.5511562824249268,-0.00831193383783102,-0.9400375485420227
9.646015167236328,-0.11171139031648636,-1.0715272426605225,1.1888363361358643,1.5305404663085938,0.09285075962543488,-0.9446163177490234
9.666105270385742,0.04971669614315033,-1.0393900871276855,1.2494704723358154,1.4045284986495972,0.1878844052553177,-0.9600287675857544
9.686161756515503,0.020150871947407722,-1.0166457891464233,1.3444255590438843,1.4295686483383179,0.2357485294342041,-0.9654207229614258
9.706230401992798,0.019810309633612633,-1.0390625,1.2416025400161743,1.4252076148986816,0.17641016840934753,-0.9620493650436401
9.726330280303955,0.021613849326968193,-1.0601216554641724,1.110683798789978,1.4187216758728027,0.11894729733467102,-0.9604870676994324
9.746388912200928,-0.07127491384744644,-1.1310075521469116,0.7207846641540527,1.408865213394165,-0.08487121760845184,-0.952681303024292
9.766479969024658,-0.16401851177215576,-1.151334524154663,0.7968450784683228,1.495788335800171,-0.10979856550693512,-0.9430559277534485
9.786534309387207,-0.06549026072025299,-1.0968973636627197,1.0104480981826782,1.5298962593078613,0.030984748154878616,-0.9508775472640991
9.806730508804321,-0.04858921468257904,-1.0670686960220337,1.1811280250549316,1.5292198657989502,0.10102390497922897,-0.9528348445892334
9.826833248138428,-0.05147115886211395,-1.0622299909591675,1.16916823387146,1.3846189975738525,0.12898948788642883,-0.9641752243041992
9.847004413604736,-0.029971087351441383,-1.049713373184204,1.1095688343048096,1.3714051246643066,0.14242492616176605,-0.9742562770843506
9.867014408111572,-0.01682031713426113,-1.0769355297088623,0.8574855923652649,1.3577226400375366,0.06580553948879242,-0.9736273884773254
9.887124061584473,-0.11163897067308426,-1.1175494194030762,0.7040140628814697,1.4136760234832764,-0.07531324028968811,-0.9668481945991516
9.907210111618042,-0.2249423861503601,-1.163489818572998,0.7097502946853638,1.5342636108398438,-0.2021300196647644,-0.9504534006118774
9.927313804626465,-0.12756845355033875,-1.1302703619003296,0.8803462386131287,1.5460357666015625,-0.06083403155207634,-0.9544370770454407
9.947350025177002,0.0014512483030557632,-1.0575543642044067,1.2507503032684326,1.516068458557129,0.1675555408000946,-0.9613264203071594
9.967525005340576,0.10121514648199081,-1.0824754238128662,1.0645599365234375,1.347574234008789,0.10176229476928711,-0.967276930809021
9.987660884857178,-0.07078677415847778,-1.0329545736312866,1.206834077835083,1.3598616123199463,0.21192336082458496,-0.9937773942947388
10.007876634597778,-0.06401349604129791,-1.0520763397216797,1.1530580520629883,1.4304211139678955,0.146928071975708,-0.9804930686950684
10.027892112731934,-0.021345729008316994,-1.0870060920715332,0.8473796844482422,1.3739027976989746,0.05686560273170471,-0.9800817966461182
10.047982454299927,-0.08103180676698685,-1.1119518280029297,0.7578415870666504,1.4420338869094849,-0.04249707981944084,-0.9770693778991699
10.068073034286499,-0.199398010969162,-1.1484402418136597,0.7417762875556946,1.5292448997497559,-0.13274210691452026,-0.9665288925170898
10.088124513626099,-0.18952864408493042,-1.13968825340271,0.8163324594497681,1.5652788877487183,-0.09114747494459152,-0.9640895128250122
10.108167886734009,-0.10064850747585297,-1.0897293090820312,1.0549018383026123,1.5586886405944824,0.049489304423332214,-0.9706836938858032
10.128266334533691,-0.016939183697104454,-1.043667197227478,1.293168306350708,1.539057970046997,0.18929484486579895,-0.9755715131759644
10.148344039916992,0.02758149616420269,-1.0251758098602295,1.3879480361938477,1.3942440748214722,0.24300460517406464,-0.9878330826759338
10.168429374694824,0.025266559794545174,-1.010711431503296,1.464929461479187,1.4030241966247559,0.2897995412349701,-0.9909855127334595
10.188481092453003,0.09498940408229828,-1.0293612480163574,1.3300700187683105,1.436614990234375,0.24207830429077148,-0.989997386932373
10.208567142486572,0.04013407975435257,-1.0566385984420776,1.1814939975738525,1.4407861232757568,0.1468626856803894,-0.9890128970146179
10.228630781173706,-0.10961171239614487,-1.136537790298462,0.7761718034744263,1.4741795063018799,-0.11846640706062317,-0.9779151678085327
10.248696565628052,-0.3195752799510956,-1.2032076120376587,0.5980989336967468,1.5477694272994995,-0.2227155715227127,-0.9517449140548706
10.268747329711914,-0.2098497450351715,-1.1507551670074463,0.7477656602859497,1.5495266914367676,-0.11792351305484772,-0.9666067957878113
10.288830041885376,-0.22950924932956696,-1.130853295326233,0.8453291058540344,1.5493085384368896,-0.08487687259912491,-0.9711783528327942
10.308937549591064,-0.1511756032705307,-1.0646698474884033,1.165060043334961,1.5490131378173828,0.09474606066942215,-0.9776930809020996
10.328973054885864,0.10883494466543198,-0.9933425188064575,1.4461392164230347,1.3993351459503174,0.34443199634552,-0.996719479560852
10.34903073310852,0.07149196416139603,-1.013759732246399,1.3866451978683472,1.4145622253417969,0.2864072918891907,-0.9964737892150879
10.369117498397827,0.033689066767692566,-1.031766653060913,1.309757113456726,1.418844223022461,0.22712919116020203,-0.9949584007263184
10.389191150665283,0.07276158779859543,-1.0715593099594116,1.0798205137252808,1.4374980926513672,0.1125805526971817,-0.9907628297805786
10.40929126739502,-0.3279772400856018,-1.1458414793014526,0.718957781791687,1.4657611846923828,-0.17479607462882996,-0.9803653955459595
10.429317235946655,-0.2441912591457367,-1.1710771322250366,0.7284442782402039,1.5499804019927979,-0.17876975238323212,-0.9696215987205505
10.449414730072021,-0.1718282550573349,-1.1342703104019165,0.8718297481536865,1.5701954364776611,-0.059751156717538834,-0.9763289093971252
10.469488143920898,-0.11175647377967834,-1.076850175857544,1.1327439546585083,1.5641731023788452,0.07900643348693848,-0.9828324317932129
10.489571571350098,-0.009676074609160423,-1.0117073059082031,1.4613678455352783,1.4171366691589355,0.2963167130947113,-0.9945883750915527
10.509658813476562,0.017494825646281242,-0.9925506114959717,1.492552638053894,1.4086050987243652,0.35650771856307983,-1.0030622482299805
10.529827356338501,0.0007158424705266953,-1.0205116271972656,1.4027959108352661,1.4243762493133545,0.23920154571533203,-0.9934571385383606
10.549811601638794,-0.002611583098769188,-1.0441298484802246,1.2444672584533691,1.4575395584106445,0.17297688126564026,-0.9940310716629028
10.569875955581665,-0.054619818925857544,-1.1221776008605957,0.8150294423103333,1.4582637548446655,-0.06009196490049362,-0.9848222136497498
10.589972734451294,-0.17956042289733887,-1.1781928539276123,0.6567404270172119,1.542432188987732,-0.1833348423242569,-0.9716423749923706
10.610040664672852,-0.2291916310787201,-1.1792463064193726,0.6588321924209595,1.5440354347229004,-0.20266592502593994,-0.9710018634796143
10.630128383636475,-0.13299453258514404,-1.1242371797561646,0.8635368347167969,1.5588414669036865,-0.062629833817482,-0.9816489219665527
10.650285482406616,-0.08767087757587433,-1.0661981105804443,1.1752443313598633,1.5565111637115479,0.10039311647415161,-0.9864200353622437
10.6703360080719,0.037441037595272064,-1.0029923915863037,1.435608148574829,1.4322046041488647,0.3041057288646698,-1.0056043863296509
10.690448522567749,0.11816965788602829,-0.9936274290084839,1.4733089208602905,1.4126873016357422,0.34752577543258667,-1.0051788091659546
10.710525751113892,0.03706391900777817,-1.0257593393325806,1.370699167251587,1.3961565494537354,0.25856462121009827,-1.003050446510315
10.730577230453491,0.08145803213119507,-1.066023349761963,1.1080703735351562,1.4578156471252441,0.12106993049383163,-0.9962076544761658
10.750762462615967,-0.10448887199163437,-1.1393307447433472,0.7286947965621948,1.4720640182495117,-0.12346634268760681,-0.9899753332138062
10.770856618881226,-0.34718382358551025,-1.1588175296783447,0.7432342171669006,1.5518485307693481,-0.20017942786216736,-0.9807863235473633
10.791015386581421,-0.18754854798316956,-1.1567113399505615,0.7818707227706909,1.5522241592407227,-0.12611913681030273,-0.9793784022331238
10.81097960472107,-0.08397545665502548,-1.0879545211791992,1.0682499408721924,1.5643672943115234,0.03786357864737511,-0.9894939661026001
10.831030368804932,-0.027505913749337196,-1.0139284133911133,1.4581252336502075,1.3816092014312744,0.3144366443157196,-1.0056347846984863
10.851153135299683,-0.036410972476005554,-1.0310207605361938,1.3890053033828735,1.4141467809677124,0.2056477665901184,-0.99760901927948
10.871199131011963,-0.00198221392929554,-1.0173461437225342,1.4088268280029297,1.4264657497406006,0.2522573471069336,-1.0015780925750732
10.891424417495728,0.005425857380032539,-1.0413932800292969,1.2759449481964111,1.4502357244491577,0.1735551655292511,-1.000450611114502
10.911566019058228,-0.029571572318673134,-1.096316933631897,0.9603937864303589,1.460078477859497,0.015137574635446072,-0.9968764185905457
10.931743383407593,-0.040729135274887085,-1.1292946338653564,0.7033697366714478,1.423496961593628,-0.06814447045326233,-0.9929846525192261
10.951826810836792,-0.13093870878219604,-1.1093676090240479,1.0354043245315552,1.5716496706008911,-0.03246622160077095,-0.9875448942184448
10.971849918365479,0.1428387463092804,-1.0503358840942383,1.180315375328064,1.4772695302963257,0.16775014996528625,-1.0015456676483154
10.991977214813232,-0.004423627629876137,-1.0494765043258667,1.2462315559387207,1.4628714323043823,0.16037273406982422,-1.0070140361785889
11.012036800384521,-0.015434643253684044,-1.0519235134124756,1.2025446891784668,1.4303042888641357,0.1437416523694992,-1.0094680786132812
11.03210997581482,0.02783081866800785,-1.0605700016021729,1.0443246364593506,1.4157466888427734,0.11150121688842773,-1.0121150016784668
11.052157878875732,-0.3686058521270752,-1.1181397438049316,0.8228950500488281,1.4900462627410889,-0.11683778464794159,-1.0013507604599
11.072330236434937,-0.2720535099506378,-1.1118931770324707,0.9976138472557068,1.6062272787094116,-0.033486928790807724,-0.9937936067581177
11.092370510101318,-0.08966152369976044,-1.121072769165039,0.9844194650650024,1.5903246402740479,-0.0439523383975029,-0.9864473342895508
11.112406253814697,-0.08218289911746979,-1.055627703666687,1.2755604982376099,1.5683815479278564,0.13678887486457825,-0.9968982338905334
11.132460355758667,-0.06495372205972672,-1.0730676651000977,1.1752828359603882,1.4506359100341797,0.07865834981203079,-1.0012919902801514
11.152544498443604,-0.02613327093422413,-1.0397263765335083,1.23363196849823,1.4451252222061157,0.18724380433559418,-1.0139447450637817
11.172621011734009,0.01847936399281025,-1.0493695735931396,1.0191216468811035,1.4263970851898193,0.12611088156700134,-1.0191864967346191
11.19268274307251,-0.2605089843273163,-1.0906972885131836,1.0446480512619019,1.5218801498413086,0.005304054357111454,-1.0037952661514282
11.212841272354126,0.07372727245092392,-1.1017723083496094,0.8511092662811279,1.5170191526412964,-0.00028052832931280136,-0.9961981773376465
11.232930898666382,-0.22834032773971558,-1.0948138236999512,1.0718798637390137,1.5997340679168701,-0.004781794734299183,-0.9997560977935791
11.253071784973145,0.009781988337635994,-1.0995135307312012,1.1017488241195679,1.560185194015503,0.04502030089497566,-0.9916750192642212
11.273159503936768,-0.3724212646484375,-1.1363065242767334,0.7343891859054565,1.379884123802185,-0.18041351437568665,-1.0013149976730347
11.293181657791138,-0.3306480348110199,-1.1310341358184814,0.8888095021247864,1.5163524150848389,-0.12770706415176392,-1.0013313293457031
11.313301086425781,-0.0835108533501625,-1.0758819580078125,1.096631407737732,1.5753352642059326,0.07296113669872284,-1.0079666376113892
11.333341598510742,0.03754756599664688,-1.05536687374115,1.0843889713287354,1.386063575744629,0.15216083824634552,-1.0165706872940063
11.353426933288574,-0.10725697875022888,-1.109535813331604,0.8229745030403137,1.467643141746521,-0.0505918487906456,-1.0138038396835327
11.373483180999756,-0.2519416809082031,-1.123976469039917,1.0052056312561035,1.594704508781433,-0.14255687594413757,-0.990534782409668
11.393577814102173,-0.07718654721975327,-1.1341619491577148,0.9078291654586792,1.5557080507278442,-0.05804227665066719,-0.9936109781265259
11.41364073753357,0.005342474207282066,-1.0432621240615845,1.3091360330581665,1.5682373046875,0.1680450439453125,-1.0085086822509766
11.433708906173706,-0.02229754440486431,-1.081672191619873,1.020311951637268,1.4454872608184814,0.06854789704084396,-1.0158509016036987
11.45398473739624,-0.23738530278205872,-1.068537950515747,1.1309504508972168,1.5751136541366577,-0.003223503939807415,-1.0129742622375488
11.474116325378418,-0.19013598561286926,-1.0725828409194946,1.104670524597168,1.5171046257019043,0.06702431291341782,-1.0125298500061035
11.494192838668823,0.04772128909826279,-1.0902162790298462,0.9385627508163452,1.530109167098999,0.010485964827239513,-1.0092490911483765
11.514298439025879,-0.3412657380104065,-1.130785346031189,0.9480016231536865,1.6079745292663574,-0.07751765102148056,-0.9894416928291321
11.5343918800354,-0.20005761086940765,-1.0922837257385254,1.0879664421081543,1.6209838390350342,0.009564542211592197,-0.9965643882751465
11.554484367370605,-0.14115560054779053,-1.068951964378357,1.1821210384368896,1.575600028038025,0.07421708106994629,-1.0005264282226562
11.57456660270691,0.07918395847082138,-1.0452244281768799,1.1347830295562744,1.4682461023330688,0.1311778724193573,-1.0140330791473389
11.594630241394043,1.9689892530441284,-0.36359477043151855,2.492720603942871,2.7619667053222656,0.43462666869163513,-0.46201854944229126
11.614720344543457,2.0124073028564453,-0.35664570331573486,2.7481861114501953,2.712855577468872,0.5577880144119263,-0.45547279715538025
11.63483214378357,2.023343563079834,-0.3755849003791809,2.842022180557251,2.655902147293091,0.5789465308189392,-0.4461075961589813
11.654903173446655,1.944425344467163,-0.4279176592826843,2.671541690826416,2.6256866455078125,0.4292634129524231,-0.4444401264190674
11.674936532974243,1.905696153640747,-0.44165512919425964,2.6076016426086426,2.6589081287384033,0.3967931270599365,-0.44323408603668213
11.694998979568481,1.926680088043213,-0.4249386191368103,2.6657233238220215,2.670902967453003,0.43982499837875366,-0.4392198622226715
11.715100526809692,1.9338610172271729,-0.4040372371673584,2.7669835090637207,2.674945831298828,0.5143473744392395,-0.4336836040019989
11.735160827636719,1.879551887512207,-0.4013625383377075,2.8461766242980957,2.6699814796447754,0.5520350933074951,-0.42698216438293457
11.755234479904175,1.9343287944793701,-0.38263437151908875,2.875190019607544,2.656832456588745,0.5888828039169312,-0.426019549369812
11.775309801101685,1.9617769718170166,-0.38314560055732727,2.8910837173461914,2.659668445587158,0.6013140082359314,-0.43233901262283325
11.795397281646729,1.9534673690795898,-0.403372585773468,2.7924842834472656,2.645235061645508,0.5212396383285522,-0.4311882257461548
11.815608501434326,1.9637396335601807,-0.41054633259773254,2.7365002632141113,2.648289203643799,0.4866463541984558,-0.4352041482925415
11.835583925247192,1.9122201204299927,-0.4417421221733093,2.639784336090088,2.641375780105591,0.42872607707977295,-0.4330434501171112
11.855651617050171,1.939677357673645,-0.42854243516921997,2.651369571685791,2.6551055908203125,0.4373302459716797,-0.43451669812202454
11.87573528289795,1.9111765623092651,-0.424671471118927,2.702986001968384,2.6633524894714355,0.47227001190185547,-0.432341992855072
11.895822763442993,1.8641624450683594,-0.4333045184612274,2.703869342803955,2.652172088623047,0.45638638734817505,-0.4272478222846985
11.915866136550903,1.8458611965179443,-0.43523865938186646,2.7062788009643555,2.654451370239258,0.45836538076400757,-0.4245721101760864
11.935945987701416,1.847306489944458,-0.4268345832824707,2.73872709274292,2.671417713165283,0.4975305497646332,-0.42488184571266174
11.956020832061768,1.8649275302886963,-0.42926913499832153,2.7320756912231445,2.6626944541931152,0.48310917615890503,-0.4246772527694702
11.976099729537964,1.9228522777557373,-0.4263458847999573,2.7295799255371094,2.6603572368621826,0.4810161888599396,-0.42878732085227966
11.996142625808716,1.8957290649414062,-0.43759801983833313,2.7102856636047363,2.656158208847046,0.4590455889701843,-0.4289326071739197
12.016221284866333,1.89935302734375,-0.43952956795692444,2.679708480834961,2.660038471221924,0.45093727111816406,-0.4306778311729431
12.036463260650635,1.9305853843688965,-0.4374859035015106,2.6804990768432617,2.658623695373535,0.4533061981201172,-0.43117403984069824
12.056472778320312,1.8672895431518555,-0.44869494438171387,2.640312433242798,2.6587274074554443,0.4204447567462921,-0.42917120456695557
12.076561212539673,1.8704524040222168,-0.4494342505931854,2.6547062397003174,2.665348768234253,0.42456161975860596,-0.42831337451934814
12.096616506576538,1.8445476293563843,-0.4494655430316925,2.6695005893707275,2.6638855934143066,0.43466243147850037,-0.4237512946128845
12.116696119308472,1.8593308925628662,-0.4449041783809662,2.6796393394470215,2.6635913848876953,0.4455980658531189,-0.4231584370136261
12.136863946914673,1.8167407512664795,-0.45344308018684387,2.6919353008270264,2.6673715114593506,0.44745367765426636,-0.4229080080986023
12.156968832015991,1.8144418001174927,-0.45804646611213684,2.6704537868499756,2.6621668338775635,0.4353410005569458,-0.4206221401691437
12.177017211914062,1.8791974782943726,-0.44554898142814636,2.684805393218994,2.66795015335083,0.454412579536438,-0.424863338470459
12.19706106185913,1.8475030660629272,-0.4657706916332245,2.589618682861328,2.645916223526001,0.3904711604118347,-0.4246314764022827
12.217159032821655,1.8321020603179932,-0.4718729853630066,2.5798308849334717,2.661700963973999,0.38494428992271423,-0.42480728030204773
12.237257719039917,1.8603544235229492,-0.45688748359680176,2.601743221282959,2.66485333442688,0.4071986675262451,-0.42597582936286926
12.257299423217773,1.8274693489074707,-0.4627252221107483,2.6365807056427,2.670353412628174,0.4151342511177063,-0.42218300700187683
12.277434825897217,1.827864170074463,-0.4621465802192688,2.645892381668091,2.6672749519348145,0.4199528396129608,-0.42116546630859375
12.297476291656494,1.8340741395950317,-0.4609670341014862,2.6198391914367676,2.657630443572998,0.40985700488090515,-0.4208626449108124
12.317520380020142,1.8477635383605957,-0.4615321755409241,2.6395652294158936,2.66383695602417,0.4160573482513428,-0.4216133952140808
12.337692022323608,1.8151699304580688,-0.47742390632629395,2.6061782836914062,2.665894031524658,0.39809370040893555,-0.42114824056625366
12.357783794403076,1.8550329208374023,-0.46962350606918335,2.593719482421875,2.6539628505706787,0.39168548583984375,-0.42274948954582214
12.377868175506592,1.8272435665130615,-0.4806188642978668,2.581221580505371,2.656496524810791,0.3730597496032715,-0.4221962094306946
12.397940397262573,1.806286096572876,-0.4909244477748871,2.5663349628448486,2.659381151199341,0.35632622241973877,-0.4224299490451813
12.417999029159546,1.834468960762024,-0.470793217420578,2.5904970169067383,2.6631240844726562,0.3925641179084778,-0.42177343368530273
12.438098907470703,1.8360099792480469,-0.47292906045913696,2.5982584953308105,2.6653285026550293,0.3879118859767914,-0.4214693605899811
12.45822525024414,1.8172416687011719,-0.4766255021095276,2.598971128463745,2.6672418117523193,0.38733959197998047,-0.4207925498485565
12.47825813293457,1.8274165391921997,-0.47357869148254395,2.6052043437957764,2.670753002166748,0.3961166739463806,-0.41997069120407104
12.498347043991089,1.781078577041626,-0.48297563195228577,2.592230796813965,2.665327310562134,0.3834211528301239,-0.4175803065299988
12.518481492996216,1.8095901012420654,-0.48977503180503845,2.5583863258361816,2.6555142402648926,0.3499768078327179,-0.4192426800727844
12.538542747497559,1.7595301866531372,-0.4915939271450043,2.5675806999206543,2.671377182006836,0.37036699056625366,-0.41738659143447876
12.55860424041748,1.8131630420684814,-0.4815385937690735,2.551382541656494,2.662306070327759,0.3677884638309479,-0.41825419664382935
12.578756332397461,1.8236668109893799,-0.4775760769844055,2.5756850242614746,2.668710708618164,0.38195371627807617,-0.41993075609207153
12.598853349685669,1.7991381883621216,-0.49183934926986694,2.5561978816986084,2.662926197052002,0.3526047468185425,-0.4191098213195801
12.618908643722534,1.7921944856643677,-0.4949944317340851,2.543121814727783,2.6639959812164307,0.35331448912620544,-0.4189188480377197
12.63909101486206,1.8065853118896484,-0.4865734577178955,2.559274673461914,2.662703037261963,0.3616870939731598,-0.417988121509552
12.659188747406006,1.8114506006240845,-0.4851028025150299,2.56880521774292,2.667459487915039,0.37076297402381897,-0.41922542452812195
12.67925500869751,1.764585256576538,-0.4932963252067566,2.5678279399871826,2.67132568359375,0.36732131242752075,-0.41597780585289
12.699301958084106,1.789347767829895,-0.4899054765701294,2.5553035736083984,2.670330762863159,0.36335158348083496,-0.4164028465747833
12.719382762908936,1.779175043106079,-0.4992968738079071,2.540595054626465,2.664577007293701,0.34601616859436035,-0.4171735346317291
12.739479780197144,1.757229208946228,-0.5053752660751343,2.488940715789795,2.6550421714782715,0.3133779466152191,-0.4154733717441559
12.759525775909424,1.778227686882019,-0.5042772889137268,2.4965591430664062,2.6663856506347656,0.31744739413261414,-0.4172181487083435
12.779575824737549,1.7590718269348145,-0.5153236389160156,2.469183921813965,2.662875175476074,0.3123476207256317,-0.41758328676223755
12.7996666431427,1.7739397287368774,-0.5036725401878357,2.498607635498047,2.6726741790771484,0.33393415808677673,-0.4174481928348541
12.819734811782837,1.7797131538391113,-0.5016726851463318,2.519824504852295,2.669609546661377,0.33610615134239197,-0.4166536331176758
12.839793682098389,1.782387614250183,-0.504340648651123,2.505650520324707,2.666508674621582,0.3255564570426941,-0.4169749617576599
12.859845399856567,1.7306524515151978,-0.511721670627594,2.5072021484375,2.6725592613220215,0.33095070719718933,-0.41491591930389404
12.87994384765625,1.7625610828399658,-0.5075128078460693,2.512158155441284,2.6684229373931885,0.3327766954898834,-0.41514551639556885
12.899996995925903,1.7596560716629028,-0.5066521167755127,2.5212786197662354,2.6703004837036133,0.3362767696380615,-0.4164188504219055
12.920072555541992,1.7440520524978638,-0.51408451795578,2.498741865158081,2.660665988922119,0.31506794691085815,-0.41514793038368225
12.940119504928589,1.7676868438720703,-0.5138816833496094,2.4853711128234863,2.6603288650512695,0.3067691922187805,-0.41752713918685913
12.960235595703125,1.7614545822143555,-0.5120592713356018,2.4898793697357178,2.6659939289093018,0.315513551235199,-0.4175560176372528
12.980332612991333,1.7609742879867554,-0.509962797164917,2.504366397857666,2.671093225479126,0.32578015327453613,-0.41613051295280457
13.000364542007446,1.7336772680282593,-0.5189425945281982,2.460969924926758,2.657883644104004,0.2979377508163452,-0.41395559906959534
13.020476341247559,1.7090163230895996,-0.5265152454376221,2.456043004989624,2.6684060096740723,0.2887720465660095,-0.4151507616043091
13.040539979934692,1.7490849494934082,-0.5143323540687561,2.467825412750244,2.670389413833618,0.3083072900772095,-0.415144145488739
13.0606050491333,1.709455966949463,-0.5271225571632385,2.460353374481201,2.6712234020233154,0.3043125867843628,-0.41428452730178833
13.08074688911438,1.7453978061676025,-0.5236488580703735,2.45200514793396,2.66487979888916,0.2942425012588501,-0.4144103229045868
13.100769996643066,1.7233808040618896,-0.5335434079170227,2.404513359069824,2.662315845489502,0.2594984769821167,-0.4155179262161255
13.12088656425476,1.7334941625595093,-0.5270042419433594,2.442075490951538,2.6798415184020996,0.2904912531375885,-0.4155176877975464
13.140929222106934,1.731644868850708,-0.5235848426818848,2.470906972885132,2.6720314025878906,0.3020842671394348,-0.41492289304733276
13.161019325256348,1.7292473316192627,-0.5249735713005066,2.483180522918701,2.6699345111846924,0.3069806694984436,-0.4155006408691406
13.18106460571289,1.7201085090637207,-0.5319775342941284,2.4232940673828125,2.654862403869629,0.2668192386627197,-0.4149540066719055
13.20123291015625,1.7539379596710205,-0.5160049200057983,2.453512668609619,2.6704680919647217,0.30585190653800964,-0.41707491874694824
13.221389055252075,1.687649130821228,-0.5335758924484253,2.4671478271484375,2.676436185836792,0.2947147786617279,-0.4143071472644806
13.241420984268188,1.721706748008728,-0.5317462682723999,2.4273369312286377,2.662721872329712,0.27257853746414185,-0.41304928064346313
13.26154899597168,1.7057336568832397,-0.534068763256073,2.4439735412597656,2.6747500896453857,0.2812323272228241,-0.41367870569229126
13.28162956237793,1.6894776821136475,-0.5342856645584106,2.447906494140625,2.6757652759552,0.29058846831321716,-0.41208547353744507
13.301691770553589,1.7352840900421143,-0.5316706895828247,2.4144067764282227,2.66119647026062,0.27341923117637634,-0.4130547344684601
13.321810007095337,1.7337909936904907,-0.5355538129806519,2.4333391189575195,2.6677770614624023,0.2787432372570038,-0.41655296087265015
13.34182620048523,1.7178723812103271,-0.5349138379096985,2.4313223361968994,2.66961669921875,0.278059184551239,-0.41398000717163086
13.361930131912231,1.7070701122283936,-0.5391933917999268,2.421147108078003,2.669705867767334,0.2697597146034241,-0.41332241892814636
13.382015228271484,1.6891100406646729,-0.5469399690628052,2.4107108116149902,2.6717216968536377,0.2574795186519623,-0.4135548770427704
13.402072429656982,1.7042723894119263,-0.5377780199050903,2.425717830657959,2.6720733642578125,0.2789241075515747,-0.4119376838207245
13.422221183776855,1.7107715606689453,-0.5355336666107178,2.4174036979675293,2.6664693355560303,0.27394986152648926,-0.4118838906288147
13.44232702255249,1.6905832290649414,-0.5427669286727905,2.4022762775421143,2.664781093597412,0.25756147503852844,-0.41333189606666565
13.462386846542358,1.6775447130203247,-0.5468600392341614,2.4042983055114746,2.673701286315918,0.256388783454895,-0.41269800066947937
13.482453107833862,1.7051771879196167,-0.5456591844558716,2.4023330211639404,2.6678969860076904,0.25572335720062256,-0.4135605990886688
13.502504587173462,1.6914117336273193,-0.5468919277191162,2.394318103790283,2.6691431999206543,0.2515384554862976,-0.4150143563747406
13.522616386413574,1.6933543682098389,-0.5454077124595642,2.4055161476135254,2.675333023071289,0.25784677267074585,-0.4137382507324219
13.542756795883179,1.6883500814437866,-0.5424215793609619,2.415389060974121,2.673565149307251,0.2678832411766052,-0.4122617840766907
13.562793493270874,1.7033189535140991,-0.5445020198822021,2.4019198417663574,2.667679786682129,0.2549157440662384,-0.41312044858932495
13.582842588424683,1.7035527229309082,-0.5439138412475586,2.3967652320861816,2.6698687076568604,0.2552355229854584,-0.4142024517059326
13.60301685333252,1.6754096746444702,-0.5519126057624817,2.3818750381469727,2.671347141265869,0.24019542336463928,-0.41263943910598755
13.623011589050293,1.683866024017334,-0.5516360998153687,2.357086181640625,2.6700034141540527,0.23447285592556,-0.41266492009162903
13.643091917037964,1.6533143520355225,-0.5677880644798279,2.338615894317627,2.668483257293701,0.21719202399253845,-0.4129846692085266
13.66317629814148,1.6807968616485596,-0.5545952320098877,2.3674519062042236,2.672405242919922,0.24075628817081451,-0.41335195302963257
13.683299779891968,1.6808706521987915,-0.5534264445304871,2.3717970848083496,2.6713719367980957,0.2404002845287323,-0.412869930267334
13.703328371047974,1.6887989044189453,-0.553206205368042,2.360435962677002,2.6654305458068848,0.23181799054145813,-0.4146723747253418
13.723428010940552,1.6642169952392578,-0.5610857009887695,2.352447748184204,2.668020486831665,0.22430163621902466,-0.4134327471256256
13.743469715118408,1.6783363819122314,-0.5585774183273315,2.3527727127075195,2.670064926147461,0.2267930507659912,-0.4131602346897125
13.763545751571655,1.6491565704345703,-0.5675545930862427,2.3453657627105713,2.66985821723938,0.21893960237503052,-0.4133557677268982
13.783613681793213,1.6774954795837402,-0.5587717294692993,2.35786771774292,2.6723105907440186,0.22959113121032715,-0.4129832983016968
13.803685903549194,1.6602426767349243,-0.564599871635437,2.3480634689331055,2.6673097610473633,0.21470102667808533,-0.4133153557777405
13.823742389678955,1.655925989151001,-0.5604485273361206,2.3434386253356934,2.6725006103515625,0.2240256518125534,-0.41259732842445374
13.843913555145264,1.67128586769104,-0.5623360872268677,2.3411903381347656,2.669093608856201,0.21512293815612793,-0.4130769968032837
13.863977432250977,1.67946457862854,-0.5585194826126099,2.3474326133728027,2.670228958129883,0.22337988018989563,-0.41347190737724304
13.884047031402588,1.6657383441925049,-0.5658174753189087,2.3389854431152344,2.670189380645752,0.21163669228553772,-0.4133216142654419
13.904115200042725,1.6637921333312988,-0.5607783794403076,2.3494954109191895,2.673387050628662,0.2254716455936432,-0.41219884157180786
13.924245119094849,1.6640836000442505,-0.5652108192443848,2.334462881088257,2.6670587062835693,0.21242082118988037,-0.41189315915107727
13.944434642791748,1.6626155376434326,-0.5627069473266602,2.3347249031066895,2.671055793762207,0.2177305966615677,-0.4130406081676483
13.964454412460327,1.6563897132873535,-0.5660149455070496,2.3368101119995117,2.671067237854004,0.21681618690490723,-0.41221535205841064
13.984588146209717,1.6503149271011353,-0.5762714147567749,2.2926735877990723,2.659296989440918,0.19108563661575317,-0.41197359561920166
14.004631519317627,1.6526551246643066,-0.5711497068405151,2.3088250160217285,2.672516345977783,0.20151683688163757,-0.4130652844905853
14.02471375465393,1.6388521194458008,-0.5782168507575989,2.2902212142944336,2.667903184890747,0.1837102174758911,-0.41151586174964905
14.044810056686401,1.6232919692993164,-0.5780388116836548,2.286357879638672,2.6739070415496826,0.18438750505447388,-0.4118559658527374
14.064939022064209,1.6422525644302368,-0.5771768689155579,2.3084418773651123,2.6745402812957764,0.1920810341835022,-0.41282254457473755
14.08499813079834,1.6395537853240967,-0.5737636685371399,2.334810972213745,2.6706786155700684,0.21111491322517395,-0.41241341829299927
14.105064153671265,1.634264588356018,-0.5791448354721069,2.3202781677246094,2.666436195373535,0.1977398693561554,-0.4115971326828003
14.125137329101562,1.6160383224487305,-0.5813162326812744,2.3109731674194336,2.668325901031494,0.19778728485107422,-0.4113280177116394
14.145248174667358,1.6519780158996582,-0.5735280513763428,2.3151443004608154,2.6690478324890137,0.1983812302350998,-0.41252008080482483
14.165411710739136,1.645002007484436,-0.5785437226295471,2.3173627853393555,2.6689510345458984,0.19366279244422913,-0.41251543164253235
14.185420274734497,1.6397807598114014,-0.5770527124404907,2.308638572692871,2.6689560413360596,0.19340993463993073,-0.41185927391052246
14.205458164215088,1.6435811519622803,-0.5798841714859009,2.302968978881836,2.6680374145507812,0.18528962135314941,-0.41224926710128784
14.225684881210327,1.6524851322174072,-0.5742714405059814,2.2947096824645996,2.6698718070983887,0.19097423553466797,-0.4132714569568634
14.245733976364136,1.6396510601043701,-0.5763760805130005,2.315847158432007,2.6723947525024414,0.19947054982185364,-0.4127386808395386
14.265851020812988,1.631203293800354,-0.5801327228546143,2.3073506355285645,2.6707215309143066,0.19145190715789795,-0.4117113947868347
14.285883903503418,1.6225240230560303,-0.5846908092498779,2.2972350120544434,2.6701362133026123,0.18327948451042175,-0.41133755445480347
14.306084632873535,1.6289899349212646,-0.5828059911727905,2.293647289276123,2.667539596557617,0.18431377410888672,-0.41106921434402466
14.326114416122437,1.633955478668213,-0.5831255912780762,2.292776346206665,2.6685619354248047,0.1807798445224762,-0.4126511514186859
14.346144437789917,1.6030066013336182,-0.588051438331604,2.2713170051574707,2.6690759658813477,0.17193308472633362,-0.41007229685783386
14.366291046142578,1.6092009544372559,-0.5979843139648438,2.2406749725341797,2.6623616218566895,0.15297475457191467,-0.4113152325153351
14.386327743530273,1.6289429664611816,-0.5853915810585022,2.250155448913574,2.671053886413574,0.16744427382946014,-0.4125720262527466
14.406407117843628,1.6061493158340454,-0.5979801416397095,2.2494630813598633,2.6721725463867188,0.1462264358997345,-0.41164630651474
14.426466464996338,1.6192610263824463,-0.5884631872177124,2.2574334144592285,2.670419454574585,0.1620849370956421,-0.4105948209762573
14.446564674377441,1.5962061882019043,-0.5936606526374817,2.261575222015381,2.6725857257843018,0.16038167476654053,-0.41067999601364136
14.466657400131226,1.6051490306854248,-0.5906102657318115,2.2759134769439697,2.6737987995147705,0.17109978199005127,-0.40935543179512024
14.486722707748413,1.6317028999328613,-0.5820263028144836,2.2985897064208984,2.672567367553711,0.18940389156341553,-0.41061535477638245
14.506905555725098,1.620948314666748,-0.5888116359710693,2.2922582626342773,2.6701345443725586,0.17834101617336273,-0.4116154611110687
14.527007579803467,1.590773344039917,-0.5969282984733582,2.2749338150024414,2.668132781982422,0.16253283619880676,-0.4110504984855652
14.547083139419556,1.6187858581542969,-0.5912208557128906,2.255378246307373,2.6682329177856445,0.1598803699016571,-0.4115907847881317
14.567123413085938,1.6035608053207397,-0.6003667116165161,2.246654987335205,2.6686220169067383,0.14845548570156097,-0.4123343825340271
14.587204694747925,1.597454309463501,-0.6003336310386658,2.228761911392212,2.6668214797973633,0.1477142870426178,-0.41116899251937866
14.607271909713745,1.6048561334609985,-0.5976256728172302,2.2295103073120117,2.669004201889038,0.14450791478157043,-0.41133543848991394
14.627337217330933,1.6027114391326904,-0.5981982946395874,2.237518072128296,2.6718838214874268,0.14506706595420837,-0.4114767014980316
14.647404909133911,1.5888687372207642,-0.5968957543373108,2.2563235759735107,2.6752891540527344,0.158976212143898,-0.41059085726737976
14.667580604553223,1.591982126235962,-0.5963505506515503,2.2586817741394043,2.6744518280029297,0.15983644127845764,-0.4097784161567688
14.687598943710327,1.582503318786621,-0.5997713804244995,2.2576122283935547,2.6733005046844482,0.1562061905860901,-0.4097481966018677
14.70772123336792,1.5972669124603271,-0.5973894596099854,2.24839448928833,2.6711840629577637,0.15334266424179077,-0.4098287522792816
