liuyurong129/humanoid-gym/humanoid/data/target_q_20250522-225150.csv
timestamp,joint_1,joint_2,joint_3,joint_4,joint_5,joint_6
3.62396240234375e-05,0.0,0.0,0.0,0.0,0.0,0.0
0.0201418399810791,0.0,0.0,0.0,0.0,0.0,0.0
0.040250301361083984,0.0,0.0,0.0,0.0,0.0,0.0
0.06025838851928711,0.8726921081542969,-0.4734034538269043,1.366415023803711,-2.0073766708374023,0.20997902750968933,0.163294717669487
0.08037734031677246,0.8716706037521362,-0.47346585988998413,1.3663644790649414,-2.006429433822632,0.20886097848415375,0.16345995664596558
0.10046672821044922,0.8695043921470642,-0.47334685921669006,1.3668012619018555,-2.004723310470581,0.20600032806396484,0.16394299268722534
0.12048530578613281,0.867385983467102,-0.473299115896225,1.3675904273986816,-2.003192186355591,0.20295824110507965,0.16443225741386414
0.14056658744812012,0.8663625717163086,-0.4733724594116211,1.3680496215820312,-2.0024759769439697,0.20146264135837555,0.16464832425117493
0.1606464385986328,0.8643800020217896,-0.4737117886543274,1.3688455820083618,-2.001079559326172,0.19866804778575897,0.16501247882843018
0.18070602416992188,0.8623706102371216,-0.4740552306175232,1.3695807456970215,-1.9996966123580933,0.1958935558795929,0.1653941124677658
0.20098209381103516,0.8613520860671997,-0.4741895794868469,1.3699852228164673,-1.9990150928497314,0.19447124004364014,0.16560697555541992
0.2210979461669922,0.8593138456344604,-0.4743654131889343,1.3709181547164917,-1.9976738691329956,0.19155725836753845,0.1660694181919098
0.24125123023986816,0.8573079109191895,-0.4745010733604431,1.3718860149383545,-1.9963488578796387,0.18866205215454102,0.16654634475708008
0.2613348960876465,0.85536128282547,-0.47467929124832153,1.3727636337280273,-1.9950332641601562,0.1858867108821869,0.1669980138540268
0.2814023494720459,0.8544068336486816,-0.4747941493988037,1.3731603622436523,-1.9943736791610718,0.18455220758914948,0.167211651802063
0.301469087600708,0.852506697177887,-0.47503453493118286,1.3739361763000488,-1.9930551052093506,0.1819196343421936,0.16764242947101593
0.3215219974517822,0.8506020307540894,-0.4752589464187622,1.3747304677963257,-1.9917397499084473,0.17928317189216614,0.16810216009616852
0.3416163921356201,0.8496444225311279,-0.47535282373428345,1.3751440048217773,-1.9910850524902344,0.1779467910528183,0.16835112869739532
0.3617868423461914,0.847719132900238,-0.4755396842956543,1.3759310245513916,-1.9897754192352295,0.17526467144489288,0.16887468099594116
0.3818092346191406,0.8457986116409302,-0.47576189041137695,1.3765980005264282,-1.988464593887329,0.17263373732566833,0.16940638422966003
0.40204763412475586,0.843910813331604,-0.4760473370552063,1.377148151397705,-1.987168312072754,0.1701049655675888,0.16992343962192535
0.4221367835998535,0.8429805636405945,-0.47619950771331787,1.3774116039276123,-1.986530065536499,0.16886837780475616,0.17018064856529236
0.4423396587371826,0.8411394357681274,-0.4764988124370575,1.3779634237289429,-1.9852681159973145,0.1664198338985443,0.1706991046667099
0.46233272552490234,0.8393145799636841,-0.4767794609069824,1.378572940826416,-1.984018087387085,0.16398334503173828,0.1712278425693512
0.4824099540710449,0.8384079933166504,-0.47690969705581665,1.3788955211639404,-1.9833945035934448,0.16276809573173523,0.171498641371727
0.5025215148925781,0.836609423160553,-0.477159321308136,1.3795452117919922,-1.982140064239502,0.1603582501411438,0.1720556765794754
0.5225694179534912,0.8348298072814941,-0.4773985743522644,1.3801558017730713,-1.9808831214904785,0.1579710841178894,0.17263725399971008
0.5427556037902832,0.8330574631690979,-0.4776450991630554,1.3806712627410889,-1.9796323776245117,0.15560483932495117,0.17324106395244598
0.562842607498169,0.8321653604507446,-0.47777482867240906,1.3809051513671875,-1.9790103435516357,0.15442052483558655,0.17354892194271088
0.582921028137207,0.8303711414337158,-0.4780558943748474,1.3813447952270508,-1.9777755737304688,0.15206041932106018,0.17416830360889435
0.6029660701751709,0.8285764455795288,-0.47834962606430054,1.3817754983901978,-1.9765598773956299,0.1497189700603485,0.17479240894317627
0.6230559349060059,0.8276903629302979,-0.47849828004837036,1.3819819688796997,-1.9759628772735596,0.1485653519630432,0.1751043051481247
0.6431617736816406,0.8259119987487793,-0.47877711057662964,1.382380723953247,-1.974774956703186,0.1462525725364685,0.1757442206144333
0.6632509231567383,0.8241255283355713,-0.4790269136428833,1.3827807903289795,-1.9735913276672363,0.1439254879951477,0.17640283703804016
0.6832833290100098,0.8232316374778748,-0.4791441559791565,1.3829869031906128,-1.9729989767074585,0.1427646279335022,0.17673823237419128
0.703350305557251,0.8214709758758545,-0.47938722372055054,1.3834021091461182,-1.971817970275879,0.14049041271209717,0.17741060256958008
0.7234270572662354,0.8197501301765442,-0.4796713590621948,1.3837404251098633,-1.970613718032837,0.13832122087478638,0.17808224260807037
0.7435786724090576,0.8180639743804932,-0.48000678420066833,1.3839223384857178,-1.969383716583252,0.1362559050321579,0.17875617742538452
0.7636632919311523,0.8172354698181152,-0.4801939129829407,1.3839613199234009,-1.9687660932540894,0.13526050746440887,0.1790892630815506
0.7837224006652832,0.815602719783783,-0.48058685660362244,1.3840241432189941,-1.9675612449645996,0.13329572975635529,0.17975352704524994
0.8038451671600342,0.813967227935791,-0.48094695806503296,1.3841667175292969,-1.9663989543914795,0.13128849864006042,0.18043947219848633
0.8239336013793945,0.8131430149078369,-0.4811110496520996,1.3842682838439941,-1.9658284187316895,0.13026341795921326,0.18079429864883423
0.8440170288085938,0.8114904165267944,-0.481413871049881,1.3845109939575195,-1.9646975994110107,0.12819120287895203,0.1815212070941925
0.8640859127044678,0.8098447322845459,-0.4817241132259369,1.3847426176071167,-1.9635719060897827,0.12613129615783691,0.18225409090518951
0.8841519355773926,0.8090226650238037,-0.4818909764289856,1.3848247528076172,-1.9630062580108643,0.12511692941188812,0.18261975049972534
0.9042165279388428,0.8073710203170776,-0.4822503924369812,1.3849049806594849,-1.961851716041565,0.12313004583120346,0.1833530068397522
0.9243018627166748,0.8057126998901367,-0.48263275623321533,1.3849122524261475,-1.9606609344482422,0.12119346857070923,0.18410363793373108
0.9443833827972412,0.8040388822555542,-0.4829980134963989,1.3849380016326904,-1.9594659805297852,0.11922609061002731,0.18489418923854828
0.9644825458526611,0.803192675113678,-0.4831622838973999,1.3849701881408691,-1.958878517150879,0.1182112991809845,0.1853078156709671
0.9845905303955078,0.8015131950378418,-0.4834830164909363,1.3850187063217163,-1.9577312469482422,0.11618366837501526,0.18614232540130615
1.0046253204345703,0.7998725175857544,-0.4838216006755829,1.3850173950195312,-1.9566044807434082,0.11422455310821533,0.1869671493768692
1.0247209072113037,0.7990729808807373,-0.4840145409107208,1.3849833011627197,-1.9560425281524658,0.11329121142625809,0.18736790120601654
1.0447938442230225,0.797484278678894,-0.4844304919242859,1.384858250617981,-1.9549187421798706,0.11147123575210571,0.18816353380680084
1.0648410320281982,0.7958981990814209,-0.48485517501831055,1.3847206830978394,-1.953794240951538,0.10967400670051575,0.1889626681804657
1.0849974155426025,0.7951000928878784,-0.48505717515945435,1.3846577405929565,-1.9532265663146973,0.10877007246017456,0.18937185406684875
1.1050219535827637,0.7935062646865845,-0.48544037342071533,1.3845655918121338,-1.9520795345306396,0.10695605725049973,0.19020673632621765
1.125075340270996,0.7919371128082275,-0.48583024740219116,1.3844645023345947,-1.950929880142212,0.10516959428787231,0.1910514235496521
1.145153284072876,0.7903956770896912,-0.48624640703201294,1.3843286037445068,-1.9498071670532227,0.10341254621744156,0.1918971687555313
1.1652581691741943,0.7896282076835632,-0.4864619970321655,1.3842487335205078,-1.949256181716919,0.10253897309303284,0.1923203319311142
1.185333251953125,0.7880923748016357,-0.48690471053123474,1.3840386867523193,-1.9481651782989502,0.10080863535404205,0.19316639006137848
1.2053759098052979,0.7865536212921143,-0.4873303174972534,1.3838105201721191,-1.94708251953125,0.09908359497785568,0.19401808083057404
1.2254505157470703,0.7857866287231445,-0.48753535747528076,1.3837007284164429,-1.9465467929840088,0.09822215139865875,0.1944466233253479
1.245563268661499,0.7842690944671631,-0.48793357610702515,1.3835211992263794,-1.945487380027771,0.09650629758834839,0.19530418515205383
1.2655799388885498,0.7827773094177246,-0.48834168910980225,1.383367657661438,-1.9444398880004883,0.0948202908039093,0.19615620374679565
1.285717248916626,0.7820389270782471,-0.4885540008544922,1.3832755088806152,-1.9439144134521484,0.09399674832820892,0.19657966494560242
1.3058083057403564,0.7805672883987427,-0.4889909327030182,1.3830500841140747,-1.9428496360778809,0.09238240122795105,0.1974279284477234
1.325838327407837,0.7790931463241577,-0.48944565653800964,1.382753610610962,-1.9417636394500732,0.09079937636852264,0.19828635454177856
1.3459153175354004,0.7776006460189819,-0.4899027943611145,1.3824037313461304,-1.9406707286834717,0.0892031118273735,0.19916613399982452
1.366034984588623,0.7768408060073853,-0.4901314079761505,1.3822218179702759,-1.9401278495788574,0.08838611841201782,0.19961494207382202
1.386094093322754,0.7753119468688965,-0.4905952215194702,1.3818750381469727,-1.9390625953674316,0.08673393726348877,0.2005184143781662
1.4061040878295898,0.7737952470779419,-0.4910692870616913,1.3815484046936035,-1.9380176067352295,0.08510231226682663,0.20141974091529846
1.426274299621582,0.7730504274368286,-0.49130818247795105,1.381385087966919,-1.9375026226043701,0.08430597186088562,0.20186781883239746
1.446371078491211,0.7715775966644287,-0.4917811453342438,1.381054162979126,-1.93647301197052,0.08274220675230026,0.20276305079460144
1.466456651687622,0.7700982093811035,-0.4922480583190918,1.3807318210601807,-1.935441493988037,0.08118193596601486,0.20366215705871582
1.4864881038665771,0.7685980796813965,-0.49268007278442383,1.380422830581665,-1.9344151020050049,0.07958400994539261,0.2045777142047882
1.5065696239471436,0.7678477764129639,-0.4928833246231079,1.3802725076675415,-1.9339070320129395,0.07877685129642487,0.20504164695739746
1.5267798900604248,0.7663670778274536,-0.49328747391700745,1.379947543144226,-1.9328960180282593,0.0771845132112503,0.2059764415025711
1.5468053817749023,0.7649229168891907,-0.49371564388275146,1.3795607089996338,-1.931878924369812,0.07565632462501526,0.20691293478012085
1.566868543624878,0.7642112970352173,-0.49394458532333374,1.3793354034423828,-1.9313700199127197,0.07491645961999893,0.2073783278465271
1.5869638919830322,0.7627967596054077,-0.4944233000278473,1.3788498640060425,-1.9303555488586426,0.07346443831920624,0.2083025425672531
1.6070101261138916,0.7613937854766846,-0.4949226379394531,1.3783689737319946,-1.929351806640625,0.07203838229179382,0.20921647548675537
1.6272084712982178,0.7606981992721558,-0.4951726198196411,1.3781449794769287,-1.9288556575775146,0.07132948189973831,0.20967109501361847
1.6473338603973389,0.7593196034431458,-0.49566173553466797,1.3777340650558472,-1.9278799295425415,0.06991153955459595,0.21057963371276855
1.6674222946166992,0.7579548358917236,-0.4961663484573364,1.3772746324539185,-1.9269089698791504,0.06853051483631134,0.2114790827035904
1.6874942779541016,0.7565581798553467,-0.496709942817688,1.3766969442367554,-1.925917625427246,0.06717470288276672,0.21237888932228088
1.7076141834259033,0.7558349370956421,-0.49699339270591736,1.3763726949691772,-1.9254119396209717,0.0664900690317154,0.21283408999443054
1.7276875972747803,0.7543466091156006,-0.4975382387638092,1.3757643699645996,-1.9243980646133423,0.0650693029165268,0.21376772224903107
1.7477054595947266,0.7528399229049683,-0.4980289936065674,1.375262975692749,-1.9233934879302979,0.06358826905488968,0.2147325873374939
1.7682313919067383,0.7513529062271118,-0.4984874725341797,1.3748295307159424,-1.9224085807800293,0.062088992446660995,0.2157163918018341
1.7884042263031006,0.7506178617477417,-0.498721182346344,1.3746103048324585,-1.921923279762268,0.06134512647986412,0.21621030569076538
1.8084845542907715,0.7491783499717712,-0.49921268224716187,1.3741188049316406,-1.9209632873535156,0.0599057637155056,0.21718889474868774
1.8285346031188965,0.7477799654006958,-0.4997429847717285,1.3735157251358032,-1.9200122356414795,0.058553002774715424,0.21814650297164917
1.8486151695251465,0.7470865845680237,-0.5000115633010864,1.3731811046600342,-1.9195375442504883,0.05789386108517647,0.21862289309501648
1.8687286376953125,0.7457103133201599,-0.5005614757537842,1.3724641799926758,-1.9185926914215088,0.05660732090473175,0.21956667304039001
1.88885498046875,0.7443404793739319,-0.501100480556488,1.3717979192733765,-1.9176621437072754,0.05531581491231918,0.22050955891609192
1.9089233875274658,0.7436593770980835,-0.5013725757598877,1.371486783027649,-1.9172008037567139,0.05467379838228226,0.22097870707511902
1.929093837738037,0.7423036098480225,-0.5019078850746155,1.3709158897399902,-1.9162836074829102,0.053386390209198,0.22191788256168365
1.9491467475891113,0.7409553527832031,-0.5024397969245911,1.370352029800415,-1.9153622388839722,0.052113767713308334,0.22285863757133484
1.9691739082336426,0.7396045327186584,-0.502962589263916,1.3697532415390015,-1.9144220352172852,0.05085332691669464,0.2238103449344635
1.9892516136169434,0.7389247417449951,-0.5032166242599487,1.3694391250610352,-1.9139444828033447,0.05021987855434418,0.2242945432662964
2.0093445777893066,0.7375615835189819,-0.503726065158844,1.3687971830368042,-1.9129867553710938,0.04894360154867172,0.22527557611465454
2.0293996334075928,0.7361689209938049,-0.5042515993118286,1.3681542873382568,-1.9120347499847412,0.04762059822678566,0.22626784443855286
2.049682855606079,0.7354553937911987,-0.5045257806777954,1.3678268194198608,-1.9115643501281738,0.046941064298152924,0.22676607966423035
2.069791316986084,0.7339995503425598,-0.5050698518753052,1.3671468496322632,-1.9106268882751465,0.04556494578719139,0.2277742624282837
2.0899083614349365,0.7325416803359985,-0.5055908560752869,1.3664501905441284,-1.909688949584961,0.04420730099081993,0.2287990003824234
2.109926700592041,0.7311252355575562,-0.5061080455780029,1.365767002105713,-1.9087568521499634,0.042901962995529175,0.2298203408718109
2.1300790309906006,0.7304311990737915,-0.5063774585723877,1.3654212951660156,-1.9082880020141602,0.042272910475730896,0.23032376170158386
2.150108814239502,0.7290683388710022,-0.506946325302124,1.364683985710144,-1.9073452949523926,0.041068222373723984,0.23131561279296875
2.170151948928833,0.7277052402496338,-0.5075283646583557,1.3639198541641235,-1.9063785076141357,0.039892662316560745,0.23231172561645508
2.1904518604278564,0.7270212769508362,-0.507819652557373,1.3635350465774536,-1.9058897495269775,0.03930490091443062,0.2328163981437683
2.2105870246887207,0.7256534099578857,-0.5083775520324707,1.3627980947494507,-1.9049286842346191,0.03809773176908493,0.23384253680706024
2.2306337356567383,0.7243021726608276,-0.5089025497436523,1.3620946407318115,-1.904005765914917,0.03685809671878815,0.23488029837608337
2.250667095184326,0.7229790687561035,-0.5094280242919922,1.3614120483398438,-1.903109073638916,0.035632386803627014,0.23590552806854248
2.2707619667053223,0.7223287224769592,-0.5097025632858276,1.361069679260254,-1.9026603698730469,0.035039808601140976,0.23640841245651245
2.2908639907836914,0.7210465669631958,-0.5102746486663818,1.3603551387786865,-1.901761770248413,0.03389740362763405,0.23739811778068542
2.310925006866455,0.7197477221488953,-0.5108628273010254,1.3595842123031616,-1.9008512496948242,0.032766472548246384,0.23838669061660767
2.3311140537261963,0.7190852165222168,-0.5111580491065979,1.3591856956481934,-1.9003912210464478,0.032195523381233215,0.23888540267944336
2.3512258529663086,0.7177227139472961,-0.5117304921150208,1.3583853244781494,-1.8994419574737549,0.03102511540055275,0.23991039395332336
2.3712618350982666,0.7163491249084473,-0.5122696161270142,1.3576070070266724,-1.8984692096710205,0.029826851561665535,0.240976482629776
2.3913111686706543,0.7150031328201294,-0.5128078460693359,1.3568313121795654,-1.8975083827972412,0.02863289974629879,0.24206073582172394
2.411409378051758,0.7143458127975464,-0.5130903124809265,1.3564372062683105,-1.8970401287078857,0.02804967388510704,0.2425980269908905
2.4314796924591064,0.7130515575408936,-0.5136681795120239,1.3556407690048218,-1.8961211442947388,0.02690666913986206,0.2436588853597641
2.451568603515625,0.7117506861686707,-0.5142412781715393,1.3548096418380737,-1.8951935768127441,0.025773312896490097,0.2447144240140915
2.4716975688934326,0.7104201316833496,-0.5148177146911621,1.3539421558380127,-1.8942561149597168,0.02462576888501644,0.24577456712722778
2.4917900562286377,0.7097480297088623,-0.5151113271713257,1.3535085916519165,-1.8937872648239136,0.024049507454037666,0.24630597233772278
2.51190185546875,0.7083991169929504,-0.5157160758972168,1.352649211883545,-1.8928418159484863,0.022908343002200127,0.24737492203712463
2.531919002532959,0.7070742845535278,-0.5163378715515137,1.3517931699752808,-1.8918919563293457,0.021804317831993103,0.24844488501548767
2.5520009994506836,0.7064199447631836,-0.5166484713554382,1.351367473602295,-1.8914169073104858,0.021259218454360962,0.2489815354347229
2.5721654891967773,0.7051416635513306,-0.5172666311264038,1.3505377769470215,-1.8904920816421509,0.02017761580646038,0.25004810094833374
2.5922675132751465,0.7038769125938416,-0.5178532600402832,1.3497568368911743,-1.8895909786224365,0.01907840371131897,0.25111818313598633
2.612318754196167,0.7026205658912659,-0.5184141397476196,1.348982810974121,-1.8887003660202026,0.017973847687244415,0.2521921396255493
2.632436990737915,0.7019937038421631,-0.5186955332756042,1.3485833406448364,-1.8882572650909424,0.017426561564207077,0.25272712111473083
2.6525609493255615,0.7007418274879456,-0.5192766785621643,1.347750186920166,-1.887376070022583,0.01634785905480385,0.25378596782684326
2.6725823879241943,0.6994690299034119,-0.5198953151702881,1.3468554019927979,-1.8864827156066895,0.015288767404854298,0.2548316419124603
2.6926498413085938,0.6988279819488525,-0.5202076435089111,1.3464012145996094,-1.8860349655151367,0.014761699363589287,0.2553524374961853
2.712723970413208,0.6975346803665161,-0.5208200216293335,1.3454993963241577,-1.885132074356079,0.013705933466553688,0.25639837980270386
2.732767343521118,0.6962448358535767,-0.5214008688926697,1.3446455001831055,-1.8842350244522095,0.012642795220017433,0.2574513256549835
2.752861261367798,0.6956039071083069,-0.5216862559318542,1.3442327976226807,-1.8837851285934448,0.012112298980355263,0.2579793632030487
2.772921562194824,0.6943390369415283,-0.5222774744033813,1.3433892726898193,-1.8828749656677246,0.011083188466727734,0.2590324282646179
2.7929954528808594,0.6931051015853882,-0.5229113698005676,1.3424662351608276,-1.8819562196731567,0.010111622512340546,0.26008114218711853
2.8130507469177246,0.6918871998786926,-0.5235751271247864,1.3414677381515503,-1.8810398578643799,0.00917718093842268,0.26112690567970276
2.833134651184082,0.691282331943512,-0.5239129066467285,1.3409497737884521,-1.8805879354476929,0.008716419339179993,0.2616485357284546
2.8532135486602783,0.6900513172149658,-0.5245661735534668,1.3399569988250732,-1.8796889781951904,0.007757407613098621,0.26270362734794617
2.8732573986053467,0.6887778639793396,-0.5251779556274414,1.339030385017395,-1.878800392150879,0.006716318428516388,0.2637813091278076
2.893369674682617,0.6881340742111206,-0.525475025177002,1.3385905027389526,-1.878361701965332,0.006176785100251436,0.2643231153488159
2.913433790206909,0.6868553161621094,-0.5260703563690186,1.3377273082733154,-1.877495527267456,0.005101408343762159,0.26540255546569824
2.9334700107574463,0.6856052875518799,-0.5266953706741333,1.3368163108825684,-1.8766183853149414,0.004095145035535097,0.26646888256073
2.9535624980926514,0.6849822998046875,-0.5270205140113831,1.3363206386566162,-1.8761658668518066,0.0036169090308248997,0.2670031487941742
2.9736270904541016,0.6837308406829834,-0.527683436870575,1.335262417793274,-1.8752388954162598,0.0026804911904037,0.2680795192718506
2.9937028884887695,0.6824578642845154,-0.528340220451355,1.3341834545135498,-1.8743122816085815,0.0017090181354433298,0.2691687345504761
3.0137526988983154,0.6811520457267761,-0.5289779901504517,1.333175539970398,-1.873401403427124,0.0006679799407720566,0.27027004957199097
3.0338680744171143,0.680499255657196,-0.5292991995811462,1.3326959609985352,-1.8729532957077026,0.00014476031356025487,0.27081719040870667
3.0539462566375732,0.6792076826095581,-0.5299270153045654,1.3317844867706299,-1.8720699548721313,-0.0008989871712401509,0.2719132900238037
3.07399320602417,0.6779550909996033,-0.530545711517334,1.3308641910552979,-1.8712096214294434,-0.0019056431483477354,0.27299758791923523
3.0940914154052734,0.6773332953453064,-0.5308580994606018,1.3303834199905396,-1.8707804679870605,-0.002397701144218445,0.27353692054748535
3.114152431488037,0.676100492477417,-0.5315032601356506,1.3293976783752441,-1.869926929473877,-0.0033509486820548773,0.2745997905731201
3.1342170238494873,0.6748737692832947,-0.5321676135063171,1.328410029411316,-1.8690751791000366,-0.004281497560441494,0.27564889192581177
3.1542928218841553,0.674253523349762,-0.532501220703125,1.3279186487197876,-1.8686470985412598,-0.004751715809106827,0.2761739194393158
3.174363374710083,0.6729750633239746,-0.5331676006317139,1.326915979385376,-1.8677705526351929,-0.005720526445657015,0.27723973989486694
3.1944596767425537,0.6716570854187012,-0.5338363647460938,1.32588791847229,-1.8668627738952637,-0.0067088850773870945,0.27832815051078796
3.2145028114318848,0.6703494191169739,-0.5345075726509094,1.3248465061187744,-1.8659474849700928,-0.007678953930735588,0.2794283628463745
3.2346913814544678,0.6697065234184265,-0.5348379611968994,1.324311375617981,-1.8654913902282715,-0.008153775706887245,0.27998054027557373
3.2547054290771484,0.6684303283691406,-0.5354824662208557,1.3232393264770508,-1.8645933866500854,-0.009110492654144764,0.2810900807380676
3.2747645378112793,0.6671273708343506,-0.5361152291297913,1.3221770524978638,-1.8637056350708008,-0.010116266086697578,0.28220510482788086
3.294872283935547,0.6664667129516602,-0.5364300608634949,1.3216602802276611,-1.863266944885254,-0.01063421368598938,0.2827645540237427
3.314953327178955,0.6651401519775391,-0.5370569825172424,1.3206290006637573,-1.862393856048584,-0.011675149202346802,0.28388530015945435
3.335020065307617,0.6638283133506775,-0.5376828908920288,1.319610834121704,-1.8615143299102783,-0.012689908035099506,0.2850145101547241
3.355095863342285,0.6625314950942993,-0.5383243560791016,1.3186023235321045,-1.860609531402588,-0.013675153255462646,0.2861529290676117
3.3752617835998535,0.6618942618370056,-0.5386555194854736,1.3180899620056152,-1.8601523637771606,-0.014153873547911644,0.28672176599502563
3.3953757286071777,0.6606500148773193,-0.5393387675285339,1.3170256614685059,-1.8592455387115479,-0.015076068229973316,0.28784888982772827
3.4153525829315186,0.6594358682632446,-0.5400398969650269,1.3159265518188477,-1.8583588600158691,-0.01596415974199772,0.28895971179008484
3.4357995986938477,0.658216655254364,-0.5407232642173767,1.3148499727249146,-1.8574821949005127,-0.016866765916347504,0.29007381200790405
3.455899715423584,0.6576012372970581,-0.5410463809967041,1.3143335580825806,-1.8570473194122314,-0.01733686402440071,0.2906376123428345
3.4760165214538574,0.6563746929168701,-0.5416762232780457,1.3133152723312378,-1.8561925888061523,-0.01829158514738083,0.2917662262916565
3.496039867401123,0.6551554799079895,-0.5423123836517334,1.31229567527771,-1.8553458452224731,-0.019240671768784523,0.2928856313228607
3.5165152549743652,0.6545491814613342,-0.5426410436630249,1.3117755651474,-1.854921579360962,-0.019703157246112823,0.29343870282173157
3.536689281463623,0.6533215045928955,-0.5432994365692139,1.31070876121521,-1.8540520668029785,-0.020626913756132126,0.29455164074897766
3.5566534996032715,0.6520791053771973,-0.5439776182174683,1.3095755577087402,-1.853150725364685,-0.02152826450765133,0.2956770658493042
3.5767931938171387,0.6514577865600586,-0.5443283319473267,1.3089929819107056,-1.8526942729949951,-0.02197125181555748,0.29624417424201965
3.596867799758911,0.6502306461334229,-0.5450589656829834,1.3078176975250244,-1.8517844676971436,-0.02283354103565216,0.2973761558532715
3.6171860694885254,0.6490284204483032,-0.5457967519760132,1.306678056716919,-1.8508955240249634,-0.023685850203037262,0.2984964847564697
3.637265920639038,0.6484342813491821,-0.5461626648902893,1.3061178922653198,-1.8504588603973389,-0.024109605699777603,0.29905086755752563
3.6574277877807617,0.6472420692443848,-0.5468688011169434,1.3049994707107544,-1.8495900630950928,-0.024969516322016716,0.3001619577407837
3.677412271499634,0.6460381746292114,-0.5475584268569946,1.3038814067840576,-1.848724365234375,-0.025844622403383255,0.3012790381908417
3.697497606277466,0.6454264521598816,-0.5479047894477844,1.3033159971237183,-1.84828519821167,-0.026285603642463684,0.3018408715724945
3.717594861984253,0.6441512703895569,-0.5486201047897339,1.3021821975708008,-1.8473763465881348,-0.02719482220709324,0.30297473073005676
3.7376725673675537,0.6428236961364746,-0.5493338108062744,1.301054835319519,-1.8464200496673584,-0.02814004197716713,0.30413830280303955
3.7577641010284424,0.6421513557434082,-0.5496808886528015,1.3005045652389526,-1.8459367752075195,-0.02863023802638054,0.3047340512275696
3.777862071990967,0.6408495903015137,-0.5503612160682678,1.2994393110275269,-1.8449997901916504,-0.029601894319057465,0.305929958820343
3.797936201095581,0.6396126747131348,-0.551052451133728,1.2983763217926025,-1.8441128730773926,-0.030536171048879623,0.3071058988571167
3.8182387351989746,0.6384116411209106,-0.5517841577529907,1.2972352504730225,-1.8432294130325317,-0.03139729052782059,0.30825120210647583
3.8383634090423584,0.6378114819526672,-0.5521661043167114,1.2966279983520508,-1.8427802324295044,-0.03180526942014694,0.30881577730178833
3.8584322929382324,0.6365821361541748,-0.5529493093490601,1.2953619956970215,-1.8418569564819336,-0.03261459618806839,0.3099440038204193
3.8784713745117188,0.6353012323379517,-0.5536947250366211,1.2941421270370483,-1.8409252166748047,-0.03349492698907852,0.31109654903411865
3.898676633834839,0.6346493363380432,-0.554050087928772,1.2935664653778076,-1.840457797050476,-0.033960431814193726,0.31168439984321594
3.91882061958313,0.6333506107330322,-0.5547314882278442,1.2924935817718506,-1.839536428451538,-0.034924544394016266,0.3128783106803894
3.9388701915740967,0.6320884227752686,-0.5554261207580566,1.2914345264434814,-1.8386316299438477,-0.03586576506495476,0.31407368183135986
3.9589390754699707,0.6308708786964417,-0.5561643838882446,1.2902804613113403,-1.8377406597137451,-0.03673672676086426,0.3152444362640381
3.9790070056915283,0.6302686929702759,-0.5565449595451355,1.2896599769592285,-1.8372917175292969,-0.037148114293813705,0.3158223330974579
3.9990758895874023,0.6290664672851562,-0.5573091506958008,1.2883800268173218,-1.8363943099975586,-0.037952594459056854,0.3169682025909424
4.019204616546631,0.6278455853462219,-0.5580383539199829,1.2871688604354858,-1.8354995250701904,-0.038796860724687576,0.3181232810020447
4.0392749309539795,0.6272349953651428,-0.5583860874176025,1.28661048412323,-1.835064172744751,-0.03924141824245453,0.3187035620212555
4.059357166290283,0.6260155439376831,-0.5590608716011047,1.2855558395385742,-1.8342018127441406,-0.040154315531253815,0.3198677897453308
4.079441785812378,0.6247832179069519,-0.5597368478775024,1.2845011949539185,-1.8333359956741333,-0.041082870215177536,0.32103440165519714
4.100275754928589,0.6234803199768066,-0.5604571104049683,1.283342957496643,-1.8324024677276611,-0.04201933369040489,0.3222208619117737
4.1203391551971436,0.6228022575378418,-0.5608303546905518,1.2827376127243042,-1.831916332244873,-0.042497504502534866,0.32282546162605286
4.1404128074646,0.6214340925216675,-0.5615988969802856,1.2814924716949463,-1.8309321403503418,-0.04344438388943672,0.3240474462509155
4.160472869873047,0.62010657787323,-0.5623652935028076,1.2802706956863403,-1.8299884796142578,-0.04437175393104553,0.3252676725387573
4.180599212646484,0.6194582581520081,-0.562731146812439,1.279677152633667,-1.8295323848724365,-0.04483703523874283,0.3258756995201111
4.200793027877808,0.6181752681732178,-0.563438355922699,1.2785025835037231,-1.8286254405975342,-0.04576747119426727,0.3270900249481201
4.220794916152954,0.6169195175170898,-0.5641494393348694,1.277300477027893,-1.8277173042297363,-0.04665616154670715,0.32828521728515625
4.24092698097229,0.6163002848625183,-0.5645236968994141,1.2766718864440918,-1.827258586883545,-0.047072913497686386,0.3288750946521759
4.260995149612427,0.615058422088623,-0.5652630925178528,1.2754206657409668,-1.8263418674468994,-0.04791394621133804,0.33005791902542114
4.281082630157471,0.613799512386322,-0.565987229347229,1.274207353591919,-1.8254156112670898,-0.04878322780132294,0.331257700920105
4.301125764846802,0.6125407218933105,-0.5667065382003784,1.2730462551116943,-1.8244798183441162,-0.04966740310192108,0.3324706554412842
4.321220874786377,0.6119190454483032,-0.5670722723007202,1.2724720239639282,-1.8240132331848145,-0.050103023648262024,0.3330761194229126
4.3413496017456055,0.6106973886489868,-0.5677996873855591,1.2713265419006348,-1.8230955600738525,-0.05096568167209625,0.3342796564102173
4.36141037940979,0.6094939708709717,-0.5685131549835205,1.2701648473739624,-1.8222038745880127,-0.05182483047246933,0.33546948432922363
4.38153600692749,0.6088952422142029,-0.5688780546188354,1.2695558071136475,-1.8217597007751465,-0.0522427037358284,0.33605828881263733
4.401630640029907,0.6076620221138,-0.5696185827255249,1.2683260440826416,-1.820866346359253,-0.05310744792222977,0.33724045753479004
4.421666383743286,0.6063457727432251,-0.5703809261322021,1.2670884132385254,-1.8199589252471924,-0.05404510349035263,0.33844268321990967
4.4418323040008545,0.6056647896766663,-0.5707627534866333,1.2664669752120972,-1.819498062133789,-0.05453160032629967,0.33905312418937683
4.461971759796143,0.6042840480804443,-0.5715146660804749,1.2651989459991455,-1.8185473680496216,-0.05550113320350647,0.3402932286262512
4.482006549835205,0.602947473526001,-0.5722640752792358,1.263913631439209,-1.8175840377807617,-0.05641176551580429,0.341537207365036
4.502054929733276,0.6016595363616943,-0.5730283260345459,1.262649416923523,-1.8166437149047852,-0.057287730276584625,0.342768132686615
4.52217435836792,0.601033091545105,-0.5734223127365112,1.2620103359222412,-1.8161866664886475,-0.05771030858159065,0.34337472915649414
4.542245864868164,0.5997843742370605,-0.5742003917694092,1.2607412338256836,-1.8152852058410645,-0.058558233082294464,0.3445832133293152
4.56229829788208,0.5985369682312012,-0.5749662518501282,1.259472131729126,-1.8143881559371948,-0.059403255581855774,0.3457862138748169
4.582432985305786,0.5979141592979431,-0.5753467082977295,1.2588469982147217,-1.8139426708221436,-0.05982601270079613,0.34638530015945435
4.602474927902222,0.5966751575469971,-0.5761299729347229,1.2575993537902832,-1.8130381107330322,-0.06064385175704956,0.34757500886917114
4.6225364208221436,0.5954406261444092,-0.5769200921058655,1.256382703781128,-1.8121180534362793,-0.061453890055418015,0.3487652540206909
4.642653942108154,0.5942025184631348,-0.5777254700660706,1.255130648612976,-1.811156988143921,-0.062239330261945724,0.3499651253223419
4.66274094581604,0.5935841798782349,-0.5781379342079163,1.2544682025909424,-1.810668706893921,-0.0626196414232254,0.3505666255950928
4.682826995849609,0.5923388004302979,-0.5789610147476196,1.253090739250183,-1.8096868991851807,-0.06338225305080414,0.35177814960479736
4.702900648117065,0.5910946726799011,-0.5797632932662964,1.2517380714416504,-1.8087390661239624,-0.064177006483078,0.3529907464981079
4.7229695320129395,0.5904725193977356,-0.5801495909690857,1.2511024475097656,-1.8082780838012695,-0.0645943358540535,0.35359904170036316
4.743043661117554,0.5892418622970581,-0.5809025764465332,1.2499021291732788,-1.807375431060791,-0.06544797122478485,0.35481393337249756
4.763108253479004,0.5880223512649536,-0.5816606283187866,1.248699426651001,-1.8064731359481812,-0.06629224866628647,0.356025367975235
4.783159255981445,0.5867747664451599,-0.5824630260467529,1.2474112510681152,-1.8055291175842285,-0.06711716949939728,0.3572450876235962
4.803252696990967,0.5861353874206543,-0.5828880071640015,1.246734619140625,-1.8050384521484375,-0.06752172112464905,0.35785889625549316
4.8233208656311035,0.5848546028137207,-0.5837568044662476,1.245384931564331,-1.8040591478347778,-0.06832526624202728,0.35908302664756775
4.8433778285980225,0.583594560623169,-0.5846051573753357,1.244105339050293,-1.8031264543533325,-0.06914310157299042,0.3602973222732544
4.863469362258911,0.5829742550849915,-0.5850116014480591,1.2434971332550049,-1.8026801347732544,-0.06956130266189575,0.36090171337127686
4.883559942245483,0.5817288756370544,-0.5857651829719543,1.2423261404037476,-1.8018031120300293,-0.07044380158185959,0.36212265491485596
4.903635740280151,0.5804740190505981,-0.5864889621734619,1.2411530017852783,-1.8009207248687744,-0.07134956121444702,0.3633488714694977
4.923699855804443,0.5792055726051331,-0.5872380137443542,1.2399145364761353,-1.8000279664993286,-0.07224413752555847,0.36456578969955444
4.943783283233643,0.57856684923172,-0.5876186490058899,1.2392864227294922,-1.7995798587799072,-0.07268664240837097,0.36517322063446045
4.963848114013672,0.5772812366485596,-0.5883903503417969,1.23800528049469,-1.7986693382263184,-0.07355280965566635,0.366393119096756
4.9839043617248535,0.5759884715080261,-0.5891602039337158,1.2367579936981201,-1.7977166175842285,-0.07440517842769623,0.36763501167297363
5.004045248031616,0.5753443241119385,-0.5895537734031677,1.2361412048339844,-1.797229290008545,-0.07482519745826721,0.36826053261756897
5.024104356765747,0.5740795135498047,-0.590340256690979,1.2349361181259155,-1.7962665557861328,-0.07566314190626144,0.3695072531700134
5.044152736663818,0.5728384256362915,-0.591117262840271,1.2336922883987427,-1.795337200164795,-0.07649816572666168,0.37074124813079834
5.064278602600098,0.5722101926803589,-0.5915052890777588,1.2330541610717773,-1.7948777675628662,-0.07692145556211472,0.3713533282279968
5.084367513656616,0.5709156394004822,-0.5922969579696655,1.2317506074905396,-1.7939369678497314,-0.07777608931064606,0.37258046865463257
5.104494094848633,0.5695853233337402,-0.5931130647659302,1.2304526567459106,-1.7929604053497314,-0.0786249190568924,0.3738171458244324
5.124495506286621,0.5682469010353088,-0.5938930511474609,1.2291953563690186,-1.7919700145721436,-0.07950036972761154,0.3750860095024109
5.144580602645874,0.5675874948501587,-0.5942693948745728,1.2285845279693604,-1.7914842367172241,-0.07994604110717773,0.3757256865501404
5.164646863937378,0.5662944316864014,-0.5950087308883667,1.22739577293396,-1.7905430793762207,-0.080845408141613,0.376997709274292
5.184773683547974,0.5650532841682434,-0.5957966446876526,1.226156234741211,-1.789625644683838,-0.08166786283254623,0.37822771072387695
5.20491099357605,0.5644426345825195,-0.5962002277374268,1.2255167961120605,-1.7891682386398315,-0.08205711841583252,0.3788304626941681
5.224934816360474,0.563206672668457,-0.5970054864883423,1.2242077589035034,-1.7882441282272339,-0.08283708989620209,0.380035400390625
5.244992733001709,0.5619184970855713,-0.5978020429611206,1.222892165184021,-1.787298560142517,-0.08366376906633377,0.3812550902366638
5.265082359313965,0.5612577199935913,-0.598202109336853,1.2222373485565186,-1.7868175506591797,-0.08408919721841812,0.381869912147522
5.285153150558472,0.5599390864372253,-0.5990134477615356,1.2209458351135254,-1.7858564853668213,-0.08492827415466309,0.3830936551094055
5.30524206161499,0.5586410760879517,-0.5998398065567017,1.2196528911590576,-1.7848730087280273,-0.08571392297744751,0.3843132257461548
5.325365781784058,0.557351291179657,-0.6006725430488586,1.2182998657226562,-1.783862829208374,-0.08646894991397858,0.3855471611022949
5.345476865768433,0.5567044019699097,-0.6010797619819641,1.2176165580749512,-1.7833596467971802,-0.08685865998268127,0.38617128133773804
5.365546703338623,0.5554124116897583,-0.6018580198287964,1.2162797451019287,-1.7823832035064697,-0.08768323808908463,0.38742876052856445
5.385621547698975,0.5541259050369263,-0.6026149988174438,1.214998722076416,-1.7814350128173828,-0.08853961527347565,0.38868266344070435
5.405675649642944,0.5534784197807312,-0.6030044555664062,1.2143588066101074,-1.7809572219848633,-0.08896606415510178,0.38930806517601013
5.425849914550781,0.5521762371063232,-0.603818416595459,1.2130643129348755,-1.7799816131591797,-0.08979815989732742,0.39055997133255005
5.445864915847778,0.5508747100830078,-0.6046842336654663,1.2116930484771729,-1.7789742946624756,-0.09058061242103577,0.39182043075561523
5.466145992279053,0.5502287149429321,-0.6051218509674072,1.210990071296692,-1.7784672975540161,-0.09096146374940872,0.3924550414085388
5.48624062538147,0.5489488840103149,-0.605988085269928,1.2095696926116943,-1.7774724960327148,-0.09172599762678146,0.393722265958786
5.506321668624878,0.5476826429367065,-0.606826901435852,1.208217740058899,-1.7765188217163086,-0.09251999855041504,0.3949718475341797
5.5263991355896,0.5470564365386963,-0.6072462201118469,1.2075601816177368,-1.776052713394165,-0.09291554987430573,0.39558738470077515
5.5464701652526855,0.5458034873008728,-0.6080887317657471,1.206255555152893,-1.7751166820526123,-0.09369827061891556,0.3968132734298706
5.566595554351807,0.544530987739563,-0.6089315414428711,1.2049074172973633,-1.7741663455963135,-0.09447918832302094,0.39804333448410034
5.586668014526367,0.5438787937164307,-0.6093635559082031,1.2042019367218018,-1.7736804485321045,-0.09487038850784302,0.39865899085998535
5.606751203536987,0.5425499677658081,-0.6102526783943176,1.2027662992477417,-1.7727031707763672,-0.09565714001655579,0.3998836874961853
5.626861095428467,0.5412038564682007,-0.6111527681350708,1.2013453245162964,-1.771711826324463,-0.09644719958305359,0.4011088013648987
5.646951913833618,0.5398668646812439,-0.6120157837867737,1.199965476989746,-1.770728349685669,-0.09725361317396164,0.4023487865924835
5.667088508605957,0.539206862449646,-0.6124463677406311,1.1992682218551636,-1.7702419757843018,-0.09765219688415527,0.40297114849090576
5.687269926071167,0.5378798246383667,-0.6133432984352112,1.1978048086166382,-1.769270420074463,-0.09843634068965912,0.4042122960090637
5.7074549198150635,0.5372084379196167,-0.6138105392456055,1.1970558166503906,-1.768783450126648,-0.09882330894470215,0.4048280119895935
5.7275779247283936,0.5358479619026184,-0.6147355437278748,1.1955814361572266,-1.767801284790039,-0.09960733354091644,0.4060584306716919
5.7476794719696045,0.5344749689102173,-0.6156290769577026,1.1941635608673096,-1.7668113708496094,-0.10040932893753052,0.40729832649230957
5.768049955368042,0.5337893962860107,-0.6160584688186646,1.1934767961502075,-1.766310691833496,-0.10081703960895538,0.40792548656463623
5.788194894790649,0.5324226021766663,-0.6169272661209106,1.1920909881591797,-1.7652872800827026,-0.1016203910112381,0.40919020771980286
5.808226108551025,0.5310845971107483,-0.6178357601165771,1.1906687021255493,-1.764254093170166,-0.10237336903810501,0.4104418158531189
5.828367233276367,0.5297812819480896,-0.6188052892684937,1.1891852617263794,-1.7632255554199219,-0.10305299609899521,0.4116632044315338
5.848473072052002,0.5291357040405273,-0.6192989349365234,1.1884377002716064,-1.7627170085906982,-0.10338103771209717,0.412265419960022
5.868584632873535,0.5278385281562805,-0.6202691793441772,1.1869629621505737,-1.7617108821868896,-0.10405489802360535,0.4134718179702759
5.888702869415283,0.5265174508094788,-0.6211798787117004,1.185546636581421,-1.7607171535491943,-0.10479472577571869,0.41469839215278625
5.908850193023682,0.5258406400680542,-0.6216120719909668,1.1848580837249756,-1.7602161169052124,-0.1051948070526123,0.41532230377197266
5.928893327713013,0.5244609713554382,-0.6224542856216431,1.1835088729858398,-1.7591991424560547,-0.10603250563144684,0.4165845513343811
5.948948860168457,0.5230774879455566,-0.6233313679695129,1.1821342706680298,-1.758157730102539,-0.1068471148610115,0.41784971952438354
5.969027757644653,0.522398054599762,-0.6237926483154297,1.181429147720337,-1.7576369047164917,-0.10723097622394562,0.41847938299179077
5.98905348777771,0.5210647583007812,-0.6247503757476807,1.1799991130828857,-1.7566019296646118,-0.10796111822128296,0.4197337031364441
6.009310007095337,0.5197563171386719,-0.6257316470146179,1.17855703830719,-1.7555783987045288,-0.10865938663482666,0.4209747314453125
6.029395580291748,0.5191020965576172,-0.6262173652648926,1.1778415441513062,-1.7550697326660156,-0.10900925099849701,0.42159056663513184
6.0495219230651855,0.517768383026123,-0.6271423101425171,1.1764366626739502,-1.754047155380249,-0.1097474992275238,0.4228290617465973
6.070022344589233,0.5163943767547607,-0.6280165910720825,1.1750710010528564,-1.7530156373977661,-0.11055029928684235,0.42409059405326843
6.0901641845703125,0.5156909227371216,-0.628442645072937,1.1743906736373901,-1.752494215965271,-0.11097775399684906,0.4247339367866516
6.110219717025757,0.5142722129821777,-0.6293216943740845,1.172976016998291,-1.7514610290527344,-0.11184509843587875,0.4260273575782776
6.130276679992676,0.5135612487792969,-0.6297768354415894,1.1722410917282104,-1.7509492635726929,-0.11227219551801682,0.42667239904403687
6.15035343170166,0.5121464729309082,-0.6307180523872375,1.1707433462142944,-1.7499303817749023,-0.11309005320072174,0.42794689536094666
6.170404672622681,0.5107453465461731,-0.6316754221916199,1.1692633628845215,-1.748901128768921,-0.11386370658874512,0.42920708656311035
6.190514326095581,0.5100432634353638,-0.6321415901184082,1.1685423851013184,-1.7483850717544556,-0.11425931751728058,0.4298403263092041
6.2106032371521,0.5086228847503662,-0.6330587863922119,1.16709303855896,-1.7473397254943848,-0.11507050693035126,0.4311205744743347
6.230769395828247,0.5071991682052612,-0.6339921355247498,1.1655945777893066,-1.7462756633758545,-0.11587148904800415,0.4324159026145935
6.250768661499023,0.5064917206764221,-0.6344767808914185,1.164818286895752,-1.7457404136657715,-0.11625593900680542,0.4330630898475647
6.2708635330200195,0.505095362663269,-0.6354469060897827,1.1632651090621948,-1.7446956634521484,-0.11702316999435425,0.43435150384902954
6.2910237312316895,0.50370192527771,-0.6363890171051025,1.161746859550476,-1.7436914443969727,-0.1178242564201355,0.43563252687454224
6.311187028884888,0.5022994875907898,-0.6373059749603271,1.160256028175354,-1.7426930665969849,-0.11864544451236725,0.43691039085388184
6.331357002258301,0.5015977025032043,-0.6377701759338379,1.159502625465393,-1.7421813011169434,-0.11904279887676239,0.43754667043685913
6.351430416107178,0.5001979470252991,-0.6387282609939575,1.157966136932373,-1.7411201000213623,-0.11979512125253677,0.4388178586959839
6.371527194976807,0.4988023638725281,-0.639721691608429,1.1564146280288696,-1.7400202751159668,-0.1205141544342041,0.44009846448898315
6.39161491394043,0.4981059730052948,-0.6402245759963989,1.1556463241577148,-1.739466905593872,-0.12087477743625641,0.44074517488479614
6.411701202392578,0.49669086933135986,-0.641208291053772,1.154127836227417,-1.7383663654327393,-0.12164606899023056,0.44205817580223083
6.431897878646851,0.49521172046661377,-0.6421495079994202,1.1526055335998535,-1.737269639968872,-0.12251566350460052,0.4433988928794861
6.45207953453064,0.4944536089897156,-0.6426094770431519,1.15183424949646,-1.7367212772369385,-0.12297273427248001,0.4440746605396271
6.472094535827637,0.49293503165245056,-0.6435431241989136,1.1502894163131714,-1.735621452331543,-0.12387587130069733,0.4454251527786255
6.492384195327759,0.4914282560348511,-0.6445378661155701,1.148690938949585,-1.7344770431518555,-0.12469977140426636,0.4467751979827881
6.512477159500122,0.49066323041915894,-0.6450545787811279,1.1478798389434814,-1.733884572982788,-0.1251070499420166,0.44746023416519165
6.532528638839722,0.4891085624694824,-0.6460784673690796,1.1462661027908325,-1.7326946258544922,-0.12596449255943298,0.4488530158996582
6.552721261978149,0.48833292722702026,-0.6465778350830078,1.1454880237579346,-1.732116460800171,-0.1264149248600006,0.4495507478713989
6.572803974151611,0.48682141304016113,-0.6475752592086792,1.143946886062622,-1.7310051918029785,-0.12729927897453308,0.45092305541038513
6.592878818511963,0.4853437542915344,-0.6485732197761536,1.142425298690796,-1.7299139499664307,-0.1281510591506958,0.45227473974227905
6.613189458847046,0.48460227251052856,-0.649062991142273,1.1416726112365723,-1.729362964630127,-0.12858137488365173,0.452955961227417
6.633403301239014,0.48311686515808105,-0.6500349640846252,1.1401779651641846,-1.7282490730285645,-0.12944646179676056,0.45432931184768677
6.6534295082092285,0.48162829875946045,-0.651006281375885,1.1386929750442505,-1.727115511894226,-0.13031607866287231,0.4557182788848877
6.673487186431885,0.480890154838562,-0.6514978408813477,1.1379402875900269,-1.7265520095825195,-0.13074621558189392,0.4564124345779419
6.6935508251190186,0.4794270396232605,-0.6524945497512817,1.1364004611968994,-1.7254385948181152,-0.13159321248531342,0.45779433846473694
6.713688611984253,0.4779821038246155,-0.6535043120384216,1.1348378658294678,-1.7243449687957764,-0.13242489099502563,0.45916086435317993
6.73378849029541,0.477243572473526,-0.6540107727050781,1.134049892425537,-1.7237913608551025,-0.13285239040851593,0.45984506607055664
6.753948450088501,0.4756893515586853,-0.6549840569496155,1.1325290203094482,-1.7226723432540894,-0.1338096261024475,0.46123379468917847
6.774042129516602,0.47404637932777405,-0.65591961145401,1.1310250759124756,-1.7215261459350586,-0.13485755026340485,0.46265965700149536
6.794119834899902,0.47322097420692444,-0.6563937067985535,1.1302611827850342,-1.7209522724151611,-0.13537949323654175,0.46338218450546265
6.814174652099609,0.4716087877750397,-0.6573742628097534,1.1287076473236084,-1.719812035560608,-0.13636808097362518,0.4648306965827942
6.834309101104736,0.47082459926605225,-0.6578901410102844,1.1279034614562988,-1.7192480564117432,-0.13682851195335388,0.4655473232269287
6.8544840812683105,0.46926435828208923,-0.6589080095291138,1.1263025999069214,-1.7181270122528076,-0.1377491056919098,0.46697700023651123
6.874526739120483,0.4677017331123352,-0.6598861813545227,1.124720573425293,-1.7169914245605469,-0.13868339359760284,0.46841177344322205
6.894810914993286,0.4661370813846588,-0.6608371734619141,1.123146891593933,-1.7158348560333252,-0.13963226974010468,0.469869464635849
6.9149010181427,0.4653664827346802,-0.6613224148750305,1.1223552227020264,-1.7152619361877441,-0.14009925723075867,0.47059866786003113
6.934968709945679,0.4638470411300659,-0.6623369455337524,1.1207321882247925,-1.7141185998916626,-0.1409921497106552,0.47204965353012085
6.955164909362793,0.46234676241874695,-0.6633684635162354,1.1191062927246094,-1.7129924297332764,-0.1418634057044983,0.473482221364975
6.97525429725647,0.46159636974334717,-0.6638820171356201,1.118303656578064,-1.7124323844909668,-0.1422998011112213,0.47419434785842896
6.995312213897705,0.4600813388824463,-0.6648958325386047,1.1167068481445312,-1.7113056182861328,-0.14318759739398956,0.4756236970424652
7.015489816665649,0.45852676033973694,-0.665903627872467,1.1151093244552612,-1.7101330757141113,-0.1441042423248291,0.4770859479904175
7.035594940185547,0.4577391743659973,-0.6664193868637085,1.1142921447753906,-1.7095273733139038,-0.14456136524677277,0.4778282642364502
7.055704355239868,0.456159770488739,-0.6674624681472778,1.112657904624939,-1.7083125114440918,-0.1454821228981018,0.47932350635528564
7.075724363327026,0.45459574460983276,-0.6685215830802917,1.1110000610351562,-1.70711350440979,-0.1463879942893982,0.48081761598587036
7.095913410186768,0.45381367206573486,-0.6690519452095032,1.1101601123809814,-1.7065082788467407,-0.1468351036310196,0.4815676212310791
7.115939378738403,0.45223182439804077,-0.6700997352600098,1.1084537506103516,-1.7052586078643799,-0.1477353721857071,0.48309266567230225
7.135989427566528,0.45064789056777954,-0.6711525917053223,1.106752634048462,-1.7039927244186401,-0.14864736795425415,0.4846304655075073
7.15605902671814,0.44985929131507874,-0.6716800928115845,1.1059192419052124,-1.7033675909042358,-0.14911046624183655,0.48539650440216064
7.17627215385437,0.44829949736595154,-0.6727561950683594,1.1042594909667969,-1.7021484375,-0.1500236541032791,0.4869072437286377
7.196247816085815,0.4467594623565674,-0.6738423705101013,1.1025686264038086,-1.7009613513946533,-0.1509067565202713,0.4883938729763031
7.216350078582764,0.44599807262420654,-0.6743908524513245,1.101709246635437,-1.7003767490386963,-0.15133294463157654,0.48912864923477173
7.236443758010864,0.44448280334472656,-0.6755092740058899,1.0999727249145508,-1.6991947889328003,-0.15214736759662628,0.49058496952056885
7.256475448608398,0.4429376721382141,-0.6766424775123596,1.0982164144515991,-1.697951078414917,-0.15293645858764648,0.4920499324798584
7.276663541793823,0.4421507716178894,-0.6772034168243408,1.0973399877548218,-1.697304368019104,-0.15333637595176697,0.4927942156791687
7.29686164855957,0.4405500888824463,-0.6782768964767456,1.095638632774353,-1.6960055828094482,-0.15420237183570862,0.49431174993515015
7.316890478134155,0.438934326171875,-0.6793346405029297,1.0939964056015015,-1.694730281829834,-0.15512897074222565,0.4958454966545105
7.336963415145874,0.43811821937561035,-0.6798693537712097,1.0931726694107056,-1.6940922737121582,-0.15559887886047363,0.49661993980407715
7.3570237159729,0.4364718198776245,-0.6809491515159607,1.091489553451538,-1.692791223526001,-0.15653370320796967,0.49819108843803406
7.377078533172607,0.43484556674957275,-0.6820569634437561,1.0897468328475952,-1.6914842128753662,-0.1574283391237259,0.4997696578502655
7.397165060043335,0.43404319882392883,-0.6826024055480957,1.0888926982879639,-1.690850019454956,-0.15788164734840393,0.5005514621734619
7.4172585010528564,0.4324624538421631,-0.6837067604064941,1.0871816873550415,-1.689624309539795,-0.15876774489879608,0.5020788908004761
7.437295436859131,0.4308421015739441,-0.6847554445266724,1.0855369567871094,-1.688417911529541,-0.1597212255001068,0.5036001801490784
7.457381963729858,0.43001577258110046,-0.6852843165397644,1.084702730178833,-1.6878023147583008,-0.16019928455352783,0.5043609738349915
7.477494716644287,0.42834001779556274,-0.6863580942153931,1.0830249786376953,-1.6865475177764893,-0.16115237772464752,0.5058954358100891
7.4975714683532715,0.42668092250823975,-0.6874842643737793,1.081267237663269,-1.6852701902389526,-0.16204063594341278,0.5074349045753479
7.5176825523376465,0.42585834860801697,-0.68804532289505,1.0803805589675903,-1.6846343278884888,-0.16248156130313873,0.5082104802131653
7.537709951400757,0.42421942949295044,-0.689163088798523,1.0785996913909912,-1.683361291885376,-0.16336213052272797,0.5097663402557373
7.55777907371521,0.42255038022994995,-0.6902749538421631,1.076859474182129,-1.6820752620697021,-0.16427719593048096,0.5113292932510376
7.5778515338897705,0.42170047760009766,-0.6908402442932129,1.0759978294372559,-1.681418538093567,-0.16473625600337982,0.5121123194694519
7.597941160202026,0.41999852657318115,-0.6919794082641602,1.0742919445037842,-1.6801037788391113,-0.1656520813703537,0.5136798024177551
7.617998123168945,0.41833528876304626,-0.6931153535842896,1.0725771188735962,-1.678819179534912,-0.16654250025749207,0.5152382850646973
7.6380743980407715,0.41752249002456665,-0.6936752200126648,1.0717076063156128,-1.6781957149505615,-0.1669796109199524,0.5160112380981445
7.658188581466675,0.4158981442451477,-0.6947498917579651,1.0699824094772339,-1.6769704818725586,-0.1678820252418518,0.5175542831420898
7.678261041641235,0.4142601191997528,-0.69583660364151,1.0682439804077148,-1.6757173538208008,-0.16875912249088287,0.5190865993499756
7.698542594909668,0.41258275508880615,-0.696929931640625,1.0665006637573242,-1.6744143962860107,-0.16963806748390198,0.5206331610679626
7.718589782714844,0.41172927618026733,-0.697485089302063,1.065615177154541,-1.6737568378448486,-0.17008382081985474,0.5214117169380188
7.738719463348389,0.40998250246047974,-0.6985522508621216,1.0638866424560547,-1.6724669933319092,-0.17106004059314728,0.5229945182800293
7.758768796920776,0.40910258889198303,-0.6990964412689209,1.0630143880844116,-1.6718270778656006,-0.17155130207538605,0.5237916111946106
7.77885627746582,0.4073256850242615,-0.7001971006393433,1.061254858970642,-1.67050302028656,-0.17252331972122192,0.5254170298576355
7.79895281791687,0.4055434465408325,-0.7013305425643921,1.0594592094421387,-1.6691365242004395,-0.17347750067710876,0.5270636677742004
7.819202423095703,0.4037695527076721,-0.702470064163208,1.057668924331665,-1.6677932739257812,-0.1744471788406372,0.5287022590637207
7.83933162689209,0.4028887152671814,-0.7030461430549622,1.0567772388458252,-1.6671377420425415,-0.1749286949634552,0.5295140147209167
7.859480857849121,0.4011398255825043,-0.7042086124420166,1.0549696683883667,-1.6658129692077637,-0.17585192620754242,0.5311400294303894
7.8794636726379395,0.40026381611824036,-0.704784631729126,1.0540697574615479,-1.6651315689086914,-0.17630904912948608,0.5319663882255554
7.89950156211853,0.3985220789909363,-0.7059544920921326,1.0522754192352295,-1.663743257522583,-0.1772080510854721,0.533632218837738
7.91964054107666,0.3968143165111542,-0.7071866989135742,1.0504342317581177,-1.6623512506484985,-0.17804676294326782,0.5352858304977417
7.93965744972229,0.39512765407562256,-0.7084416151046753,1.0485618114471436,-1.6609787940979004,-0.17885522544384003,0.5369144678115845
7.959779500961304,0.3942776620388031,-0.7090446352958679,1.0476422309875488,-1.6602988243103027,-0.17928025126457214,0.5377308130264282
7.979951620101929,0.3925461769104004,-0.7102020978927612,1.0458403825759888,-1.6589164733886719,-0.1801827996969223,0.5393980741500854
8.00002384185791,0.3908082842826843,-0.711353063583374,1.0440647602081299,-1.6575214862823486,-0.18110841512680054,0.5410946011543274
8.02006721496582,0.38993892073631287,-0.7119311094284058,1.043182373046875,-1.6568238735198975,-0.18157781660556793,0.5419496297836304
8.04015064239502,0.388213187456131,-0.7131040096282959,1.041411280632019,-1.6554501056671143,-0.18251343071460724,0.5436494946479797
8.06022047996521,0.38648325204849243,-0.7142857909202576,1.0396044254302979,-1.6540803909301758,-0.1834445297718048,0.545346736907959
8.080450773239136,0.38474416732788086,-0.715478241443634,1.0377740859985352,-1.652683973312378,-0.18435877561569214,0.5470561981201172
8.100529193878174,0.3838726282119751,-0.7160642743110657,1.0368609428405762,-1.6519793272018433,-0.18482112884521484,0.547917902469635
8.120595216751099,0.38213708996772766,-0.717225193977356,1.0350983142852783,-1.6505935192108154,-0.18577274680137634,0.5496431589126587
8.140670776367188,0.38041073083877563,-0.7183873653411865,1.0333647727966309,-1.6492347717285156,-0.18674010038375854,0.5513619780540466
8.160739660263062,0.3795386552810669,-0.7189726829528809,1.0324902534484863,-1.648557424545288,-0.18722957372665405,0.5522205829620361
8.180845260620117,0.37776726484298706,-0.7201282382011414,1.030703067779541,-1.647193431854248,-0.18821841478347778,0.5539421439170837
8.200993061065674,0.3759746253490448,-0.7212868928909302,1.02889084815979,-1.6458086967468262,-0.1891918182373047,0.5556691884994507
8.22099781036377,0.3742179274559021,-0.7224968075752258,1.0270498991012573,-1.6444218158721924,-0.19008919596672058,0.557377815246582
8.241142988204956,0.37334784865379333,-0.7231051325798035,1.0261297225952148,-1.6437301635742188,-0.19052986800670624,0.5582300424575806
8.26125192642212,0.3716106712818146,-0.7242957949638367,1.024284839630127,-1.6423691511154175,-0.19143185019493103,0.5599243640899658
8.281302213668823,0.36983418464660645,-0.7254144549369812,1.0224970579147339,-1.6410083770751953,-0.19241206347942352,0.5616328120231628
8.301378965377808,0.3680382966995239,-0.7265375852584839,1.0207066535949707,-1.6396219730377197,-0.19339007139205933,0.5633549690246582
8.321450471878052,0.36714476346969604,-0.7271181344985962,1.019787311553955,-1.6389145851135254,-0.19385510683059692,0.564221203327179
8.34153151512146,0.3653763234615326,-0.7282721996307373,1.0179309844970703,-1.6375175714492798,-0.19478243589401245,0.5659635066986084
8.36159896850586,0.3636314868927002,-0.7294658422470093,1.0160266160964966,-1.6361305713653564,-0.19566969573497772,0.5676969289779663
8.381661653518677,0.36275190114974976,-0.7300771474838257,1.0150611400604248,-1.6354243755340576,-0.19610366225242615,0.568566083908081
8.401785612106323,0.3609873056411743,-0.7313555479049683,1.0130698680877686,-1.6339713335037231,-0.19692014157772064,0.5703034996986389
8.421910524368286,0.35920578241348267,-0.7326009273529053,1.0111188888549805,-1.6325290203094482,-0.1977826952934265,0.5720462799072266
8.441933631896973,0.3573910593986511,-0.7337902784347534,1.0092717409133911,-1.6311376094818115,-0.19874721765518188,0.5737841129302979
8.462123394012451,0.35645994544029236,-0.7343780398368835,1.0083799362182617,-1.6304486989974976,-0.1992621123790741,0.5746537446975708
8.482115030288696,0.35455232858657837,-0.7355971932411194,1.0065453052520752,-1.62903892993927,-0.20027871429920197,0.5764027833938599
8.502159118652344,0.3526255786418915,-0.736836314201355,1.0046637058258057,-1.6276013851165771,-0.20126989483833313,0.5781784653663635
8.522241353988647,0.35166704654693604,-0.7374462485313416,1.0037121772766113,-1.6268832683563232,-0.20176160335540771,0.5790736079216003
8.542327404022217,0.3497769832611084,-0.7386736273765564,1.001753330230713,-1.6254475116729736,-0.20270609855651855,0.5808610320091248
8.562403917312622,0.34790197014808655,-0.7399206757545471,0.9997550249099731,-1.6239945888519287,-0.2036135047674179,0.5826409459114075
8.582460880279541,0.3469633460044861,-0.7405456900596619,0.9987649917602539,-1.6232560873031616,-0.20406509935855865,0.5835362076759338
8.60252571105957,0.34508413076400757,-0.7417507171630859,0.996891438961029,-1.6217913627624512,-0.20502158999443054,0.5853393077850342
8.622578144073486,0.34322136640548706,-0.7429073452949524,0.9950950741767883,-1.620370626449585,-0.20602309703826904,0.5871464014053345
8.642643690109253,0.3422936201095581,-0.7434772849082947,0.9941991567611694,-1.6196701526641846,-0.20652860403060913,0.5880475640296936
8.662738800048828,0.34041664004325867,-0.7445935010910034,0.9924393892288208,-1.6182664632797241,-0.20757950842380524,0.5898670554161072
8.682804346084595,0.3384605646133423,-0.745732307434082,0.99067223072052,-1.616788625717163,-0.2086734175682068,0.5917322635650635
8.702862024307251,0.33645036816596985,-0.7468951940536499,0.9888623952865601,-1.6152842044830322,-0.20979931950569153,0.5936345458030701
8.722942590713501,0.3354446291923523,-0.7474784851074219,0.9879398345947266,-1.6145317554473877,-0.21035903692245483,0.5945932865142822
8.74303412437439,0.3334619998931885,-0.7486443519592285,0.9860842823982239,-1.6130285263061523,-0.2114546000957489,0.5965320467948914
8.763088941574097,0.3315252959728241,-0.749863862991333,0.9842032194137573,-1.6115078926086426,-0.21248087286949158,0.5984845161437988
8.783141136169434,0.3296346366405487,-0.7511193752288818,0.9823070168495178,-1.6100172996520996,-0.21346856653690338,0.6004074811935425
8.803231477737427,0.3287076950073242,-0.7517292499542236,0.9813754558563232,-1.6093050241470337,-0.2139677107334137,0.6013411283493042
8.823302507400513,0.3268722891807556,-0.7529079914093018,0.9795297384262085,-1.6079216003417969,-0.21496962010860443,0.6031606793403625
8.843345880508423,0.32503026723861694,-0.7540583610534668,0.9776846170425415,-1.60653555393219,-0.2159586250782013,0.6049560904502869
8.863823652267456,0.3231518268585205,-0.7552014589309692,0.975811243057251,-1.605093240737915,-0.21693603694438934,0.6067827939987183
8.883914232254028,0.32221001386642456,-0.7557812929153442,0.974861741065979,-1.6043615341186523,-0.21741686761379242,0.607702910900116
8.903985023498535,0.3203311562538147,-0.756946325302124,0.972966194152832,-1.6029095649719238,-0.21838022768497467,0.6095435619354248
8.924033403396606,0.3184594213962555,-0.7581199407577515,0.9710829257965088,-1.6014683246612549,-0.21934127807617188,0.6113722324371338
8.944125413894653,0.31751322746276855,-0.7586951851844788,0.9701592922210693,-1.6007394790649414,-0.21983568370342255,0.6122932434082031
8.964205265045166,0.31559306383132935,-0.7598401308059692,0.9683123826980591,-1.5992571115493774,-0.2208457589149475,0.6141555309295654
8.984244346618652,0.3136424422264099,-0.7609496712684631,0.9664944410324097,-1.5977933406829834,-0.22191600501537323,0.6160348653793335
9.004474639892578,0.31167784333229065,-0.7620007991790771,0.9647360444068909,-1.5963996648788452,-0.22305771708488464,0.61789870262146
9.024558305740356,0.3106893002986908,-0.7625194787979126,0.9638717174530029,-1.595712661743164,-0.22363772988319397,0.6188275814056396
9.044692277908325,0.30870339274406433,-0.7635787725448608,0.9620872735977173,-1.5943198204040527,-0.22477230429649353,0.6206930875778198
9.06472635269165,0.3067050576210022,-0.7646756172180176,0.9602681994438171,-1.5928871631622314,-0.22588199377059937,0.6225794553756714
9.084792375564575,0.3056955933570862,-0.7652294039726257,0.9593533277511597,-1.592151403427124,-0.2264384627342224,0.6235374808311462
9.10487675666809,0.30366724729537964,-0.766324520111084,0.9575731158256531,-1.5906705856323242,-0.22758114337921143,0.6254755854606628
9.124950647354126,0.3016345202922821,-0.7673735618591309,0.9558383226394653,-1.58919095993042,-0.2287750244140625,0.6274492740631104
9.14500904083252,0.300626277923584,-0.7678889036178589,0.9549766778945923,-1.5884597301483154,-0.2293786257505417,0.6284399032592773
9.165098905563354,0.2986108660697937,-0.7688995599746704,0.9532633423805237,-1.5869933366775513,-0.23060117661952972,0.6304343938827515
9.185266256332397,0.2966180443763733,-0.7699681520462036,0.9515063166618347,-1.5855177640914917,-0.2317703515291214,0.6324209570884705
9.205265283584595,0.2956259250640869,-0.7705065608024597,0.9506256580352783,-1.5847907066345215,-0.23235321044921875,0.6334078311920166
9.225456237792969,0.29363149404525757,-0.7715849876403809,0.948854923248291,-1.5833433866500854,-0.23352563381195068,0.635372519493103
9.245506525039673,0.29157859086990356,-0.7726325988769531,0.947070300579071,-1.5818649530410767,-0.2347477823495865,0.637365996837616
9.26551103591919,0.2895059287548065,-0.7736732959747314,0.9453014135360718,-1.5803718566894531,-0.23599880933761597,0.6393895149230957
9.285611629486084,0.28848087787628174,-0.7742063999176025,0.9444223642349243,-1.579634428024292,-0.2366166114807129,0.6404015421867371
9.305677652359009,0.2864481210708618,-0.7752816081047058,0.9426814317703247,-1.5781691074371338,-0.237840473651886,0.6424249410629272
9.32575535774231,0.28440505266189575,-0.7763693332672119,0.9408916234970093,-1.5766637325286865,-0.23904210329055786,0.6444666385650635
9.345942497253418,0.28337517380714417,-0.7768895626068115,0.9400067925453186,-1.5759104490280151,-0.239665687084198,0.6454934477806091
9.366099834442139,0.2812981903553009,-0.7779344916343689,0.9382240176200867,-1.574406623840332,-0.24092695116996765,0.6475483179092407
9.386116743087769,0.27920448780059814,-0.7789701223373413,0.936506986618042,-1.572940707206726,-0.24222853779792786,0.6495872139930725
9.406164407730103,0.27710312604904175,-0.7799976468086243,0.9348366260528564,-1.5714991092681885,-0.24354669451713562,0.651617169380188
9.426246643066406,0.2760602533817291,-0.7805076241493225,0.93401038646698,-1.5707910060882568,-0.24420417845249176,0.6526280045509338
9.44631838798523,0.2739712595939636,-0.7814843058586121,0.932390034198761,-1.5693895816802979,-0.24554944038391113,0.6546541452407837
9.466374397277832,0.2718227207660675,-0.7824377417564392,0.9307824373245239,-1.5679535865783691,-0.24694451689720154,0.656712532043457
9.486724376678467,0.27072539925575256,-0.7829045057296753,0.9299739003181458,-1.5672202110290527,-0.24766120314598083,0.6577574610710144
9.506869077682495,0.2685318887233734,-0.7838439345359802,0.9283379316329956,-1.5657634735107422,-0.24909508228302002,0.6598466634750366
9.526928424835205,0.26637589931488037,-0.7847864627838135,0.9266812801361084,-1.5643608570098877,-0.25050976872444153,0.6619187593460083
9.54699969291687,0.26423320174217224,-0.7857365012168884,0.9250422120094299,-1.5629754066467285,-0.25191357731819153,0.663985013961792
9.567126512527466,0.26315879821777344,-0.7862323522567749,0.9242147207260132,-1.5622706413269043,-0.25260281562805176,0.6650241613388062
9.587377548217773,0.26099345088005066,-0.7872284650802612,0.9225454330444336,-1.5608365535736084,-0.25398507714271545,0.667113184928894
9.607340812683105,0.25877705216407776,-0.7882205843925476,0.9208365082740784,-1.559351921081543,-0.25538644194602966,0.6692357659339905
9.627445459365845,0.25763940811157227,-0.7886947989463806,0.9199803471565247,-1.5585905313491821,-0.2561158537864685,0.6703195571899414
9.647522926330566,0.2553059756755829,-0.7895938158035278,0.918273389339447,-1.5570363998413086,-0.2576458156108856,0.6725450158119202
9.667622089385986,0.252955824136734,-0.7904630899429321,0.9166092872619629,-1.5555007457733154,-0.25923967361450195,0.6748001575469971
9.687737464904785,0.25063183903694153,-0.7913841009140015,0.9149306416511536,-1.55397367477417,-0.2608029246330261,0.6770594120025635
9.707886457443237,0.24948975443840027,-0.7918437123298645,0.9141224026679993,-1.5532350540161133,-0.2615864872932434,0.6781726479530334
9.727982997894287,0.2472349852323532,-0.7927544116973877,0.9124805927276611,-1.551790714263916,-0.2631326913833618,0.6803638935089111
9.748082876205444,0.24498513340950012,-0.7935932874679565,0.9108744859695435,-1.5503721237182617,-0.26470714807510376,0.6825283765792847
9.768126249313354,0.2438536137342453,-0.7940124273300171,0.9100362062454224,-1.5496346950531006,-0.2654762268066406,0.6836241483688354
9.788268327713013,0.24157221615314484,-0.7948431372642517,0.9083806276321411,-1.5481152534484863,-0.2670241594314575,0.685859203338623
9.808408498764038,0.23928475379943848,-0.7956387996673584,0.9067691564559937,-1.5465786457061768,-0.2686156630516052,0.6881322860717773
9.828439712524414,0.23701836168766022,-0.7963730096817017,0.9052396416664124,-1.5450944900512695,-0.27027344703674316,0.6903952360153198
9.848569869995117,0.23589396476745605,-0.7967271208763123,0.9044971466064453,-1.544377326965332,-0.2711178660392761,0.6915148496627808
9.868600845336914,0.23365041613578796,-0.7974452376365662,0.9030414819717407,-1.5429701805114746,-0.27280449867248535,0.6937321424484253
9.888729572296143,0.2313687801361084,-0.7982068061828613,0.9015519618988037,-1.5415230989456177,-0.274465948343277,0.6959627866744995
9.908843040466309,0.2290593385696411,-0.7989646196365356,0.9000276327133179,-1.5400278568267822,-0.27612707018852234,0.6982308626174927
9.928924322128296,0.2279052436351776,-0.7993539571762085,0.899254322052002,-1.5392718315124512,-0.27694952487945557,0.6993725895881653
9.949072360992432,0.2255898267030716,-0.8000733852386475,0.8977595567703247,-1.5377647876739502,-0.27865028381347656,0.7016875147819519
9.96911072731018,0.22329038381576538,-0.8007950782775879,0.8963178992271423,-1.536287784576416,-0.28036972880363464,0.7039952874183655
9.989190340042114,0.22213900089263916,-0.8011298775672913,0.8956258893013,-1.535566806793213,-0.2812574505805969,0.705143928527832
10.009330749511719,0.21984031796455383,-0.8017989993095398,0.8942813873291016,-1.5341377258300781,-0.28304120898246765,0.707420289516449
10.029428243637085,0.21748590469360352,-0.8024244904518127,0.8929377794265747,-1.5326440334320068,-0.28486567735671997,0.7097449898719788
10.049576759338379,0.21507610380649567,-0.8030495643615723,0.8915671706199646,-1.5310707092285156,-0.28671056032180786,0.7121416926383972
10.069672346115112,0.2138708531856537,-0.803380012512207,0.8908789157867432,-1.5302796363830566,-0.2876303195953369,0.7133524417877197
10.089733839035034,0.21145197749137878,-0.8040041923522949,0.889528751373291,-1.5287163257598877,-0.2895134389400482,0.7157934308052063
10.10991883277893,0.21024444699287415,-0.8043057918548584,0.8888459205627441,-1.5279452800750732,-0.29046326875686646,0.7170164585113525
10.13003659248352,0.20781207084655762,-0.8050079941749573,0.887334942817688,-1.5263867378234863,-0.29228827357292175,0.7194502353668213
10.150146484375,0.2065727412700653,-0.8054059743881226,0.8864953517913818,-1.525575876235962,-0.2931655943393707,0.7206740379333496
10.170226335525513,0.204041987657547,-0.8061606287956238,0.8848239183425903,-1.5239403247833252,-0.29498282074928284,0.7231536507606506
10.190310716629028,0.201470285654068,-0.8068559169769287,0.883216142654419,-1.5222878456115723,-0.29687732458114624,0.7256673574447632
10.210431575775146,0.19891074299812317,-0.8074852824211121,0.88177889585495,-1.520691156387329,-0.29886162281036377,0.7281831502914429
10.230511665344238,0.19763436913490295,-0.8077638149261475,0.8811526894569397,-1.5199172496795654,-0.2999010384082794,0.7294447422027588
10.25058889389038,0.1951046884059906,-0.8083363771438599,0.8799490928649902,-1.5183777809143066,-0.30197572708129883,0.7319738864898682
10.27068567276001,0.1926066279411316,-0.8089103698730469,0.8787720203399658,-1.516856074333191,-0.304046630859375,0.7345030307769775
10.291256189346313,0.1901090443134308,-0.8094780445098877,0.8775626420974731,-1.5153390169143677,-0.3061125874519348,0.7370221614837646
10.31139087677002,0.18883417546749115,-0.809729814529419,0.8769641518592834,-1.5145783424377441,-0.3071778416633606,0.7382849454879761
10.33180856704712,0.18621477484703064,-0.8102502822875977,0.8757184743881226,-1.5130348205566406,-0.30932730436325073,0.7408173084259033
10.351771831512451,0.18349963426589966,-0.8107439875602722,0.8744392991065979,-1.5114505290985107,-0.31153276562690735,0.7433991432189941
10.371846675872803,0.18213294446468353,-0.8109729290008545,0.8737900257110596,-1.5106685161590576,-0.31265193223953247,0.7447003126144409
10.391911745071411,0.17936456203460693,-0.8112865686416626,0.8725345134735107,-1.5091054439544678,-0.31499096751213074,0.7473529577255249
10.411984205245972,0.1765957623720169,-0.8115158081054688,0.8713648319244385,-1.50754714012146,-0.31740111112594604,0.7500398755073547
10.43212890625,0.17383748292922974,-0.8117350339889526,0.8703039884567261,-1.5059683322906494,-0.3198446035385132,0.7527515888214111
10.452218532562256,0.1724705845117569,-0.8118200302124023,0.8698397874832153,-1.5051863193511963,-0.3210977017879486,0.7541143894195557
10.472285270690918,0.1698046326637268,-0.8120619058609009,0.8688899874687195,-1.5036571025848389,-0.3235391080379486,0.7567963600158691
10.492343425750732,0.16717636585235596,-0.8123712539672852,0.8678983449935913,-1.5021381378173828,-0.3259102404117584,0.7594533562660217
10.51248550415039,0.1658739447593689,-0.8125920295715332,0.8673415184020996,-1.5013700723648071,-0.3270326852798462,0.7607693672180176
10.532546281814575,0.16322767734527588,-0.8129611015319824,0.866249680519104,-1.499817132949829,-0.3293274939060211,0.7634201049804688
10.552595615386963,0.16057327389717102,-0.8133184909820557,0.8651353120803833,-1.4982807636260986,-0.33162033557891846,0.7660508751869202
10.57272481918335,0.15924231708049774,-0.8134734034538269,0.8645963072776794,-1.4975354671478271,-0.33278611302375793,0.7673537135124207
10.592809438705444,0.15657038986682892,-0.8139041662216187,0.8634216785430908,-1.4960087537765503,-0.3350136876106262,0.7699617147445679
10.612879514694214,0.15386047959327698,-0.8143717646598816,0.8621894717216492,-1.4944241046905518,-0.3372095823287964,0.7726081609725952
10.632928371429443,0.1510920375585556,-0.8148112297058105,0.8609195947647095,-1.4927599430084229,-0.33942878246307373,0.775318443775177
10.653014659881592,0.1497107446193695,-0.8150301575660706,0.8603057861328125,-1.4919335842132568,-0.3405517339706421,0.7766684293746948
10.673146486282349,0.14693939685821533,-0.8153786659240723,0.8591829538345337,-1.4903242588043213,-0.342890202999115,0.7793518304824829
10.693151712417603,0.14415596425533295,-0.8156901597976685,0.8581469058990479,-1.4887183904647827,-0.34527674317359924,0.7820305824279785
10.713407039642334,0.14274638891220093,-0.815803050994873,0.857665479183197,-1.4879127740859985,-0.34651079773902893,0.7833811044692993
10.73349118232727,0.13986891508102417,-0.8160831928253174,0.8566533327102661,-1.4862457513809204,-0.3489677608013153,0.7861219644546509
10.753556251525879,0.13691727817058563,-0.8163108229637146,0.8556970953941345,-1.4846094846725464,-0.35154110193252563,0.7888850569725037
10.773643016815186,0.13390830159187317,-0.8164751529693604,0.8547946214675903,-1.4829938411712646,-0.35420727729797363,0.7916810512542725
10.793757438659668,0.1324109137058258,-0.8165633082389832,0.8543798923492432,-1.4821960926055908,-0.3555493950843811,0.7930843234062195
10.81388807296753,0.12941449880599976,-0.8166035413742065,0.8536920547485352,-1.4806309938430786,-0.35834836959838867,0.7959088683128357
10.83385682106018,0.1264408826828003,-0.816626250743866,0.8530764579772949,-1.4790863990783691,-0.36117273569107056,0.7987262010574341
10.853931665420532,0.12495771050453186,-0.8165978193283081,0.8527919054031372,-1.478332281112671,-0.3626120686531067,0.8001260757446289
10.873998403549194,0.12201742082834244,-0.8166165351867676,0.8521728515625,-1.4767887592315674,-0.3654114007949829,0.8029086589813232
10.894170045852661,0.11909843981266022,-0.8166059255599976,0.8516086339950562,-1.4752485752105713,-0.36822739243507385,0.8056813478469849
10.914369344711304,0.11617650091648102,-0.8166201710700989,0.8510096669197083,-1.4736977815628052,-0.3710164427757263,0.8084620237350464
10.934459209442139,0.11472228169441223,-0.8166640996932983,0.8506690263748169,-1.4729269742965698,-0.37237799167633057,0.8098477125167847
10.954516887664795,0.11177937686443329,-0.8166803121566772,0.849961519241333,-1.471388578414917,-0.3751382827758789,0.8126065135002136
10.974561214447021,0.10881341993808746,-0.8166216611862183,0.8492711782455444,-1.469849705696106,-0.3779403269290924,0.8153314590454102
10.994646787643433,0.10733021795749664,-0.8165847659111023,0.8489408493041992,-1.4690849781036377,-0.37934601306915283,0.816673994064331
11.014719009399414,0.10438238829374313,-0.8166074752807617,0.8482841849327087,-1.467536449432373,-0.3820883631706238,0.8193470239639282
11.034765481948853,0.10144751518964767,-0.8166541457176208,0.8476969599723816,-1.4660115242004395,-0.38482731580734253,0.822002649307251
11.054983139038086,0.0984644740819931,-0.8166031837463379,0.847171425819397,-1.4644701480865479,-0.38763755559921265,0.8246810436248779
11.075065612792969,0.09695547819137573,-0.8165807723999023,0.8468772768974304,-1.463673710823059,-0.38903144001960754,0.8260353803634644
11.095209836959839,0.09390649199485779,-0.8165586590766907,0.8462395668029785,-1.4620394706726074,-0.3918023705482483,0.8287805318832397
11.115206956863403,0.09085547924041748,-0.81663978099823,0.8455637693405151,-1.4603971242904663,-0.3945208489894867,0.831535816192627
11.135296106338501,0.0893288403749466,-0.8166745901107788,0.8452675938606262,-1.4595856666564941,-0.39590001106262207,0.8329111933708191
11.155361413955688,0.08627071976661682,-0.8167793154716492,0.844672679901123,-1.4579451084136963,-0.39864057302474976,0.8356504440307617
11.175408124923706,0.08320557326078415,-0.8168753385543823,0.8440474271774292,-1.4562861919403076,-0.40138083696365356,0.8383866548538208
11.195570230484009,0.08012464642524719,-0.8170026540756226,0.843348503112793,-1.4546229839324951,-0.40409207344055176,0.8411104679107666
11.215738773345947,0.07858003675937653,-0.8171364068984985,0.8429319262504578,-1.4537689685821533,-0.40539175271987915,0.8424780964851379
11.2357759475708,0.07546289265155792,-0.8173527717590332,0.8421598672866821,-1.4520604610443115,-0.4080469012260437,0.8452094793319702
11.255839824676514,0.07233385741710663,-0.8175655603408813,0.8414022922515869,-1.4503636360168457,-0.4107202887535095,0.8479072451591492
11.275904893875122,0.07076866924762726,-0.8176330327987671,0.8410557508468628,-1.4495375156402588,-0.41208845376968384,0.8492246866226196
11.296045064926147,0.06763577461242676,-0.8178576231002808,0.8402805328369141,-1.4478639364242554,-0.41474127769470215,0.8518203496932983
11.316065549850464,0.06449387967586517,-0.8181023597717285,0.8394687175750732,-1.446164608001709,-0.417350709438324,0.8543714284896851
11.336164474487305,0.061354294419288635,-0.8183691501617432,0.8387007713317871,-1.4444410800933838,-0.41993290185928345,0.8569091558456421
11.356306552886963,0.05980328470468521,-0.818530261516571,0.8383582830429077,-1.4435945749282837,-0.421212375164032,0.8581618666648865
11.376358270645142,0.05672191455960274,-0.818835973739624,0.8377885818481445,-1.441948413848877,-0.4237947463989258,0.8606423139572144
11.396418809890747,0.05365467071533203,-0.8190968036651611,0.8373085856437683,-1.440387487411499,-0.4264119267463684,0.8630751371383667
11.416655778884888,0.052107129245996475,-0.819190263748169,0.8370542526245117,-1.4396194219589233,-0.4277297258377075,0.864277720451355
11.436810970306396,0.04897339642047882,-0.8193506598472595,0.8365045785903931,-1.4380522966384888,-0.43035194277763367,0.8666877150535583
11.45688772201538,0.045808907598257065,-0.8194997310638428,0.8359090089797974,-1.4364538192749023,-0.4329545497894287,0.8690997362136841
11.476911783218384,0.042625658214092255,-0.8195891380310059,0.8354603052139282,-1.434833288192749,-0.43562543392181396,0.8715231418609619
11.49698805809021,0.0410437136888504,-0.8196353316307068,0.8352735042572021,-1.4340306520462036,-0.43696802854537964,0.872721791267395
11.517085075378418,0.037874478846788406,-0.8197124004364014,0.8349645137786865,-1.4324010610580444,-0.43966010212898254,0.8751157522201538
11.537139415740967,0.03473340719938278,-0.8198380470275879,0.8345707654953003,-1.4307849407196045,-0.4422777593135834,0.8774700164794922
11.557214975357056,0.03315884992480278,-0.8199013471603394,0.8343570232391357,-1.4299694299697876,-0.4435722231864929,0.8786436319351196
11.577272891998291,0.030011063441634178,-0.8200643062591553,0.833868145942688,-1.4283109903335571,-0.44610923528671265,0.8809822797775269
11.597379446029663,0.02685091644525528,-0.8202561736106873,0.8333574533462524,-1.4265949726104736,-0.4486074149608612,0.8833386898040771
11.61767840385437,0.02528669685125351,-0.8203704357147217,0.833088219165802,-1.4257442951202393,-0.44983792304992676,0.8845033645629883
11.637745141983032,0.022162459790706635,-0.8205889463424683,0.8325617909431458,-1.42406165599823,-0.45229920744895935,0.8868185877799988
11.657800674438477,0.01904500462114811,-0.820833683013916,0.832000732421875,-1.4223934412002563,-0.454720675945282,0.8890978097915649
11.678153276443481,0.015897372737526894,-0.821080207824707,0.8314535021781921,-1.420701503753662,-0.45713454484939575,0.8913723230361938
11.698228597640991,0.014326605945825577,-0.8212113976478577,0.831196665763855,-1.4198654890060425,-0.45833998918533325,0.8924962282180786
11.718370199203491,0.011175103485584259,-0.8213907480239868,0.8308221101760864,-1.4182279109954834,-0.4608292579650879,0.8947265148162842
11.738470792770386,0.008012482896447182,-0.8215327262878418,0.8304933309555054,-1.416576623916626,-0.4633305072784424,0.8969568014144897
11.758610486984253,0.006431818474084139,-0.8215799331665039,0.8303238153457642,-1.415745496749878,-0.4645821452140808,0.8980683088302612
11.77867078781128,0.0033141272142529488,-0.8216801881790161,0.8299228549003601,-1.4140900373458862,-0.46703147888183594,0.9002574682235718
11.798724174499512,0.00026124209398403764,-0.8217993378639221,0.8294928073883057,-1.4124726057052612,-0.4694211781024933,0.9023678302764893
11.8188955783844,-0.0012408801121637225,-0.8219126462936401,0.829243540763855,-1.4116648435592651,-0.47055745124816895,0.9034025073051453
11.838958263397217,-0.004213170148432255,-0.822235643863678,0.828711748123169,-1.4100064039230347,-0.4727228879928589,0.9054722785949707
11.859054803848267,-0.007145433686673641,-0.82265305519104,0.828142523765564,-1.4083168506622314,-0.4747920036315918,0.9075338244438171
11.879091024398804,-0.008611607365310192,-0.822821855545044,0.8278868794441223,-1.4074817895889282,-0.47585204243659973,0.9085503816604614
11.89914846420288,-0.019962314516305923,-0.8227599263191223,0.8342992067337036,-1.3654006719589233,-0.4824245274066925,0.9593849182128906
11.919238328933716,-0.03954880312085152,-0.8222454786300659,0.8475031852722168,-1.2839709520339966,-0.49337947368621826,1.057538628578186
11.939292669296265,-0.0588865652680397,-0.8216641545295715,0.8605651259422302,-1.203926682472229,-0.5042147636413574,1.1536723375320435
11.959374189376831,-0.06842991709709167,-0.8214012980461121,0.8670169115066528,-1.1644880771636963,-0.5095522999763489,1.2009574174880981
11.979437112808228,-0.08726449310779572,-0.8208520412445068,0.8798794746398926,-1.086729884147644,-0.5201252698898315,1.2940058708190918
11.999631643295288,-0.10572758316993713,-0.8204905986785889,0.8924596309661865,-1.0105552673339844,-0.5304098725318909,1.3850414752960205
12.019666194915771,-0.11481468379497528,-0.8203729391098022,0.89864182472229,-0.973063051700592,-0.53544020652771,1.4298056364059448
12.03978705406189,-0.13272038102149963,-0.8203598260879517,0.910678505897522,-0.8992652893066406,-0.545220673084259,1.5178451538085938
12.059802055358887,-0.15028871595859528,-0.8205779790878296,0.9223735332489014,-0.8269914388656616,-0.5547032356262207,1.6039390563964844
12.079877614974976,-0.15897509455680847,-0.820762574672699,0.9280904531478882,-0.7913858890533447,-0.5593547821044922,1.6462844610214233
12.099948167800903,-0.1761627346277237,-0.8211699724197388,0.9393562078475952,-0.7211918830871582,-0.5685397982597351,1.7295838594436646
12.12000322341919,-0.19313254952430725,-0.821627140045166,0.9503496885299683,-0.6522542238235474,-0.5775366425514221,1.811126947402954
12.140077590942383,-0.20152568817138672,-0.8218716382980347,0.9557548761367798,-0.6182489991188049,-0.581962525844574,1.8512489795684814
12.160148859024048,-0.2180955559015274,-0.8224130868911743,0.9663679599761963,-0.5511991381645203,-0.5906469821929932,1.930179476737976
12.180251598358154,-0.23437991738319397,-0.8229933977127075,0.9767568111419678,-0.4854389429092407,-0.5991429686546326,2.007338285446167
12.200358390808105,-0.24242855608463287,-0.8232879638671875,0.9818750619888306,-0.45302391052246094,-0.6033321022987366,2.045269012451172
12.220504760742188,-0.258364200592041,-0.8238793015480042,0.9919622540473938,-0.3890823721885681,-0.6116079092025757,2.119872808456421
12.240514039993286,-0.27408504486083984,-0.8244568705558777,1.0018609762191772,-0.326290488243103,-0.619747519493103,2.1928517818450928
12.260670900344849,-0.2895878255367279,-0.8250033259391785,1.0115771293640137,-0.2646268904209137,-0.6277551651000977,2.264232635498047
12.280771017074585,-0.2972586154937744,-0.8252502679824829,1.0163767337799072,-0.23420795798301697,-0.6317168474197388,2.2993321418762207
12.300860404968262,-0.3124315142631531,-0.8257296681404114,1.0258241891860962,-0.17420852184295654,-0.6395311951637268,2.368361234664917
12.320901155471802,-0.32736116647720337,-0.8262163400650024,1.035043478012085,-0.1153268963098526,-0.6471670866012573,2.4358675479888916
12.340978622436523,-0.3347208499908447,-0.8264803886413574,1.0395525693893433,-0.08631762862205505,-0.6508979797363281,2.46905517578125
12.361143827438354,-0.3492380380630493,-0.8270633220672607,1.0483399629592896,-0.02915017493069172,-0.6581750512123108,2.534287929534912
12.381200790405273,-0.3635157644748688,-0.8276842832565308,1.056863784790039,0.026939252391457558,-0.6652514934539795,2.598038911819458
12.401247501373291,-0.3705783486366272,-0.828001856803894,1.0610390901565552,0.054596297442913055,-0.6687334775924683,2.6293671131134033
12.421329021453857,-0.3845641314983368,-0.8285914659500122,1.0693002939224243,0.10917140543460846,-0.6756505966186523,2.690969467163086
12.441385984420776,-0.39836955070495605,-0.8291394710540771,1.0774133205413818,0.1627546101808548,-0.6824955940246582,2.751169204711914
12.46153473854065,-0.40520763397216797,-0.8294035196304321,1.0814036130905151,0.18917497992515564,-0.685889720916748,2.7807493209838867
12.48156189918518,-0.4187496304512024,-0.8299228549003601,1.0892354249954224,0.24127456545829773,-0.6926062107086182,2.838883638381958
12.501799821853638,-0.4321136474609375,-0.8304336071014404,1.0968694686889648,0.2924051582813263,-0.6992222666740417,2.89567494392395
12.521763324737549,-0.44531065225601196,-0.8309242725372314,1.1043169498443604,0.3426119089126587,-0.7057353258132935,2.9511759281158447
12.541846752166748,-0.45184841752052307,-0.8311548829078674,1.1079745292663574,0.3673761487007141,-0.7089543342590332,2.978450298309326
12.562013626098633,-0.46481388807296753,-0.8315209150314331,1.1152122020721436,0.41625404357910156,-0.7153635025024414,3.0320472717285156
12.582015752792358,-0.47761958837509155,-0.8317934274673462,1.1223323345184326,0.4642599821090698,-0.7217165231704712,3.0844080448150635
12.602090120315552,-0.48396074771881104,-0.8319119811058044,1.1258336305618286,0.48793351650238037,-0.7248603105545044,3.110135793685913
12.622182130813599,-0.4965062141418457,-0.8321784734725952,1.1326712369918823,0.5346075296401978,-0.7310444712638855,3.14
12.64224362373352,-0.5088732242584229,-0.8324570059776306,1.1393072605133057,0.5803890228271484,-0.7371105551719666,3.14
12.662363767623901,-0.5210546851158142,-0.8327219486236572,1.1457748413085938,0.6252865791320801,-0.7430723905563354,3.14
12.682446479797363,-0.527073860168457,-0.8328521251678467,1.1489441394805908,0.6473997235298157,-0.7460113167762756,3.14
12.702667474746704,-0.5389889478683472,-0.8330540657043457,1.155202031135559,0.6910035610198975,-0.7518412470817566,3.14
12.722663640975952,-0.5507687926292419,-0.833154559135437,1.1613515615463257,0.7338320016860962,-0.757622241973877,3.14
12.742759943008423,-0.5566044449806213,-0.8331791162490845,1.1643787622451782,0.7549547553062439,-0.7604872584342957,3.14
12.762799263000488,-0.5681477189064026,-0.833235502243042,1.1702880859375,0.7966011762619019,-0.7661186456680298,3.14
12.782927751541138,-0.5794820189476013,-0.8333472013473511,1.1759706735610962,0.83741295337677,-0.7715697884559631,3.14
12.802970886230469,-0.5906194448471069,-0.8334975242614746,1.18143892288208,0.8774247765541077,-0.7768580317497253,3.14
12.82306170463562,-0.5961177945137024,-0.8335826396942139,1.1841013431549072,0.8971409797668457,-0.7794491052627563,3.14
12.843106746673584,-0.6069812774658203,-0.8337218761444092,1.1893409490585327,0.9360235929489136,-0.784564197063446,3.14
12.863185405731201,-0.6176744103431702,-0.8337544798851013,1.1945255994796753,0.9741944074630737,-0.7896325588226318,3.14
12.883318662643433,-0.6229600310325623,-0.8337444067001343,1.1970858573913574,0.9930046796798706,-0.7921479940414429,3.14
12.903338193893433,-0.6334363222122192,-0.8336416482925415,1.2021812200546265,1.0300967693328857,-0.7971906661987305,3.14
12.923407793045044,-0.6437937021255493,-0.8334751725196838,1.2071956396102905,1.0665061473846436,-0.8022081851959229,3.14
12.943491458892822,-0.6540013551712036,-0.8332766890525818,1.2121158838272095,1.1022393703460693,-0.807152271270752,3.14
12.963576555252075,-0.659032940864563,-0.8332180380821228,1.2144980430603027,1.1198275089263916,-0.8095599412918091,3.14
12.983646392822266,-0.6689438819885254,-0.83310866355896,1.21915602684021,1.1544548273086548,-0.8142762184143066,3.14
13.003708362579346,-0.6787036657333374,-0.8329207897186279,1.223719835281372,1.1883935928344727,-0.8189347386360168,3.14
13.023924589157104,-0.6835233569145203,-0.8328135013580322,1.225961446762085,1.20509672164917,-0.8212353587150574,3.14
13.04398250579834,-0.6930354833602905,-0.8325945138931274,1.2303601503372192,1.2379887104034424,-0.8257554173469543,3.14
13.064045190811157,-0.7023447751998901,-0.8324408531188965,1.2346076965332031,1.2701812982559204,-0.8301159739494324,3.14
13.084180355072021,-0.7114744186401367,-0.8322961330413818,1.2387372255325317,1.3017144203186035,-0.834368109703064,3.14
13.104318857192993,-0.715978741645813,-0.8322373628616333,1.2407395839691162,1.317219614982605,-0.8364565372467041,3.14
13.124363899230957,-0.7248597145080566,-0.8321375846862793,1.2446187734603882,1.3477226495742798,-0.8405419588088989,3.14
13.144453048706055,-0.7335883975028992,-0.832060694694519,1.248349666595459,1.3775852918624878,-0.8445248007774353,3.14
13.16450548171997,-0.7379059195518494,-0.8319985866546631,1.2502011060714722,1.3923035860061646,-0.8465083837509155,3.14
13.184640645980835,-0.7464727163314819,-0.8317078351974487,1.2539589405059814,1.4213488101959229,-0.8505218029022217,3.14
13.204654216766357,-0.7549079060554504,-0.831301212310791,1.257691502571106,1.4498381614685059,-0.8544913530349731,3.14
13.22472357749939,-0.7590656280517578,-0.8310807943344116,1.2595303058624268,1.4638662338256836,-0.8564404249191284,3.14
13.24478816986084,-0.7672147750854492,-0.8307685852050781,1.2630548477172852,1.4913976192474365,-0.8601870536804199,3.14
13.264854192733765,-0.7752195596694946,-0.8305613994598389,1.2663919925689697,1.5182887315750122,-0.8637953996658325,3.14
13.284905433654785,-0.7831270694732666,-0.8304310441017151,1.2695350646972656,1.5446081161499023,-0.867296576499939,3.14
13.30508279800415,-0.7870514988899231,-0.8303653001785278,1.2710692882537842,1.5575900077819824,-0.8690351247787476,3.14
13.32517123222351,-0.7947826981544495,-0.83022141456604,1.2741020917892456,1.5831259489059448,-0.872484564781189,3.14
13.34520149230957,-0.802314043045044,-0.83005690574646,1.2770957946777344,1.6080262660980225,-0.8758577108383179,3.14
13.365426063537598,-0.8096700310707092,-0.829818069934845,1.2800378799438477,1.632349967956543,-0.8791306018829346,3.14
13.385577201843262,-0.8133081793785095,-0.8296396136283875,1.2815184593200684,1.6443331241607666,-0.8807638883590698,3.14
13.40554666519165,-0.8205200433731079,-0.8292297124862671,1.284441590309143,1.6679610013961792,-0.884001612663269,3.14
13.425716876983643,-0.8275718092918396,-0.82871013879776,1.287394404411316,1.6909925937652588,-0.8872312307357788,3.14
13.445886611938477,-0.8310155868530273,-0.8284635543823242,1.2888398170471191,1.7022432088851929,-0.8887971639633179,3.14
13.466041803359985,-0.8377520442008972,-0.8279781341552734,1.2916978597640991,1.7242562770843506,-0.8918429017066956,3.14
13.486115455627441,-0.8443372249603271,-0.8276390433311462,1.294393539428711,1.745719313621521,-0.8947057127952576,3.14
13.506196975708008,-0.8475791215896606,-0.8275153636932373,1.2956812381744385,1.7562603950500488,-0.8960768580436707,3.14
13.526387453079224,-0.8539563417434692,-0.8273175954818726,1.2981476783752441,1.7769489288330078,-0.8987200856208801,3.14
13.54639220237732,-0.8601599335670471,-0.8271750211715698,1.3004720211029053,1.7970688343048096,-0.9012247323989868,3.14
13.566633701324463,-0.8632022738456726,-0.8271070718765259,1.3016021251678467,1.806943655014038,-0.9024365544319153,3.14
13.586671590805054,-0.8692110776901245,-0.8269666433334351,1.3038371801376343,1.8263719081878662,-0.9048329591751099,3.14
13.606682300567627,-0.8751201629638672,-0.8268346786499023,1.3060420751571655,1.8453285694122314,-0.9072166681289673,3.14
13.626826286315918,-0.8808828592300415,-0.826749324798584,1.3081351518630981,1.8637151718139648,-0.9094968438148499,3.14
13.646932601928711,-0.8837029933929443,-0.8267204761505127,1.3091228008270264,1.8727151155471802,-0.9105682373046875,3.14
13.667073488235474,-0.8892532587051392,-0.8266669511795044,1.3109946250915527,1.8904227018356323,-0.9125871658325195,3.14
13.687093019485474,-0.894677460193634,-0.82659512758255,1.3127989768981934,1.907710075378418,-0.9145172238349915,3.14
13.707422971725464,-0.8973269462585449,-0.8265445232391357,1.3137075901031494,1.9161633253097534,-0.9154679775238037,3.14
13.727554082870483,-0.902509331703186,-0.8263821601867676,1.3155393600463867,1.9327043294906616,-0.9173308610916138,3.14
13.747612953186035,-0.9075420498847961,-0.8260903358459473,1.3174538612365723,1.9488022327423096,-0.9191739559173584,3.14
13.767694473266602,-0.9124004244804382,-0.8258148431777954,1.319339394569397,1.9643759727478027,-0.9209117889404297,3.14
13.787747383117676,-0.9147770404815674,-0.825703501701355,1.3202574253082275,1.9719711542129517,-0.9217475652694702,3.14
13.807964563369751,-0.9194693565368652,-0.8256087303161621,1.3219777345657349,1.986843466758728,-0.9233418703079224,3.14
13.827940225601196,-0.9241054058074951,-0.8256157636642456,1.3235366344451904,2.001352310180664,-0.9248319268226624,3.14
13.848034858703613,-0.928598165512085,-0.8257262706756592,1.3248920440673828,2.015427350997925,-0.9261106252670288,3.14
13.868130445480347,-0.9307745695114136,-0.8257943391799927,1.3255128860473633,2.022282123565674,-0.9266738891601562,3.14
13.888177633285522,-0.935011625289917,-0.8259017467498779,1.3267087936401367,2.0356645584106445,-0.9277108907699585,3.14
13.908320903778076,-0.9391165971755981,-0.8259789943695068,1.32785964012146,2.0485897064208984,-0.9286535978317261,3.14
13.928365468978882,-0.9411005973815918,-0.826046884059906,1.3284109830856323,2.054863214492798,-0.9290691614151001,3.14
13.948426008224487,-0.9449381232261658,-0.8262091875076294,1.329525113105774,2.0670669078826904,-0.9298409223556519,3.14
13.968532800674438,-0.9486364126205444,-0.8263833522796631,1.3307042121887207,2.0788960456848145,-0.9305992126464844,3.14
13.988560199737549,-0.9522461891174316,-0.8265532851219177,1.331904649734497,2.0903754234313965,-0.9313663244247437,3.14
14.00865650177002,-0.9540094137191772,-0.8266594409942627,1.3324593305587769,2.095968723297119,-0.931699275970459,3.14
14.028922080993652,-0.9574358463287354,-0.8268526196479797,1.3335082530975342,2.106837749481201,-0.93226557970047,3.14
14.048974514007568,-0.9607312679290771,-0.8270111083984375,1.334488868713379,2.1173057556152344,-0.9327023029327393,3.14
14.069108009338379,-0.9623313546180725,-0.8270757794380188,1.3349734544754028,2.1223907470703125,-0.9328892230987549,3.14
14.089104175567627,-0.9653894305229187,-0.8272228240966797,1.3359358310699463,2.132218360900879,-0.9331763982772827,3.14
14.10916781425476,-0.9683122634887695,-0.8272781372070312,1.3370156288146973,2.141645908355713,-0.9334790706634521,3.14
14.12987470626831,-0.9711386561393738,-0.8273273706436157,1.3381338119506836,2.1507105827331543,-0.9337822198867798,3.14
14.14995813369751,-0.972519040107727,-0.8273886442184448,1.3386578559875488,2.1551239490509033,-0.933894157409668,3.14
14.17002272605896,-0.9751832485198975,-0.8276887536048889,1.339490294456482,2.163701295852661,-0.9338983297348022,3.14
14.190071821212769,-0.9776959419250488,-0.8281538486480713,1.340085506439209,2.17192006111145,-0.9336404800415039,3.14
14.21018362045288,-0.9788955450057983,-0.8284529447555542,1.3402881622314453,2.1758620738983154,-0.9334185719490051,3.14
14.230265617370605,-0.9811339974403381,-0.8291414976119995,1.3406121730804443,2.18332576751709,-0.9328492879867554,3.14
14.250336408615112,-0.9832522869110107,-0.8297668695449829,1.3410062789916992,2.190345048904419,-0.9322818517684937,3.14
14.270483255386353,-0.9842793941497803,-0.8300424814224243,1.3412433862686157,2.1937332153320312,-0.9320093393325806,3.14
14.290578603744507,-0.9863274693489075,-0.8303748965263367,1.3418684005737305,2.200394630432129,-0.9315438270568848,3.14
14.310646057128906,-0.988271951675415,-0.8306413292884827,1.342519760131836,2.20682692527771,-0.931006669998169,3.14
14.33074402809143,-0.990064263343811,-0.8309206366539001,1.3431503772735596,2.2129030227661133,-0.9303522706031799,3.14
14.350970029830933,-0.9909061789512634,-0.8311084508895874,1.3434367179870605,2.2158117294311523,-0.929975688457489,3.14
14.37093448638916,-0.9924672842025757,-0.831624448299408,1.3439090251922607,2.2213048934936523,-0.9290855526924133,3.14
14.391005516052246,-0.9939101934432983,-0.8323225975036621,1.344260334968567,2.226419448852539,-0.9280670285224915,3.14
14.411113262176514,-0.9952239990234375,-0.8331461548805237,1.3445090055465698,2.2311367988586426,-0.9269239902496338,3.14
14.431201219558716,-0.9958455562591553,-0.8335849642753601,1.3445734977722168,2.2333836555480957,-0.9262843132019043,3.14
14.451427698135376,-0.9969892501831055,-0.8344459533691406,1.3446869850158691,2.237703561782837,-0.9249192476272583,3.14
14.471396923065186,-0.997986912727356,-0.8352911472320557,1.344778060913086,2.241692066192627,-0.9234650135040283,3.14
14.491585493087769,-0.998432993888855,-0.8356997966766357,1.3448240756988525,2.243546485900879,-0.9227161407470703,3.14
14.511594772338867,-0.9992594718933105,-0.8365339040756226,1.344875693321228,2.2469661235809326,-0.9211769104003906,3.14
14.53175687789917,-0.9999936819076538,-0.8374111652374268,1.3448922634124756,2.2500548362731934,-0.9195520877838135,3.14
14.551751375198364,-1.0003178119659424,-0.837898850440979,1.3448665142059326,2.251467704772949,-0.9186835289001465,3.14
14.571845293045044,-1.0008313655853271,-0.8389325737953186,1.344789743423462,2.2540414333343506,-0.9168301820755005,3.14
14.591915845870972,-1.001192569732666,-0.8400323390960693,1.3446003198623657,2.2562735080718994,-0.9148005247116089,3.14
14.61196231842041,-1.0013443231582642,-0.8405587673187256,1.3445101976394653,2.257307529449463,-0.913777232170105,3.14
14.63207745552063,-1.0016437768936157,-0.8415254354476929,1.34431791305542,2.259221076965332,-0.9117134213447571,3.14
14.652131795883179,-1.0018726587295532,-0.8424016237258911,1.3442078828811646,2.260920763015747,-0.9096484184265137,3.14
14.672488927841187,-1.0019209384918213,-0.843316912651062,1.344123363494873,2.2622861862182617,-0.907462477684021,3.14
14.692582607269287,-1.0018516778945923,-0.8438187837600708,1.3440598249435425,2.2627921104431152,-0.9062924385070801,3.14
14.712679147720337,-1.0015945434570312,-0.8448763489723206,1.3439096212387085,2.263495683670044,-0.9038764238357544,3.14
14.732731580734253,-1.0013096332550049,-0.8459829092025757,1.3436826467514038,2.263949394226074,-0.9014015793800354,3.14
14.752817392349243,-1.0011625289916992,-0.8465590476989746,1.3435487747192383,2.2641208171844482,-0.9001470804214478,3.14
14.77291202545166,-1.0008344650268555,-0.847795844078064,1.3431949615478516,2.2643518447875977,-0.8975481986999512,3.14
14.793031215667725,-1.0003646612167358,-0.8491216897964478,1.342783808708191,2.264326810836792,-0.8948190212249756,3.14
14.813045024871826,-1.0000874996185303,-0.8498021364212036,1.3425698280334473,2.2642154693603516,-0.8934303522109985,3.14
14.833149671554565,-0.9994902610778809,-0.8510874509811401,1.3421550989151,2.2638421058654785,-0.8906316161155701,3.14
14.85322642326355,-0.9988962411880493,-0.852293848991394,1.341709852218628,2.2633304595947266,-0.887809157371521,3.14
14.873440742492676,-0.9982699155807495,-0.8533511161804199,1.3413472175598145,2.2626793384552,-0.8850259780883789,3.14
14.893521308898926,-0.9979159832000732,-0.8539235591888428,1.3411344289779663,2.2622361183166504,-0.8835935592651367,3.14
14.91358757019043,-0.9971131682395935,-0.854993462562561,1.340853214263916,2.261171340942383,-0.8807762861251831,3.14
14.933635711669922,-0.9962625503540039,-0.8561145067214966,1.3405464887619019,2.2599902153015137,-0.8778845071792603,3.14
