liuyurong129/humanoid-gym/humanoid/data/target_q_20250522-032257.csv
timestamp,joint_1,joint_2,joint_3,joint_4,joint_5,joint_6
6.151199340820312e-05,0.0,0.0,0.0,0.0,0.0,0.0
0.020146846771240234,0.0,0.0,0.0,0.0,0.0,0.0
0.04022574424743652,0.0,0.0,0.0,0.0,0.0,0.0
0.06044793128967285,0.0,0.0,0.0,0.0,0.0,0.0
0.08045768737792969,0.0,0.0,0.0,0.0,0.0,0.0
0.1005239486694336,-0.18251927196979523,-0.1943916380405426,0.6782224774360657,-0.5265077352523804,0.37982064485549927,-0.5394434928894043
0.12061834335327148,-0.21262186765670776,-0.22831034660339355,0.682106077671051,-0.5357813239097595,0.3889671266078949,-0.5553138256072998
0.14069724082946777,-0.2387540340423584,-0.2676427960395813,0.6857545971870422,-0.5418552160263062,0.3966086804866791,-0.5679221749305725
0.16082072257995605,-0.2511337101459503,-0.2881416380405426,0.686596691608429,-0.5442329049110413,0.3998677730560303,-0.5738006830215454
0.18094086647033691,-0.2759259045124054,-0.3292025625705719,0.6871255040168762,-0.548102080821991,0.40661942958831787,-0.5855551362037659
0.2009754180908203,-0.2879595160484314,-0.34999141097068787,0.6861414313316345,-0.5498756170272827,0.40981611609458923,-0.5913589000701904
0.22105050086975098,-0.31224727630615234,-0.3917202651500702,0.684221625328064,-0.5502579808235168,0.4155729413032532,-0.6027578711509705
0.24111199378967285,-0.3348158597946167,-0.42408713698387146,0.6825312376022339,-0.5486531257629395,0.4193762242794037,-0.6139881610870361
0.26120495796203613,-0.34481650590896606,-0.4370482265949249,0.683495044708252,-0.5466342568397522,0.4208301603794098,-0.618674635887146
0.28127312660217285,-0.36150845885276794,-0.45545142889022827,0.6851359605789185,-0.5417336821556091,0.42228463292121887,-0.6265599131584167
0.3013753890991211,-0.3680158853530884,-0.4617515802383423,0.684934139251709,-0.5394206047058105,0.42230796813964844,-0.6297765374183655
0.3214573860168457,-0.3788783848285675,-0.47613492608070374,0.684469997882843,-0.5342528820037842,0.4229315221309662,-0.6349526643753052
0.34162020683288574,-0.38105666637420654,-0.4824869930744171,0.6825559139251709,-0.5332098007202148,0.4252552390098572,-0.6370031237602234
0.3616824150085449,-0.38553354144096375,-0.49121734499931335,0.6815358400344849,-0.5292530059814453,0.4260215163230896,-0.6409314274787903
0.38175439834594727,-0.38729387521743774,-0.4968090057373047,0.6804351806640625,-0.5278580188751221,0.4280545711517334,-0.6422660946846008
0.40184497833251953,-0.390177845954895,-0.49946221709251404,0.680526614189148,-0.52601557970047,0.4322931468486786,-0.6451074481010437
0.42218923568725586,-0.3921562135219574,-0.5017226338386536,0.6807531714439392,-0.5247421860694885,0.4319612979888916,-0.6463086605072021
0.4422910213470459,-0.39465516805648804,-0.5033086538314819,0.6817159056663513,-0.5231465697288513,0.434411883354187,-0.6484394073486328
0.46245408058166504,-0.39689692854881287,-0.5042004585266113,0.6820563673973083,-0.5205888748168945,0.4359326660633087,-0.6501561999320984
0.48255109786987305,-0.3969326615333557,-0.5064016580581665,0.6813915967941284,-0.5208383798599243,0.43758004903793335,-0.6506448984146118
0.5031001567840576,-0.3990590572357178,-0.5070756673812866,0.6817389726638794,-0.5199181437492371,0.437419056892395,-0.6517930030822754
0.5232393741607666,-0.3994298577308655,-0.5069454312324524,0.6816102266311646,-0.5194420218467712,0.43820762634277344,-0.6523442268371582
0.5435659885406494,-0.39887192845344543,-0.506212055683136,0.6813620924949646,-0.518723726272583,0.4380275011062622,-0.6536097526550293
0.5636565685272217,-0.39935269951820374,-0.5099222660064697,0.6809284687042236,-0.5172929763793945,0.43816691637039185,-0.653892457485199
0.5837106704711914,-0.3979133367538452,-0.5090656280517578,0.6805171370506287,-0.5178258419036865,0.44097813963890076,-0.6548006534576416
0.6038002967834473,-0.39856231212615967,-0.50815349817276,0.6812358498573303,-0.5175299644470215,0.44052737951278687,-0.6553053259849548
0.6239945888519287,-0.4000331461429596,-0.510633647441864,0.681717574596405,-0.5168722867965698,0.44154036045074463,-0.6558614373207092
0.6440849304199219,-0.40007442235946655,-0.5120679140090942,0.6822126507759094,-0.5166313648223877,0.44323527812957764,-0.6560869216918945
0.664142370223999,-0.40102827548980713,-0.5094121098518372,0.683018684387207,-0.5150975584983826,0.44383156299591064,-0.6569503545761108
0.6843075752258301,-0.404424250125885,-0.5088562965393066,0.6852712035179138,-0.5154350399971008,0.44331493973731995,-0.6573317050933838
0.7044172286987305,-0.40595030784606934,-0.5115392804145813,0.6857475638389587,-0.5150712132453918,0.44273754954338074,-0.6573259234428406
0.7245981693267822,-0.40632444620132446,-0.5097692012786865,0.6867632269859314,-0.5151752829551697,0.4433457553386688,-0.6578056216239929
0.744734525680542,-0.4043320119380951,-0.5114242434501648,0.6872146129608154,-0.5155445337295532,0.4453868865966797,-0.6582232713699341
0.7648663520812988,-0.4047921299934387,-0.5091159343719482,0.6884932518005371,-0.5140650868415833,0.4439809024333954,-0.6587740778923035
0.7850360870361328,-0.4030243754386902,-0.5076866149902344,0.6880142092704773,-0.515403151512146,0.44630709290504456,-0.659201443195343
0.8050997257232666,-0.4018721580505371,-0.5098593235015869,0.687076210975647,-0.5168505311012268,0.44885173439979553,-0.6591494083404541
0.8251779079437256,-0.40250706672668457,-0.5116276741027832,0.6876565217971802,-0.5179110765457153,0.4508824050426483,-0.6595179438591003
0.84523606300354,-0.40349280834198,-0.5106051564216614,0.689216673374176,-0.5178844332695007,0.4516308605670929,-0.6598877906799316
0.8653438091278076,-0.4030998945236206,-0.5118908882141113,0.6891179084777832,-0.5181968212127686,0.45337140560150146,-0.6602516174316406
0.885392427444458,-0.4040371775627136,-0.5116576552391052,0.690887987613678,-0.5177130103111267,0.45480820536613464,-0.660768449306488
0.9055657386779785,-0.4061376750469208,-0.5134267807006836,0.6911904215812683,-0.5161039233207703,0.4533516466617584,-0.6607711911201477
0.9256155490875244,-0.4082547724246979,-0.5147653818130493,0.6914339661598206,-0.5144482851028442,0.4515098035335541,-0.661003828048706
0.9456908702850342,-0.40894025564193726,-0.5126966834068298,0.692829430103302,-0.5143376588821411,0.4514859616756439,-0.6613571047782898
0.9658734798431396,-0.4063044786453247,-0.5140451788902283,0.6921132206916809,-0.5156256556510925,0.45251891016960144,-0.6617114543914795
0.9859857559204102,-0.4050575792789459,-0.5153218507766724,0.692612886428833,-0.5152825713157654,0.45150652527809143,-0.6622298359870911
1.0061452388763428,-0.4057711362838745,-0.5161756277084351,0.6927456855773926,-0.5145953893661499,0.45228925347328186,-0.6623350977897644
1.026212215423584,-0.4049533009529114,-0.517126202583313,0.6942128539085388,-0.5132074356079102,0.45417678356170654,-0.6629568338394165
1.0463433265686035,-0.4053427577018738,-0.5187982320785522,0.6949297189712524,-0.5130431652069092,0.4539472460746765,-0.6631235480308533
1.0665225982666016,-0.40465018153190613,-0.5128610134124756,0.6959980726242065,-0.5146394968032837,0.45727047324180603,-0.6638602018356323
1.0866172313690186,-0.40402984619140625,-0.5130620002746582,0.6946485042572021,-0.5157281160354614,0.45979541540145874,-0.6640594601631165
1.1067209243774414,-0.403939813375473,-0.5146273374557495,0.6945397257804871,-0.5162301659584045,0.4612785279750824,-0.6641635298728943
1.1268725395202637,-0.4056588113307953,-0.5166739821434021,0.6940670609474182,-0.5154745578765869,0.46188807487487793,-0.6644226312637329
1.1469252109527588,-0.40703386068344116,-0.5149087905883789,0.694608747959137,-0.5141933560371399,0.4608043432235718,-0.664789617061615
1.1671757698059082,-0.40803173184394836,-0.5136051177978516,0.6951654553413391,-0.5138238072395325,0.4607667922973633,-0.6651866436004639
1.1874566078186035,-0.40597811341285706,-0.5117096304893494,0.6953853964805603,-0.5158227682113647,0.46272042393684387,-0.6656292080879211
1.2076420783996582,-0.40497732162475586,-0.5132817625999451,0.6948610544204712,-0.516870379447937,0.4640781879425049,-0.6656508445739746
1.2276904582977295,-0.4037661552429199,-0.5153672099113464,0.6955314874649048,-0.5169473886489868,0.46417057514190674,-0.6661442518234253
1.2477445602416992,-0.40249788761138916,-0.5145729780197144,0.6957927942276001,-0.5183003544807434,0.46716171503067017,-0.6663986444473267
1.2679526805877686,-0.40148645639419556,-0.514373242855072,0.6968839764595032,-0.5191947817802429,0.4698852598667145,-0.666953444480896
1.2881698608398438,-0.401721328496933,-0.5147155523300171,0.6972110867500305,-0.5174195766448975,0.4705239236354828,-0.6675001382827759
1.3083455562591553,-0.4015813171863556,-0.5170939564704895,0.6971376538276672,-0.5173200964927673,0.47244516015052795,-0.6675618290901184
1.3284173011779785,-0.40465661883354187,-0.5153107047080994,0.6988385319709778,-0.5168256759643555,0.4712944030761719,-0.6681572198867798
1.348611831665039,-0.40576744079589844,-0.5127124786376953,0.699517011642456,-0.516793966293335,0.4710538387298584,-0.6685299873352051
1.3686344623565674,-0.40642380714416504,-0.5108718872070312,0.6995275616645813,-0.5162144899368286,0.47153201699256897,-0.6689767837524414
1.3886828422546387,-0.40689387917518616,-0.5141976475715637,0.6991700530052185,-0.5151993036270142,0.4716256260871887,-0.6689102053642273
1.4087889194488525,-0.40483006834983826,-0.5131033062934875,0.698790431022644,-0.5161800980567932,0.47416630387306213,-0.6692532300949097
1.4288725852966309,-0.40409475564956665,-0.5133641362190247,0.6995398998260498,-0.5178389549255371,0.4774141013622284,-0.669603168964386
1.4490132331848145,-0.40369564294815063,-0.5121926069259644,0.6995508074760437,-0.5190262794494629,0.47862839698791504,-0.6698346138000488
1.4690937995910645,-0.40071648359298706,-0.5091724395751953,0.698584794998169,-0.5215097665786743,0.48342907428741455,-0.6704145669937134
1.489159107208252,-0.40180954337120056,-0.5113822817802429,0.6981605291366577,-0.5202349424362183,0.48416274785995483,-0.6705539226531982
1.5092506408691406,-0.4015112817287445,-0.5129139423370361,0.6985843777656555,-0.5187541246414185,0.48507237434387207,-0.6712146997451782
1.5293302536010742,-0.4031101167201996,-0.5113449692726135,0.7008707523345947,-0.5195528864860535,0.48471271991729736,-0.671811580657959
1.5494039058685303,-0.4054252505302429,-0.5114248394966125,0.7027065753936768,-0.518278181552887,0.48299551010131836,-0.672085702419281
1.5694844722747803,-0.4086986184120178,-0.5140313506126404,0.7057802081108093,-0.5153363347053528,0.48095834255218506,-0.6724458932876587
1.5895631313323975,-0.4093169867992401,-0.517829418182373,0.7064321637153625,-0.5137308239936829,0.4803362786769867,-0.6724511384963989
1.6096577644348145,-0.4071342647075653,-0.5200576186180115,0.7065008282661438,-0.516099214553833,0.48224568367004395,-0.6725399494171143
1.6297175884246826,-0.404805064201355,-0.5187380313873291,0.7055336833000183,-0.5183513164520264,0.48549145460128784,-0.6728115081787109
1.649794101715088,-0.40377748012542725,-0.5169593691825867,0.7048866152763367,-0.5190810561180115,0.4859994351863861,-0.6730841398239136
1.6698789596557617,-0.40308108925819397,-0.5148219466209412,0.7049009799957275,-0.5205675959587097,0.48959457874298096,-0.6736260652542114
1.6899559497833252,-0.40380921959877014,-0.5143291354179382,0.7060394883155823,-0.5206149220466614,0.48878031969070435,-0.6740496158599854
1.710106611251831,-0.40336108207702637,-0.5118277668952942,0.7071212530136108,-0.5215549468994141,0.48978883028030396,-0.6748074889183044
1.7301878929138184,-0.4022952914237976,-0.511385440826416,0.7070603370666504,-0.5224976539611816,0.4918443560600281,-0.6750638484954834
1.7503149509429932,-0.4060017168521881,-0.5158889889717102,0.7093026638031006,-0.5182510018348694,0.4894907474517822,-0.6754758954048157
1.7710134983062744,-0.408681720495224,-0.5173932909965515,0.711471676826477,-0.5167075991630554,0.4875763952732086,-0.6758755445480347
1.7911310195922852,-0.409414678812027,-0.5185608863830566,0.7124794721603394,-0.5162104368209839,0.48780331015586853,-0.6759805679321289
1.8111979961395264,-0.4078977704048157,-0.5174983143806458,0.7136819958686829,-0.5167905688285828,0.48917657136917114,-0.6764209270477295
1.8314478397369385,-0.4071565568447113,-0.5170678496360779,0.7137226462364197,-0.5160772204399109,0.4899487793445587,-0.6766545176506042
1.851445198059082,-0.4059535562992096,-0.5137484073638916,0.7125804424285889,-0.5167819261550903,0.4947967529296875,-0.6770064234733582
1.871509313583374,-0.4049348831176758,-0.5135278105735779,0.7129440903663635,-0.5182866454124451,0.4977007210254669,-0.6771801114082336
1.8915767669677734,-0.4036673903465271,-0.5136606097221375,0.7127646803855896,-0.520404040813446,0.4999760687351227,-0.6775788068771362
1.9116764068603516,-0.4033270478248596,-0.5153905153274536,0.7120634317398071,-0.5214182138442993,0.5012203454971313,-0.6775876879692078
1.9318122863769531,-0.4019435942173004,-0.5115508437156677,0.711845338344574,-0.5234613418579102,0.5045767426490784,-0.6783153414726257
1.9519565105438232,-0.40469223260879517,-0.5131030082702637,0.7123556137084961,-0.5217786431312561,0.5033578872680664,-0.6788052320480347
1.972059726715088,-0.40670648217201233,-0.5122689604759216,0.7136184573173523,-0.5202924013137817,0.5019826889038086,-0.6791748404502869
1.992096185684204,-0.408981055021286,-0.5160757303237915,0.7153207063674927,-0.5182173252105713,0.5010960102081299,-0.6793443560600281
2.0122225284576416,-0.40889519453048706,-0.5183621048927307,0.7159268856048584,-0.518237829208374,0.5012805461883545,-0.6793551445007324
2.032280206680298,-0.40766260027885437,-0.5205661654472351,0.7169485688209534,-0.5181032419204712,0.5023471117019653,-0.6796687841415405
2.0524771213531494,-0.40789487957954407,-0.5200116038322449,0.7179166078567505,-0.5173661708831787,0.5008324384689331,-0.6800751686096191
2.072870969772339,-0.40761253237724304,-0.5213390588760376,0.719893217086792,-0.5167809128761292,0.5009317398071289,-0.6806110143661499
2.0926711559295654,-0.4078056812286377,-0.5228883028030396,0.7211147546768188,-0.5139669179916382,0.5015209317207336,-0.6810638308525085
2.1127736568450928,-0.4075648784637451,-0.5253821611404419,0.7207504510879517,-0.5137934684753418,0.5009305477142334,-0.6811517477035522
2.132835865020752,-0.40674203634262085,-0.5249974727630615,0.7216883897781372,-0.5155876278877258,0.5042428970336914,-0.681519627571106
2.152987003326416,-0.40480461716651917,-0.5218819975852966,0.721350908279419,-0.5170859098434448,0.5072623491287231,-0.6818675398826599
2.1730685234069824,-0.4048084020614624,-0.5231095552444458,0.7210969924926758,-0.5177392959594727,0.5098434090614319,-0.6821039915084839
2.1933014392852783,-0.40650826692581177,-0.5234638452529907,0.7201145887374878,-0.5169394016265869,0.5119737386703491,-0.68231201171875
2.213395833969116,-0.40708017349243164,-0.524070143699646,0.7204203009605408,-0.5168460011482239,0.5121756196022034,-0.6824294328689575
2.233455181121826,-0.4077945053577423,-0.5260848999023438,0.7210823893547058,-0.5172194242477417,0.5120486617088318,-0.6826897263526917
2.2535910606384277,-0.40518248081207275,-0.5238045454025269,0.7196143865585327,-0.5188678503036499,0.5141481757164001,-0.6830053329467773
2.2736728191375732,-0.4043761193752289,-0.5230414867401123,0.7206026911735535,-0.519173800945282,0.5125898718833923,-0.68365478515625
2.2938106060028076,-0.4035305976867676,-0.5214586853981018,0.7200602889060974,-0.5194289088249207,0.5133581161499023,-0.6839002370834351
2.31388783454895,-0.4023086428642273,-0.5233517289161682,0.7199068069458008,-0.5172735452651978,0.5161321759223938,-0.6845448017120361
2.334238052368164,-0.4027217626571655,-0.5225381255149841,0.721342921257019,-0.5176947116851807,0.5185712575912476,-0.685035765171051
2.3543217182159424,-0.40374159812927246,-0.5244004726409912,0.7222855091094971,-0.5177346467971802,0.518589973449707,-0.6851330399513245
2.374387741088867,-0.4052594304084778,-0.5243728160858154,0.7242525219917297,-0.5160424113273621,0.5204135179519653,-0.6856667399406433
2.394472599029541,-0.4068058729171753,-0.5208112001419067,0.7261841893196106,-0.5159709453582764,0.5199827551841736,-0.686088502407074
2.4146230220794678,-0.40864109992980957,-0.5202081203460693,0.7277546525001526,-0.5164740681648254,0.5202099084854126,-0.6863742470741272
2.4348320960998535,-0.40856990218162537,-0.5203506350517273,0.7276538610458374,-0.5177819728851318,0.5207935571670532,-0.6865403056144714
2.45495343208313,-0.4075705111026764,-0.5211939811706543,0.7271571755409241,-0.5183091163635254,0.5211849808692932,-0.6866603493690491
2.475095510482788,-0.40336889028549194,-0.519649863243103,0.7239296436309814,-0.5215098857879639,0.5251442790031433,-0.6868757605552673
2.495187282562256,-0.4030403792858124,-0.5183815360069275,0.7240070700645447,-0.5217239856719971,0.5255570411682129,-0.6872683167457581
2.515272378921509,-0.40168124437332153,-0.5210254192352295,0.7230597138404846,-0.521661639213562,0.5295109748840332,-0.6876389980316162
2.535456418991089,-0.4026702046394348,-0.5230302214622498,0.7236968874931335,-0.5207139849662781,0.5297945737838745,-0.6877896785736084
2.5556693077087402,-0.40353840589523315,-0.5247488021850586,0.7248850464820862,-0.5202585458755493,0.5310330986976624,-0.6881230473518372
2.575692892074585,-0.40490633249282837,-0.5261273980140686,0.7267264723777771,-0.5200896859169006,0.5303112268447876,-0.688602864742279
2.5958752632141113,-0.4040120840072632,-0.5228394269943237,0.7272908091545105,-0.5205854773521423,0.5308855175971985,-0.6891102194786072
2.6161394119262695,-0.4048237204551697,-0.5217866897583008,0.7286831140518188,-0.5174452662467957,0.5301645398139954,-0.6898677349090576
2.6362290382385254,-0.40568479895591736,-0.52348393201828,0.7295019626617432,-0.5173464417457581,0.5293500423431396,-0.6898803114891052
2.656313180923462,-0.40509605407714844,-0.5251709222793579,0.7312620282173157,-0.5177570581436157,0.5306028723716736,-0.6902097463607788
2.6764092445373535,-0.40403664112091064,-0.5215958952903748,0.7320804595947266,-0.5194783806800842,0.5330992937088013,-0.6906274557113647
2.696488618850708,-0.40255385637283325,-0.520488977432251,0.7327055335044861,-0.5208324193954468,0.5370095372200012,-0.6910930275917053
2.716557741165161,-0.4027007520198822,-0.5224316716194153,0.7329261302947998,-0.5204358696937561,0.5370475053787231,-0.6912529468536377
2.7366347312927246,-0.4030551612377167,-0.5245577096939087,0.7318457365036011,-0.5190523266792297,0.5392392873764038,-0.6915522813796997
2.756791591644287,-0.402640163898468,-0.5241386890411377,0.7330014705657959,-0.5208834409713745,0.5415675044059753,-0.6920706629753113
2.7768168449401855,-0.4043477177619934,-0.5220645666122437,0.7344917058944702,-0.5204744338989258,0.5407108068466187,-0.6925022602081299
2.796886920928955,-0.4083200991153717,-0.5250251293182373,0.7366846799850464,-0.5186454653739929,0.5379151105880737,-0.692741870880127
2.8170006275177,-0.409759521484375,-0.5284278392791748,0.7371675968170166,-0.5171065926551819,0.5364227294921875,-0.6927198767662048
2.8370792865753174,-0.4100390672683716,-0.5282765030860901,0.7375743985176086,-0.513493537902832,0.5360074639320374,-0.6932949423789978
2.857177495956421,-0.4090306758880615,-0.5257464051246643,0.7380273342132568,-0.5138452053070068,0.5357948541641235,-0.6936741471290588
2.8773913383483887,-0.4084421992301941,-0.5233885645866394,0.740014910697937,-0.5160670876502991,0.538418173789978,-0.6941066384315491
2.897599935531616,-0.40773215889930725,-0.5254787802696228,0.7414022088050842,-0.5172325372695923,0.541129469871521,-0.6942043900489807
2.917745590209961,-0.4072481691837311,-0.5289056301116943,0.7407418489456177,-0.5169553756713867,0.5426291823387146,-0.6940898895263672
2.9379255771636963,-0.40674567222595215,-0.5284358263015747,0.7402946949005127,-0.5157903432846069,0.5448154807090759,-0.6945642232894897
2.957937479019165,-0.4066663980484009,-0.5244165062904358,0.7407165765762329,-0.5165766477584839,0.5444942116737366,-0.6950495839118958
2.9785349369049072,-0.4048745036125183,-0.5211308598518372,0.7396078109741211,-0.5198982954025269,0.5476810932159424,-0.6954092979431152
2.9987270832061768,-0.4034610092639923,-0.5217803120613098,0.7386662364006042,-0.5206881165504456,0.5496852397918701,-0.6958457827568054
3.01894211769104,-0.40466809272766113,-0.5268838405609131,0.7394388914108276,-0.5183834433555603,0.546910285949707,-0.6959553360939026
3.0390048027038574,-0.40453070402145386,-0.5273405909538269,0.7384712100028992,-0.5193851590156555,0.5463183522224426,-0.6962398290634155
3.059113025665283,-0.40340831875801086,-0.5260533094406128,0.7392294406890869,-0.5201650857925415,0.5463955998420715,-0.6966217160224915
3.0791919231414795,-0.40062668919563293,-0.526342511177063,0.7393350601196289,-0.5214589834213257,0.5503947734832764,-0.6970272660255432
3.099306583404541,-0.4009592533111572,-0.5275707840919495,0.7402094006538391,-0.5197182893753052,0.5490084290504456,-0.6974241137504578
3.119468927383423,-0.4004742503166199,-0.5260307192802429,0.7431082129478455,-0.5211551785469055,0.5538982152938843,-0.6980106234550476
3.1395907402038574,-0.4019921123981476,-0.5293694734573364,0.7438362240791321,-0.5206722021102905,0.5538524985313416,-0.6979724168777466
3.1596529483795166,-0.4010600447654724,-0.5265615582466125,0.7454259991645813,-0.5222097635269165,0.5577014684677124,-0.6987565755844116
3.179805278778076,-0.4020071029663086,-0.5192998647689819,0.7469088435173035,-0.5228015780448914,0.5583460927009583,-0.6995121836662292
3.1999142169952393,-0.4041985273361206,-0.5221855640411377,0.7484678030014038,-0.5230588316917419,0.5589110255241394,-0.6997048854827881
3.2202773094177246,-0.4046930968761444,-0.5255922079086304,0.7506113052368164,-0.5220333337783813,0.5587511658668518,-0.6999879479408264
3.24035906791687,-0.4039818048477173,-0.5302087664604187,0.7500358819961548,-0.5219477415084839,0.5593885183334351,-0.699864387512207
3.260470151901245,-0.4035872519016266,-0.5342347025871277,0.748299241065979,-0.519207775592804,0.5603578686714172,-0.7000085711479187
3.2805216312408447,-0.40391045808792114,-0.5333890914916992,0.7488372325897217,-0.5186214447021484,0.5606584548950195,-0.7002652287483215
3.3006088733673096,-0.40368548035621643,-0.5356104373931885,0.7494238615036011,-0.5199770927429199,0.563604474067688,-0.7004879117012024
3.320704698562622,-0.40375789999961853,-0.5355892181396484,0.7504534721374512,-0.5194345712661743,0.5659776329994202,-0.700944185256958
3.340933084487915,-0.40335503220558167,-0.5345566868782043,0.7505858540534973,-0.518122673034668,0.5676136016845703,-0.7013798952102661
3.3610427379608154,-0.40292543172836304,-0.5321282148361206,0.7512879967689514,-0.5186755061149597,0.5695655941963196,-0.7020769119262695
3.3810927867889404,-0.4037016034126282,-0.5317208170890808,0.751804769039154,-0.5192244648933411,0.5690432190895081,-0.7023274898529053
3.4011504650115967,-0.4071495532989502,-0.5324273705482483,0.7539273500442505,-0.5182191729545593,0.5663595199584961,-0.7026670575141907
3.421355724334717,-0.4074750244617462,-0.5277029871940613,0.7551231384277344,-0.5181559324264526,0.5652677416801453,-0.703230082988739
3.4414563179016113,-0.4061759114265442,-0.5260433554649353,0.754798173904419,-0.5191572904586792,0.5664657950401306,-0.7036888003349304
3.4627039432525635,-0.4035213589668274,-0.5254127383232117,0.7540290355682373,-0.5194680690765381,0.5687608122825623,-0.7042350769042969
3.4829108715057373,-0.4029839336872101,-0.5294241905212402,0.7529756426811218,-0.5190722346305847,0.5688692927360535,-0.7041317224502563
3.5029397010803223,-0.40175116062164307,-0.5305609703063965,0.753299355506897,-0.5199803113937378,0.5713865756988525,-0.7045238614082336
3.5230181217193604,-0.4006149172782898,-0.5287494659423828,0.7540085911750793,-0.5207328200340271,0.5741058588027954,-0.7049828767776489
3.5432119369506836,-0.40103834867477417,-0.532871663570404,0.7536792159080505,-0.5194864273071289,0.5762202739715576,-0.7052932977676392
3.563462495803833,-0.40024426579475403,-0.5364601612091064,0.753187358379364,-0.519679844379425,0.5776419043540955,-0.7053514719009399
3.58371901512146,-0.4043095111846924,-0.5375343561172485,0.7558187246322632,-0.5185313820838928,0.5758589506149292,-0.7058770656585693
3.603954315185547,-0.4065493643283844,-0.5368227362632751,0.7582749128341675,-0.5179768800735474,0.5753148198127747,-0.7063755989074707
3.624134063720703,-0.40656355023384094,-0.5334703922271729,0.7589789032936096,-0.5183506608009338,0.5755099058151245,-0.7067793011665344
3.644160747528076,-0.4057840406894684,-0.5339164137840271,0.7604475021362305,-0.5175405144691467,0.575819194316864,-0.7071848511695862
3.6642680168151855,-0.4053192734718323,-0.5385409593582153,0.7598310708999634,-0.5155677795410156,0.5767562389373779,-0.7070919275283813
3.684345006942749,-0.4049380123615265,-0.5365458130836487,0.7616300582885742,-0.5162408351898193,0.577892541885376,-0.7076101303100586
3.704620599746704,-0.4030132293701172,-0.537136435508728,0.7630366086959839,-0.5185201168060303,0.5812503695487976,-0.7079596519470215
3.7247257232666016,-0.4020117223262787,-0.5307499170303345,0.7630976438522339,-0.5199435353279114,0.5830444097518921,-0.7085724472999573
3.744852066040039,-0.40367358922958374,-0.5354024767875671,0.7632061243057251,-0.5166307687759399,0.5832011699676514,-0.7088362574577332
3.7653768062591553,-0.40424609184265137,-0.5399975180625916,0.7632145881652832,-0.5161064863204956,0.5824390649795532,-0.7087429165840149
3.7855348587036133,-0.40271514654159546,-0.5385203957557678,0.7646487951278687,-0.5180440545082092,0.584236204624176,-0.7092623710632324
3.805995464324951,-0.40417003631591797,-0.5388332605361938,0.7656572461128235,-0.5169062614440918,0.5838501453399658,-0.7096566557884216
3.826104164123535,-0.4048501253128052,-0.5362836718559265,0.7660925984382629,-0.5153954029083252,0.5836961269378662,-0.7100667953491211
3.84614634513855,-0.4031231999397278,-0.5332193374633789,0.765899658203125,-0.5176548957824707,0.5871118307113647,-0.7104140520095825
3.866260290145874,-0.40339767932891846,-0.535103976726532,0.766527533531189,-0.5178647041320801,0.5863257646560669,-0.7105683088302612
3.886319160461426,-0.40267515182495117,-0.537407636642456,0.7658661007881165,-0.5193944573402405,0.588363766670227,-0.710651695728302
3.9064295291900635,-0.4015122652053833,-0.5353803038597107,0.7659616470336914,-0.5197255611419678,0.5903371572494507,-0.7111006379127502
3.926692008972168,-0.40082216262817383,-0.5356408357620239,0.7669121623039246,-0.5202616453170776,0.591485857963562,-0.711711585521698
3.946667432785034,-0.40124765038490295,-0.5369219183921814,0.7681497931480408,-0.5185014009475708,0.5930200815200806,-0.7121975421905518
3.966771125793457,-0.4008658528327942,-0.5407511591911316,0.76772540807724,-0.5193030834197998,0.5934114456176758,-0.7120838165283203
3.9869375228881836,-0.4017079770565033,-0.541739821434021,0.7685708403587341,-0.51869136095047,0.5953895449638367,-0.7124852538108826
4.007082939147949,-0.4041895866394043,-0.5393113493919373,0.7706371545791626,-0.5165058970451355,0.5946312546730042,-0.7130537033081055
4.027245759963989,-0.4050820469856262,-0.5385357141494751,0.7721660733222961,-0.5161082148551941,0.5960181355476379,-0.7134234309196472
4.047327280044556,-0.4031270444393158,-0.5429969429969788,0.7718380689620972,-0.5178450345993042,0.5982739329338074,-0.7133248448371887
4.067416429519653,-0.40300118923187256,-0.5422170162200928,0.772766649723053,-0.517941415309906,0.5977557301521301,-0.71372389793396
4.087555646896362,-0.40062159299850464,-0.5418494939804077,0.7728179097175598,-0.5203003883361816,0.6011070013046265,-0.714259147644043
4.107667446136475,-0.4005277454853058,-0.543079674243927,0.7724468111991882,-0.5205785632133484,0.6016644835472107,-0.7144480347633362
4.127795457839966,-0.3988283574581146,-0.5428256988525391,0.7717551589012146,-0.5213539004325867,0.6045023798942566,-0.7151334285736084
4.147777318954468,-0.4015023410320282,-0.5431052446365356,0.7754958868026733,-0.5194706916809082,0.6045291423797607,-0.7158925533294678
4.167990446090698,-0.4019918441772461,-0.5385324358940125,0.7769238352775574,-0.5190832018852234,0.6045423150062561,-0.7165381908416748
4.187960863113403,-0.4043547511100769,-0.5372009873390198,0.7792354822158813,-0.5181196928024292,0.6039766669273376,-0.7170248627662659
4.208096742630005,-0.40483373403549194,-0.5411257743835449,0.7793843746185303,-0.5175297260284424,0.6035876274108887,-0.7169159650802612
4.228148698806763,-0.4043528437614441,-0.5381968021392822,0.7801918983459473,-0.5178917050361633,0.604336678981781,-0.7173901796340942
4.248471736907959,-0.4034164547920227,-0.5418092012405396,0.7814772129058838,-0.5172939896583557,0.6065183877944946,-0.7176830768585205
4.268580913543701,-0.40232643485069275,-0.539678692817688,0.7811675071716309,-0.5171522498130798,0.6087535619735718,-0.7179993391036987
4.288650035858154,-0.4021603465080261,-0.5383915305137634,0.781946063041687,-0.517802357673645,0.6112399101257324,-0.7183670401573181
4.308826208114624,-0.40071362257003784,-0.543964147567749,0.7806298732757568,-0.518207311630249,0.6139259338378906,-0.7181381583213806
4.328836679458618,-0.40166524052619934,-0.5430038571357727,0.7816019058227539,-0.5182269811630249,0.6155025959014893,-0.718682050704956
4.34890604019165,-0.4010135531425476,-0.5353392362594604,0.7828978300094604,-0.5185006856918335,0.6159061193466187,-0.7195616960525513
4.369017124176025,-0.4031630754470825,-0.5353162288665771,0.7846511006355286,-0.5178161859512329,0.6146945953369141,-0.7199565172195435
4.389231443405151,-0.4047117531299591,-0.5368640422821045,0.7869304418563843,-0.517126739025116,0.6130037903785706,-0.7203378677368164
4.409364223480225,-0.4051074683666229,-0.540088951587677,0.7881691455841064,-0.5166258215904236,0.6133577823638916,-0.7203472852706909
4.429413557052612,-0.40254390239715576,-0.5400120615959167,0.7886194586753845,-0.5175299644470215,0.6142618060112,-0.72077476978302
4.449550628662109,-0.4035404920578003,-0.546044111251831,0.7889209985733032,-0.5136494636535645,0.6136406064033508,-0.7208614945411682
4.469590187072754,-0.40310779213905334,-0.5434191226959229,0.7907969951629639,-0.5133944153785706,0.6147605180740356,-0.7216367125511169
4.4897119998931885,-0.4006293714046478,-0.5473620295524597,0.7894270420074463,-0.5153266191482544,0.6182194948196411,-0.7214019894599915
4.509750843048096,-0.40058982372283936,-0.5465445518493652,0.7906203269958496,-0.5160819888114929,0.6212069988250732,-0.721998393535614
4.529813051223755,-0.4009246230125427,-0.5522317290306091,0.7899543046951294,-0.5146685838699341,0.6227219104766846,-0.7221652269363403
4.550008296966553,-0.3993515968322754,-0.5554896593093872,0.7886327505111694,-0.5160595178604126,0.6253251433372498,-0.7219935655593872
4.570151090621948,-0.40150314569473267,-0.5539748072624207,0.7893984913825989,-0.5155446529388428,0.6242328882217407,-0.7225210070610046
4.590405702590942,-0.40394097566604614,-0.5518828630447388,0.7927860021591187,-0.5155736207962036,0.6226457357406616,-0.7233198881149292
4.6104936599731445,-0.4040323495864868,-0.5472751259803772,0.7938226461410522,-0.5163034200668335,0.6237645149230957,-0.7238209843635559
4.630752801895142,-0.4032551050186157,-0.5474489331245422,0.7943013310432434,-0.515546977519989,0.6246336102485657,-0.7243649363517761
4.6508307456970215,-0.4029029905796051,-0.5534107685089111,0.7938975095748901,-0.5155013203620911,0.6253066658973694,-0.7242192029953003
4.670987367630005,-0.40301311016082764,-0.549196183681488,0.7961780428886414,-0.5151517987251282,0.6279618144035339,-0.7250191569328308
4.691012144088745,-0.40152910351753235,-0.5475934147834778,0.7967529892921448,-0.5167770385742188,0.6314319372177124,-0.7252722382545471
4.711083173751831,-0.40173837542533875,-0.548434853553772,0.7970850467681885,-0.5158675312995911,0.6324769258499146,-0.7256676554679871
4.731181621551514,-0.4006505012512207,-0.5491011738777161,0.7972127199172974,-0.515937864780426,0.6339108347892761,-0.7258287668228149
4.751252174377441,-0.40098127722740173,-0.5510030388832092,0.7964158654212952,-0.5162227153778076,0.6347178220748901,-0.7260436415672302
4.77136754989624,-0.40339797735214233,-0.5468193888664246,0.7989068031311035,-0.5156696438789368,0.6332469582557678,-0.7266673445701599
4.79142951965332,-0.4063432812690735,-0.5502832531929016,0.8025648593902588,-0.5138286352157593,0.6305438280105591,-0.7269605398178101
4.811541318893433,-0.405182808637619,-0.5543879866600037,0.8016434907913208,-0.5143793225288391,0.631780207157135,-0.7268121242523193
4.831662654876709,-0.4044322371482849,-0.558831512928009,0.8041782379150391,-0.5129708051681519,0.6325415372848511,-0.7272208333015442
4.851933240890503,-0.4049963355064392,-0.5620653033256531,0.8058112859725952,-0.5110143423080444,0.6336699724197388,-0.727544903755188
4.872002840042114,-0.4054360091686249,-0.5567785501480103,0.8076390027999878,-0.5113264918327332,0.6345802545547485,-0.7281251549720764
4.892072916030884,-0.4041619300842285,-0.556479275226593,0.8079109787940979,-0.5122077465057373,0.6386151313781738,-0.72837233543396
4.912192344665527,-0.4023118317127228,-0.5559303760528564,0.8064388036727905,-0.5141650438308716,0.6419599652290344,-0.7283530235290527
4.932269334793091,-0.40099379420280457,-0.5610424280166626,0.8045554161071777,-0.514477014541626,0.6439880728721619,-0.7284190654754639
4.952387571334839,-0.39962753653526306,-0.5555264949798584,0.8041123747825623,-0.515218198299408,0.6452230215072632,-0.7290436029434204
4.97242283821106,-0.4000365734100342,-0.5550086498260498,0.8016998171806335,-0.5136815309524536,0.6456884145736694,-0.729593813419342
4.9925336837768555,-0.3990879952907562,-0.5580272674560547,0.8018724322319031,-0.5146610140800476,0.645230770111084,-0.7297582030296326
5.012695789337158,-0.3991745114326477,-0.5584908723831177,0.8034204244613647,-0.5140975713729858,0.6444596648216248,-0.7306125164031982
5.033249378204346,-0.40127015113830566,-0.5585730671882629,0.8077012896537781,-0.5116990804672241,0.6442673802375793,-0.7315447330474854
5.05333948135376,-0.40098026394844055,-0.552837073802948,0.8097811937332153,-0.5127465724945068,0.6461431980133057,-0.7321775555610657
5.073407411575317,-0.40072277188301086,-0.5505582094192505,0.8105975389480591,-0.5136502981185913,0.6477149724960327,-0.7326968908309937
5.093556880950928,-0.4014347493648529,-0.553706169128418,0.8107458353042603,-0.5131979584693909,0.6473569869995117,-0.7327313423156738
5.113658428192139,-0.4006209373474121,-0.5557736754417419,0.8115550875663757,-0.5142455697059631,0.6507120728492737,-0.733126699924469
5.133983373641968,-0.4005890190601349,-0.5545071363449097,0.8114639520645142,-0.5135679841041565,0.652120053768158,-0.7334891557693481
5.1538708209991455,-0.401588499546051,-0.5622356534004211,0.8099136352539062,-0.5115028619766235,0.6511558294296265,-0.7334719300270081
5.175487041473389,-0.40107545256614685,-0.5693449378013611,0.8097789287567139,-0.5117745995521545,0.6521667242050171,-0.7333953380584717
5.195600748062134,-0.4012836515903473,-0.568524181842804,0.811130940914154,-0.5113476514816284,0.652544379234314,-0.733777642250061
5.215679168701172,-0.3998069763183594,-0.5687800645828247,0.8109927177429199,-0.5125711560249329,0.6547847986221313,-0.734073281288147
5.235844850540161,-0.4010049104690552,-0.5710639357566833,0.812462568283081,-0.5111516714096069,0.6538273096084595,-0.7342627644538879
5.256018400192261,-0.39957985281944275,-0.5703915953636169,0.8131020069122314,-0.5116598010063171,0.657374918460846,-0.7348688244819641
5.276188373565674,-0.39956894516944885,-0.5696157217025757,0.813726007938385,-0.5118555426597595,0.6587716341018677,-0.7351428866386414
5.296316862106323,-0.4002329707145691,-0.5693873167037964,0.8137266635894775,-0.5118236541748047,0.6599053740501404,-0.7355960011482239
5.316429615020752,-0.4003570079803467,-0.5683401823043823,0.8131966590881348,-0.5095148086547852,0.6595190167427063,-0.7364533543586731
5.336533546447754,-0.39899706840515137,-0.5624445676803589,0.8128600120544434,-0.5104914307594299,0.6616807579994202,-0.737028956413269
5.357048034667969,-0.39724594354629517,-0.5611114501953125,0.8126612901687622,-0.5133205652236938,0.6632961630821228,-0.737492024898529
5.3771491050720215,-0.3975997567176819,-0.5651490688323975,0.8137110471725464,-0.5122736692428589,0.6629107594490051,-0.7376483678817749
5.397229909896851,-0.39808526635169983,-0.5718672275543213,0.8145766854286194,-0.5112197995185852,0.6646702289581299,-0.7377774715423584
5.417301654815674,-0.39695093035697937,-0.5751478672027588,0.8142541646957397,-0.5113063454627991,0.6671310067176819,-0.737870454788208
5.437506675720215,-0.3975738286972046,-0.5753499269485474,0.816423237323761,-0.5116384029388428,0.6695711016654968,-0.7385075688362122
5.457557916641235,-0.39758315682411194,-0.5720556974411011,0.8172916769981384,-0.5128735303878784,0.6715816855430603,-0.7392880320549011
5.477694511413574,-0.3964136838912964,-0.574280858039856,0.8159810900688171,-0.5138125419616699,0.6723762154579163,-0.7393495440483093
5.497786521911621,-0.39806604385375977,-0.5717918872833252,0.8169636726379395,-0.5125032067298889,0.6705403923988342,-0.7402801513671875
5.5179338455200195,-0.3982580900192261,-0.57010418176651,0.8162962794303894,-0.5119000673294067,0.6707000732421875,-0.7407302856445312
5.538051605224609,-0.3977532386779785,-0.5684992074966431,0.816616415977478,-0.5128330588340759,0.6712090373039246,-0.7412644028663635
5.5581183433532715,-0.39878571033477783,-0.5727525949478149,0.8167805671691895,-0.5115243196487427,0.66997230052948,-0.7412897944450378
5.578249216079712,-0.39822816848754883,-0.5737550258636475,0.8181920647621155,-0.5120465159416199,0.67111736536026,-0.7418896555900574
5.598310232162476,-0.3959197700023651,-0.5782283544540405,0.8171368837356567,-0.5121355056762695,0.6743786334991455,-0.7422522902488708
5.618480205535889,-0.3944975733757019,-0.5738141536712646,0.8181411027908325,-0.5126955509185791,0.6768923401832581,-0.7429803609848022
5.638541221618652,-0.39529353380203247,-0.5751201510429382,0.8188192844390869,-0.5132304430007935,0.6789477467536926,-0.7434937357902527
5.659002304077148,-0.39739125967025757,-0.5767320990562439,0.8207994103431702,-0.5114223957061768,0.6789993643760681,-0.7437586784362793
5.6791462898254395,-0.3997088372707367,-0.5756731629371643,0.8232272863388062,-0.5110233426094055,0.6800934076309204,-0.7442810535430908
5.699195861816406,-0.3995820879936218,-0.5754824876785278,0.8256435394287109,-0.5101343989372253,0.6814357042312622,-0.7447830438613892
5.7193028926849365,-0.401590496301651,-0.574699878692627,0.827851414680481,-0.5074501037597656,0.6798573732376099,-0.7453191876411438
5.739448308944702,-0.40237972140312195,-0.5747565627098083,0.8302236199378967,-0.5060122013092041,0.6808675527572632,-0.7458710670471191
5.7594733238220215,-0.4021024703979492,-0.5769537687301636,0.8311600685119629,-0.5065226554870605,0.6820864081382751,-0.7459614872932434
5.779631853103638,-0.4013693630695343,-0.5774716734886169,0.8332931995391846,-0.5073983669281006,0.6853412985801697,-0.7464656233787537
5.799728155136108,-0.4023589491844177,-0.5774087309837341,0.8337952494621277,-0.5066120624542236,0.6855138540267944,-0.7467265725135803
5.819783449172974,-0.40087175369262695,-0.5766497254371643,0.8336485624313354,-0.5060644745826721,0.688025712966919,-0.7472027540206909
5.840126037597656,-0.4007628560066223,-0.5767683982849121,0.8333438634872437,-0.5067468285560608,0.6888750791549683,-0.7474803328514099
5.860235929489136,-0.40245234966278076,-0.5805267691612244,0.8340975642204285,-0.5060257911682129,0.6869158148765564,-0.7475171089172363
5.880281686782837,-0.40495410561561584,-0.5803177356719971,0.8370965719223022,-0.5037220120429993,0.6853616237640381,-0.7482426762580872
5.900373458862305,-0.4046366810798645,-0.577437162399292,0.8378185629844666,-0.5041353106498718,0.6860017776489258,-0.7487514615058899
5.9204888343811035,-0.4032171070575714,-0.5764142870903015,0.8386634588241577,-0.5052208304405212,0.6888263821601868,-0.7492648959159851
5.940535068511963,-0.4015085697174072,-0.5806323885917664,0.8370452523231506,-0.5059433579444885,0.6898494362831116,-0.7490415573120117
5.960639476776123,-0.4022935926914215,-0.5769360065460205,0.8389947414398193,-0.50648432970047,0.690883219242096,-0.7498257160186768
5.981037139892578,-0.4007071852684021,-0.5824395418167114,0.838019609451294,-0.5061889886856079,0.6934036612510681,-0.749951958656311
6.001136064529419,-0.3984106779098511,-0.5803027749061584,0.8381897211074829,-0.5074330568313599,0.6960917115211487,-0.7503048181533813
6.021172285079956,-0.39794641733169556,-0.5867425203323364,0.8395600914955139,-0.5067542791366577,0.6969972252845764,-0.7504592537879944
6.041390895843506,-0.3992021977901459,-0.5887632369995117,0.8408358097076416,-0.5062742233276367,0.697018563747406,-0.7506987452507019
6.061572790145874,-0.40070897340774536,-0.5899986028671265,0.8411122560501099,-0.5063624382019043,0.6977203488349915,-0.7510620355606079
6.081500291824341,-0.401213139295578,-0.5903765559196472,0.8404814004898071,-0.5047376155853271,0.6980421543121338,-0.7515350580215454
6.10163688659668,-0.4016015827655792,-0.5900216698646545,0.84084552526474,-0.5047069787979126,0.6980906128883362,-0.7518357038497925
6.121689319610596,-0.4006795585155487,-0.5893521308898926,0.8412674069404602,-0.5044658780097961,0.6986840963363647,-0.7524825930595398
6.142047643661499,-0.39933541417121887,-0.5873308777809143,0.8406398296356201,-0.5060892105102539,0.700107216835022,-0.7529363632202148
6.1621551513671875,-0.39715176820755005,-0.583953857421875,0.8408635258674622,-0.5076847076416016,0.7033348083496094,-0.7533619403839111
6.182222843170166,-0.39744260907173157,-0.5833064317703247,0.8425076603889465,-0.507837176322937,0.705385148525238,-0.7540940642356873
6.202436447143555,-0.39824965596199036,-0.5862810015678406,0.8437809348106384,-0.5075276494026184,0.7049693465232849,-0.7542210817337036
6.222466468811035,-0.39922896027565,-0.5871900320053101,0.8421928882598877,-0.5065757632255554,0.7061097621917725,-0.7545905113220215
6.24283766746521,-0.4022800028324127,-0.5879360437393188,0.8448506593704224,-0.5049363970756531,0.7057264447212219,-0.7551733255386353
6.263018369674683,-0.4030425250530243,-0.5904288291931152,0.8454285860061646,-0.5048423409461975,0.7053561806678772,-0.7552208304405212
6.2830846309661865,-0.4039749205112457,-0.5916822552680969,0.8470539450645447,-0.5035496950149536,0.7041654586791992,-0.7555374503135681
6.303209066390991,-0.403559148311615,-0.5918114185333252,0.8473842740058899,-0.5034998655319214,0.704292893409729,-0.7557088136672974
6.32335901260376,-0.4000968337059021,-0.5932373404502869,0.8449617624282837,-0.503687858581543,0.7065397500991821,-0.7559414505958557
6.3435258865356445,-0.3980548679828644,-0.5936012864112854,0.8423317074775696,-0.5051447749137878,0.7090741395950317,-0.7562277317047119
6.363693952560425,-0.39550042152404785,-0.5964182615280151,0.8411621451377869,-0.5070482492446899,0.7122884392738342,-0.7562859654426575
6.383815765380859,-0.39568793773651123,-0.5935852527618408,0.8432372212409973,-0.5070826411247253,0.7150236368179321,-0.757217526435852
6.403834819793701,-0.39712977409362793,-0.5904929637908936,0.8446965217590332,-0.5069599151611328,0.7153944373130798,-0.7577627897262573
6.423950672149658,-0.39766839146614075,-0.592850923538208,0.8471653461456299,-0.5043549537658691,0.7164598107337952,-0.7584279775619507
6.443981885910034,-0.397880494594574,-0.5932928323745728,0.8495307564735413,-0.5033524036407471,0.7172306776046753,-0.7588607668876648
6.464114427566528,-0.4003000259399414,-0.5947762131690979,0.8538652658462524,-0.50155109167099,0.7160685062408447,-0.7594661116600037
6.484180927276611,-0.3998788297176361,-0.5969109535217285,0.8525568246841431,-0.5003682971000671,0.7157424688339233,-0.7596501708030701
6.504281997680664,-0.39852648973464966,-0.6011088490486145,0.8520359396934509,-0.5001609325408936,0.7170127630233765,-0.7596228718757629
6.524326801300049,-0.3974026143550873,-0.6036171913146973,0.851371169090271,-0.5009803771972656,0.7175145149230957,-0.7599632740020752
6.5445556640625,-0.3957005739212036,-0.5978631973266602,0.8501952886581421,-0.502737283706665,0.7193541526794434,-0.7605741620063782
6.564579248428345,-0.39709046483039856,-0.5957232117652893,0.8524765968322754,-0.5032240748405457,0.7209106087684631,-0.7613577246665955
6.585426568984985,-0.3963765501976013,-0.5939978361129761,0.8522979617118835,-0.5045841932296753,0.7239329218864441,-0.76189124584198
6.605480194091797,-0.3959524631500244,-0.598921000957489,0.8533334732055664,-0.5038197636604309,0.7236193418502808,-0.7619566917419434
6.625581979751587,-0.39865419268608093,-0.5974982976913452,0.8562178611755371,-0.5028419494628906,0.7236798405647278,-0.7626689672470093
6.645671367645264,-0.3998587131500244,-0.592053234577179,0.8578342199325562,-0.5022867321968079,0.7230758666992188,-0.7634490132331848
6.665738582611084,-0.40025007724761963,-0.5913708209991455,0.8593305945396423,-0.5020792484283447,0.7239499092102051,-0.7640316486358643
6.686039686203003,-0.3996642827987671,-0.5958518981933594,0.8603615164756775,-0.5017080307006836,0.7246168851852417,-0.7640528678894043
6.706173896789551,-0.4015030562877655,-0.5977195501327515,0.8634402751922607,-0.4998795986175537,0.7256042957305908,-0.7644795775413513
6.7263102531433105,-0.4002687335014343,-0.5962678790092468,0.8640512824058533,-0.5009990334510803,0.7286716103553772,-0.7648858428001404
6.746403217315674,-0.40013399720191956,-0.5963519215583801,0.86419677734375,-0.5006558895111084,0.7289049029350281,-0.7651296257972717
6.766502618789673,-0.3986857533454895,-0.5957720875740051,0.8645749092102051,-0.5008531212806702,0.7316843271255493,-0.765655517578125
6.786624431610107,-0.39673295617103577,-0.60043865442276,0.862818717956543,-0.5010550618171692,0.7323986887931824,-0.7654980421066284
6.806755065917969,-0.39633697271347046,-0.5957330465316772,0.8624777793884277,-0.5034146308898926,0.7340999841690063,-0.7663303017616272
6.8268961906433105,-0.3968394696712494,-0.5940108299255371,0.8630934953689575,-0.5034985542297363,0.7345527410507202,-0.7667815685272217
6.847043991088867,-0.3958378732204437,-0.5963602066040039,0.8638895750045776,-0.5048297047615051,0.7372720241546631,-0.767276406288147
6.867168426513672,-0.39629748463630676,-0.603431224822998,0.8634847402572632,-0.5023223161697388,0.7355237603187561,-0.7672465443611145
6.88725733757019,-0.3943195343017578,-0.6065050363540649,0.8637068271636963,-0.5014934539794922,0.7372977137565613,-0.7677977681159973
6.907752752304077,-0.3941754698753357,-0.6076342463493347,0.8654339909553528,-0.5025706887245178,0.7397950887680054,-0.7686123847961426
6.927842378616333,-0.3951588273048401,-0.6060194969177246,0.8668489456176758,-0.50124192237854,0.7408177256584167,-0.7692170739173889
6.9482550621032715,-0.39671310782432556,-0.6090440154075623,0.8686420917510986,-0.4991750419139862,0.7417629361152649,-0.769838809967041
6.968359708786011,-0.3978193402290344,-0.610607385635376,0.8694050312042236,-0.4988214373588562,0.7415995597839355,-0.7699609398841858
6.988463640213013,-0.3987915515899658,-0.6106516122817993,0.8685243129730225,-0.49823373556137085,0.7413094639778137,-0.7703129053115845
7.008523225784302,-0.3989425599575043,-0.6099662184715271,0.868720293045044,-0.4982352554798126,0.7413465976715088,-0.7705714106559753
7.028693437576294,-0.3978983461856842,-0.612434983253479,0.8693015575408936,-0.4977847933769226,0.7424554228782654,-0.7710072994232178
7.049294471740723,-0.398253858089447,-0.6172157526016235,0.8696848750114441,-0.4969334006309509,0.7416196465492249,-0.7710529565811157
7.069411516189575,-0.3960646092891693,-0.6198657751083374,0.8693574666976929,-0.4981745481491089,0.7443270683288574,-0.7713929414749146
7.089835166931152,-0.3924417793750763,-0.6179930567741394,0.8671444058418274,-0.500946044921875,0.7494239807128906,-0.7718254327774048
7.109957456588745,-0.39308708906173706,-0.6108412742614746,0.8685416579246521,-0.5016831159591675,0.7506241798400879,-0.7726843357086182
7.130414724349976,-0.39201152324676514,-0.6146360039710999,0.8693967461585999,-0.5011536478996277,0.752130925655365,-0.7728670835494995
7.150548219680786,-0.3939046561717987,-0.6087591648101807,0.8716415762901306,-0.49997472763061523,0.7528584003448486,-0.7741096615791321
7.170742511749268,-0.39550912380218506,-0.6043347120285034,0.8746187090873718,-0.4989193379878998,0.7515215873718262,-0.7750422358512878
7.190832614898682,-0.3975299596786499,-0.6067723035812378,0.8786431550979614,-0.4960837960243225,0.7497917413711548,-0.7758626937866211
7.211021900177002,-0.39856722950935364,-0.6090474128723145,0.8825110197067261,-0.4945812225341797,0.7505528926849365,-0.7766188979148865
7.231122732162476,-0.3992403447628021,-0.6117958426475525,0.8842886686325073,-0.493547648191452,0.7497905492782593,-0.7769055962562561
7.251196622848511,-0.3969144821166992,-0.615270733833313,0.8832313418388367,-0.49376869201660156,0.7530481219291687,-0.7771813869476318
7.271299362182617,-0.39641058444976807,-0.6161456108093262,0.8845680952072144,-0.49454474449157715,0.7552933096885681,-0.7774407863616943
7.291399240493774,-0.39590492844581604,-0.6222790479660034,0.883582353591919,-0.49489328265190125,0.7574275732040405,-0.7774399518966675
7.311596393585205,-0.3956231474876404,-0.6234151124954224,0.8846917748451233,-0.49526336789131165,0.7590620517730713,-0.7775906324386597
7.331743478775024,-0.3974604308605194,-0.6269645094871521,0.8874810934066772,-0.49330759048461914,0.7591012120246887,-0.7779603004455566
7.351828336715698,-0.398118257522583,-0.6288019418716431,0.8890368342399597,-0.49155932664871216,0.7594797611236572,-0.7784177660942078
7.371922969818115,-0.39632555842399597,-0.631737232208252,0.8887798190116882,-0.4918670058250427,0.7612873315811157,-0.7784700393676758
7.391953945159912,-0.39609429240226746,-0.6327998638153076,0.8889163732528687,-0.49049264192581177,0.7612281441688538,-0.7790846228599548
7.412073373794556,-0.39567121863365173,-0.6298750638961792,0.887970507144928,-0.49184900522232056,0.7620229125022888,-0.7794255614280701
7.43222188949585,-0.39432114362716675,-0.6266282796859741,0.8854455947875977,-0.4934541583061218,0.7644679546356201,-0.7798960208892822
7.4527997970581055,-0.39458224177360535,-0.6289337873458862,0.8854868412017822,-0.4929242432117462,0.7649478316307068,-0.7800697684288025
7.4730565547943115,-0.39193812012672424,-0.6292952299118042,0.8833709955215454,-0.49613064527511597,0.768760085105896,-0.7804242968559265
7.493149757385254,-0.3933243751525879,-0.6288215517997742,0.8849652409553528,-0.4962962865829468,0.7703434228897095,-0.7812755107879639
7.513158559799194,-0.3950720727443695,-0.6274754405021667,0.886726975440979,-0.4953165054321289,0.769836962223053,-0.7818546891212463
7.533325910568237,-0.3940512537956238,-0.6277511715888977,0.8858761191368103,-0.494619220495224,0.7709848284721375,-0.7827153205871582
7.553385257720947,-0.39378705620765686,-0.6258959770202637,0.8852031230926514,-0.49447205662727356,0.7712755799293518,-0.7834185361862183
7.573546409606934,-0.39393165707588196,-0.6276184320449829,0.8847041726112366,-0.49463003873825073,0.7712266445159912,-0.783598780632019
7.593595266342163,-0.3935106098651886,-0.634462296962738,0.8875862956047058,-0.492697149515152,0.7724549174308777,-0.7842391729354858
7.613695383071899,-0.39112401008605957,-0.6380709409713745,0.8881697058677673,-0.4936065375804901,0.7756680846214294,-0.7843711972236633
7.6338043212890625,-0.3908194899559021,-0.6448642015457153,0.8891396522521973,-0.4936756491661072,0.7783033847808838,-0.7845991849899292
7.653872728347778,-0.39214858412742615,-0.6482572555541992,0.8898323178291321,-0.4929828941822052,0.7779483199119568,-0.7846808433532715
7.673967361450195,-0.3930003345012665,-0.6537333726882935,0.8878061175346375,-0.491803914308548,0.7791375517845154,-0.784758985042572
7.694095849990845,-0.3931090831756592,-0.6511654257774353,0.8863386511802673,-0.49150651693344116,0.7788823843002319,-0.7856081128120422
7.714210510253906,-0.39320144057273865,-0.6472789645195007,0.8878949284553528,-0.49152806401252747,0.7788180112838745,-0.7863109111785889
7.734276294708252,-0.39418116211891174,-0.6417571306228638,0.8887884616851807,-0.4903390109539032,0.7792854905128479,-0.787615180015564
7.754350185394287,-0.3939523994922638,-0.6369329690933228,0.8887841701507568,-0.4916342496871948,0.7800539135932922,-0.7881141901016235
7.77454137802124,-0.3933129906654358,-0.6272308826446533,0.8894701600074768,-0.49384695291519165,0.7835032939910889,-0.7892777919769287
7.794532537460327,-0.3944161534309387,-0.626041054725647,0.8902217149734497,-0.4928077459335327,0.7831320762634277,-0.7898464202880859
7.814682722091675,-0.39213040471076965,-0.6260929107666016,0.8910574913024902,-0.4945608675479889,0.7860744595527649,-0.7905811071395874
7.835210800170898,-0.3915064334869385,-0.6312963366508484,0.8916937112808228,-0.49486595392227173,0.7884276509284973,-0.7910174131393433
7.85529899597168,-0.3903006315231323,-0.6355958580970764,0.8937505483627319,-0.49545401334762573,0.79004967212677,-0.7911902070045471
7.875376462936401,-0.3910105228424072,-0.6458169221878052,0.8939598798751831,-0.4928544759750366,0.7890031933784485,-0.7913675308227539
7.895496129989624,-0.39211907982826233,-0.6483954787254333,0.8942654132843018,-0.4921891391277313,0.7879716753959656,-0.7915597558021545
7.915704011917114,-0.39130520820617676,-0.6526064872741699,0.8946542739868164,-0.4916599988937378,0.7883710265159607,-0.7921649217605591
7.936223030090332,-0.38945528864860535,-0.6510026454925537,0.8947365283966064,-0.4935961365699768,0.7899662256240845,-0.7930605411529541
7.956339120864868,-0.38958096504211426,-0.6510182023048401,0.8964327573776245,-0.49329185485839844,0.7913442850112915,-0.7935212850570679
7.976472616195679,-0.3919374942779541,-0.6526426672935486,0.8995246291160583,-0.49050047993659973,0.7938705682754517,-0.7942101955413818
7.996549367904663,-0.39247286319732666,-0.6522873044013977,0.9004970192909241,-0.48968303203582764,0.7950069904327393,-0.7947108149528503
8.016624212265015,-0.3926331400871277,-0.6545396447181702,0.9010331630706787,-0.4885816276073456,0.7962640523910522,-0.7953494787216187
8.036769390106201,-0.3921546936035156,-0.6549145579338074,0.9000667333602905,-0.4881756901741028,0.7964245676994324,-0.7956454753875732
8.056804656982422,-0.3907437026500702,-0.6507589817047119,0.8990722298622131,-0.4911532998085022,0.7985402941703796,-0.796312689781189
8.076858043670654,-0.3910599648952484,-0.6507209539413452,0.9026299118995667,-0.49001839756965637,0.7997718453407288,-0.7973312735557556
8.096957206726074,-0.39263924956321716,-0.6527178287506104,0.9039472937583923,-0.4879775047302246,0.7992649674415588,-0.7977647185325623
8.117034196853638,-0.3918227553367615,-0.6509292721748352,0.9072757959365845,-0.48912274837493896,0.8029038906097412,-0.7987644076347351
8.137233018875122,-0.39132073521614075,-0.6510316133499146,0.9073354601860046,-0.48916399478912354,0.8051185011863708,-0.7991324067115784
8.157412052154541,-0.39218059182167053,-0.6536303162574768,0.9101584553718567,-0.48832404613494873,0.8061490058898926,-0.7997266054153442
8.178826808929443,-0.3926796019077301,-0.6565980911254883,0.9119635820388794,-0.4875015616416931,0.806937575340271,-0.8003071546554565
8.198943138122559,-0.39432892203330994,-0.6615592837333679,0.9136193990707397,-0.4851895868778229,0.8043755292892456,-0.8005754947662354
8.219053506851196,-0.3939407169818878,-0.6646677851676941,0.9162136316299438,-0.4852871894836426,0.8050107359886169,-0.8013025522232056
8.239103317260742,-0.39367324113845825,-0.6615759134292603,0.9176361560821533,-0.48597341775894165,0.8071308135986328,-0.8018834590911865
8.25920581817627,-0.39599525928497314,-0.6620150804519653,0.9203041791915894,-0.48342347145080566,0.807138979434967,-0.8026021122932434
8.279394388198853,-0.3960195481777191,-0.662856936454773,0.9208981394767761,-0.48203104734420776,0.8081430196762085,-0.8032744526863098
8.29945969581604,-0.39727845788002014,-0.6677127480506897,0.9201016426086426,-0.47966820001602173,0.806965172290802,-0.8033859133720398
8.319508075714111,-0.3985114097595215,-0.6619304418563843,0.9208658933639526,-0.4803505837917328,0.8089306950569153,-0.804231584072113
8.339662075042725,-0.3975977897644043,-0.6611903309822083,0.9208085536956787,-0.4814176559448242,0.810560405254364,-0.8044965863227844
8.359791040420532,-0.3961912989616394,-0.662180483341217,0.9184142351150513,-0.4824013411998749,0.8119152188301086,-0.804729700088501
8.379919052124023,-0.3961034119129181,-0.6659640669822693,0.9197080135345459,-0.4813733696937561,0.8114570379257202,-0.8050333857536316
8.399961233139038,-0.3938920497894287,-0.6689389944076538,0.917100727558136,-0.4820505380630493,0.8149307370185852,-0.8054119944572449
8.420013189315796,-0.3924552798271179,-0.6734377145767212,0.9170094728469849,-0.4838821291923523,0.8169568777084351,-0.8056997060775757
8.440065622329712,-0.3925897479057312,-0.6745612621307373,0.9169184565544128,-0.48442554473876953,0.8178234696388245,-0.8060194253921509
8.460134267807007,-0.3917790651321411,-0.6805009841918945,0.9176711440086365,-0.48375338315963745,0.8192040324211121,-0.8065856695175171
8.480611324310303,-0.39126092195510864,-0.6836532354354858,0.9186136722564697,-0.4835571050643921,0.8202688097953796,-0.8069466352462769
8.50071930885315,-0.3917005658149719,-0.684639573097229,0.9186588525772095,-0.4830004572868347,0.8219177722930908,-0.8076993227005005
8.520788669586182,-0.3934486508369446,-0.6843419075012207,0.9203318953514099,-0.4815141558647156,0.8222034573554993,-0.8085172772407532
8.540867328643799,-0.39277976751327515,-0.685496985912323,0.9210968613624573,-0.4802100956439972,0.8230355381965637,-0.8089833855628967
8.560949325561523,-0.39336663484573364,-0.6847538948059082,0.9242466688156128,-0.4801061153411865,0.8236828446388245,-0.8098345994949341
8.581679582595825,-0.39250296354293823,-0.6843974590301514,0.9250460267066956,-0.4802343249320984,0.8266234993934631,-0.8105785846710205
8.6018385887146,-0.39369693398475647,-0.6837087869644165,0.9264979362487793,-0.47989922761917114,0.8257894515991211,-0.8110554814338684
8.621920824050903,-0.3912656307220459,-0.6822094321250916,0.9243649840354919,-0.48205599188804626,0.8290245532989502,-0.8115362524986267
8.641977548599243,-0.38932082056999207,-0.6809731125831604,0.9229841828346252,-0.4838137626647949,0.8312323093414307,-0.8117663264274597
8.662055730819702,-0.38868629932403564,-0.6826064586639404,0.9220342636108398,-0.4835858941078186,0.8331072330474854,-0.8125278353691101
8.682608366012573,-0.38786420226097107,-0.6833129525184631,0.9211028814315796,-0.48418769240379333,0.8348942995071411,-0.8133149147033691
8.70268726348877,-0.3901384770870209,-0.6836190223693848,0.9230979084968567,-0.4830664396286011,0.8341366052627563,-0.813834011554718
8.722769498825073,-0.3903369605541229,-0.6848185658454895,0.92410808801651,-0.48267662525177,0.8352342247962952,-0.8147790431976318
8.742843389511108,-0.39296576380729675,-0.68692946434021,0.9263050556182861,-0.4792572855949402,0.8337259888648987,-0.8154494762420654
8.763007402420044,-0.3941494822502136,-0.6860454082489014,0.9271506071090698,-0.4789070188999176,0.834779679775238,-0.8164143562316895
8.783024549484253,-0.3933100402355194,-0.6885601282119751,0.9273674488067627,-0.478971004486084,0.835706353187561,-0.8169203400611877
8.803169250488281,-0.3910919427871704,-0.6888424158096313,0.9267350435256958,-0.48082616925239563,0.8379193544387817,-0.8171104788780212
8.82328724861145,-0.3931426703929901,-0.6912422776222229,0.9273800253868103,-0.47736257314682007,0.8387740850448608,-0.8177608847618103
8.843408346176147,-0.3939979374408722,-0.6925212144851685,0.9294992089271545,-0.4774208068847656,0.8377477526664734,-0.818220853805542
8.863441944122314,-0.39344266057014465,-0.6918407678604126,0.9313037395477295,-0.4785575270652771,0.84039306640625,-0.8188856840133667
8.88363790512085,-0.3939034342765808,-0.6944005489349365,0.9310111403465271,-0.47787150740623474,0.8385336995124817,-0.8190869092941284
8.90373420715332,-0.3927750885486603,-0.6946007609367371,0.9336904883384705,-0.47805458307266235,0.8407039642333984,-0.8199467658996582
8.924107313156128,-0.39146554470062256,-0.6955039501190186,0.934974193572998,-0.4788246154785156,0.8433451652526855,-0.8203175663948059
8.944170236587524,-0.39037424325942993,-0.6953824162483215,0.9373254776000977,-0.4793752431869507,0.8465118408203125,-0.8213024139404297
8.964666366577148,-0.3921493887901306,-0.6951882839202881,0.9392493963241577,-0.4776019752025604,0.8472368121147156,-0.8222889304161072
8.98470163345337,-0.39480093121528625,-0.6963145136833191,0.9402852654457092,-0.47528475522994995,0.8464928865432739,-0.822881817817688
9.0058114528656,-0.3946671187877655,-0.6945141553878784,0.9406824111938477,-0.47621122002601624,0.8485172390937805,-0.823814868927002
9.025909423828125,-0.3934295177459717,-0.6966966986656189,0.9413548707962036,-0.476586252450943,0.8490810990333557,-0.8240901231765747
9.046653509140015,-0.3928757607936859,-0.6995400190353394,0.9416412711143494,-0.47570669651031494,0.8488223552703857,-0.8248975276947021
9.06683087348938,-0.39388221502304077,-0.699080228805542,0.9424589276313782,-0.4756198823451996,0.8489496111869812,-0.8253635764122009
9.086860179901123,-0.3938744068145752,-0.7014339566230774,0.9459779858589172,-0.4756167531013489,0.8507503867149353,-0.8262213468551636
9.106932640075684,-0.39175882935523987,-0.7033292055130005,0.9461003541946411,-0.47644054889678955,0.8532657027244568,-0.8265461921691895
9.127042770385742,-0.3926584720611572,-0.7058892846107483,0.9463802576065063,-0.4755633771419525,0.8549758195877075,-0.8273907899856567
9.147209405899048,-0.3939518332481384,-0.7055124044418335,0.9462525844573975,-0.4746943414211273,0.8550307750701904,-0.8279257416725159
9.167360544204712,-0.3946616053581238,-0.7035267353057861,0.9454729557037354,-0.4753701090812683,0.8559294939041138,-0.8288149833679199
9.187498331069946,-0.39363712072372437,-0.7050992250442505,0.9433242678642273,-0.4748377203941345,0.8568102717399597,-0.8296620845794678
9.207489967346191,-0.394472599029541,-0.7071382999420166,0.94391930103302,-0.4738675355911255,0.8561661243438721,-0.8301005363464355
9.22770380973816,-0.39171531796455383,-0.7089917659759521,0.9440197944641113,-0.47567474842071533,0.8576977252960205,-0.830880343914032
9.24776315689087,-0.3928036093711853,-0.7108789682388306,0.9449726343154907,-0.47427958250045776,0.8577167987823486,-0.831365704536438
9.267925024032593,-0.3910336196422577,-0.7112235426902771,0.9400673508644104,-0.47447100281715393,0.8553656935691833,-0.8317832350730896
9.288097381591797,-0.38955971598625183,-0.7055472731590271,0.9341946244239807,-0.4774777293205261,0.8580700159072876,-0.8327226042747498
9.30813717842102,-0.388641893863678,-0.6996273398399353,0.9320716857910156,-0.4825657904148102,0.8620216250419617,-0.833903431892395
9.328256845474243,-0.3888551592826843,-0.7022368907928467,0.9316060543060303,-0.4822281002998352,0.8617053627967834,-0.8343093991279602
9.348389148712158,-0.38941439986228943,-0.7050225734710693,0.9341140985488892,-0.481259822845459,0.8621047735214233,-0.8354964256286621
9.368430137634277,-0.3889904320240021,-0.704008162021637,0.936195969581604,-0.481480211019516,0.864157497882843,-0.8361472487449646
9.38862419128418,-0.38928574323654175,-0.7078593969345093,0.9437335729598999,-0.4803088903427124,0.8666653037071228,-0.837508499622345
9.409117221832275,-0.3901902139186859,-0.711570143699646,0.9463323354721069,-0.47717374563217163,0.8682469725608826,-0.8384243249893188
9.429224729537964,-0.391544371843338,-0.7137738466262817,0.949463963508606,-0.47560012340545654,0.8675180673599243,-0.8389325141906738
9.449475288391113,-0.3914296627044678,-0.7164266109466553,0.9537242650985718,-0.47527015209198,0.8713566660881042,-0.8398374319076538
9.469552278518677,-0.39203953742980957,-0.7219182252883911,0.9557287096977234,-0.47203224897384644,0.8729712963104248,-0.8404901623725891
9.489691019058228,-0.39259544014930725,-0.7225320339202881,0.9565088152885437,-0.4718426465988159,0.8735324740409851,-0.8408116102218628
9.509765863418579,-0.393846333026886,-0.7250890731811523,0.959604799747467,-0.47017282247543335,0.8740831017494202,-0.8416032791137695
9.529846668243408,-0.3944511413574219,-0.7262979745864868,0.9619853496551514,-0.4694085717201233,0.8742432594299316,-0.8420849442481995
9.54991888999939,-0.3940151333808899,-0.7262563705444336,0.9641600847244263,-0.4702072739601135,0.8750868439674377,-0.8429226875305176
9.570082187652588,-0.39226233959198,-0.7252022624015808,0.9644074440002441,-0.4709647297859192,0.8770110011100769,-0.843454122543335
9.590192079544067,-0.39130717515945435,-0.7329328656196594,0.9663715958595276,-0.4690713584423065,0.8779802322387695,-0.8441393971443176
9.61023998260498,-0.3906826972961426,-0.7379278540611267,0.9670917987823486,-0.4677239656448364,0.8800023198127747,-0.8447567820549011
9.630340576171875,-0.39149361848831177,-0.7397105097770691,0.9677683115005493,-0.46637415885925293,0.8801079988479614,-0.8451347947120667
9.650391101837158,-0.39275169372558594,-0.7408036589622498,0.9720912575721741,-0.4652818739414215,0.8832458257675171,-0.8462413549423218
9.670619010925293,-0.3948248624801636,-0.7393470406532288,0.972599446773529,-0.46435216069221497,0.883419394493103,-0.8469449877738953
9.69072413444519,-0.39567336440086365,-0.7383096814155579,0.9723403453826904,-0.4640759825706482,0.8840280771255493,-0.8473519682884216
9.710803508758545,-0.39845773577690125,-0.7352667450904846,0.975953996181488,-0.4627540111541748,0.8810147047042847,-0.8486377000808716
9.730966567993164,-0.39890551567077637,-0.733564019203186,0.9762017726898193,-0.46295106410980225,0.8802783489227295,-0.8491235971450806
9.751075267791748,-0.39796334505081177,-0.7344105839729309,0.9762018918991089,-0.4619157910346985,0.8809323310852051,-0.8499422073364258
9.771155595779419,-0.3970597982406616,-0.7320730686187744,0.975715160369873,-0.4625665545463562,0.8823935985565186,-0.8509814143180847
9.791325807571411,-0.3952350914478302,-0.7295754551887512,0.9744069576263428,-0.4642685055732727,0.8845981359481812,-0.8515186905860901
9.811347007751465,-0.3926064372062683,-0.7286165356636047,0.9775294065475464,-0.4674989879131317,0.8896207809448242,-0.852567732334137
9.831500053405762,-0.3933258056640625,-0.7289761304855347,0.979966938495636,-0.4674554467201233,0.8894179463386536,-0.8531296849250793
9.85165810585022,-0.3918707072734833,-0.7361737489700317,0.9833822846412659,-0.4661809206008911,0.8919357657432556,-0.8539081811904907
9.8721022605896,-0.39283671975135803,-0.7422947287559509,0.9879441857337952,-0.4635160267353058,0.8929130434989929,-0.8548932671546936
9.892204523086548,-0.39296627044677734,-0.7450039982795715,0.9882426857948303,-0.4627437889575958,0.8933794498443604,-0.855141282081604
9.912250757217407,-0.39471927285194397,-0.7519127726554871,0.9895073175430298,-0.46016979217529297,0.8934029340744019,-0.855733335018158
9.932344198226929,-0.3954300284385681,-0.7535491585731506,0.9906967282295227,-0.4592058062553406,0.8934850096702576,-0.8561451435089111
9.952443361282349,-0.3952113389968872,-0.7577799558639526,0.9920368194580078,-0.4585403800010681,0.8941348791122437,-0.8567059636116028
9.972557544708252,-0.39542505145072937,-0.7598348259925842,0.994133710861206,-0.4582533836364746,0.8934467434883118,-0.8571390509605408
9.992762327194214,-0.39591506123542786,-0.7627975344657898,0.9958789348602295,-0.4576886296272278,0.8917210102081299,-0.8578901886940002
10.012911558151245,-0.39448052644729614,-0.7614871263504028,0.99445641040802,-0.45875564217567444,0.8931501507759094,-0.858812689781189
10.032949686050415,-0.39186879992485046,-0.7623839378356934,0.9940683841705322,-0.4596145451068878,0.895943820476532,-0.8593320250511169
10.053058862686157,-0.3893345594406128,-0.7560513019561768,0.9915001392364502,-0.4625999331474304,0.8994230628013611,-0.8609395027160645
10.073252201080322,-0.3905433714389801,-0.7531339526176453,0.9919356107711792,-0.46331021189689636,0.9018522500991821,-0.8623805046081543
10.093351364135742,-0.39276134967803955,-0.7523308992385864,0.9947102665901184,-0.46198081970214844,0.9024967551231384,-0.8633043169975281
10.113449811935425,-0.3943088948726654,-0.7495932579040527,0.9955129027366638,-0.4611871838569641,0.9050981998443604,-0.8646821975708008
10.133583068847656,-0.39506441354751587,-0.7522231936454773,0.9980947971343994,-0.45987820625305176,0.9062409400939941,-0.865218997001648
10.153732538223267,-0.3961067497730255,-0.7556334137916565,1.0008667707443237,-0.458712100982666,0.9051622152328491,-0.8662724494934082
10.173778295516968,-0.39568033814430237,-0.7583863735198975,1.0025352239608765,-0.45839422941207886,0.9055061340332031,-0.8666534423828125
10.193975687026978,-0.3944642245769501,-0.7720059752464294,1.0056053400039673,-0.45473358035087585,0.9045042395591736,-0.8671392202377319
10.214066505432129,-0.39470332860946655,-0.7798174619674683,1.0092885494232178,-0.4530823826789856,0.9032294750213623,-0.8678168654441833
10.234131574630737,-0.394370436668396,-0.7840696573257446,1.0090947151184082,-0.45182377099990845,0.9031137824058533,-0.8681343793869019
10.25417160987854,-0.39193156361579895,-0.7869542241096497,1.007411241531372,-0.4517950117588043,0.9033559560775757,-0.8691806197166443
10.2742919921875,-0.3917074501514435,-0.7883930206298828,1.0064148902893066,-0.4519222378730774,0.9038642644882202,-0.8695899248123169
10.294376373291016,-0.3892861008644104,-0.7835018038749695,1.005096197128296,-0.45462512969970703,0.9060001373291016,-0.871573805809021
10.314619779586792,-0.3895362615585327,-0.7753384709358215,1.0047709941864014,-0.456490159034729,0.909048318862915,-0.8736273646354675
10.334815740585327,-0.39123794436454773,-0.7734230160713196,1.0073473453521729,-0.45623934268951416,0.9109643697738647,-0.8745560646057129
10.354971170425415,-0.39509743452072144,-0.7660978436470032,1.0147936344146729,-0.4552193284034729,0.9119091033935547,-0.8767539262771606
10.375098705291748,-0.39652618765830994,-0.7633958458900452,1.0200053453445435,-0.4548622667789459,0.9133947491645813,-0.877738356590271
10.395256042480469,-0.3997693657875061,-0.7651175856590271,1.031097173690796,-0.45164334774017334,0.9124971628189087,-0.8793280124664307
10.41525650024414,-0.4002155065536499,-0.7699273824691772,1.033493995666504,-0.4490380883216858,0.9118024110794067,-0.8797076344490051
10.435508728027344,-0.4002155661582947,-0.788317084312439,1.0390989780426025,-0.442100465297699,0.9090145230293274,-0.8800817728042603
10.455509662628174,-0.3998032212257385,-0.7964884042739868,1.0412428379058838,-0.4401097595691681,0.9072555303573608,-0.880156397819519
10.475730895996094,-0.3956664204597473,-0.8095831274986267,1.0405094623565674,-0.4417538344860077,0.9080008268356323,-0.880010724067688
10.495778799057007,-0.3910113275051117,-0.8161211013793945,1.0348418951034546,-0.44600749015808105,0.9077017903327942,-0.880268931388855
10.51595425605774,-0.3893927037715912,-0.8175976276397705,1.0341593027114868,-0.44758379459381104,0.9086440801620483,-0.8808785676956177
10.536044120788574,-0.3896443247795105,-0.8144211769104004,1.0314103364944458,-0.44929367303848267,0.9107215404510498,-0.8825118541717529
10.556185245513916,-0.3904159665107727,-0.8138683438301086,1.0337625741958618,-0.4488160312175751,0.9111543297767639,-0.883614718914032
10.576464414596558,-0.39390408992767334,-0.8012979030609131,1.03822660446167,-0.449047714471817,0.9127119779586792,-0.8863757848739624
10.596528053283691,-0.3972665071487427,-0.7959965467453003,1.046772837638855,-0.4468141794204712,0.9124463200569153,-0.8889658451080322
10.61660885810852,-0.3980022668838501,-0.7983310222625732,1.050843358039856,-0.44429394602775574,0.9138094782829285,-0.8900449275970459
10.63672137260437,-0.3977874517440796,-0.8133255243301392,1.0546437501907349,-0.43783092498779297,0.913494348526001,-0.8911340236663818
10.656816482543945,-0.39781561493873596,-0.8279510736465454,1.0541279315948486,-0.43192771077156067,0.9113304018974304,-0.8911616802215576
10.676905870437622,-0.3918776512145996,-0.847978949546814,1.0498569011688232,-0.43110063672065735,0.9113398790359497,-0.8911029100418091
10.69731068611145,-0.39017096161842346,-0.850233793258667,1.0518823862075806,-0.43395665287971497,0.9127390384674072,-0.8917238712310791
10.717703104019165,-0.39107322692871094,-0.8375236988067627,1.0594418048858643,-0.44261735677719116,0.9175214171409607,-0.8939540386199951
10.737707376480103,-0.3954305946826935,-0.8294263482093811,1.0694739818572998,-0.44291138648986816,0.9193739891052246,-0.8968008756637573
10.75778603553772,-0.39774832129478455,-0.8301770091056824,1.0743833780288696,-0.4399147033691406,0.9192906022071838,-0.8982688784599304
10.777891397476196,-0.39907538890838623,-0.8426790237426758,1.0758973360061646,-0.43151533603668213,0.9204121828079224,-0.899864137172699
10.797969102859497,-0.4001184403896332,-0.8480578064918518,1.0754754543304443,-0.4267112910747528,0.920555830001831,-0.9005764126777649
10.81813359260559,-0.3999212682247162,-0.8541661500930786,1.0751651525497437,-0.42475971579551697,0.92078697681427,-0.9015377163887024
10.83824372291565,-0.39629676938056946,-0.8567067384719849,1.0753839015960693,-0.428718239068985,0.9259231686592102,-0.9018299579620361
10.858329772949219,-0.39100179076194763,-0.85419100522995,1.0766336917877197,-0.4403735101222992,0.9371872544288635,-0.902603030204773
10.878591775894165,-0.3926157057285309,-0.8578972220420837,1.080272912979126,-0.43870458006858826,0.9374472498893738,-0.9033942222595215
10.898680686950684,-0.3946685194969177,-0.8640827536582947,1.0875104665756226,-0.4351920783519745,0.9385844469070435,-0.9049973487854004
10.918807029724121,-0.3969443738460541,-0.8679251670837402,1.0919725894927979,-0.4298163950443268,0.9364655613899231,-0.9064478874206543
10.938924074172974,-0.39778220653533936,-0.8673018217086792,1.0946446657180786,-0.4284587800502777,0.9365930557250977,-0.9071910381317139
10.959038257598877,-0.39898964762687683,-0.8610756397247314,1.0970664024353027,-0.4283038079738617,0.9394041895866394,-0.9086718559265137
10.97913384437561,-0.398902952671051,-0.8604405522346497,1.097486972808838,-0.4287543296813965,0.9410947561264038,-0.9091008901596069
10.999220132827759,-0.3974340856075287,-0.8653881549835205,1.0978695154190063,-0.4295242428779602,0.9463326334953308,-0.9095585942268372
11.019308090209961,-0.3974485993385315,-0.8704769611358643,1.1001996994018555,-0.4281785786151886,0.9484761953353882,-0.9098354578018188
11.039365768432617,-0.39705967903137207,-0.879888653755188,1.1027474403381348,-0.4271830916404724,0.9494621157646179,-0.910029411315918
11.05950403213501,-0.3968128561973572,-0.8818120956420898,1.1032050848007202,-0.4270489811897278,0.9500767588615417,-0.9102218747138977
11.079537630081177,-0.3977520167827606,-0.8753634095191956,1.1058259010314941,-0.42811447381973267,0.951897382736206,-0.9115403890609741
11.099574565887451,-0.39997971057891846,-0.8663633465766907,1.111742377281189,-0.4279319941997528,0.9537795782089233,-0.9131724834442139
11.119663715362549,-0.40088024735450745,-0.8717225790023804,1.114060878753662,-0.4243398904800415,0.9534494280815125,-0.9135397672653198
11.139760494232178,-0.40207672119140625,-0.8817471861839294,1.1150708198547363,-0.41796424984931946,0.9529330730438232,-0.9135645031929016
11.159841060638428,-0.40076538920402527,-0.8876065611839294,1.1147828102111816,-0.41713425517082214,0.9531062841415405,-0.913339376449585
11.17995309829712,-0.3952789604663849,-0.8880654573440552,1.1164929866790771,-0.4240337014198303,0.961035430431366,-0.9133785367012024
11.199982166290283,-0.3926961123943329,-0.885443389415741,1.1187360286712646,-0.43065884709358215,0.9649693965911865,-0.9133409261703491
11.220066785812378,-0.3934381902217865,-0.8826810717582703,1.1208804845809937,-0.4320106506347656,0.9673171639442444,-0.9141541719436646
11.240117073059082,-0.39608484506607056,-0.8916382789611816,1.1243902444839478,-0.42411577701568604,0.9647822976112366,-0.9150173664093018
11.260378360748291,-0.39957594871520996,-0.8950543999671936,1.1260223388671875,-0.41826358437538147,0.961418628692627,-0.9154408574104309
11.280442953109741,-0.4035146236419678,-0.8962127566337585,1.1271138191223145,-0.41029831767082214,0.9564483165740967,-0.9160882234573364
11.300447702407837,-0.40351468324661255,-0.8935818672180176,1.1263340711593628,-0.41038596630096436,0.9563593864440918,-0.9162516593933105
11.320523500442505,-0.40123313665390015,-0.889504075050354,1.1238372325897217,-0.4130319654941559,0.959731936454773,-0.9163693785667419
11.340678215026855,-0.3997316062450409,-0.8911627531051636,1.128119945526123,-0.41390442848205566,0.9645190238952637,-0.9164839386940002
11.360740184783936,-0.39934417605400085,-0.8962734341621399,1.129700779914856,-0.4124108552932739,0.9648619890213013,-0.9163501262664795
11.380815029144287,-0.3981054127216339,-0.9006999731063843,1.1345186233520508,-0.412769079208374,0.9674256443977356,-0.9162891507148743
11.400925397872925,-0.3975907862186432,-0.9010086059570312,1.1367064714431763,-0.4142458140850067,0.968940794467926,-0.9162774682044983
11.421080827713013,-0.39700111746788025,-0.9005866050720215,1.1394275426864624,-0.41608861088752747,0.9705523252487183,-0.9164671301841736
11.441078662872314,-0.397245317697525,-0.9060021638870239,1.1394872665405273,-0.4138558506965637,0.9681801795959473,-0.916596531867981
11.461188793182373,-0.397610604763031,-0.9079713225364685,1.1410325765609741,-0.4124244749546051,0.9671083092689514,-0.9168022871017456
11.481258630752563,-0.3976131081581116,-0.9121686220169067,1.143221139907837,-0.4104081094264984,0.9670595526695251,-0.9169492125511169
11.501429557800293,-0.39757946133613586,-0.9111804962158203,1.1438450813293457,-0.41018983721733093,0.9676242470741272,-0.9171160459518433
11.521479368209839,-0.39705654978752136,-0.9114012122154236,1.1437073945999146,-0.409749835729599,0.9690908789634705,-0.9172706604003906
11.541592597961426,-0.39699891209602356,-0.9067567586898804,1.1450611352920532,-0.41111817955970764,0.970872163772583,-0.9176212549209595
11.561663627624512,-0.3977482318878174,-0.9015909433364868,1.1468169689178467,-0.41022419929504395,0.971098005771637,-0.9183713793754578
11.581758975982666,-0.3978514075279236,-0.9040186405181885,1.1487302780151367,-0.4093511402606964,0.970958948135376,-0.9184332489967346
11.601831912994385,-0.3979213237762451,-0.9079594612121582,1.1517516374588013,-0.4068129062652588,0.9722551107406616,-0.9185078740119934
11.622002840042114,-0.39725908637046814,-0.918196439743042,1.1516525745391846,-0.4045548439025879,0.9689450860023499,-0.9179531335830688
11.642203330993652,-0.3962579071521759,-0.9200859069824219,1.1504974365234375,-0.4051671624183655,0.9693487286567688,-0.9176868200302124
11.662217855453491,-0.3947393298149109,-0.9192816019058228,1.1499394178390503,-0.4088062644004822,0.9711543321609497,-0.9174244403839111
11.682435750961304,-0.39494532346725464,-0.916276216506958,1.1510002613067627,-0.4099697470664978,0.9716519117355347,-0.917699933052063
11.702490091323853,-0.3956071436405182,-0.9108651876449585,1.154044508934021,-0.41007521748542786,0.972554624080658,-0.9185634255409241
11.72282361984253,-0.39606553316116333,-0.9095892906188965,1.1557379961013794,-0.4088204801082611,0.9728612899780273,-0.9189614057540894
11.743055820465088,-0.3969237804412842,-0.9121530652046204,1.1588854789733887,-0.4045700132846832,0.9723007678985596,-0.9195359349250793
11.762998819351196,-0.3971530795097351,-0.9174891710281372,1.159041404724121,-0.39957064390182495,0.9720681309700012,-0.9196599721908569
11.783109426498413,-0.3965878486633301,-0.9199768304824829,1.158486008644104,-0.3988035321235657,0.9722437262535095,-0.9195075035095215
11.803184986114502,-0.3921910226345062,-0.9236476421356201,1.155738115310669,-0.4011765420436859,0.9744752645492554,-0.9191205501556396
11.823425769805908,-0.39228472113609314,-0.92347252368927,1.1571176052093506,-0.401939332485199,0.9751831889152527,-0.9191160798072815
11.843573808670044,-0.3945794999599457,-0.9245549440383911,1.160933017730713,-0.4009448289871216,0.9743459224700928,-0.9193507432937622
11.863620042800903,-0.39637914299964905,-0.9249087572097778,1.1636176109313965,-0.397882878780365,0.9729178547859192,-0.9198518991470337
11.883836030960083,-0.3967616856098175,-0.9260227680206299,1.1647794246673584,-0.39652952551841736,0.9720065593719482,-0.9199968576431274
11.903951644897461,-0.3981817960739136,-0.9279583692550659,1.1661903858184814,-0.39347782731056213,0.9701018929481506,-0.9201237559318542
11.92397403717041,-0.3984169661998749,-0.9288038611412048,1.1655126810073853,-0.3922562301158905,0.9689116477966309,-0.9201737642288208
11.944146633148193,-0.3967776894569397,-0.9262444972991943,1.164505124092102,-0.39520585536956787,0.9708857536315918,-0.9199762344360352
11.964208126068115,-0.39491143822669983,-0.9270329475402832,1.1646238565444946,-0.3986819088459015,0.9735103845596313,-0.9196447730064392
11.984471797943115,-0.3945859670639038,-0.9279269576072693,1.1653798818588257,-0.39888179302215576,0.9743191599845886,-0.9196640253067017
12.004470348358154,-0.394320011138916,-0.9282419681549072,1.1671631336212158,-0.39937376976013184,0.974623441696167,-0.9198570847511292
12.024637937545776,-0.3942957818508148,-0.9301208853721619,1.167550802230835,-0.39839258790016174,0.9746035933494568,-0.919946014881134
12.044679403305054,-0.39470651745796204,-0.9330962896347046,1.169152021408081,-0.3956373333930969,0.9742754697799683,-0.9202075004577637
12.064926624298096,-0.3948785066604614,-0.9322808980941772,1.1701500415802002,-0.3951009511947632,0.9736961722373962,-0.9205214381217957
12.08505654335022,-0.39476948976516724,-0.9322800040245056,1.171339988708496,-0.39538490772247314,0.9743841290473938,-0.9205960631370544
12.105226516723633,-0.39477482438087463,-0.9327153563499451,1.1711562871932983,-0.3940547704696655,0.9743400812149048,-0.9208093881607056
12.125242233276367,-0.39488551020622253,-0.9332518577575684,1.171287178993225,-0.39338046312332153,0.9737032055854797,-0.9209154844284058
12.14534592628479,-0.3946448564529419,-0.9327573180198669,1.1704713106155396,-0.39271092414855957,0.9737210869789124,-0.9210673570632935
12.16584849357605,-0.39446893334388733,-0.9314402341842651,1.1705745458602905,-0.39284464716911316,0.9736964106559753,-0.9212610721588135
12.186076879501343,-0.3941081464290619,-0.9302604794502258,1.1701829433441162,-0.39360302686691284,0.9737988710403442,-0.9212990999221802
12.206151485443115,-0.3939940333366394,-0.9342951774597168,1.171294927597046,-0.3917362093925476,0.9740414023399353,-0.9213421940803528
12.226285934448242,-0.3940297067165375,-0.936798095703125,1.1713829040527344,-0.39068955183029175,0.9731041193008423,-0.921320378780365
12.246423482894897,-0.3940889835357666,-0.9382588863372803,1.1719913482666016,-0.3897249102592468,0.9718433022499084,-0.9214068055152893
12.26650094985962,-0.3932898938655853,-0.9373131990432739,1.1718013286590576,-0.3907416760921478,0.9729163646697998,-0.9214896559715271
12.28665804862976,-0.3934474587440491,-0.937781810760498,1.1725209951400757,-0.3901841938495636,0.9727516174316406,-0.9216069579124451
12.306650876998901,-0.39441514015197754,-0.9370119571685791,1.17429780960083,-0.38858163356781006,0.9714483618736267,-0.9219531416893005
12.326930046081543,-0.3948996961116791,-0.9344290494918823,1.1761349439620972,-0.3878656029701233,0.9715839624404907,-0.9223594665527344
12.347132921218872,-0.3949606418609619,-0.9339548945426941,1.17709481716156,-0.38769465684890747,0.9718514680862427,-0.9224369525909424
12.367134809494019,-0.3943779468536377,-0.9359569549560547,1.1759501695632935,-0.38726556301116943,0.9716492891311646,-0.9222683906555176
12.387230396270752,-0.39402082562446594,-0.9362209439277649,1.1749370098114014,-0.3871309459209442,0.9718018770217896,-0.9222014546394348
12.407328128814697,-0.39402860403060913,-0.9392744302749634,1.175201654434204,-0.38703709840774536,0.9715938568115234,-0.9219174385070801
12.427531242370605,-0.39402496814727783,-0.9414361715316772,1.174349308013916,-0.38664984703063965,0.9715162515640259,-0.9216039180755615
12.44754672050476,-0.3938281536102295,-0.9449741840362549,1.1739333868026733,-0.38625258207321167,0.970687210559845,-0.9213427901268005
12.467668771743774,-0.3961373269557953,-0.944210946559906,1.1767083406448364,-0.38495099544525146,0.9693896174430847,-0.9214486479759216
12.487753629684448,-0.39681297540664673,-0.9429376721382141,1.1784818172454834,-0.38488292694091797,0.9692809581756592,-0.9215438365936279
12.507890462875366,-0.39929959177970886,-0.9428108930587769,1.1805697679519653,-0.38208386301994324,0.9672421216964722,-0.9216033220291138
12.528037786483765,-0.3990055322647095,-0.9428616762161255,1.1816861629486084,-0.3818742632865906,0.9667407274246216,-0.9216395020484924
12.548173666000366,-0.3979591131210327,-0.9421616196632385,1.1829414367675781,-0.3814705014228821,0.9672255516052246,-0.921743631362915
12.568272829055786,-0.39666131138801575,-0.9424098134040833,1.1827442646026611,-0.3819999396800995,0.9673348069190979,-0.9216076135635376
12.58841872215271,-0.3954788148403168,-0.9439129829406738,1.181739330291748,-0.38251861929893494,0.9680644869804382,-0.9214134216308594
12.608527421951294,-0.39451268315315247,-0.9455382227897644,1.1819255352020264,-0.38234880566596985,0.9698104858398438,-0.9212843179702759
12.628768920898438,-0.39397597312927246,-0.9459041357040405,1.181877613067627,-0.38283491134643555,0.9693527817726135,-0.9212377071380615
12.648917198181152,-0.3928651511669159,-0.9461826682090759,1.1818029880523682,-0.38371220231056213,0.9700548648834229,-0.9211609959602356
12.668936014175415,-0.39269915223121643,-0.9456638097763062,1.1824908256530762,-0.3842345178127289,0.9700799584388733,-0.9212073087692261
12.689064502716064,-0.3927799463272095,-0.9428040981292725,1.183422327041626,-0.3851986825466156,0.9703719615936279,-0.9214056730270386
12.709674835205078,-0.39295265078544617,-0.9425985217094421,1.1848658323287964,-0.38498571515083313,0.9701507091522217,-0.9216038584709167
12.72986888885498,-0.39287102222442627,-0.9437212944030762,1.1846400499343872,-0.38443562388420105,0.9698241949081421,-0.9216108918190002
12.749912977218628,-0.3913150131702423,-0.9458507895469666,1.1836621761322021,-0.3845676779747009,0.9701968431472778,-0.9215856194496155
12.770006656646729,-0.3905074894428253,-0.9469209313392639,1.183035135269165,-0.3846103847026825,0.9706958532333374,-0.9215734004974365
12.790120363235474,-0.39071765542030334,-0.9471679925918579,1.1837544441223145,-0.38428035378456116,0.9707365036010742,-0.9216750860214233
12.810180425643921,-0.390971839427948,-0.9457518458366394,1.1838947534561157,-0.3843003213405609,0.97071772813797,-0.9218082427978516
12.830315828323364,-0.3914104998111725,-0.948030948638916,1.1837698221206665,-0.38281235098838806,0.970384418964386,-0.9217833876609802
12.850414037704468,-0.3917231857776642,-0.9484070539474487,1.1843159198760986,-0.3820345103740692,0.9700503945350647,-0.9218769669532776
12.870439767837524,-0.402212530374527,-0.9669656157493591,1.1582908630371094,-0.3512026071548462,0.9612550139427185,-0.9034383296966553
12.89053726196289,-0.4072719216346741,-0.9759607315063477,1.1451553106307983,-0.3357037901878357,0.9569259881973267,-0.8941112160682678
12.910658836364746,-0.417075514793396,-0.9915717244148254,1.1183428764343262,-0.3044343888759613,0.9491438269615173,-0.8741044402122498
12.931730270385742,-0.4266127347946167,-1.0020407438278198,1.0922086238861084,-0.27104708552360535,0.9414211511611938,-0.8531079292297363
12.951826572418213,-0.43064090609550476,-1.0080695152282715,1.0793447494506836,-0.25412777066230774,0.9374600648880005,-0.8428611755371094
12.971927881240845,-0.4381444752216339,-1.0145703554153442,1.054219365119934,-0.21865959465503693,0.9301882386207581,-0.8216690421104431
12.991999626159668,-0.44153735041618347,-1.019315242767334,1.0421080589294434,-0.2007264792919159,0.925813615322113,-0.8114928007125854
13.012111902236938,-0.44641128182411194,-1.0302762985229492,1.0174808502197266,-0.1651764065027237,0.918860912322998,-0.7906646132469177
13.032175302505493,-0.44737493991851807,-1.0340923070907593,1.0052399635314941,-0.14687655866146088,0.9167924523353577,-0.7796870470046997
13.052296161651611,-0.44921302795410156,-1.0486795902252197,0.9803299307823181,-0.11258295178413391,0.909903347492218,-0.7588472366333008
13.072574853897095,-0.4505027234554291,-1.0642668008804321,0.9571437239646912,-0.07833251357078552,0.9010881781578064,-0.7379063367843628
13.092704057693481,-0.4508645236492157,-1.0719434022903442,0.945815920829773,-0.06098619103431702,0.8965514302253723,-0.7271293997764587
13.112850904464722,-0.4506581127643585,-1.0918976068496704,0.9219157099723816,-0.02946181781589985,0.8850609064102173,-0.707453191280365
13.133057117462158,-0.44905343651771545,-1.1006985902786255,0.9074118733406067,-0.01551480870693922,0.8797858953475952,-0.6968578696250916
13.153053760528564,-0.4472373127937317,-1.1209349632263184,0.8808355927467346,0.013081847690045834,0.8654985427856445,-0.6781951785087585
13.173156261444092,-0.44556039571762085,-1.1269583702087402,0.8685320615768433,0.02527666464447975,0.8586182594299316,-0.66986083984375
13.193267345428467,-0.44048207998275757,-1.1438562870025635,0.843928337097168,0.04531598836183548,0.8474615216255188,-0.6554594039916992
13.213397741317749,-0.4361101984977722,-1.1594414710998535,0.826357901096344,0.06330646574497223,0.8383087515830994,-0.6444391012191772
13.23347544670105,-0.4338630735874176,-1.1659469604492188,0.8190174102783203,0.07045845687389374,0.8352236747741699,-0.6398658752441406
13.253537893295288,-0.4291296601295471,-1.1780275106430054,0.8047323226928711,0.08155252784490585,0.829246461391449,-0.6320066452026367
13.27437162399292,-0.42707788944244385,-1.1807948350906372,0.7997063398361206,0.08594042807817459,0.8269487023353577,-0.6289724707603455
13.294698238372803,-0.4226449429988861,-1.1841827630996704,0.7909539341926575,0.09073547273874283,0.8233254551887512,-0.6239832639694214
13.315376996994019,-0.41910919547080994,-1.1904382705688477,0.7832968831062317,0.09676650911569595,0.8191565871238708,-0.6199557185173035
13.335553407669067,-0.4175804555416107,-1.194702386856079,0.7798299789428711,0.09999369084835052,0.817014217376709,-0.6181635856628418
13.35559344291687,-0.41499635577201843,-1.1973103284835815,0.7762549519538879,0.10386787354946136,0.8137590289115906,-0.615648090839386
13.375794410705566,-0.4136035442352295,-1.1987895965576172,0.7739249467849731,0.10499950498342514,0.8126770853996277,-0.6144970655441284
13.395769834518433,-0.41101187467575073,-1.2025671005249023,0.7696800231933594,0.10671205818653107,0.811873197555542,-0.6124943494796753
13.415857076644897,-0.4100571870803833,-1.2046935558319092,0.7679821252822876,0.10814154148101807,0.8113940954208374,-0.6116485595703125
13.435946702957153,-0.4087836742401123,-1.2037997245788574,0.7679634094238281,0.11025277525186539,0.8101135492324829,-0.6107399463653564
13.456029653549194,-0.408243328332901,-1.2040588855743408,0.7680312991142273,0.11150108277797699,0.8093562126159668,-0.6103052496910095
13.47621750831604,-0.40749651193618774,-1.2024602890014648,0.7693933248519897,0.11322467029094696,0.8086084127426147,-0.6098113059997559
13.496242046356201,-0.4065536856651306,-1.2029949426651,0.7685792446136475,0.11489389836788177,0.8072739839553833,-0.609123170375824
13.51644492149353,-0.40621477365493774,-1.2016174793243408,0.7688167691230774,0.11559927463531494,0.8068541884422302,-0.6089469790458679
13.536601066589355,-0.405355304479599,-1.2029577493667603,0.7682897448539734,0.11628541350364685,0.8059223294258118,-0.6084025502204895
13.556580781936646,-0.4048652946949005,-1.2030078172683716,0.7680373787879944,0.11624022573232651,0.8062193989753723,-0.6081467270851135
13.576786041259766,-0.40401479601860046,-1.2009721994400024,0.7687085270881653,0.11538577824831009,0.8062248229980469,-0.6079716086387634
13.596954107284546,-0.40320295095443726,-1.2018229961395264,0.7679492235183716,0.11549092829227448,0.8067256808280945,-0.6076006889343262
13.617151021957397,-0.40292632579803467,-1.202255368232727,0.7676452994346619,0.11569671332836151,0.8063405752182007,-0.6074778437614441
13.637220859527588,-0.4025380313396454,-1.2023078203201294,0.7684731483459473,0.11597063392400742,0.8056007623672485,-0.6073828935623169
13.657458782196045,-0.40242472290992737,-1.2021095752716064,0.7692656517028809,0.11605751514434814,0.8056423664093018,-0.6074029803276062
13.677649021148682,-0.40178200602531433,-1.2008857727050781,0.7689325213432312,0.11547888815402985,0.8055281043052673,-0.607330858707428
13.697706460952759,-0.40132197737693787,-1.198960304260254,0.7697764039039612,0.11487644910812378,0.8063437342643738,-0.6073758006095886
13.717812061309814,-0.4012371003627777,-1.1982135772705078,0.7701806426048279,0.11517458409070969,0.8062480688095093,-0.6073961853981018
13.737942218780518,-0.40086692571640015,-1.2001441717147827,0.7694478034973145,0.11606235057115555,0.8053922057151794,-0.607106626033783
13.758736610412598,-0.40082913637161255,-1.198432207107544,0.7703083157539368,0.11633144319057465,0.8054036498069763,-0.6071822047233582
13.778890132904053,-0.4003262519836426,-1.1986281871795654,0.7706006169319153,0.11587750911712646,0.8058847188949585,-0.6070510149002075
13.798969268798828,-0.4002417027950287,-1.200576663017273,0.7708721160888672,0.11739186942577362,0.8051127791404724,-0.6068386435508728
13.819055557250977,-0.3999016582965851,-1.2003055810928345,0.7711086869239807,0.11646396666765213,0.8058966398239136,-0.6067911386489868
13.839130401611328,-0.39995771646499634,-1.2009267807006836,0.7720025181770325,0.11749270558357239,0.8056588172912598,-0.6067047119140625
13.85948896408081,-0.39965420961380005,-1.200621247291565,0.771643877029419,0.11732803285121918,0.8052659630775452,-0.6065874695777893
13.87967562675476,-0.39880266785621643,-1.1973633766174316,0.7723539471626282,0.11474832892417908,0.8071104288101196,-0.6066205501556396
13.899696111679077,-0.39848005771636963,-1.1979444026947021,0.7721331715583801,0.11569201201200485,0.8067306280136108,-0.606450617313385
13.919770956039429,-0.3983173370361328,-1.199002742767334,0.7721041440963745,0.11609947681427002,0.8067038059234619,-0.6063524484634399
13.939871311187744,-0.3981938362121582,-1.2003008127212524,0.7729296684265137,0.1171024888753891,0.8065849542617798,-0.6062983274459839
13.960594654083252,-0.3978070914745331,-1.1993532180786133,0.7727358341217041,0.11744815111160278,0.80582594871521,-0.6062782406806946
13.980660200119019,-0.39743897318840027,-1.199263334274292,0.7726311087608337,0.11695948243141174,0.8059604167938232,-0.6062321066856384
14.000773191452026,-0.3972153663635254,-1.1976710557937622,0.7740533351898193,0.11704294383525848,0.8060898184776306,-0.6064268350601196
14.020852327346802,-0.3972715139389038,-1.1977638006210327,0.7752983570098877,0.11722458153963089,0.8062722086906433,-0.6065476536750793
14.04092788696289,-0.3973242938518524,-1.1970080137252808,0.7763485908508301,0.11864763498306274,0.8052665591239929,-0.6066443920135498
14.061105251312256,-0.3971591293811798,-1.1967965364456177,0.7772014141082764,0.11814139038324356,0.8056834936141968,-0.6066702604293823
14.081182956695557,-0.3967853784561157,-1.1981818675994873,0.7767966389656067,0.11855044960975647,0.8053106069564819,-0.6064953207969666
14.101308822631836,-0.39658594131469727,-1.2006267309188843,0.777076005935669,0.11979998648166656,0.805079996585846,-0.6062578558921814
14.121448993682861,-0.3963400721549988,-1.1987907886505127,0.7779900431632996,0.11923997849225998,0.8054381012916565,-0.606359601020813
14.141486883163452,-0.3959851861000061,-1.1988790035247803,0.7777196764945984,0.11965334415435791,0.8046067357063293,-0.60627281665802
14.16156792640686,-0.3955908417701721,-1.2005118131637573,0.7775711417198181,0.11993078887462616,0.804973840713501,-0.606123685836792
14.181725263595581,-0.39536893367767334,-1.1991310119628906,0.7779331207275391,0.11971508711576462,0.8052217364311218,-0.6061735153198242
14.201752424240112,-0.3954422175884247,-1.201946496963501,0.7781281471252441,0.12159010022878647,0.8041763305664062,-0.6059826612472534
14.221846103668213,-0.39556702971458435,-1.2027957439422607,0.7788095474243164,0.12266639620065689,0.8039636015892029,-0.6059117913246155
14.241914749145508,-0.3952942192554474,-1.2018059492111206,0.7790209054946899,0.12300994992256165,0.8038709163665771,-0.6057651042938232
14.26199460029602,-0.3946763873100281,-1.2004799842834473,0.7783911824226379,0.1215750053524971,0.8043816089630127,-0.6056473255157471
14.282080888748169,-0.39427703619003296,-1.1997255086898804,0.7789496183395386,0.12187051773071289,0.8050697445869446,-0.6055706739425659
14.30242109298706,-0.3936469256877899,-1.2003698348999023,0.7778893113136292,0.12193222343921661,0.8046936988830566,-0.6053476929664612
14.322522163391113,-0.3934647738933563,-1.2012393474578857,0.7777091860771179,0.12198714166879654,0.8047113418579102,-0.6052661538124084
14.342732667922974,-0.3932015895843506,-1.2002524137496948,0.7781717777252197,0.12259204685688019,0.8042491674423218,-0.6052694916725159
14.362948179244995,-0.3926459848880768,-1.1979799270629883,0.7787702083587646,0.12047691643238068,0.8051863312721252,-0.6053779721260071
14.383082151412964,-0.3923828899860382,-1.1957480907440186,0.7797486782073975,0.12052836269140244,0.8063399195671082,-0.6055206060409546
14.403112649917603,-0.3925046920776367,-1.1961495876312256,0.7806459069252014,0.12134908139705658,0.8061063289642334,-0.6055814027786255
14.423219680786133,-0.3923727869987488,-1.1952465772628784,0.7815685868263245,0.12191121280193329,0.8052988052368164,-0.6056869029998779
14.443305015563965,-0.39232397079467773,-1.1956682205200195,0.7818256616592407,0.12231504172086716,0.8049986958503723,-0.6056678295135498
14.463388204574585,-0.39225253462791443,-1.1942853927612305,0.7839446663856506,0.12207220494747162,0.8054154515266418,-0.605796217918396
14.483518838882446,-0.392094224691391,-1.1955409049987793,0.7839270234107971,0.1223471611738205,0.8049004673957825,-0.6056634187698364
14.503627300262451,-0.3918761909008026,-1.1925101280212402,0.785994827747345,0.12181486189365387,0.8048740029335022,-0.6058776378631592
14.523708820343018,-0.3912549316883087,-1.192537784576416,0.7855005860328674,0.12125343084335327,0.8049325346946716,-0.6057418584823608
14.543853282928467,-0.39116284251213074,-1.1928937435150146,0.7855583429336548,0.12188425660133362,0.8049613237380981,-0.6056687235832214
14.563960552215576,-0.39106324315071106,-1.1945019960403442,0.7869428396224976,0.12205466628074646,0.8045708537101746,-0.6056541800498962
14.584042310714722,-0.39098984003067017,-1.1958047151565552,0.7868964076042175,0.12245681881904602,0.8043048977851868,-0.6055554151535034
14.604211807250977,-0.3907563388347626,-1.1929972171783447,0.7880333662033081,0.12246574461460114,0.804548442363739,-0.6056028008460999
14.624236583709717,-0.3901902139186859,-1.1902074813842773,0.7882047295570374,0.1216205582022667,0.8045692443847656,-0.6056037545204163
14.644384860992432,-0.38996338844299316,-1.1909785270690918,0.7878828048706055,0.12203659862279892,0.8049899935722351,-0.6054478287696838
14.664471626281738,-0.39011454582214355,-1.1885523796081543,0.7900985479354858,0.1230657547712326,0.804690420627594,-0.6056553721427917
14.684728145599365,-0.3901081681251526,-1.1906534433364868,0.7898608446121216,0.1241760328412056,0.8033968806266785,-0.6055008172988892
