liuyurong129/humanoid-gym/humanoid/data/target_q_20250522-033921.csv
timestamp,joint_1,joint_2,joint_3,joint_4,joint_5,joint_6
5.364418029785156e-05,0.0,0.0,0.0,0.0,0.0,0.0
0.020131349563598633,0.0,0.0,0.0,0.0,0.0,0.0
0.04021310806274414,0.0,0.0,0.0,0.0,0.0,0.0
0.06029200553894043,0.0,0.0,0.0,0.0,0.0,0.0
0.08037662506103516,0.0,0.0,0.0,0.0,0.0,0.0
0.10044026374816895,0.7321035861968994,-0.9154051542282104,1.3433144092559814,-0.4251604676246643,-0.03758557513356209,-0.2180337756872177
0.12053179740905762,0.7126985192298889,-0.9463268518447876,1.317428708076477,-0.42065465450286865,-0.02008981443941593,-0.2309398502111435
0.14167284965515137,0.6920324563980103,-0.9725877642631531,1.2879120111465454,-0.41198092699050903,-0.00370600912719965,-0.2438197284936905
0.16181182861328125,0.6811954975128174,-0.9836613535881042,1.271966576576233,-0.4063462018966675,0.003969394601881504,-0.25014564394950867
0.1819140911102295,0.6576511859893799,-1.003653645515442,1.239812970161438,-0.3938531279563904,0.018043944612145424,-0.26268595457077026
0.20197033882141113,0.644953727722168,-1.0133426189422607,1.224312663078308,-0.3874031901359558,0.024834677577018738,-0.2691609859466553
0.2221229076385498,0.6234036684036255,-1.0288455486297607,1.2000904083251953,-0.37628456950187683,0.03565598279237747,-0.27998965978622437
0.24226927757263184,0.6061778664588928,-1.040289044380188,1.1816370487213135,-0.3668758273124695,0.04362746328115463,-0.2883203327655792
0.2623867988586426,0.5986090898513794,-1.044915795326233,1.1736928224563599,-0.36260974407196045,0.04675600677728653,-0.29173970222473145
0.2824885845184326,0.5857366919517517,-1.0525426864624023,1.1615452766418457,-0.3553377687931061,0.051416464149951935,-0.2973421812057495
0.30257749557495117,0.5804145336151123,-1.0556261539459229,1.1575355529785156,-0.3525044918060303,0.053078796714544296,-0.29960963129997253
0.32270145416259766,0.5709846019744873,-1.0608943700790405,1.1540184020996094,-0.34870779514312744,0.055029720067977905,-0.30320125818252563
0.34275293350219727,0.5630893111228943,-1.065314769744873,1.1541393995285034,-0.3464485704898834,0.055782005190849304,-0.30582788586616516
0.36286425590515137,0.559644341468811,-1.067310094833374,1.1547263860702515,-0.3454843759536743,0.05592413619160652,-0.3068629801273346
0.38294506072998047,0.554077684879303,-1.070771336555481,1.155550479888916,-0.34329622983932495,0.05614064633846283,-0.3085792660713196
0.4030933380126953,0.5517047047615051,-1.072277307510376,1.1558277606964111,-0.3421742022037506,0.05619168281555176,-0.30928897857666016
0.42316246032714844,0.5473536849021912,-1.0749382972717285,1.1563715934753418,-0.33998990058898926,0.056122418493032455,-0.31046250462532043
0.4432337284088135,0.5436004996299744,-1.0772902965545654,1.1580491065979004,-0.3385028839111328,0.055762920528650284,-0.3113093674182892
0.46337080001831055,0.542138934135437,-1.0782504081726074,1.1589689254760742,-0.3378445506095886,0.05560837313532829,-0.311654269695282
0.48348307609558105,0.5397799611091614,-1.079862356185913,1.1600584983825684,-0.33648040890693665,0.05550768971443176,-0.3122327923774719
0.5036923885345459,0.5385443568229675,-1.0806396007537842,1.1602256298065186,-0.3356741666793823,0.05543029308319092,-0.31248027086257935
0.5237255096435547,0.5360246896743774,-1.0821739435195923,1.1608362197875977,-0.3343823254108429,0.055106889456510544,-0.31287339329719543
0.5437667369842529,0.5344775319099426,-1.0830442905426025,1.1613904237747192,-0.333904504776001,0.05474656820297241,-0.31303325295448303
0.563948392868042,0.531967282295227,-1.084601879119873,1.1636836528778076,-0.3335493505001068,0.05375108867883682,-0.3133363127708435
0.5853419303894043,0.5301415324211121,-1.0861546993255615,1.1669058799743652,-0.3334561884403229,0.05258990079164505,-0.31360697746276855
0.6054365634918213,0.5294579267501831,-1.086905598640442,1.1687639951705933,-0.3335297107696533,0.05197302997112274,-0.31373071670532227
0.6255359649658203,0.5281475186347961,-1.0884100198745728,1.1723510026931763,-0.33365312218666077,0.05084313452243805,-0.3139151334762573
0.6456425189971924,0.5274211764335632,-1.089092493057251,1.1736793518066406,-0.33345460891723633,0.05033059045672417,-0.3140052258968353
0.6657078266143799,0.5264103412628174,-1.0904059410095215,1.1757454872131348,-0.3325304687023163,0.04956348240375519,-0.31416791677474976
0.6859831809997559,0.525999903678894,-1.0910547971725464,1.1763017177581787,-0.3318771421909332,0.04933302849531174,-0.3142412006855011
0.7060902118682861,0.524803876876831,-1.092484474182129,1.1771786212921143,-0.33071234822273254,0.04879127815365791,-0.314377099275589
0.726132869720459,0.5238747000694275,-1.0934538841247559,1.1778621673583984,-0.3301545977592468,0.048353005200624466,-0.31455114483833313
0.7462596893310547,0.5231258273124695,-1.093726634979248,1.1780105829238892,-0.32997724413871765,0.04800160974264145,-0.3146824836730957
0.7664356231689453,0.5217569470405579,-1.0938501358032227,1.1781518459320068,-0.32970261573791504,0.04724491760134697,-0.3150058388710022
0.786444902420044,0.5213548541069031,-1.0938769578933716,1.1783061027526855,-0.3296282887458801,0.04692305251955986,-0.3151671588420868
0.8065366744995117,0.5210636854171753,-1.09396493434906,1.1788101196289062,-0.32955873012542725,0.04642809182405472,-0.3154684901237488
0.8267719745635986,0.5215470790863037,-1.0944253206253052,1.1804031133651733,-0.32982999086380005,0.04608418792486191,-0.3156869411468506
0.846865177154541,0.5213956832885742,-1.0948433876037598,1.1817307472229004,-0.33012667298316956,0.0456988550722599,-0.31576231122016907
0.866950511932373,0.520256519317627,-1.0961741209030151,1.1844182014465332,-0.33029502630233765,0.044681865721940994,-0.31584489345550537
0.8870351314544678,0.5194141864776611,-1.096895694732666,1.1858340501785278,-0.3301599323749542,0.04405927285552025,-0.31586307287216187
0.907111406326294,0.5175052285194397,-1.098436713218689,1.1882774829864502,-0.3293924331665039,0.04281451180577278,-0.31585535407066345
0.9271664619445801,0.516557514667511,-1.0991944074630737,1.1894283294677734,-0.3289439380168915,0.04219619929790497,-0.31584444642066956
0.9472665786743164,0.5150225162506104,-1.1006083488464355,1.1920593976974487,-0.3285338580608368,0.04102842137217522,-0.3158038556575775
0.9673247337341309,0.5139045715332031,-1.1019444465637207,1.194509506225586,-0.3285011649131775,0.04007038474082947,-0.3157666325569153
0.9874112606048584,0.5133026838302612,-1.1024301052093506,1.1948872804641724,-0.32832133769989014,0.03976449742913246,-0.315787672996521
1.0075078010559082,0.5125570893287659,-1.1031476259231567,1.195829153060913,-0.3281835615634918,0.03928937762975693,-0.3158378005027771
1.0275614261627197,0.5125446319580078,-1.1032803058624268,1.1962695121765137,-0.328080952167511,0.03912879526615143,-0.3158954679965973
1.0476598739624023,0.5128475427627563,-1.103285551071167,1.197164535522461,-0.3275550901889801,0.03892289102077484,-0.31605491042137146
1.0677123069763184,0.5128158330917358,-1.10369873046875,1.1984763145446777,-0.3265749216079712,0.038564104586839676,-0.3162041902542114
1.0878465175628662,0.5122851133346558,-1.1041052341461182,1.1989405155181885,-0.3260197043418884,0.038271673023700714,-0.31628182530403137
1.107872486114502,0.5108404159545898,-1.1053040027618408,1.2002825736999512,-0.32546547055244446,0.03748907893896103,-0.31640055775642395
1.1283562183380127,0.5102764368057251,-1.1058086156845093,1.2013187408447266,-0.3256372809410095,0.03702021762728691,-0.31646353006362915
1.1485283374786377,0.5096367597579956,-1.1063350439071655,1.2022255659103394,-0.3259384036064148,0.03644009307026863,-0.31668156385421753
1.1685364246368408,0.5092886090278625,-1.10671067237854,1.203688383102417,-0.32636070251464844,0.03577098995447159,-0.3169155418872833
1.1886212825775146,0.5087515115737915,-1.1069042682647705,1.204187273979187,-0.32645490765571594,0.03537486493587494,-0.3170389235019684
1.2087209224700928,0.5078186988830566,-1.1075410842895508,1.2061693668365479,-0.3265101909637451,0.03442922234535217,-0.3172079920768738
1.2287523746490479,0.5069729685783386,-1.1082381010055542,1.2087080478668213,-0.3263970911502838,0.0334145724773407,-0.3173331320285797
1.248915672302246,0.5063984394073486,-1.1087065935134888,1.2100399732589722,-0.32612887024879456,0.032864056527614594,-0.31737372279167175
1.2689831256866455,0.5054291486740112,-1.1095317602157593,1.2117972373962402,-0.3254767060279846,0.03207322582602501,-0.3174717128276825
1.289031982421875,0.5051220059394836,-1.1098413467407227,1.2116812467575073,-0.3248935639858246,0.032004717737436295,-0.31754544377326965
1.3091344833374023,0.5050194263458252,-1.1104762554168701,1.2121124267578125,-0.3242829442024231,0.031772956252098083,-0.31773248314857483
1.329169511795044,0.5046117901802063,-1.111365795135498,1.2128629684448242,-0.3241342306137085,0.03138131648302078,-0.3179467022418976
1.3492944240570068,0.5040692687034607,-1.1120761632919312,1.2142788171768188,-0.32432177662849426,0.030801977962255478,-0.3180260956287384
1.3694250583648682,0.5019840598106384,-1.1136161088943481,1.2169376611709595,-0.3246781826019287,0.029407400637865067,-0.3181613087654114
1.3897151947021484,0.50093674659729,-1.1142116785049438,1.2181105613708496,-0.32476291060447693,0.02874452993273735,-0.3182300329208374
1.4098551273345947,0.4995335042476654,-1.1151649951934814,1.2205941677093506,-0.3248288333415985,0.02758612111210823,-0.3183537423610687
1.4300837516784668,0.4984283447265625,-1.1159803867340088,1.2216572761535645,-0.3238440155982971,0.026830125600099564,-0.3184775412082672
1.4502358436584473,0.4981015920639038,-1.116332769393921,1.222205638885498,-0.32323989272117615,0.026479102671146393,-0.3185445964336395
1.4702682495117188,0.49708202481269836,-1.1169124841690063,1.2223798036575317,-0.3220635652542114,0.02591664530336857,-0.318703293800354
1.4904189109802246,0.4962081015110016,-1.1172200441360474,1.2220282554626465,-0.3216191828250885,0.025638272985816002,-0.31879010796546936
1.5104789733886719,0.4950293004512787,-1.1174592971801758,1.222769856452942,-0.32171115279197693,0.024876510724425316,-0.318971186876297
1.5305099487304688,0.49431008100509644,-1.117692232131958,1.2239265441894531,-0.32181617617607117,0.024139417335391045,-0.31915798783302307
1.5507543087005615,0.4945090711116791,-1.1178644895553589,1.2253928184509277,-0.32204481959342957,0.023736651986837387,-0.319240003824234
1.5708165168762207,0.49445077776908875,-1.1184728145599365,1.2277189493179321,-0.32213157415390015,0.022970670834183693,-0.31944459676742554
1.5912556648254395,0.49407583475112915,-1.118920087814331,1.228155493736267,-0.32185912132263184,0.02268129587173462,-0.3195626139640808
1.6113710403442383,0.49341341853141785,-1.1199193000793457,1.2299308776855469,-0.3217442035675049,0.02191523276269436,-0.31975993514060974
1.631406307220459,0.49266329407691956,-1.121092438697815,1.2315312623977661,-0.3211355209350586,0.021096188575029373,-0.31993991136550903
1.6515326499938965,0.492279589176178,-1.1216602325439453,1.23296058177948,-0.3210103213787079,0.020544981583952904,-0.32000672817230225
1.6715750694274902,0.4908345639705658,-1.1227327585220337,1.234588384628296,-0.32060855627059937,0.019547300413250923,-0.3201635479927063
1.6921064853668213,0.4898105561733246,-1.1231187582015991,1.2355070114135742,-0.3206406235694885,0.01892857812345028,-0.32025933265686035
1.7122581005096436,0.48846080899238586,-1.1237568855285645,1.2370569705963135,-0.3209982216358185,0.01804143562912941,-0.32045823335647583
1.7324421405792236,0.4881736934185028,-1.1244089603424072,1.2383534908294678,-0.3210725784301758,0.01738116703927517,-0.32073503732681274
1.7524995803833008,0.48843902349472046,-1.124697208404541,1.2387770414352417,-0.3209975063800812,0.01723402924835682,-0.3208957314491272
1.7726094722747803,0.48828986287117004,-1.12534499168396,1.240458369255066,-0.32095906138420105,0.016432123258709908,-0.32124340534210205
1.7927188873291016,0.48786646127700806,-1.125683307647705,1.24153470993042,-0.3210216164588928,0.01588774286210537,-0.3214089870452881
1.8128106594085693,0.48618337512016296,-1.1267063617706299,1.2445520162582397,-0.3212776780128479,0.014403634704649448,-0.3216596245765686
1.8328688144683838,0.4846784770488739,-1.1280415058135986,1.2470654249191284,-0.3209158778190613,0.013200274668633938,-0.32181936502456665
1.852954387664795,0.48420149087905884,-1.128648042678833,1.2480052709579468,-0.32044416666030884,0.012786763720214367,-0.32189178466796875
1.8730497360229492,0.4834368824958801,-1.1298246383666992,1.2488932609558105,-0.3189941942691803,0.012322254478931427,-0.3220357894897461
1.893502950668335,0.48256760835647583,-1.1305508613586426,1.2495266199111938,-0.31767815351486206,0.01182090025395155,-0.3222634196281433
1.9135899543762207,0.48200422525405884,-1.130831241607666,1.250093936920166,-0.3175048232078552,0.011518524028360844,-0.32237929105758667
1.9337091445922852,0.47990888357162476,-1.131726622581482,1.2516855001449585,-0.3176442086696625,0.010354913771152496,-0.3226131498813629
1.9538085460662842,0.4790668487548828,-1.132148027420044,1.253351092338562,-0.31829243898391724,0.009581678546965122,-0.3227139711380005
1.9739398956298828,0.47860515117645264,-1.1327663660049438,1.2555079460144043,-0.3190840482711792,0.008643203414976597,-0.32294580340385437
1.993950366973877,0.47884249687194824,-1.132839322090149,1.2561787366867065,-0.3192319869995117,0.008442400023341179,-0.32309070229530334
2.0140814781188965,0.4800039529800415,-1.1332086324691772,1.2569797039031982,-0.319219172000885,0.008488348685204983,-0.3233521282672882
2.0341460704803467,0.4803479313850403,-1.1340689659118652,1.2582491636276245,-0.31919702887535095,0.00828623678535223,-0.32355591654777527
2.05424165725708,0.48025941848754883,-1.1346311569213867,1.2595609426498413,-0.31939560174942017,0.007936807349324226,-0.32363203167915344
2.074366569519043,0.4789789617061615,-1.135646104812622,1.2617688179016113,-0.31922656297683716,0.006904175039380789,-0.32384663820266724
2.0944173336029053,0.4782305657863617,-1.1359648704528809,1.2622976303100586,-0.3186608552932739,0.006482369732111692,-0.32399365305900574
2.114523410797119,0.4774465262889862,-1.136259913444519,1.264182448387146,-0.3178202509880066,0.005679193884134293,-0.32430553436279297
2.1346147060394287,0.4771311581134796,-1.1364829540252686,1.2656850814819336,-0.3177218735218048,0.0051397839561104774,-0.32445794343948364
2.154698610305786,0.4757605791091919,-1.1373999118804932,1.2675952911376953,-0.317460298538208,0.004113888368010521,-0.32475918531417847
2.1749136447906494,0.47399812936782837,-1.1390568017959595,1.2696815729141235,-0.3175063133239746,0.002880750922486186,-0.3249732255935669
2.195014238357544,0.4727909564971924,-1.1399810314178467,1.270325779914856,-0.31733033061027527,0.002286049537360668,-0.32506290078163147
2.2151198387145996,0.4717850089073181,-1.1415046453475952,1.273288369178772,-0.31748753786087036,0.0010866210795938969,-0.32519903779029846
2.235183000564575,0.4717600345611572,-1.1421680450439453,1.2758922576904297,-0.31786906719207764,0.00031137344194576144,-0.3252524137496948
2.255289077758789,0.4714248776435852,-1.1433930397033691,1.2792917490005493,-0.3174700438976288,-0.0007450245320796967,-0.3254022002220154
2.275362968444824,0.47091206908226013,-1.1444330215454102,1.282495141029358,-0.31702476739883423,-0.0017322278581559658,-0.32557612657546997
2.2954580783843994,0.47045379877090454,-1.1447877883911133,1.283037781715393,-0.31657344102859497,-0.0019760148134082556,-0.3257123827934265
2.315617799758911,0.46994996070861816,-1.1451349258422852,1.2839101552963257,-0.31621816754341125,-0.002339468337595463,-0.3260684609413147
2.335710048675537,0.46921616792678833,-1.145148515701294,1.2840608358383179,-0.3157229423522949,-0.00264448719099164,-0.32652729749679565
2.355794906616211,0.46871840953826904,-1.1452761888504028,1.2844467163085938,-0.31552284955978394,-0.0029699637088924646,-0.3267528712749481
2.3758797645568848,0.46771955490112305,-1.1455535888671875,1.283949851989746,-0.31469735503196716,-0.0031540815252810717,-0.3271631598472595
2.396324396133423,0.4669390022754669,-1.1463193893432617,1.2830026149749756,-0.31352660059928894,-0.003149482887238264,-0.32747840881347656
2.416476011276245,0.46657657623291016,-1.1467267274856567,1.2817540168762207,-0.3125823140144348,-0.0028514123987406492,-0.3276169002056122
2.436525583267212,0.4653730094432831,-1.1478724479675293,1.281019687652588,-0.31104370951652527,-0.003094249637797475,-0.32786259055137634
2.456690788269043,0.46473515033721924,-1.1485518217086792,1.2815616130828857,-0.3105398118495941,-0.003470182418823242,-0.327943354845047
2.476783275604248,0.4628109931945801,-1.1496466398239136,1.2833452224731445,-0.3094342350959778,-0.004688518587499857,-0.3281298875808716
2.4968903064727783,0.4615669250488281,-1.1504535675048828,1.2856444120407104,-0.3087514638900757,-0.005841156467795372,-0.32829907536506653
2.5169496536254883,0.460877925157547,-1.1508210897445679,1.286367654800415,-0.3083532452583313,-0.006326322443783283,-0.3283957540988922
2.5370378494262695,0.4607817232608795,-1.1514568328857422,1.2887167930603027,-0.30866914987564087,-0.007097039837390184,-0.3285577595233917
2.557202100753784,0.4606180191040039,-1.1522256135940552,1.291285514831543,-0.30943405628204346,-0.007888761349022388,-0.3287105858325958
2.5773041248321533,0.4602097272872925,-1.1527432203292847,1.2932212352752686,-0.310049444437027,-0.008599241264164448,-0.328775018453598
2.59737491607666,0.4595400094985962,-1.153566598892212,1.2955001592636108,-0.31049761176109314,-0.009481753222644329,-0.3289584815502167
2.6174609661102295,0.4588834047317505,-1.154441475868225,1.2974683046340942,-0.3099800944328308,-0.010306060314178467,-0.3291974663734436
2.6375722885131836,0.4587331712245941,-1.154763102531433,1.2979592084884644,-0.3094567656517029,-0.01048339158296585,-0.32934674620628357
2.657682418823242,0.4573991596698761,-1.155778408050537,1.29802405834198,-0.3080342411994934,-0.010990595445036888,-0.32967448234558105
2.6777334213256836,0.4565517008304596,-1.15639328956604,1.297713041305542,-0.3073691427707672,-0.011241030879318714,-0.32983702421188354
2.6978049278259277,0.45440873503685,-1.1575490236282349,1.296437382698059,-0.30644917488098145,-0.011675558984279633,-0.33016133308410645
2.717862367630005,0.4531925618648529,-1.1583244800567627,1.2958402633666992,-0.30612099170684814,-0.01209478359669447,-0.33048829436302185
2.737950086593628,0.45299574732780457,-1.1585304737091064,1.2964816093444824,-0.30631789565086365,-0.012466824613511562,-0.3306494653224945
2.7580020427703857,0.45319664478302,-1.1590604782104492,1.2968813180923462,-0.30618777871131897,-0.012788242660462856,-0.3309840261936188
2.778078317642212,0.45335710048675537,-1.1593700647354126,1.2968332767486572,-0.3059259355068207,-0.012824112549424171,-0.3311680555343628
2.7981529235839844,0.45297887921333313,-1.160095453262329,1.29883873462677,-0.30611297488212585,-0.013769390061497688,-0.33156299591064453
2.818211555480957,0.4517597556114197,-1.1607340574264526,1.3014216423034668,-0.30639925599098206,-0.015111538581550121,-0.3320056200027466
2.8382973670959473,0.4510233998298645,-1.161100149154663,1.3033336400985718,-0.30665478110313416,-0.016019564121961594,-0.3322085738182068
2.858365297317505,0.4497769773006439,-1.161700963973999,1.3059014081954956,-0.30629095435142517,-0.01726895570755005,-0.3325865864753723
2.878472328186035,0.44928452372550964,-1.1620005369186401,1.307026982307434,-0.3057677745819092,-0.01777300424873829,-0.3327498137950897
2.8985650539398193,0.4478045105934143,-1.1631141901016235,1.3094146251678467,-0.30455172061920166,-0.0190040934830904,-0.3329862058162689
2.9188005924224854,0.44615188241004944,-1.1647403240203857,1.3112777471542358,-0.3034701943397522,-0.020171212032437325,-0.33313465118408203
2.9389424324035645,0.4454449415206909,-1.1658079624176025,1.3121548891067505,-0.3032571077346802,-0.020741228014230728,-0.3331763446331024
2.958997964859009,0.4444108009338379,-1.1676197052001953,1.3135358095169067,-0.3031018376350403,-0.021667448803782463,-0.3333059847354889
2.979182720184326,0.4440379738807678,-1.1683319807052612,1.313720941543579,-0.30284619331359863,-0.021939478814601898,-0.3334110379219055
2.9993112087249756,0.4433126151561737,-1.1693739891052246,1.3161489963531494,-0.3027443587779999,-0.0231793150305748,-0.3336910903453827
3.019590377807617,0.44220077991485596,-1.1702868938446045,1.317512035369873,-0.30171841382980347,-0.024012167006731033,-0.33401694893836975
3.0397489070892334,0.44165313243865967,-1.1707593202590942,1.3182951211929321,-0.30119046568870544,-0.024469885975122452,-0.3341996669769287
3.0598304271698,0.4408557415008545,-1.1718741655349731,1.316760778427124,-0.2993958294391632,-0.024266358464956284,-0.33458444476127625
3.0798957347869873,0.4403843879699707,-1.1723674535751343,1.3154020309448242,-0.2984631061553955,-0.024073895066976547,-0.3348175287246704
3.09997820854187,0.43956589698791504,-1.1732676029205322,1.313570499420166,-0.29733142256736755,-0.023923736065626144,-0.33527007699012756
3.120023727416992,0.4383088946342468,-1.173964023590088,1.3140836954116821,-0.29709964990615845,-0.024662956595420837,-0.3357083797454834
3.140193223953247,0.43783438205718994,-1.1743078231811523,1.3156286478042603,-0.2974628210067749,-0.02545074373483658,-0.3359188139438629
3.160247802734375,0.43756788969039917,-1.1746939420700073,1.319322943687439,-0.2982792258262634,-0.02707134559750557,-0.3364199697971344
3.1806294918060303,0.43776434659957886,-1.174718976020813,1.321102261543274,-0.2986375689506531,-0.02772202156484127,-0.33670011162757874
3.200800657272339,0.4379262328147888,-1.1746530532836914,1.3254021406173706,-0.2995683550834656,-0.0292985737323761,-0.33731675148010254
3.2209060192108154,0.43742287158966064,-1.1746418476104736,1.3286041021347046,-0.30003929138183594,-0.030486663803458214,-0.3379010558128357
3.241008758544922,0.4368862211704254,-1.174701452255249,1.3303565979003906,-0.30026718974113464,-0.03118913620710373,-0.3381637930870056
3.2610461711883545,0.4358668029308319,-1.175087332725525,1.3321319818496704,-0.2998143136501312,-0.031978972256183624,-0.33861395716667175
3.2811787128448486,0.4351176917552948,-1.1755560636520386,1.3321512937545776,-0.29911142587661743,-0.03219163790345192,-0.33879899978637695
3.301377058029175,0.43360835313796997,-1.1769436597824097,1.3337376117706299,-0.2979065775871277,-0.03331112489104271,-0.33908823132514954
3.321607828140259,0.4314773380756378,-1.1790488958358765,1.336365818977356,-0.2974162995815277,-0.035086434334516525,-0.33927956223487854
3.341752767562866,0.4303784966468811,-1.180110216140747,1.3391069173812866,-0.2978668212890625,-0.03646163269877434,-0.3393585681915283
3.3618297576904297,0.4279458820819855,-1.1823067665100098,1.3430932760238647,-0.29838287830352783,-0.038788288831710815,-0.3395446538925171
3.3819262981414795,0.42700275778770447,-1.1831218004226685,1.3444403409957886,-0.298308789730072,-0.039584845304489136,-0.33967605233192444
3.4020943641662598,0.4265347421169281,-1.1844757795333862,1.3477532863616943,-0.2980947196483612,-0.040982358157634735,-0.3399867117404938
3.422179698944092,0.4266657829284668,-1.1856310367584229,1.3506900072097778,-0.29740896821022034,-0.041875194758176804,-0.34031009674072266
3.4423112869262695,0.4268355071544647,-1.1862094402313232,1.3525981903076172,-0.2974088191986084,-0.04245302453637123,-0.340473473072052
3.46242094039917,0.4266212582588196,-1.1874053478240967,1.354520320892334,-0.29701003432273865,-0.042979106307029724,-0.34077689051628113
3.4829893112182617,0.4259665012359619,-1.1886193752288818,1.3556511402130127,-0.29697760939598083,-0.04338821396231651,-0.3410843014717102
3.503079891204834,0.42513224482536316,-1.1893621683120728,1.3553019762039185,-0.29640546441078186,-0.043454062193632126,-0.3412431478500366
3.523226737976074,0.42325863242149353,-1.190542459487915,1.3560595512390137,-0.2958286702632904,-0.044242240488529205,-0.3416377604007721
3.5432615280151367,0.4224364459514618,-1.1910377740859985,1.3568916320800781,-0.29564598202705383,-0.04482044279575348,-0.34187644720077515
3.563336133956909,0.42029836773872375,-1.19227933883667,1.357433557510376,-0.2942013740539551,-0.04575018957257271,-0.34239885210990906
3.5836331844329834,0.4185444116592407,-1.1938931941986084,1.3581204414367676,-0.29250404238700867,-0.046722687780857086,-0.3429112732410431
3.6037180423736572,0.4181453287601471,-1.1944453716278076,1.3583974838256836,-0.29166606068611145,-0.04696393385529518,-0.3431749641895294
3.6238198280334473,0.4182329475879669,-1.1947875022888184,1.3603088855743408,-0.29097479581832886,-0.047630056738853455,-0.34376516938209534
3.6438989639282227,0.4186899662017822,-1.1948367357254028,1.3610049486160278,-0.29095762968063354,-0.0477256141602993,-0.3440668284893036
3.663970947265625,0.4189748764038086,-1.1950675249099731,1.361263632774353,-0.2906084358692169,-0.04763168469071388,-0.344668447971344
3.684030771255493,0.4177665114402771,-1.195918083190918,1.3610358238220215,-0.2898601293563843,-0.04788242280483246,-0.3452575206756592
3.7041430473327637,0.41635942459106445,-1.1964632272720337,1.3609308004379272,-0.28927820920944214,-0.04831504449248314,-0.3455735146999359
3.7242801189422607,0.4130823016166687,-1.1973366737365723,1.361692190170288,-0.28804945945739746,-0.049728114157915115,-0.34623900055885315
3.7444021701812744,0.40978294610977173,-1.1986382007598877,1.3621737957000732,-0.28656044602394104,-0.05114079639315605,-0.3467808663845062
3.764580249786377,0.4085889458656311,-1.1995388269424438,1.3622758388519287,-0.2857474088668823,-0.05166221410036087,-0.34696003794670105
3.7845778465270996,0.4061862528324127,-1.2019908428192139,1.3629446029663086,-0.2847774922847748,-0.052940838038921356,-0.34716343879699707
3.8046584129333496,0.40514805912971497,-1.2031234502792358,1.3636130094528198,-0.2845921516418457,-0.0537014864385128,-0.34727025032043457
3.8247995376586914,0.4044164717197418,-1.2044034004211426,1.3654003143310547,-0.28483614325523376,-0.054820649325847626,-0.34754225611686707
3.845151662826538,0.40462544560432434,-1.204512596130371,1.366441249847412,-0.28493133187294006,-0.055186714977025986,-0.3477444648742676
3.8653671741485596,0.40536975860595703,-1.2042558193206787,1.3683750629425049,-0.2846096158027649,-0.05559283494949341,-0.3482353985309601
3.8856258392333984,0.4047790765762329,-1.204477310180664,1.3705812692642212,-0.2836787700653076,-0.05647331848740578,-0.34874826669692993
3.9057652950286865,0.40442490577697754,-1.20456862449646,1.3717477321624756,-0.2831403315067291,-0.05692199245095253,-0.3490126132965088
3.925821542739868,0.4034775495529175,-1.2052335739135742,1.3731900453567505,-0.2817081809043884,-0.057668574154376984,-0.3495170474052429
3.9459068775177,0.403073787689209,-1.205723762512207,1.3733841180801392,-0.2809838056564331,-0.05793069303035736,-0.3497755229473114
3.9659719467163086,0.4024825096130371,-1.2067879438400269,1.3740653991699219,-0.2802956700325012,-0.05847689509391785,-0.35027602314949036
3.986046552658081,0.40207767486572266,-1.2073355913162231,1.3748643398284912,-0.28026342391967773,-0.059048645198345184,-0.3505595028400421
4.006160736083984,0.40098536014556885,-1.2082222700119019,1.3770637512207031,-0.2803735136985779,-0.06040472537279129,-0.3511733114719391
4.0263450145721436,0.3989429771900177,-1.2092695236206055,1.379732370376587,-0.2803495526313782,-0.06228816136717796,-0.35186585783958435
4.04648232460022,0.39776337146759033,-1.2100648880004883,1.3810019493103027,-0.280340313911438,-0.06330304592847824,-0.35219675302505493
4.066586256027222,0.39563435316085815,-1.2124921083450317,1.3825680017471313,-0.2800996005535126,-0.06489387154579163,-0.35270196199417114
4.086659669876099,0.39497533440589905,-1.2138078212738037,1.3830773830413818,-0.27973851561546326,-0.0654355064034462,-0.35290998220443726
4.106716871261597,0.39353296160697937,-1.2161824703216553,1.3838872909545898,-0.27863389253616333,-0.06633667647838593,-0.35331857204437256
4.126831531524658,0.3927093744277954,-1.217095136642456,1.3841443061828613,-0.27792853116989136,-0.06671204417943954,-0.35356080532073975
4.146871328353882,0.39186155796051025,-1.2180280685424805,1.3851227760314941,-0.2772514224052429,-0.06720283627510071,-0.3540906012058258
4.1670002937316895,0.3914812207221985,-1.2183117866516113,1.386043667793274,-0.27710390090942383,-0.0676397830247879,-0.3543996810913086
4.187126398086548,0.39047175645828247,-1.218551516532898,1.3891055583953857,-0.2774016261100769,-0.06897430121898651,-0.3550754189491272
4.207172393798828,0.389356791973114,-1.2189960479736328,1.3908237218856812,-0.2775421440601349,-0.07001931965351105,-0.3554229438304901
4.227238655090332,0.3884469270706177,-1.2201218605041504,1.3928356170654297,-0.27755868434906006,-0.07110029458999634,-0.3560229539871216
4.247469663619995,0.3890272378921509,-1.2211439609527588,1.3937596082687378,-0.2769536077976227,-0.07126147300004959,-0.35659873485565186
4.267562627792358,0.38974952697753906,-1.2213473320007324,1.394270658493042,-0.2763756215572357,-0.0711565911769867,-0.3569471836090088
4.287630081176758,0.3907666504383087,-1.2219252586364746,1.3950035572052002,-0.27536508440971375,-0.07094015181064606,-0.35770490765571594
4.307716608047485,0.3904377520084381,-1.222583532333374,1.3952463865280151,-0.2746875584125519,-0.0711483508348465,-0.35811272263526917
4.327791929244995,0.38942426443099976,-1.2246241569519043,1.3952630758285522,-0.27389973402023315,-0.07168818265199661,-0.35885101556777954
4.348041296005249,0.38747596740722656,-1.2273097038269043,1.3959898948669434,-0.2731500267982483,-0.07319046556949615,-0.35956522822380066
4.368134260177612,0.3866182565689087,-1.2287472486495972,1.3963441848754883,-0.2728208303451538,-0.07389786839485168,-0.3598780035972595
4.388183355331421,0.3841868042945862,-1.2316887378692627,1.3977152109146118,-0.27207472920417786,-0.07569395005702972,-0.36045244336128235
4.408278942108154,0.38270604610443115,-1.2332844734191895,1.3985103368759155,-0.27159804105758667,-0.07668758183717728,-0.3607048988342285
4.428451061248779,0.38095396757125854,-1.2364771366119385,1.3993501663208008,-0.27068495750427246,-0.07787070423364639,-0.361116886138916
4.44884991645813,0.37957853078842163,-1.2394105195999146,1.4001867771148682,-0.26981043815612793,-0.0791829377412796,-0.36166828870773315
4.468931198120117,0.379422128200531,-1.240423560142517,1.4005155563354492,-0.2693425118923187,-0.07958538085222244,-0.3620135486125946
4.489058017730713,0.3791625499725342,-1.242180347442627,1.4011905193328857,-0.26836076378822327,-0.08032341301441193,-0.362784206867218
4.509294271469116,0.37890514731407166,-1.2436491250991821,1.4018545150756836,-0.26747745275497437,-0.08070778846740723,-0.36359360814094543
4.52940034866333,0.37838298082351685,-1.2446296215057373,1.4018396139144897,-0.26697733998298645,-0.08082663267850876,-0.3639879822731018
4.549466133117676,0.37739577889442444,-1.2467989921569824,1.4029273986816406,-0.26624393463134766,-0.08152524381875992,-0.3647753596305847
4.569567441940308,0.37726113200187683,-1.247934341430664,1.403936505317688,-0.26600760221481323,-0.08207547664642334,-0.3651866614818573
4.589660167694092,0.37667858600616455,-1.2494313716888428,1.4072309732437134,-0.26526665687561035,-0.0839092954993248,-0.366192489862442
4.6099255084991455,0.37580808997154236,-1.250198245048523,1.4093307256698608,-0.2648911476135254,-0.08532379567623138,-0.3667822480201721
4.630026578903198,0.37384700775146484,-1.2519267797470093,1.4133787155151367,-0.26419708132743835,-0.08792933076620102,-0.3679213523864746
4.650068998336792,0.37180453538894653,-1.2548564672470093,1.415863275527954,-0.26394009590148926,-0.08968347311019897,-0.3687911927700043
4.67016077041626,0.3711087107658386,-1.2565090656280518,1.4162653684616089,-0.26370659470558167,-0.09009528160095215,-0.36915475130081177
4.690229177474976,0.3702303469181061,-1.2600772380828857,1.4168812036514282,-0.2636526823043823,-0.09085683524608612,-0.3698282539844513
4.710346937179565,0.3697514832019806,-1.2619515657424927,1.4173706769943237,-0.26333534717559814,-0.09153904765844345,-0.37022340297698975
4.73054313659668,0.3687150776386261,-1.2651565074920654,1.4180880784988403,-0.26190197467803955,-0.09268449246883392,-0.37111109495162964
4.750553846359253,0.3669969141483307,-1.2671072483062744,1.4201445579528809,-0.25954487919807434,-0.09412102401256561,-0.3721930980682373
4.770650863647461,0.36576756834983826,-1.2680007219314575,1.4210667610168457,-0.25834891200065613,-0.09474049508571625,-0.3727465569972992
4.7907562255859375,0.3636971712112427,-1.2696504592895508,1.4230916500091553,-0.25712159276008606,-0.09579376131296158,-0.3738243579864502
4.810828447341919,0.3628130555152893,-1.2706842422485352,1.4238299131393433,-0.2567245364189148,-0.09627311676740646,-0.3743464946746826
4.830910921096802,0.360377699136734,-1.2733211517333984,1.4266737699508667,-0.25661423802375793,-0.09848359227180481,-0.3754650354385376
4.85110068321228,0.358737051486969,-1.274833083152771,1.4288619756698608,-0.2562747299671173,-0.10019342601299286,-0.3760797381401062
4.871253967285156,0.35608360171318054,-1.278122901916504,1.4333690404891968,-0.2556411623954773,-0.10346559435129166,-0.3772781193256378
4.891275405883789,0.3541717231273651,-1.2812482118606567,1.4376662969589233,-0.2555851340293884,-0.1064133420586586,-0.37848806381225586
4.911380767822266,0.35390233993530273,-1.282875418663025,1.439163088798523,-0.2560504376888275,-0.10738427191972733,-0.379040002822876
4.931515693664551,0.3537638485431671,-1.285865306854248,1.4419896602630615,-0.25677239894866943,-0.10908117890357971,-0.3801753520965576
4.951575756072998,0.3543170392513275,-1.2887145280838013,1.4440300464630127,-0.25688618421554565,-0.10994239151477814,-0.38131147623062134
4.971646547317505,0.35441070795059204,-1.290315866470337,1.44523286819458,-0.25654879212379456,-0.11057005822658539,-0.3819316029548645
4.991750001907349,0.35449671745300293,-1.2940515279769897,1.4469548463821411,-0.2555793523788452,-0.11156709492206573,-0.3831869661808014
5.011940956115723,0.354427307844162,-1.2960001230239868,1.4477304220199585,-0.25498250126838684,-0.11207716166973114,-0.3838742673397064
5.032011032104492,0.35338208079338074,-1.29936945438385,1.4507761001586914,-0.2539675533771515,-0.11385546624660492,-0.385419636964798
5.052296876907349,0.35160326957702637,-1.301800012588501,1.45479154586792,-0.2530335485935211,-0.11591313034296036,-0.3871203362941742
5.072462797164917,0.3512219488620758,-1.3028874397277832,1.4565287828445435,-0.2527647912502289,-0.11662448942661285,-0.38793545961380005
5.092574596405029,0.3498278856277466,-1.3061445951461792,1.4591261148452759,-0.2523253858089447,-0.11824790388345718,-0.3895244002342224
5.112640380859375,0.3491101861000061,-1.3079864978790283,1.460103988647461,-0.2521477937698364,-0.11904487013816833,-0.390340119600296
5.132695198059082,0.3485119044780731,-1.3114266395568848,1.462522268295288,-0.25176751613616943,-0.12071827799081802,-0.39209434390068054
5.152772665023804,0.3482973277568817,-1.3148858547210693,1.464746117591858,-0.2516117990016937,-0.12207458913326263,-0.39389514923095703
5.172851800918579,0.3487696945667267,-1.3167600631713867,1.4654937982559204,-0.25168415904045105,-0.12242823094129562,-0.39475226402282715
5.19296669960022,0.3489266335964203,-1.3216571807861328,1.4660505056381226,-0.2520749568939209,-0.12310506403446198,-0.3964109718799591
5.2132484912872314,0.347711980342865,-1.328110694885254,1.4667363166809082,-0.25234466791152954,-0.12470146268606186,-0.3981192111968994
5.233360528945923,0.3458397388458252,-1.3315316438674927,1.4676945209503174,-0.2519964575767517,-0.126104474067688,-0.3990429639816284
5.253492116928101,0.34265294671058655,-1.3380560874938965,1.4707664251327515,-0.25149598717689514,-0.12942326068878174,-0.40097007155418396
5.273585081100464,0.34235334396362305,-1.3401591777801514,1.4733333587646484,-0.25208860635757446,-0.13110776245594025,-0.40200871229171753
5.293739318847656,0.3407444357872009,-1.3440766334533691,1.4791419506072998,-0.2537737190723419,-0.1349862962961197,-0.4041842818260193
5.313983201980591,0.3403927683830261,-1.347802996635437,1.4839074611663818,-0.2566986083984375,-0.137820765376091,-0.40624305605888367
5.334049940109253,0.33936890959739685,-1.3500406742095947,1.4864445924758911,-0.25833660364151,-0.13955923914909363,-0.4072694778442383
5.354142189025879,0.3392235040664673,-1.3544973134994507,1.4924125671386719,-0.26273390650749207,-0.14366306364536285,-0.40939196944236755
5.374315023422241,0.33963310718536377,-1.3562997579574585,1.4961490631103516,-0.264742374420166,-0.14612141251564026,-0.41061121225357056
5.394416332244873,0.33788374066352844,-1.3624166250228882,1.5032174587249756,-0.26644495129585266,-0.15178282558918,-0.41319435834884644
5.414995193481445,0.33534547686576843,-1.371657133102417,1.5063326358795166,-0.2656349539756775,-0.1554861068725586,-0.4156731367111206
5.435082912445068,0.3326761722564697,-1.378220558166504,1.5065340995788574,-0.26445072889328003,-0.15694895386695862,-0.41680189967155457
5.455135345458984,0.3285825550556183,-1.392605185508728,1.5049270391464233,-0.2624310851097107,-0.15858858823776245,-0.41892009973526
5.475259780883789,0.3272835910320282,-1.4003446102142334,1.5032453536987305,-0.2615757882595062,-0.1588401049375534,-0.4199410676956177
5.495309352874756,0.322449654340744,-1.4170713424682617,1.500407338142395,-0.25891056656837463,-0.1600063592195511,-0.4220925569534302
5.515406847000122,0.3200487196445465,-1.4246104955673218,1.4996886253356934,-0.25801756978034973,-0.16069932281970978,-0.4233214557170868
5.5354695320129395,0.3164450228214264,-1.4401894807815552,1.496254801750183,-0.2564345896244049,-0.16073225438594818,-0.42571142315864563
5.555622816085815,0.31565192341804504,-1.4476869106292725,1.4935729503631592,-0.2563561201095581,-0.15997211635112762,-0.42692774534225464
5.575679540634155,0.31245502829551697,-1.4616326093673706,1.490524172782898,-0.2569405138492584,-0.1596868336200714,-0.4295361638069153
5.595803737640381,0.31033855676651,-1.4679231643676758,1.4901390075683594,-0.25742843747138977,-0.160131573677063,-0.43096113204956055
5.6159117221832275,0.30748873949050903,-1.4757423400878906,1.495062232017517,-0.25967636704444885,-0.16347941756248474,-0.4345872104167938
5.635988473892212,0.3072967827320099,-1.4776067733764648,1.4989655017852783,-0.2612929046154022,-0.16563324630260468,-0.43673843145370483
5.656066417694092,0.30206170678138733,-1.4782929420471191,1.5116270780563354,-0.26319363713264465,-0.17232832312583923,-0.44194698333740234
5.676224946975708,0.2986939251422882,-1.4767512083053589,1.5191346406936646,-0.2641400992870331,-0.17584100365638733,-0.44494539499282837
5.696271896362305,0.29104122519493103,-1.4714875221252441,1.5356525182724,-0.2650200426578522,-0.18297918140888214,-0.4515027403831482
5.716408014297485,0.2874448001384735,-1.4671270847320557,1.544752836227417,-0.2652010917663574,-0.18632063269615173,-0.45512720942497253
5.736637353897095,0.2781669795513153,-1.454892873764038,1.5660943984985352,-0.26516035199165344,-0.19296863675117493,-0.4630119800567627
5.7575438022613525,0.26603537797927856,-1.4387162923812866,1.5914145708084106,-0.263540118932724,-0.19961446523666382,-0.4715544283390045
5.777656078338623,0.25958549976348877,-1.4290434122085571,1.6048191785812378,-0.2619324326515198,-0.2020602524280548,-0.47592422366142273
5.797746181488037,0.24631226062774658,-1.4107723236083984,1.6292818784713745,-0.25555872917175293,-0.20419229567050934,-0.48400288820266724
5.817881107330322,0.23480939865112305,-1.3930941820144653,1.6499215364456177,-0.24749431014060974,-0.20155979692935944,-0.49097123742103577
5.837977647781372,0.22912319004535675,-1.3855340480804443,1.65872323513031,-0.24302232265472412,-0.19896447658538818,-0.4938853979110718
5.858038902282715,0.2192145138978958,-1.3737808465957642,1.6732577085494995,-0.2352382391691208,-0.19160249829292297,-0.49871012568473816
5.878118991851807,0.21482551097869873,-1.3701742887496948,1.6788370609283447,-0.23148740828037262,-0.18736785650253296,-0.5005576610565186
5.898197650909424,0.20844265818595886,-1.3656082153320312,1.6869614124298096,-0.2250347137451172,-0.17881281673908234,-0.5035672783851624
5.918382883071899,0.20630376040935516,-1.3639174699783325,1.690071940422058,-0.22223550081253052,-0.17504122853279114,-0.5048663020133972
5.938476324081421,0.20282110571861267,-1.3605867624282837,1.6960417032241821,-0.21747642755508423,-0.169734925031662,-0.5073217153549194
5.958544015884399,0.19926822185516357,-1.3570002317428589,1.7024312019348145,-0.21380974352359772,-0.16749118268489838,-0.5096509456634521
5.978622674942017,0.1971876621246338,-1.355396032333374,1.705646276473999,-0.21220558881759644,-0.16729140281677246,-0.5107126235961914
5.9988274574279785,0.19296586513519287,-1.352979302406311,1.7113178968429565,-0.20918786525726318,-0.1675920933485031,-0.5124942660331726
6.019054174423218,0.18919917941093445,-1.3516833782196045,1.7154508829116821,-0.20630411803722382,-0.1677732914686203,-0.5137845873832703
6.039217948913574,0.18760579824447632,-1.3515098094940186,1.7167963981628418,-0.2048424482345581,-0.16752348840236664,-0.5142455101013184
6.059223651885986,0.185733824968338,-1.351823091506958,1.717761516571045,-0.2021835595369339,-0.16611269116401672,-0.5149407982826233
6.0794689655303955,0.18520376086235046,-1.352186679840088,1.7177053689956665,-0.20099495351314545,-0.1652057021856308,-0.5152230858802795
6.099555492401123,0.1851557344198227,-1.352576732635498,1.716902732849121,-0.1992889642715454,-0.16317088901996613,-0.5158195495605469
6.119625568389893,0.18605706095695496,-1.3522887229919434,1.7157552242279053,-0.19839096069335938,-0.16123512387275696,-0.5165093541145325
6.1399147510528564,0.18677735328674316,-1.351979374885559,1.7152217626571655,-0.19815023243427277,-0.1603848785161972,-0.5169013142585754
6.159998416900635,0.18763452768325806,-1.351396083831787,1.7149478197097778,-0.19771292805671692,-0.15950606763362885,-0.5177360773086548
6.1801018714904785,0.18791580200195312,-1.3511385917663574,1.7152281999588013,-0.19709479808807373,-0.15920813381671906,-0.518505334854126
6.200193643569946,0.18808884918689728,-1.3511066436767578,1.715386152267456,-0.19677866995334625,-0.15907034277915955,-0.5188430547714233
6.220298767089844,0.18827739357948303,-1.3514147996902466,1.7153210639953613,-0.19594162702560425,-0.15848979353904724,-0.5193467140197754
6.240399122238159,0.18844503164291382,-1.3516714572906494,1.7149819135665894,-0.19557401537895203,-0.157961905002594,-0.5195398330688477
6.260502815246582,0.18909527361392975,-1.3519690036773682,1.7138664722442627,-0.19520056247711182,-0.1567472368478775,-0.5199863314628601
6.280568838119507,0.19086751341819763,-1.3518784046173096,1.7121042013168335,-0.19544681906700134,-0.15512464940547943,-0.5205702781677246
6.300724267959595,0.19210021197795868,-1.3516110181808472,1.7113127708435059,-0.1956964135169983,-0.1543918401002884,-0.5209408402442932
6.320758819580078,0.19500058889389038,-1.350851058959961,1.709957242012024,-0.19602009654045105,-0.15286293625831604,-0.521746814250946
6.340846538543701,0.19614143669605255,-1.3504527807235718,1.7095800638198853,-0.19607140123844147,-0.15232279896736145,-0.5221908688545227
6.360929489135742,0.19801561534404755,-1.350215196609497,1.7085182666778564,-0.19615153968334198,-0.15092796087265015,-0.5230174660682678
6.380985260009766,0.19943569600582123,-1.3505083322525024,1.7070307731628418,-0.19629482924938202,-0.1493292599916458,-0.5237598419189453
6.401127815246582,0.20005838572978973,-1.3508461713790894,1.706068992614746,-0.1963658183813095,-0.14843830466270447,-0.5240857005119324
6.421148300170898,0.2011774778366089,-1.3515844345092773,1.7040700912475586,-0.19637194275856018,-0.1467406451702118,-0.5247094035148621
6.441254377365112,0.20161072909832,-1.3519303798675537,1.703159213066101,-0.19635224342346191,-0.14601068198680878,-0.5250269174575806
6.461402416229248,0.20265136659145355,-1.3523231744766235,1.7016606330871582,-0.19625498354434967,-0.14468680322170258,-0.5256979465484619
6.481426954269409,0.20323829352855682,-1.352474570274353,1.7008769512176514,-0.1961461305618286,-0.14398014545440674,-0.526024580001831
6.501523733139038,0.20450088381767273,-1.3523683547973633,1.699671983718872,-0.19599151611328125,-0.1427547037601471,-0.5267899632453918
6.521588325500488,0.20568466186523438,-1.3520928621292114,1.6988272666931152,-0.19594907760620117,-0.14178095757961273,-0.5276365876197815
6.541690349578857,0.206131249666214,-1.3519030809402466,1.6986494064331055,-0.19585558772087097,-0.1414494812488556,-0.5280693173408508
6.5617570877075195,0.2065236121416092,-1.3521153926849365,1.6982213258743286,-0.19525659084320068,-0.14068451523780823,-0.5287874937057495
6.581963539123535,0.20617371797561646,-1.3525084257125854,1.698084831237793,-0.19446781277656555,-0.14035747945308685,-0.529447078704834
6.60205602645874,0.2058367282152176,-1.352821707725525,1.6979560852050781,-0.1940995752811432,-0.1402234137058258,-0.5297439098358154
6.622275352478027,0.2053377777338028,-1.3531336784362793,1.6978511810302734,-0.19359871745109558,-0.14015017449855804,-0.5303440690040588
6.642331123352051,0.2052994966506958,-1.3530738353729248,1.6978638172149658,-0.19335442781448364,-0.14015386998653412,-0.5306485295295715
6.662564992904663,0.20590373873710632,-1.3528716564178467,1.6974267959594727,-0.19280320405960083,-0.13963259756565094,-0.5312285423278809
6.682668447494507,0.20672489702701569,-1.3526045083999634,1.697045922279358,-0.19276699423789978,-0.13918617367744446,-0.5315783023834229
6.702791213989258,0.2091435194015503,-1.3518778085708618,1.695775032043457,-0.1930702179670334,-0.13790452480316162,-0.5323941707611084
6.722835302352905,0.21228784322738647,-1.351757526397705,1.6931071281433105,-0.1939835101366043,-0.13569143414497375,-0.5332418084144592
6.742962121963501,0.2138875424861908,-1.3519259691238403,1.6914780139923096,-0.19436593353748322,-0.13439449667930603,-0.5336322784423828
6.763067960739136,0.21739915013313293,-1.3526657819747925,1.6878783702850342,-0.19504176080226898,-0.13150274753570557,-0.5343640446662903
6.7831079959869385,0.21879877150058746,-1.3529410362243652,1.6865748167037964,-0.19526594877243042,-0.13036981225013733,-0.5347470641136169
6.8032379150390625,0.22047847509384155,-1.3534069061279297,1.684883952140808,-0.1952890008687973,-0.12855175137519836,-0.5355002284049988
6.823312759399414,0.22116386890411377,-1.3533930778503418,1.6843452453613281,-0.19516442716121674,-0.12753519415855408,-0.5363662242889404
6.843414068222046,0.22147460281848907,-1.3532034158706665,1.6841659545898438,-0.19500817358493805,-0.12711279094219208,-0.5368242859840393
6.863508939743042,0.2218320667743683,-1.3530175685882568,1.6838302612304688,-0.19449946284294128,-0.12652651965618134,-0.537780225276947
6.883717775344849,0.2224329560995102,-1.352874755859375,1.683098554611206,-0.1940888613462448,-0.12596379220485687,-0.5387624502182007
6.903844833374023,0.22281524538993835,-1.352893352508545,1.682547688484192,-0.19378553330898285,-0.1256101280450821,-0.5392280220985413
6.923934459686279,0.22361597418785095,-1.3530974388122559,1.6813517808914185,-0.19326944649219513,-0.12478987872600555,-0.5401214957237244
6.944128751754761,0.22409753501415253,-1.3532439470291138,1.6806306838989258,-0.1930721551179886,-0.12417250126600266,-0.540521502494812
6.9642016887664795,0.2253778576850891,-1.3536114692687988,1.678746223449707,-0.1928531378507614,-0.12227135896682739,-0.5412371158599854
6.984261751174927,0.2269044667482376,-1.3539984226226807,1.6765334606170654,-0.19264228641986847,-0.12007501721382141,-0.541938841342926
7.004367828369141,0.22763486206531525,-1.354140281677246,1.675408124923706,-0.19258268177509308,-0.11902511864900589,-0.5423357486724854
7.024415731430054,0.22810089588165283,-1.3548343181610107,1.6736865043640137,-0.19248992204666138,-0.1175050437450409,-0.5432020425796509
7.044882535934448,0.22781814634799957,-1.3557344675064087,1.6723228693008423,-0.19267447292804718,-0.11640143394470215,-0.5440780520439148
7.064997434616089,0.22754523158073425,-1.3561710119247437,1.6717839241027832,-0.19272767007350922,-0.11600501835346222,-0.5444884300231934
7.08515191078186,0.22734293341636658,-1.3569406270980835,1.6702907085418701,-0.1925077885389328,-0.11500565707683563,-0.5451935529708862
7.105183362960815,0.22746585309505463,-1.3572492599487305,1.669325590133667,-0.19219300150871277,-0.11446099728345871,-0.54552161693573
7.125286817550659,0.2279774695634842,-1.357860803604126,1.667229175567627,-0.19116610288619995,-0.11318161338567734,-0.5461695194244385
7.145345449447632,0.22923704981803894,-1.3582676649093628,1.6651718616485596,-0.19026519358158112,-0.11180812865495682,-0.5469409823417664
7.165424585342407,0.22993972897529602,-1.3583327531814575,1.6643896102905273,-0.18990233540534973,-0.1112716794013977,-0.5473792552947998
7.185558319091797,0.23230604827404022,-1.3577080965042114,1.6626023054122925,-0.18987643718719482,-0.11005906760692596,-0.5483679175376892
7.2055933475494385,0.23395133018493652,-1.3572144508361816,1.661445140838623,-0.19003579020500183,-0.10925661027431488,-0.5488677024841309
7.225654363632202,0.23710523545742035,-1.3562495708465576,1.6589667797088623,-0.19062189757823944,-0.1075969934463501,-0.5498833060264587
7.245710372924805,0.24037252366542816,-1.3557443618774414,1.6564648151397705,-0.19119921326637268,-0.10563012957572937,-0.5509181022644043
7.26579737663269,0.24135392904281616,-1.355709195137024,1.655531883239746,-0.19143712520599365,-0.10494111478328705,-0.55147784948349
7.28587794303894,0.24241240322589874,-1.356058120727539,1.6538277864456177,-0.1915871500968933,-0.10365133732557297,-0.5525835752487183
7.305947542190552,0.24166187644004822,-1.3573729991912842,1.651991367340088,-0.19119402766227722,-0.1024184599518776,-0.55353182554245
7.326038360595703,0.24118314683437347,-1.3581539392471313,1.6507402658462524,-0.19077856838703156,-0.10155165195465088,-0.5539430975914001
7.346129417419434,0.23962286114692688,-1.3605682849884033,1.6476030349731445,-0.18946176767349243,-0.09952685981988907,-0.5546560883522034
7.366333961486816,0.23872201144695282,-1.3618252277374268,1.645967721939087,-0.18874359130859375,-0.09855963289737701,-0.5550225377082825
7.386456251144409,0.23721373081207275,-1.3640309572219849,1.642608642578125,-0.18740400671958923,-0.09661982208490372,-0.5557874441146851
7.406495094299316,0.23656438291072845,-1.365197777748108,1.6395188570022583,-0.18653923273086548,-0.09500055760145187,-0.5567277073860168
7.42657732963562,0.23665499687194824,-1.3657103776931763,1.6377390623092651,-0.18621957302093506,-0.09394625574350357,-0.5571997165679932
7.446652412414551,0.23717907071113586,-1.3666030168533325,1.633935570716858,-0.1856350600719452,-0.09179650247097015,-0.5582103729248047
7.467069625854492,0.2373749017715454,-1.3673131465911865,1.6316864490509033,-0.18518050014972687,-0.09044806659221649,-0.55866539478302
7.487158298492432,0.23827248811721802,-1.368847370147705,1.626210331916809,-0.18421122431755066,-0.08693251013755798,-0.5595717430114746
7.507683038711548,0.23950937390327454,-1.3701181411743164,1.620189905166626,-0.18296103179454803,-0.08317459374666214,-0.5606552958488464
7.527721643447876,0.24011021852493286,-1.3708546161651611,1.6169471740722656,-0.18239825963974,-0.08123207092285156,-0.5613022446632385
7.547781467437744,0.2408801019191742,-1.3729501962661743,1.6098556518554688,-0.18141353130340576,-0.07709293067455292,-0.562729001045227
7.567861080169678,0.24062421917915344,-1.3746258020401,1.6059179306030273,-0.180814728140831,-0.07482091337442398,-0.563439667224884
7.587955951690674,0.24021418392658234,-1.3771839141845703,1.597944736480713,-0.17973051965236664,-0.07046981155872345,-0.5651521682739258
7.6080334186553955,0.23995672166347504,-1.3778138160705566,1.5941989421844482,-0.17890137434005737,-0.06870134174823761,-0.5662041306495667
7.628069639205933,0.23944121599197388,-1.378829002380371,1.5863761901855469,-0.17733579874038696,-0.06503435224294662,-0.5686103701591492
7.648493528366089,0.2395227998495102,-1.378964900970459,1.5785608291625977,-0.1757465898990631,-0.06110387295484543,-0.5714825987815857
7.668590784072876,0.2400834858417511,-1.3785303831100464,1.5747674703598022,-0.1751020848751068,-0.05912569910287857,-0.5731797814369202
7.688665866851807,0.24286042153835297,-1.3759993314743042,1.5677177906036377,-0.1741458624601364,-0.05525175854563713,-0.57719486951828
7.7087242603302,0.2452041506767273,-1.3735476732254028,1.5644581317901611,-0.17386206984519958,-0.053716130554676056,-0.5796562433242798
7.728819131851196,0.25180476903915405,-1.3660539388656616,1.559139609336853,-0.17431855201721191,-0.05177216976881027,-0.5856046080589294
7.7488648891448975,0.2600874602794647,-1.35563063621521,1.5567022562026978,-0.17640148103237152,-0.051325440406799316,-0.5927549004554749
7.768934488296509,0.2644527554512024,-1.349590539932251,1.5568172931671143,-0.17810854315757751,-0.05168171226978302,-0.5967056751251221
7.789005994796753,0.2724374830722809,-1.3378372192382812,1.5587451457977295,-0.18212582170963287,-0.05269612744450569,-0.6049292087554932
7.809456825256348,0.27624261379241943,-1.3289169073104858,1.5611495971679688,-0.18488632142543793,-0.05443514883518219,-0.613201379776001
7.829554319381714,0.2751641273498535,-1.326326608657837,1.5620990991592407,-0.18545490503311157,-0.05565433204174042,-0.6172095537185669
7.849633455276489,0.26768729090690613,-1.3252363204956055,1.5615766048431396,-0.18504853546619415,-0.05768832191824913,-0.6246343851089478
7.8697309494018555,0.2620519995689392,-1.3264520168304443,1.5594722032546997,-0.18445996940135956,-0.05825163424015045,-0.6280364394187927
7.889825820922852,0.24922774732112885,-1.331302285194397,1.5517525672912598,-0.18219216167926788,-0.05870484560728073,-0.6341980695724487
7.9098732471466064,0.23867450654506683,-1.336005687713623,1.5416390895843506,-0.17925120890140533,-0.059315480291843414,-0.6400858163833618
7.929995059967041,0.23541992902755737,-1.3368830680847168,1.5373516082763672,-0.17795707285404205,-0.060101840645074844,-0.6431248784065247
7.950092792510986,0.2377372533082962,-1.3330692052841187,1.5315850973129272,-0.17822304368019104,-0.06152865290641785,-0.6498243808746338
7.970152378082275,0.24996235966682434,-1.3232989311218262,1.5299352407455444,-0.1823856681585312,-0.062498271465301514,-0.657154381275177
7.990249872207642,0.2584362030029297,-1.3169546127319336,1.5302990674972534,-0.18579638004302979,-0.06273024529218674,-0.6609550714492798
8.010352611541748,0.2778613865375519,-1.3031868934631348,1.5317800045013428,-0.19433030486106873,-0.062101393938064575,-0.6685191988945007
8.030477285385132,0.2858723998069763,-1.2976689338684082,1.5323330163955688,-0.19813965260982513,-0.061547063291072845,-0.6721082925796509
8.050528526306152,0.2935948669910431,-1.2924195528030396,1.5312118530273438,-0.20332983136177063,-0.05912400782108307,-0.6783656477928162
8.070611000061035,0.287398099899292,-1.2975823879241943,1.5251597166061401,-0.20402154326438904,-0.05449533089995384,-0.6826607584953308
8.090760231018066,0.27827486395835876,-1.303348183631897,1.5206636190414429,-0.20282575488090515,-0.05223744735121727,-0.6840411424636841
8.110783338546753,0.2554575204849243,-1.3158677816390991,1.5113221406936646,-0.19768592715263367,-0.05041955038905144,-0.6861249804496765
8.130859613418579,0.24406665563583374,-1.3201839923858643,1.508423089981079,-0.1943533718585968,-0.05185162276029587,-0.6872702836990356
8.150948762893677,0.2264852374792099,-1.3221768140792847,1.5097882747650146,-0.1863286942243576,-0.06065194308757782,-0.6904589533805847
8.171277284622192,0.2232903391122818,-1.3198438882827759,1.512837529182434,-0.18344110250473022,-0.06608115136623383,-0.6925332546234131
8.19140887260437,0.230055034160614,-1.31034255027771,1.520233154296875,-0.18231424689292908,-0.07542204111814499,-0.697400689125061
8.211452722549438,0.25017014145851135,-1.2976422309875488,1.52516508102417,-0.18799105286598206,-0.08015045523643494,-0.7027342915534973
8.231543064117432,0.2640626132488251,-1.2905653715133667,1.5257281064987183,-0.19337929785251617,-0.07989126443862915,-0.705382227897644
8.25162124633789,0.2929513454437256,-1.278307557106018,1.5226367712020874,-0.20552289485931396,-0.07427341490983963,-0.7102313041687012
8.271909713745117,0.3115313947200775,-1.2736936807632446,1.5147757530212402,-0.2152378112077713,-0.06349193304777145,-0.7139483690261841
8.292046546936035,0.3149912357330322,-1.2759710550308228,1.5080739259719849,-0.2185346931219101,-0.056143470108509064,-0.7149978280067444
8.312093734741211,0.30322709679603577,-1.289899230003357,1.4913698434829712,-0.2208825945854187,-0.04218073934316635,-0.715350329875946
8.332222700119019,0.29021692276000977,-1.2987725734710693,1.4822744131088257,-0.22004930675029755,-0.03719013184309006,-0.7150165438652039
8.352272987365723,0.25899961590766907,-1.3132328987121582,1.4682685136795044,-0.21460120379924774,-0.034307077527046204,-0.7144573926925659
8.372411251068115,0.24163110554218292,-1.317349910736084,1.4669163227081299,-0.20941264927387238,-0.03822653740644455,-0.7145973443984985
8.392504692077637,0.21117350459098816,-1.3173493146896362,1.4770159721374512,-0.19834497570991516,-0.05486609786748886,-0.7161237001419067
8.412805080413818,0.1997765302658081,-1.3137198686599731,1.4873334169387817,-0.19362998008728027,-0.06616134941577911,-0.717369556427002
8.43290114402771,0.19447767734527588,-1.3006819486618042,1.5097246170043945,-0.18961025774478912,-0.08750603348016739,-0.7206308841705322
8.453239440917969,0.21180108189582825,-1.2835028171539307,1.5283015966415405,-0.194059818983078,-0.10268276929855347,-0.7244045734405518
8.473315715789795,0.2292996644973755,-1.2753071784973145,1.5327553749084473,-0.1991637796163559,-0.10543029010295868,-0.7261742353439331
8.49341607093811,0.27394524216651917,-1.262558937072754,1.5323678255081177,-0.21203374862670898,-0.10121780633926392,-0.7290800213813782
8.513485670089722,0.2964572012424469,-1.259080410003662,1.5274957418441772,-0.21808937191963196,-0.0945122092962265,-0.7299396395683289
8.533579111099243,0.33744049072265625,-1.2583569288253784,1.5109832286834717,-0.22807593643665314,-0.07396532595157623,-0.7308392524719238
8.553641557693481,0.3528079688549042,-1.262440800666809,1.498390793800354,-0.23181676864624023,-0.059838440269231796,-0.730661153793335
8.573736429214478,0.3639320731163025,-1.2792930603027344,1.4681532382965088,-0.23699471354484558,-0.029316814616322517,-0.7292312383651733
8.593794584274292,0.34540945291519165,-1.3008818626403809,1.44346284866333,-0.23749962449073792,-0.0070119500160217285,-0.7270996570587158
8.613945007324219,0.32840508222579956,-1.3099701404571533,1.4365644454956055,-0.23595044016838074,-0.0016371780075132847,-0.7262812852859497
8.634056329727173,0.2831200659275055,-1.3216071128845215,1.4374784231185913,-0.22856366634368896,-0.005714476574212313,-0.7256919741630554
8.654146432876587,0.2602202296257019,-1.3240703344345093,1.4429274797439575,-0.22447073459625244,-0.012648338451981544,-0.725780189037323
8.674201488494873,0.21817392110824585,-1.3243743181228638,1.4602551460266113,-0.21771331131458282,-0.03206726536154747,-0.7265458703041077
8.694432497024536,0.18280799686908722,-1.3205349445343018,1.484158992767334,-0.21266567707061768,-0.05708837881684303,-0.7279075384140015
8.714539527893066,0.16957257688045502,-1.3161228895187378,1.4985700845718384,-0.21083973348140717,-0.0718621164560318,-0.7289463877677917
8.734625577926636,0.1592106968164444,-1.3003737926483154,1.5302232503890991,-0.2083074301481247,-0.10454061627388,-0.73177170753479
8.754751682281494,0.1651536375284195,-1.2914923429489136,1.542029619216919,-0.20804446935653687,-0.11707409471273422,-0.7331627011299133
8.77479076385498,0.19904780387878418,-1.2776590585708618,1.5494400262832642,-0.20980030298233032,-0.1255541741847992,-0.7350277900695801
8.794896841049194,0.24576973915100098,-1.2718913555145264,1.5389379262924194,-0.21547085046768188,-0.11471503227949142,-0.7353267669677734
8.814985275268555,0.2674108147621155,-1.2719858884811401,1.530771255493164,-0.218583881855011,-0.10576542466878891,-0.7349091172218323
8.83514666557312,0.30699145793914795,-1.2750290632247925,1.5105572938919067,-0.22506625950336456,-0.08416221290826797,-0.7335398197174072
8.8551664352417,0.32474061846733093,-1.2777295112609863,1.4987595081329346,-0.22814743220806122,-0.0717744529247284,-0.7328076362609863
8.875244855880737,0.3550596237182617,-1.2830429077148438,1.471562147140503,-0.23498138785362244,-0.0442587211728096,-0.7315961122512817
8.895481586456299,0.3715316355228424,-1.2883753776550293,1.4431780576705933,-0.24236924946308136,-0.013530769385397434,-0.7312186360359192
8.91559624671936,0.3711523115634918,-1.2898911237716675,1.4341232776641846,-0.24536775052547455,-0.001876484602689743,-0.7314326763153076
8.935688734054565,0.3504433333873749,-1.292661190032959,1.4332183599472046,-0.2466597706079483,0.00591192115098238,-0.7326480150222778
8.955812454223633,0.3293655216693878,-1.2943452596664429,1.441062092781067,-0.24471426010131836,0.001297571463510394,-0.7335973978042603
8.975878715515137,0.28700950741767883,-1.2973310947418213,1.4607551097869873,-0.23921266198158264,-0.01529686152935028,-0.7350257635116577
8.995972871780396,0.26647886633872986,-1.2990022897720337,1.4707764387130737,-0.23641596734523773,-0.024904781952500343,-0.7353994250297546
9.016054391860962,0.22741003334522247,-1.301472783088684,1.49201238155365,-0.23023547232151031,-0.046669356524944305,-0.7359068989753723
9.036206007003784,0.1949819177389145,-1.2999513149261475,1.5167666673660278,-0.22121185064315796,-0.07382786273956299,-0.7368065714836121
9.056213140487671,0.1852159947156906,-1.2967653274536133,1.5301343202590942,-0.2140711098909378,-0.08965952694416046,-0.7374160289764404
9.076314449310303,0.19538192451000214,-1.2920749187469482,1.5387847423553467,-0.20309635996818542,-0.1032697856426239,-0.7377445101737976
9.096414566040039,0.2099989503622055,-1.2919210195541382,1.5353500843048096,-0.2003604918718338,-0.10199696570634842,-0.7374563813209534
9.116611242294312,0.2512587010860443,-1.2945470809936523,1.5167229175567627,-0.20236097276210785,-0.08637296408414841,-0.7361378073692322
9.137161016464233,0.2894487679004669,-1.2967687845230103,1.493533968925476,-0.21048478782176971,-0.06568817794322968,-0.734868586063385
9.157317638397217,0.30725932121276855,-1.2966513633728027,1.4810218811035156,-0.21575039625167847,-0.05458442121744156,-0.7344250679016113
9.177327871322632,0.3387885093688965,-1.2933783531188965,1.4545782804489136,-0.2294073849916458,-0.030021969228982925,-0.73439621925354
9.19741702079773,0.34623587131500244,-1.2909481525421143,1.4457069635391235,-0.23625148832798004,-0.02020864002406597,-0.7349363565444946
9.217501163482666,0.3402634263038635,-1.287043571472168,1.4421393871307373,-0.2468620389699936,-0.011494751088321209,-0.7366998791694641
9.237582445144653,0.32700592279434204,-1.2864340543746948,1.44679856300354,-0.24930140376091003,-0.013089396059513092,-0.7376863360404968
9.25780200958252,0.28499215841293335,-1.288423776626587,1.4655770063400269,-0.24790066480636597,-0.02742590382695198,-0.7392982244491577
9.27798581123352,0.24399518966674805,-1.2914267778396606,1.4855384826660156,-0.24172477424144745,-0.046693332493305206,-0.7399218678474426
9.298191547393799,0.22482047975063324,-1.2925810813903809,1.4959646463394165,-0.23721861839294434,-0.057960692793130875,-0.7401064038276672
9.318190336227417,0.19331392645835876,-1.2919690608978271,1.5191196203231812,-0.22332358360290527,-0.08533541113138199,-0.7406138181686401
9.338267087936401,0.18747135996818542,-1.29060959815979,1.5278984308242798,-0.21473732590675354,-0.09702614694833755,-0.7407238483428955
9.358319520950317,0.2002190500497818,-1.2895230054855347,1.532628059387207,-0.2015620321035385,-0.10652054101228714,-0.7403839826583862
9.378403186798096,0.21761152148246765,-1.2907168865203857,1.5276010036468506,-0.19882410764694214,-0.10317958146333694,-0.7398375272750854
9.398526906967163,0.2601017653942108,-1.2951624393463135,1.5086042881011963,-0.20159348845481873,-0.08601120114326477,-0.7383015155792236
9.418580770492554,0.2983548045158386,-1.29762601852417,1.485960841178894,-0.21024098992347717,-0.06508956104516983,-0.7370198369026184
9.438664197921753,0.31613945960998535,-1.2970707416534424,1.4737565517425537,-0.21596981585025787,-0.05384217947721481,-0.7366597056388855
9.458727598190308,0.3472609221935272,-1.2912477254867554,1.4484244585037231,-0.2313830405473709,-0.02916787378489971,-0.7369121313095093
9.478809356689453,0.3543965518474579,-1.2871907949447632,1.439556360244751,-0.2399834543466568,-0.018852585926651955,-0.7375995516777039
9.49888563156128,0.34899231791496277,-1.2815513610839844,1.434044599533081,-0.25413352251052856,-0.008180303499102592,-0.7394312620162964
9.518940448760986,0.31476107239723206,-1.2809935808181763,1.446952223777771,-0.2593842148780823,-0.014727683737874031,-0.7414259314537048
9.539022445678711,0.2933467626571655,-1.2823803424835205,1.4568963050842285,-0.25811392068862915,-0.022704102098941803,-0.7420450448989868
9.559104204177856,0.2524305284023285,-1.2856942415237427,1.4774755239486694,-0.25216877460479736,-0.04152069613337517,-0.7424899935722351
9.5791654586792,0.2331245094537735,-1.2871003150939941,1.4880776405334473,-0.24775299429893494,-0.05240160971879959,-0.7425302863121033
9.599305868148804,0.19900722801685333,-1.2878729104995728,1.5105494260787964,-0.23451614379882812,-0.07773766666650772,-0.7424628734588623
9.619343996047974,0.18069583177566528,-1.285942792892456,1.531515121459961,-0.21276946365833282,-0.10493168979883194,-0.7419649958610535
9.6394362449646,0.18326297402381897,-1.285683512687683,1.5361708402633667,-0.2033899426460266,-0.11247309297323227,-0.7415364384651184
9.659578800201416,0.21135593950748444,-1.2886699438095093,1.530558705329895,-0.19464747607707977,-0.11088228970766068,-0.740334689617157
9.679681301116943,0.2331744134426117,-1.2913110256195068,1.521731972694397,-0.19575349986553192,-0.10299506783485413,-0.7395375967025757
9.699761867523193,0.2731650769710541,-1.2953753471374512,1.5009280443191528,-0.2034856528043747,-0.08336201310157776,-0.7379019856452942
9.719833850860596,0.3097187578678131,-1.2958441972732544,1.477135181427002,-0.21419550478458405,-0.061498042196035385,-0.7367193102836609
9.739924907684326,0.3264557123184204,-1.2940036058425903,1.464551329612732,-0.22104692459106445,-0.04982971027493477,-0.7365185022354126
9.760003328323364,0.3517909646034241,-1.2859445810317993,1.440637469291687,-0.24016575515270233,-0.02493441104888916,-0.7374395132064819
9.780121326446533,0.34882980585098267,-1.2794744968414307,1.4330928325653076,-0.25755754113197327,-0.011562017723917961,-0.7394816279411316
9.800217866897583,0.33676761388778687,-1.2783316373825073,1.4361621141433716,-0.2623879313468933,-0.011080458760261536,-0.7404866814613342
9.820329904556274,0.2945428490638733,-1.280673861503601,1.4538424015045166,-0.26276475191116333,-0.023158295080065727,-0.7419942617416382
9.84055495262146,0.2734032869338989,-1.282662272453308,1.4635010957717896,-0.2600761950016022,-0.03173596411943436,-0.7422568202018738
9.86064863204956,0.23319265246391296,-1.2862462997436523,1.483510971069336,-0.25236648321151733,-0.05189763009548187,-0.7423997521400452
9.880759239196777,0.1981518268585205,-1.2876100540161133,1.5053722858428955,-0.23967836797237396,-0.07681989669799805,-0.7423413991928101
9.900805711746216,0.18457350134849548,-1.2870807647705078,1.5172244310379028,-0.2301764339208603,-0.09129669517278671,-0.7422364950180054
9.92088794708252,0.17668795585632324,-1.2860429286956787,1.5343542098999023,-0.2083500325679779,-0.11446373164653778,-0.7415107488632202
9.94116735458374,0.19914652407169342,-1.2889056205749512,1.531967043876648,-0.19783233106136322,-0.11617180705070496,-0.7403239011764526
9.961321592330933,0.22107449173927307,-1.291351556777954,1.5230976343154907,-0.19859910011291504,-0.10854398459196091,-0.7394615411758423
9.98136830329895,0.2609352171421051,-1.2950820922851562,1.5019738674163818,-0.2064369171857834,-0.08898431062698364,-0.7377349734306335
10.002065896987915,0.2795661687850952,-1.2961493730545044,1.4902220964431763,-0.21143203973770142,-0.0783536285161972,-0.7369094491004944
10.022292375564575,0.3153259754180908,-1.2949998378753662,1.4659433364868164,-0.22279714047908783,-0.0560540035367012,-0.7358517050743103
10.042351961135864,0.3468720614910126,-1.2882459163665771,1.4418400526046753,-0.2386559396982193,-0.03116716630756855,-0.7362176775932312
10.06244444847107,0.355284184217453,-1.2837401628494263,1.4335088729858398,-0.2482871264219284,-0.019900068640708923,-0.7371708750724792
10.082519292831421,0.35239535570144653,-1.2780134677886963,1.4293750524520874,-0.26182833313941956,-0.007907390594482422,-0.7392025589942932
10.102980613708496,0.34097373485565186,-1.277377724647522,1.43421471118927,-0.2641320824623108,-0.008531925268471241,-0.7402381896972656
10.12312364578247,0.30034610629081726,-1.2803258895874023,1.4538120031356812,-0.25954240560531616,-0.022528519853949547,-0.7418124675750732
10.143172979354858,0.25931546092033386,-1.2844371795654297,1.473341941833496,-0.2514413893222809,-0.04127921164035797,-0.7422851324081421
10.163346529006958,0.239803284406662,-1.2861953973770142,1.483391523361206,-0.24659405648708344,-0.052081238478422165,-0.7423771023750305
10.18344259262085,0.204262375831604,-1.288327932357788,1.5047341585159302,-0.2341567575931549,-0.07682578265666962,-0.7424597144126892
10.203472375869751,0.19067594408988953,-1.2882189750671387,1.5166226625442505,-0.22496551275253296,-0.09147434681653976,-0.7424820065498352
10.223578453063965,0.18718908727169037,-1.2876819372177124,1.5304906368255615,-0.20818117260932922,-0.11054009199142456,-0.7421110272407532
10.243644714355469,0.21540693938732147,-1.2896406650543213,1.5248668193817139,-0.20239612460136414,-0.10797101259231567,-0.7409794330596924
10.263761520385742,0.23711837828159332,-1.2913947105407715,1.51593017578125,-0.20425517857074738,-0.09981690347194672,-0.7401268482208252
10.28400707244873,0.27708208560943604,-1.294359803199768,1.4951251745224,-0.21224133670330048,-0.080058753490448,-0.7384107112884521
10.304220199584961,0.3134559094905853,-1.294482707977295,1.4711599349975586,-0.2229490578174591,-0.05807100236415863,-0.7370833158493042
10.324309349060059,0.33012694120407104,-1.2926859855651855,1.458480954170227,-0.22950828075408936,-0.046240031719207764,-0.7367750406265259
10.344423294067383,0.35679492354393005,-1.2849112749099731,1.4336527585983276,-0.24722525477409363,-0.02057824656367302,-0.7371873259544373
10.364493370056152,0.3624130189418793,-1.2809597253799438,1.4263806343078613,-0.2562621831893921,-0.01089528203010559,-0.7379204630851746
10.384551048278809,0.34947913885116577,-1.277119755744934,1.4272421598434448,-0.2680228352546692,-0.004682638216763735,-0.7398632764816284
10.404603481292725,0.308495432138443,-1.279342770576477,1.4448570013046265,-0.2679009735584259,-0.01666349172592163,-0.7415959239006042
10.424696207046509,0.2873108386993408,-1.2813776731491089,1.4544605016708374,-0.265231728553772,-0.025184720754623413,-0.7419244050979614
10.444934844970703,0.24657554924488068,-1.2851814031600952,1.4741934537887573,-0.2577834725379944,-0.04469192400574684,-0.7420380711555481
10.465007305145264,0.21012717485427856,-1.2868967056274414,1.4958858489990234,-0.24652229249477386,-0.06847383081912994,-0.7419337034225464
10.485117435455322,0.1949048936367035,-1.2866196632385254,1.5077039003372192,-0.2385004460811615,-0.08222827315330505,-0.7418574690818787
10.505248785018921,0.18053850531578064,-1.2846238613128662,1.5290749073028564,-0.21662691235542297,-0.10919086635112762,-0.7412952184677124
10.525352716445923,0.18577632308006287,-1.2847377061843872,1.5331473350524902,-0.2084258794784546,-0.11558039486408234,-0.7408434152603149
10.54548168182373,0.21793699264526367,-1.2884650230407715,1.5260426998138428,-0.20208895206451416,-0.11124415695667267,-0.7393983602523804
10.565551280975342,0.2594912648200989,-1.2930039167404175,1.5068695545196533,-0.20796731114387512,-0.09272711724042892,-0.7375463247299194
10.585663795471191,0.2787507176399231,-1.2946034669876099,1.4958330392837524,-0.21232245862483978,-0.08224166184663773,-0.7366535663604736
10.605792760848999,0.31483814120292664,-1.2948386669158936,1.4716660976409912,-0.22291211783885956,-0.05997685343027115,-0.735355019569397
10.626041889190674,0.34576621651649475,-1.289344072341919,1.4458998441696167,-0.23779693245887756,-0.03511456400156021,-0.7353222370147705
10.646143913269043,0.35558244585990906,-1.2850408554077148,1.4349011182785034,-0.24734704196453094,-0.022585349157452583,-0.7359473705291748
10.666267395019531,0.3517810106277466,-1.279576301574707,1.4280917644500732,-0.2613867521286011,-0.009472922421991825,-0.7376580834388733
10.686429023742676,0.33831048011779785,-1.2792057991027832,1.4322943687438965,-0.26429858803749084,-0.009880631230771542,-0.738588273525238
10.706488370895386,0.2944723963737488,-1.2823420763015747,1.4513849020004272,-0.2620708644390106,-0.02363324537873268,-0.7400824427604675
10.726597309112549,0.25310733914375305,-1.2863259315490723,1.4710378646850586,-0.25554800033569336,-0.042129769921302795,-0.7404610514640808
10.746683359146118,0.23363827168941498,-1.2878949642181396,1.481394648551941,-0.25112465023994446,-0.052930817008018494,-0.740497350692749
10.766751289367676,0.19836294651031494,-1.2892425060272217,1.5035353899002075,-0.2390691339969635,-0.07762283086776733,-0.7404322624206543
10.786859035491943,0.18448302149772644,-1.2886687517166138,1.515695571899414,-0.230205237865448,-0.09196075797080994,-0.7403777837753296
10.806942224502563,0.17499583959579468,-1.2871689796447754,1.5349417924880981,-0.20988737046718597,-0.11696399003267288,-0.7400013208389282
10.827027797698975,0.18349948525428772,-1.2877196073532104,1.5363991260528564,-0.2042161524295807,-0.12046624720096588,-0.7396718859672546
10.847102880477905,0.22132472693920135,-1.2908600568771362,1.523454189300537,-0.20391380786895752,-0.11033286154270172,-0.7385199069976807
10.867216110229492,0.2418098896741867,-1.2920291423797607,1.5134519338607788,-0.2076737880706787,-0.1008852869272232,-0.7377761602401733
10.887320756912231,0.2802298069000244,-1.2929633855819702,1.4913311004638672,-0.21741199493408203,-0.08002664148807526,-0.7363306879997253
10.907380819320679,0.29855725169181824,-1.2923721075057983,1.4795947074890137,-0.2228502780199051,-0.06901998817920685,-0.7357918620109558
10.927470684051514,0.3323414623737335,-1.2882742881774902,1.4552034139633179,-0.2363957017660141,-0.045400891453027725,-0.7355349659919739
10.947525978088379,0.3506162166595459,-1.2821435928344727,1.436427354812622,-0.2532349228858948,-0.022926421836018562,-0.7369192242622375
10.967628717422485,0.3478565812110901,-1.2805646657943726,1.4340276718139648,-0.25929543375968933,-0.01738153025507927,-0.7378520965576172
10.987723112106323,0.3161078691482544,-1.2819695472717285,1.4445173740386963,-0.2627315819263458,-0.021201029419898987,-0.7397648096084595
11.007799863815308,0.2941551208496094,-1.284132957458496,1.4535582065582275,-0.2609716057777405,-0.02849765121936798,-0.7403320670127869
11.02787446975708,0.25268688797950745,-1.2880104780197144,1.4731849431991577,-0.2544776499271393,-0.04681524634361267,-0.7408680319786072
11.048140287399292,0.21501004695892334,-1.290513277053833,1.4945998191833496,-0.24457967281341553,-0.06946918368339539,-0.740947425365448
11.068227052688599,0.19931994378566742,-1.290311336517334,1.5066388845443726,-0.23726944625377655,-0.0829005241394043,-0.7409865260124207
11.088307857513428,0.17851266264915466,-1.2884398698806763,1.5308361053466797,-0.21707041561603546,-0.11184101551771164,-0.7407324314117432
11.108394861221313,0.17930568754673004,-1.2880454063415527,1.53753662109375,-0.20852838456630707,-0.12077081203460693,-0.7404413819313049
11.1285080909729,0.20196956396102905,-1.2904443740844727,1.535854697227478,-0.20043152570724487,-0.12234264612197876,-0.7395337820053101
11.148577690124512,0.22318881750106812,-1.2923989295959473,1.5278295278549194,-0.20163172483444214,-0.11520741134881973,-0.738872766494751
11.168656587600708,0.26299867033958435,-1.294840693473816,1.5068081617355347,-0.20989489555358887,-0.09536004066467285,-0.7372786998748779
11.188709735870361,0.28159403800964355,-1.2954767942428589,1.4951403141021729,-0.2148665487766266,-0.08452853560447693,-0.7364857792854309
11.2088303565979,0.31661516427993774,-1.2942895889282227,1.4704201221466064,-0.2262900471687317,-0.061582740396261215,-0.7354494333267212
11.228926658630371,0.3460145890712738,-1.2888481616973877,1.4446645975112915,-0.24219709634780884,-0.03554705157876015,-0.7356852293014526
11.24901008605957,0.3509608209133148,-1.2860562801361084,1.4364744424819946,-0.2503983676433563,-0.025076577439904213,-0.7364047169685364
11.269148588180542,0.33869293332099915,-1.2833155393600464,1.4338229894638062,-0.2617325484752655,-0.015894204378128052,-0.7381139397621155
11.289999008178711,0.2970750033855438,-1.2864302396774292,1.4493262767791748,-0.2611745595932007,-0.026038164272904396,-0.7395372986793518
11.310126304626465,0.27560684084892273,-1.2884567975997925,1.4585809707641602,-0.25854337215423584,-0.03424477577209473,-0.7398374080657959
11.330159187316895,0.23571465909481049,-1.2913817167282104,1.4791096448898315,-0.25053051114082336,-0.05448658764362335,-0.7401782870292664
11.35031008720398,0.21784505248069763,-1.2919023036956787,1.4904348850250244,-0.24493013322353363,-0.06655984371900558,-0.7403042912483215
11.370384931564331,0.1908612996339798,-1.2896838188171387,1.5161402225494385,-0.22848081588745117,-0.09509553015232086,-0.7406014800071716
11.390711307525635,0.1856810748577118,-1.2877984046936035,1.527819037437439,-0.2185005098581314,-0.10869359225034714,-0.7406459450721741
11.410813331604004,0.19729459285736084,-1.2871274948120117,1.537251353263855,-0.20479966700077057,-0.12064217031002045,-0.7402373552322388
11.430956840515137,0.23601855337619781,-1.2906339168548584,1.5261739492416382,-0.20410610735416412,-0.11053277552127838,-0.739026665687561
11.451028823852539,0.25656548142433167,-1.2926726341247559,1.5163971185684204,-0.20742513239383698,-0.100975401699543,-0.7381774187088013
11.471312999725342,0.29444921016693115,-1.2952826023101807,1.4936751127243042,-0.21647809445858002,-0.07966562360525131,-0.7365096211433411
11.491419553756714,0.31183382868766785,-1.2952675819396973,1.4809014797210693,-0.22182635962963104,-0.06823604553937912,-0.7359006404876709
11.511550664901733,0.3420099914073944,-1.2919986248016357,1.453206181526184,-0.2351752519607544,-0.04323691502213478,-0.7354253530502319
11.531602621078491,0.35208430886268616,-1.2888827323913574,1.4390803575515747,-0.24429187178611755,-0.029086144641041756,-0.7357649207115173
11.55166220664978,0.34839287400245667,-1.2850377559661865,1.426550030708313,-0.257842481136322,-0.012753966264426708,-0.7369524240493774
11.57181978225708,0.33513620495796204,-1.2848801612854004,1.4287668466567993,-0.2607665956020355,-0.011855888180434704,-0.7377039790153503
11.59201455116272,0.2912960946559906,-1.287846565246582,1.4459649324417114,-0.258262038230896,-0.02436121553182602,-0.7390362620353699
11.612024784088135,0.2702504098415375,-1.289555549621582,1.4556050300598145,-0.2553229033946991,-0.03316479176282883,-0.7393283247947693
11.632150888442993,0.23162944614887238,-1.29136323928833,1.4774677753448486,-0.24723349511623383,-0.05454518646001816,-0.7397647500038147
11.6522855758667,0.19934238493442535,-1.2906185388565063,1.5024385452270508,-0.23521918058395386,-0.08058062195777893,-0.7401002049446106
11.672395706176758,0.18764029443264008,-1.2888860702514648,1.5163028240203857,-0.22690781950950623,-0.09553778171539307,-0.7403160929679871
11.692439079284668,0.18119169771671295,-1.2867698669433594,1.5366873741149902,-0.20990218222141266,-0.11923776566982269,-0.7404417991638184
11.71254563331604,0.1913023293018341,-1.2871919870376587,1.5378047227859497,-0.20583325624465942,-0.12158527970314026,-0.7402600049972534
11.732692241668701,0.23022614419460297,-1.2898833751678467,1.523958444595337,-0.20746317505836487,-0.10916012525558472,-0.7390561699867249
11.753086805343628,0.26945576071739197,-1.292508602142334,1.50254487991333,-0.2157168835401535,-0.08860418200492859,-0.7372685670852661
11.773294687271118,0.287777841091156,-1.293177843093872,1.49062979221344,-0.22050714492797852,-0.07750049978494644,-0.7364650368690491
11.793390035629272,0.3213733434677124,-1.2916125059127808,1.4647763967514038,-0.23225094377994537,-0.0538761131465435,-0.7353913187980652
11.813446044921875,0.33589687943458557,-1.2890374660491943,1.4512369632720947,-0.23989279568195343,-0.041003141552209854,-0.7353036999702454
11.833488941192627,0.35158419609069824,-1.2822915315628052,1.4284553527832031,-0.2581983506679535,-0.01568146049976349,-0.7362306714057922
11.853591680526733,0.347378134727478,-1.2806750535964966,1.4257327318191528,-0.264190673828125,-0.009750659577548504,-0.7369939088821411
11.873709440231323,0.31359127163887024,-1.282111644744873,1.4376229047775269,-0.265585333108902,-0.014692533761262894,-0.73866206407547
11.894187927246094,0.2920324206352234,-1.2839959859848022,1.447090744972229,-0.26284530758857727,-0.022390922531485558,-0.7391652464866638
11.914303064346313,0.2508290708065033,-1.2874633073806763,1.4668782949447632,-0.2557410001754761,-0.040987879037857056,-0.7395805716514587
11.934370040893555,0.21400000154972076,-1.2889689207077026,1.4892410039901733,-0.24572481215000153,-0.06416171789169312,-0.7398188710212708
11.954512119293213,0.19871805608272552,-1.2882858514785767,1.5019100904464722,-0.23885037004947662,-0.0776972621679306,-0.7399674654006958
11.974616050720215,0.18225955963134766,-1.28450345993042,1.527512550354004,-0.21910874545574188,-0.10645280033349991,-0.7400420308113098
11.994699478149414,0.19574005901813507,-1.2840417623519897,1.5363154411315918,-0.2042853683233261,-0.11778153479099274,-0.7393946051597595
12.014823198318481,0.2140878289937973,-1.2859541177749634,1.5321308374404907,-0.20149627327919006,-0.11430473625659943,-0.7386682629585266
12.034881114959717,0.256671667098999,-1.290906310081482,1.514281988143921,-0.2056235522031784,-0.09670473635196686,-0.7368449568748474
12.054994583129883,0.2762116491794586,-1.2930418252944946,1.5036431550979614,-0.20975613594055176,-0.08634016662836075,-0.7358753085136414
12.075070142745972,0.31223395466804504,-1.2945621013641357,1.479190707206726,-0.21978536248207092,-0.06405933946371078,-0.7344489693641663
12.095165967941284,0.34312012791633606,-1.29122793674469,1.4520015716552734,-0.23348313570022583,-0.03954145312309265,-0.7340040802955627
12.115315675735474,0.354265958070755,-1.2874069213867188,1.4381020069122314,-0.24352070689201355,-0.025683553889393806,-0.7344253063201904
12.13541293144226,0.3585454821586609,-1.2803000211715698,1.422463297843933,-0.26228147745132446,-0.006044088862836361,-0.7359291315078735
12.155450820922852,0.3500017821788788,-1.2784268856048584,1.4228514432907104,-0.268033504486084,-0.0028194228652864695,-0.7368115782737732
12.175625324249268,0.3096616566181183,-1.2798892259597778,1.4392720460891724,-0.26881879568099976,-0.012572744861245155,-0.7384476065635681
12.195635080337524,0.2676817774772644,-1.2834341526031494,1.459001898765564,-0.26320385932922363,-0.02994343638420105,-0.7389662861824036
12.215754270553589,0.24743491411209106,-1.2852504253387451,1.4690978527069092,-0.25981590151786804,-0.039861053228378296,-0.7389904856681824
12.235862731933594,0.21022886037826538,-1.2871084213256836,1.49104905128479,-0.250379741191864,-0.06305985152721405,-0.7389553785324097
12.256143569946289,0.19486942887306213,-1.286482334136963,1.5033113956451416,-0.24332518875598907,-0.07679169625043869,-0.7389792799949646
12.276237964630127,0.17692388594150543,-1.2833456993103027,1.5275837182998657,-0.22233261168003082,-0.10655345022678375,-0.7386135458946228
12.296322107315063,0.1910742223262787,-1.2840946912765503,1.534146785736084,-0.20700405538082123,-0.11777016520500183,-0.7374851703643799
12.316407680511475,0.20962344110012054,-1.2864271402359009,1.5290558338165283,-0.20481184124946594,-0.11414125561714172,-0.736617386341095
12.33651328086853,0.25164493918418884,-1.2908915281295776,1.510398507118225,-0.21063242852687836,-0.09630545973777771,-0.7346577644348145
12.356543779373169,0.2711728811264038,-1.2926814556121826,1.4997786283493042,-0.21521082520484924,-0.08602067828178406,-0.7336908578872681
12.376648902893066,0.3079844117164612,-1.293491244316101,1.4763400554656982,-0.22573097050189972,-0.06411931663751602,-0.7322067022323608
12.396803855895996,0.3408902883529663,-1.2893431186676025,1.4512006044387817,-0.23931299149990082,-0.04006531834602356,-0.7318232655525208
12.416897773742676,0.3542150855064392,-1.285256028175354,1.4385939836502075,-0.2486763298511505,-0.02650316059589386,-0.7322872877120972
12.436992168426514,0.3642580211162567,-1.2774162292480469,1.4219127893447876,-0.2680005431175232,-0.004321692977100611,-0.7340476512908936
12.457077980041504,0.35664811730384827,-1.2760756015777588,1.4221820831298828,-0.273221880197525,-0.0004841913469135761,-0.7350154519081116
12.477199077606201,0.3184649646282196,-1.2784359455108643,1.4382721185684204,-0.272735595703125,-0.00921785831451416,-0.7367802262306213
12.497336149215698,0.2766440808773041,-1.2827821969985962,1.4577720165252686,-0.26555320620536804,-0.02651187591254711,-0.7372699975967407
12.517428398132324,0.2565164268016815,-1.2847267389297485,1.46779203414917,-0.26150816679000854,-0.03647845238447189,-0.7372974157333374
12.537482738494873,0.21850891411304474,-1.2875862121582031,1.488566517829895,-0.2516426742076874,-0.05919000506401062,-0.7371541261672974
12.557585000991821,0.20191337168216705,-1.2879174947738647,1.4999549388885498,-0.2449880838394165,-0.07243762910366058,-0.7371358871459961
12.577768802642822,0.17915745079517365,-1.2864090204238892,1.5243686437606812,-0.2245524674654007,-0.10303296148777008,-0.7369138598442078
12.59777045249939,0.19234439730644226,-1.2866806983947754,1.5308774709701538,-0.2100377082824707,-0.11447583884000778,-0.7361029982566833
12.617871522903442,0.2118169516324997,-1.2886883020401,1.5252183675765991,-0.20796291530132294,-0.11029393970966339,-0.7352981567382812
12.637964248657227,0.2543162703514099,-1.2932502031326294,1.5070130825042725,-0.21227692067623138,-0.09270792454481125,-0.7335267066955566
12.658083438873291,0.27409082651138306,-1.2948201894760132,1.4965687990188599,-0.21622230112552643,-0.08240469545125961,-0.732692301273346
12.678183794021606,0.3112601935863495,-1.294726848602295,1.473651647567749,-0.2260901927947998,-0.06024164333939552,-0.7317011952400208
12.698230028152466,0.3281293213367462,-1.2925759553909302,1.4614604711532593,-0.23278149962425232,-0.048308178782463074,-0.7316961884498596
12.718315601348877,0.351886123418808,-1.2655073404312134,1.433523178100586,-0.2216162085533142,-0.03966253250837326,-0.7167933583259583
12.73857831954956,0.37348830699920654,-1.2365996837615967,1.405988097190857,-0.21032321453094482,-0.03156421333551407,-0.7011287808418274
12.758684158325195,0.3831617832183838,-1.221441388130188,1.3927650451660156,-0.20374445617198944,-0.028267819434404373,-0.6926050782203674
12.778764009475708,0.3965122401714325,-1.1893142461776733,1.3683875799179077,-0.18664531409740448,-0.025527779012918472,-0.6730323433876038
12.798893928527832,0.39846840500831604,-1.172795295715332,1.3577262163162231,-0.17613142728805542,-0.026982776820659637,-0.6619880795478821
12.818953514099121,0.39018911123275757,-1.1414389610290527,1.3411372900009155,-0.1535131335258484,-0.03665345907211304,-0.6385347843170166
12.839025497436523,0.3804384469985962,-1.1278889179229736,1.3354947566986084,-0.14244507253170013,-0.0443047471344471,-0.6269831657409668
12.85910701751709,0.3541486859321594,-1.1058558225631714,1.3285675048828125,-0.12187685072422028,-0.0625712051987648,-0.6046271324157715
12.879189729690552,0.3213987648487091,-1.0913872718811035,1.3271406888961792,-0.10369374603033066,-0.08297081291675568,-0.5832284092903137
12.899285078048706,0.30415377020835876,-1.08660089969635,1.3279192447662354,-0.09510176628828049,-0.09337378293275833,-0.5721807479858398
12.919401168823242,0.26926249265670776,-1.0811394453048706,1.331198811531067,-0.0786045640707016,-0.11365703493356705,-0.5486418604850769
12.93967580795288,0.23751512169837952,-1.079094409942627,1.332260251045227,-0.06141115725040436,-0.13234955072402954,-0.5199189782142639
12.95975923538208,0.2255687117576599,-1.0773992538452148,1.3282109498977661,-0.052203647792339325,-0.14046482741832733,-0.502244770526886
12.979818344116211,0.22007814049720764,-1.069765329360962,1.3031647205352783,-0.03713621944189072,-0.1491074413061142,-0.46464434266090393
12.999948501586914,0.2261280119419098,-1.0643197298049927,1.2848953008651733,-0.03356878459453583,-0.1488475501537323,-0.45007801055908203
13.019994735717773,0.24509553611278534,-1.0509002208709717,1.246085286140442,-0.031514037400484085,-0.1447286456823349,-0.4295235276222229
13.040076971054077,0.2679062485694885,-1.0349537134170532,1.207631230354309,-0.032738883048295975,-0.13904651999473572,-0.41501545906066895
13.060147047042847,0.2804482579231262,-1.0254069566726685,1.1893671751022339,-0.03384461626410484,-0.13656261563301086,-0.409049928188324
13.080253839492798,0.3073219656944275,-1.0035762786865234,1.155256748199463,-0.03665084019303322,-0.13238286972045898,-0.39859381318092346
13.10040545463562,0.32174184918403625,-0.9912932515144348,1.139784336090088,-0.03825594484806061,-0.130845308303833,-0.39391857385635376
13.120501041412354,0.35153284668922424,-0.9638900756835938,1.111997365951538,-0.041731804609298706,-0.12947887182235718,-0.3853307366371155
13.140544414520264,0.38226956129074097,-0.9333876967430115,1.0887607336044312,-0.04597989469766617,-0.1307584047317505,-0.37736257910728455
13.160658836364746,0.3974579870700836,-0.9171422719955444,1.078447937965393,-0.0482051819562912,-0.13255484402179718,-0.37337926030158997
13.180720567703247,0.42792096734046936,-0.8833606839179993,1.0610442161560059,-0.05329827591776848,-0.13822321593761444,-0.3651350736618042
13.20079517364502,0.4433324337005615,-0.8662419319152832,1.0536354780197144,-0.056314364075660706,-0.14153093099594116,-0.36071836948394775
13.22090220451355,0.4746462404727936,-0.8320464491844177,1.042563557624817,-0.06403188407421112,-0.14957499504089355,-0.3507101237773895
13.241076707839966,0.5015550851821899,-0.8061707615852356,1.0366023778915405,-0.0731358453631401,-0.15567362308502197,-0.3405331075191498
13.261198282241821,0.5112646818161011,-0.7975383400917053,1.0347226858139038,-0.07731503248214722,-0.1577567309141159,-0.3359668552875519
13.281244277954102,0.5249948501586914,-0.7867310643196106,1.0307780504226685,-0.08546073734760284,-0.1596670150756836,-0.32764217257499695
13.301360130310059,0.5284870266914368,-0.7840615510940552,1.0299040079116821,-0.0890767052769661,-0.1601124405860901,-0.32387131452560425
13.321464538574219,0.5286885499954224,-0.7832036018371582,1.0306599140167236,-0.09482674300670624,-0.1607847660779953,-0.316856324672699
13.341569423675537,0.5260060429573059,-0.7846815586090088,1.031963586807251,-0.09670674800872803,-0.16100214421749115,-0.31350037455558777
13.361737489700317,0.5157042145729065,-0.787334680557251,1.0335220098495483,-0.09848786145448685,-0.163584902882576,-0.3070341944694519
13.381855010986328,0.5004138350486755,-0.7906689047813416,1.0357489585876465,-0.09830643236637115,-0.16835780441761017,-0.30084970593452454
13.401931762695312,0.49129095673561096,-0.7926040291786194,1.037460207939148,-0.09782350808382034,-0.17149123549461365,-0.29787805676460266
13.422086954116821,0.47373268008232117,-0.7984569072723389,1.0392776727676392,-0.09674182534217834,-0.17597445845603943,-0.2919854521751404
13.44214677810669,0.4670267105102539,-0.8007669448852539,1.037246823310852,-0.09639543294906616,-0.17714479565620422,-0.289127379655838
13.462245225906372,0.458385169506073,-0.8032161593437195,1.027955412864685,-0.09620363265275955,-0.17771010100841522,-0.2837638258934021
13.482327938079834,0.4553149938583374,-0.8047938346862793,1.0158495903015137,-0.09684092551469803,-0.17622117698192596,-0.2789357900619507
13.502437353134155,0.4554510712623596,-0.8051860332489014,1.0090456008911133,-0.09750289469957352,-0.17478759586811066,-0.2767392694950104
13.522501468658447,0.4573785364627838,-0.8064171671867371,0.9971098303794861,-0.09963396191596985,-0.171270951628685,-0.2728268504142761
13.54256534576416,0.46013015508651733,-0.8065078258514404,0.9876322746276855,-0.10211024433374405,-0.16846969723701477,-0.26954713463783264
13.56271243095398,0.46127718687057495,-0.8060905337333679,0.9843580722808838,-0.10320119559764862,-0.16775228083133698,-0.26811930537223816
13.582740783691406,0.46358177065849304,-0.8038836121559143,0.980146050453186,-0.10486170649528503,-0.16770386695861816,-0.265618234872818
13.603152751922607,0.46522507071495056,-0.8011232018470764,0.9776751399040222,-0.10547251999378204,-0.16852016746997833,-0.2645064890384674
13.623278856277466,0.47112974524497986,-0.7914587259292603,0.9717515707015991,-0.10685961693525314,-0.17121678590774536,-0.2626284658908844
13.643327236175537,0.4788137972354889,-0.7788653373718262,0.9659162759780884,-0.1087818369269371,-0.1748034954071045,-0.2610304653644562
13.663431644439697,0.4827602505683899,-0.7723760604858398,0.9637312889099121,-0.11013754457235336,-0.17680902779102325,-0.2603212893009186
13.683505535125732,0.49117010831832886,-0.7593666911125183,0.9602142572402954,-0.11382469534873962,-0.1808488517999649,-0.2589879333972931
13.703731060028076,0.49927690625190735,-0.7467242479324341,0.9579956531524658,-0.11820141971111298,-0.1851363331079483,-0.2576279938220978
13.72386884689331,0.5041013360023499,-0.7399030327796936,0.956528902053833,-0.12072758376598358,-0.18719442188739777,-0.25692224502563477
13.743987083435059,0.5120785236358643,-0.7274639010429382,0.9541274309158325,-0.12536726891994476,-0.19143255054950714,-0.2551906108856201
13.764395952224731,0.5139144659042358,-0.7220250368118286,0.9539687633514404,-0.12722142040729523,-0.19421911239624023,-0.25418952107429504
13.78447151184082,0.514629602432251,-0.71388179063797,0.9555814266204834,-0.1304643601179123,-0.19946381449699402,-0.251896470785141
13.804558277130127,0.5110960602760315,-0.7090673446655273,0.9574880003929138,-0.1335536688566208,-0.20408719778060913,-0.2490687370300293
13.824631214141846,0.5095274448394775,-0.7070333361625671,0.9567832946777344,-0.13524803519248962,-0.20587804913520813,-0.2474346160888672
13.84474229812622,0.503628134727478,-0.7043549418449402,0.9527219533920288,-0.1383339911699295,-0.20905373990535736,-0.2436184585094452
13.864891052246094,0.4984187185764313,-0.7034958004951477,0.9512772560119629,-0.13940884172916412,-0.2113228440284729,-0.24157653748989105
13.884922981262207,0.4844152331352234,-0.7048172354698181,0.9483323097229004,-0.1402965933084488,-0.21559511125087738,-0.23690545558929443
13.905308723449707,0.46739158034324646,-0.7083414196968079,0.9460868835449219,-0.14013037085533142,-0.2198374718427658,-0.23175381124019623
13.925394535064697,0.4604417681694031,-0.7104480862617493,0.9438861012458801,-0.140232115983963,-0.220966637134552,-0.22904206812381744
13.945461988449097,0.44915884733200073,-0.7133691310882568,0.9358124732971191,-0.14067557454109192,-0.22199583053588867,-0.223527729511261
13.966059446334839,0.44359320402145386,-0.7160259485244751,0.9253273010253906,-0.14157579839229584,-0.22044649720191956,-0.21813246607780457
13.98618745803833,0.44249626994132996,-0.7171283960342407,0.9196382761001587,-0.14206872880458832,-0.21907755732536316,-0.21555066108703613
14.0062415599823,0.444280207157135,-0.7177602052688599,0.9074167013168335,-0.14359821379184723,-0.21560533344745636,-0.21074223518371582
14.026324272155762,0.4465427100658417,-0.7170746922492981,0.9009289741516113,-0.14466658234596252,-0.21378156542778015,-0.20848329365253448
14.046428918838501,0.45290708541870117,-0.714303731918335,0.8899170160293579,-0.14744968712329865,-0.21037480235099792,-0.20433908700942993
14.066570520401001,0.45656418800354004,-0.712404191493988,0.8858619332313538,-0.14903339743614197,-0.2089265137910843,-0.20243628323078156
14.086656093597412,0.46501433849334717,-0.707004725933075,0.8798820972442627,-0.15288004279136658,-0.20697180926799774,-0.19900840520858765
14.106712818145752,0.4747471213340759,-0.6989997625350952,0.8775708675384521,-0.15702062845230103,-0.2069283127784729,-0.19616389274597168
14.126804113388062,0.4792805016040802,-0.694736897945404,0.8786072134971619,-0.1588827669620514,-0.207743838429451,-0.194920614361763
14.146896123886108,0.4871760606765747,-0.6863411068916321,0.8835281729698181,-0.16152390837669373,-0.210303395986557,-0.19254091382026672
14.166944026947021,0.4900260865688324,-0.6825945377349854,0.8875032067298889,-0.16242562234401703,-0.21205298602581024,-0.19136667251586914
14.187041282653809,0.4955715239048004,-0.6749567985534668,0.8946837186813354,-0.1644136905670166,-0.21557104587554932,-0.18886248767375946
14.207110404968262,0.5004212856292725,-0.6669818162918091,0.900984525680542,-0.16740036010742188,-0.2193518579006195,-0.18612539768218994
14.227277994155884,0.502299427986145,-0.6628514528274536,0.9031978845596313,-0.1692136973142624,-0.22118788957595825,-0.18456487357616425
14.247299194335938,0.5048012137413025,-0.6549167037010193,0.9055235385894775,-0.17311781644821167,-0.22468796372413635,-0.18091365694999695
14.267433404922485,0.5065073370933533,-0.6468670964241028,0.9016553163528442,-0.17713578045368195,-0.227338507771492,-0.17632648348808289
14.28759241104126,0.5062139630317688,-0.6435760855674744,0.897757351398468,-0.1787676364183426,-0.22827975451946259,-0.1736413538455963
14.307637453079224,0.5028699636459351,-0.6384710073471069,0.8856570720672607,-0.18177929520606995,-0.22943803668022156,-0.1675931215286255
14.327712297439575,0.4989326596260071,-0.6367699503898621,0.8779139518737793,-0.18315628170967102,-0.22992923855781555,-0.164279505610466
14.347790956497192,0.48748934268951416,-0.6351614594459534,0.8598079085350037,-0.18590205907821655,-0.2307586371898651,-0.15717287361621857
14.3678879737854,0.4736499786376953,-0.6350172162055969,0.8397934436798096,-0.18893961608409882,-0.23113715648651123,-0.1497201919555664
14.387955665588379,0.46723490953445435,-0.6354262828826904,0.8300885558128357,-0.1907142996788025,-0.23085814714431763,-0.1459859162569046
14.408041000366211,0.456985205411911,-0.6360375285148621,0.812646746635437,-0.19463284313678741,-0.22969503700733185,-0.13872259855270386
14.428098917007446,0.45410895347595215,-0.6354342103004456,0.8053357005119324,-0.19667267799377441,-0.22918084263801575,-0.13528460264205933
14.44820261001587,0.4527026116847992,-0.6334435939788818,0.7948653101921082,-0.20067349076271057,-0.2278415858745575,-0.12884452939033508
14.468507766723633,0.45618024468421936,-0.6305537819862366,0.7915021777153015,-0.20411193370819092,-0.22685164213180542,-0.12312383204698563
14.488654851913452,0.4595855474472046,-0.6286989450454712,0.791272759437561,-0.20595860481262207,-0.2262456715106964,-0.12046419084072113
14.508721590042114,0.4688842296600342,-0.624861478805542,0.7925677299499512,-0.21012896299362183,-0.22445598244667053,-0.11534611880779266
