liuyurong129/humanoid-gym/humanoid/data/target_q_20250523-024412.csv
timestamp,joint_1,joint_2,joint_3,joint_4,joint_5,joint_6
4.100799560546875e-05,0.0,0.0,0.0,0.0,0.0,0.0
0.020151615142822266,0.0,0.0,0.0,0.0,0.0,0.0
0.04019331932067871,0.0,0.0,0.0,0.0,0.0,0.0
0.060240983963012695,0.03921230882406235,-0.370602011680603,0.4024190902709961,0.15835227072238922,0.2261429727077484,0.3472635746002197
0.08033967018127441,0.011712826788425446,-0.5808759927749634,0.3702227473258972,0.1389448046684265,0.17893140017986298,0.2026091068983078
0.10039615631103516,0.03389192372560501,-0.9706083536148071,0.4805181324481964,0.14426706731319427,0.15428012609481812,0.2460646778345108
0.1204836368560791,0.03759514540433884,-1.1988306045532227,0.5753837823867798,0.1542348712682724,0.1260826587677002,0.25473007559776306
0.14052557945251465,0.04172121733427048,-1.3200724124908447,0.6011745929718018,0.15170642733573914,0.11351855844259262,0.25776806473731995
0.16072988510131836,0.023305930197238922,-1.3682324886322021,0.5432107448577881,0.12593112885951996,0.10165640711784363,0.2727544605731964
0.18080782890319824,0.01778580993413925,-1.3941423892974854,0.5420101881027222,0.12324033677577972,0.09591319411993027,0.274417906999588
0.2008955478668213,0.009316258132457733,-1.3714814186096191,0.5384095311164856,0.12391580641269684,0.10008463263511658,0.27777352929115295
0.22091364860534668,0.01001226156949997,-1.347405195236206,0.5443781614303589,0.12777630984783173,0.11046604067087173,0.2764560878276825
0.2409977912902832,0.04081311076879501,-1.3012206554412842,0.6810852289199829,0.17484141886234283,0.13309061527252197,0.25201255083084106
0.26109981536865234,0.04100876301527023,-1.2552447319030762,0.6806560754776001,0.1783868670463562,0.14429078996181488,0.25017911195755005
0.2812032699584961,0.034549616277217865,-1.1898183822631836,0.6939398050308228,0.18804581463336945,0.15644793212413788,0.2460780143737793
0.30121827125549316,0.03418790549039841,-1.1099438667297363,0.7008006572723389,0.19614280760288239,0.1797456443309784,0.24007560312747955
0.32133054733276367,-0.011824168264865875,-1.0905089378356934,0.5361487865447998,0.13781213760375977,0.17675435543060303,0.27765610814094543
0.34145641326904297,-0.017093904316425323,-0.9765086770057678,0.5429824590682983,0.14611269533634186,0.20435398817062378,0.27297553420066833
0.36153125762939453,-0.03062886744737625,-0.8458849787712097,0.5407233238220215,0.14970190823078156,0.23018014430999756,0.2764088809490204
0.3817009925842285,0.006296224892139435,-0.764522135257721,0.7249926328659058,0.22887544333934784,0.24846342206001282,0.21599839627742767
0.4018242359161377,-0.007124058902263641,-0.6346122026443481,0.6988142728805542,0.22126667201519012,0.27771246433258057,0.2162194401025772
0.4218728542327881,-0.0173327699303627,-0.507124662399292,0.680875301361084,0.21513082087039948,0.2861800491809845,0.21351635456085205
0.44191694259643555,-0.021667413413524628,-0.38535892963409424,0.638239860534668,0.19965283572673798,0.3154238164424896,0.21543799340724945
0.462080717086792,-0.06255704909563065,-0.3125063180923462,0.5116694569587708,0.156647726893425,0.3439634144306183,0.27257880568504333
0.4821207523345947,-0.06949277967214584,-0.18630005419254303,0.5036237835884094,0.15436556935310364,0.35565102100372314,0.2687239348888397
0.5022501945495605,-0.06486091762781143,-0.04945054650306702,0.4906478524208069,0.1531698852777481,0.3930017352104187,0.2586665451526642
0.5223660469055176,-0.06461501866579056,0.11627921462059021,0.5007615685462952,0.15137101709842682,0.4093702435493469,0.24291566014289856
0.5424890518188477,-0.07318741828203201,0.17,0.5005397796630859,0.14731571078300476,0.4122825860977173,0.23896118998527527
0.5625462532043457,-0.08396972715854645,0.17,0.5109301805496216,0.1352049559354782,0.4260234236717224,0.23442266881465912
0.58260178565979,-0.09479279071092606,0.17,0.5295353531837463,0.12568733096122742,0.40955743193626404,0.23743273317813873
0.6027388572692871,-0.09253328293561935,0.17,0.538356363773346,0.11981965601444244,0.40407559275627136,0.22834089398384094
0.6229724884033203,-0.09142018109560013,0.17,0.5521624088287354,0.11494988203048706,0.4091689884662628,0.2262340635061264
0.6430468559265137,-0.0947137400507927,0.17,0.5519289970397949,0.11297403275966644,0.4069519639015198,0.23015056550502777
0.663177490234375,-0.09299261122941971,0.17,0.5516932010650635,0.11206431686878204,0.4082782566547394,0.22869887948036194
0.6832668781280518,-0.09530811756849289,0.17,0.5534771680831909,0.11256329715251923,0.4036391079425812,0.2302597612142563
0.7035202980041504,-0.09389515966176987,0.17,0.5464599132537842,0.11141671240329742,0.41261768341064453,0.23422028124332428
0.7236175537109375,-0.09163953363895416,0.17,0.5510750412940979,0.11101692914962769,0.4078899025917053,0.22751417756080627
0.7436943054199219,-0.09114779531955719,0.17,0.5514207482337952,0.11255575716495514,0.4078696668148041,0.22593294084072113
0.7637503147125244,-0.09651442617177963,0.17,0.5464199781417847,0.11185608804225922,0.4074046313762665,0.2308192253112793
0.783839225769043,-0.09428814798593521,0.17,0.5496826767921448,0.11265543103218079,0.4041368365287781,0.22990508377552032
0.8039572238922119,-0.09390101581811905,0.17,0.549127459526062,0.11257083714008331,0.4045638144016266,0.23118603229522705
0.8240008354187012,-0.09288729727268219,0.17,0.5470160245895386,0.11184729635715485,0.4025493264198303,0.22901970148086548
0.8441386222839355,-0.09681879729032516,0.17,0.5346821546554565,0.11011458933353424,0.4204716086387634,0.24224522709846497
0.8642301559448242,-0.09364724904298782,0.17,0.545021653175354,0.11249558627605438,0.409641832113266,0.23565560579299927
0.8843286037445068,-0.09276371449232101,0.17,0.5478799343109131,0.11535686254501343,0.4117107093334198,0.23211655020713806
0.9043700695037842,-0.09018732607364655,0.17,0.5461287498474121,0.11383800208568573,0.4203544855117798,0.2295631766319275
0.924536943435669,-0.09327626973390579,0.17,0.5479736328125,0.11516182124614716,0.4075769782066345,0.23075969517230988
0.9445738792419434,-0.09797600656747818,0.17,0.540413498878479,0.11391013860702515,0.39791783690452576,0.23594902455806732
0.9646744728088379,-0.09397805482149124,0.17,0.5428828001022339,0.11362813413143158,0.4041949212551117,0.23243901133537292
0.9848554134368896,-0.09501300752162933,0.17,0.5416485667228699,0.11366485059261322,0.40458938479423523,0.23367437720298767
1.004915714263916,-0.09734464436769485,0.17,0.5345510840415955,0.11218492686748505,0.40956148505210876,0.2383321076631546
1.0249769687652588,-0.09648871421813965,0.17,0.5360596179962158,0.11177684366703033,0.41025808453559875,0.23747101426124573
1.0450701713562012,-0.09679508954286575,0.17,0.5326892137527466,0.11111901700496674,0.4130817651748657,0.23764878511428833
1.0651319026947021,-0.09388396888971329,0.17,0.5400437116622925,0.112393319606781,0.40812018513679504,0.2347806841135025
1.0852038860321045,-0.09599751979112625,0.17,0.5349589586257935,0.11294592916965485,0.40176478028297424,0.23870444297790527
1.105262041091919,-0.09453195333480835,0.17,0.5336452722549438,0.11408364772796631,0.405190646648407,0.24137023091316223
1.1253619194030762,-0.09410368651151657,0.17,0.5368849635124207,0.11393493413925171,0.3995911777019501,0.23404832184314728
1.14542818069458,-0.0942438468337059,0.17,0.5393339395523071,0.11584922671318054,0.3964538872241974,0.23335455358028412
1.1654794216156006,-0.09579747170209885,0.17,0.5285858511924744,0.11314208805561066,0.4041578471660614,0.23787586390972137
1.185575008392334,-0.09385093301534653,0.17,0.5330343842506409,0.1136886477470398,0.40399739146232605,0.2374175637960434
1.205643892288208,-0.09461123496294022,0.17,0.5299190282821655,0.11319772899150848,0.40806278586387634,0.23787899315357208
1.2257156372070312,-0.09232818335294724,0.17,0.5355237722396851,0.11531919240951538,0.4008895456790924,0.2357224076986313
1.2458083629608154,-0.09196125715970993,0.17,0.5328059196472168,0.11502246558666229,0.40705516934394836,0.23772992193698883
1.2658631801605225,-0.09380751103162766,0.17,0.5326272249221802,0.11562450230121613,0.40208789706230164,0.23908723890781403
1.2859532833099365,-0.09598120301961899,0.17,0.5280038714408875,0.11410526931285858,0.4035850465297699,0.23932623863220215
1.306015968322754,-0.0956542119383812,0.17,0.5278911590576172,0.11421333253383636,0.40195226669311523,0.2395913153886795
1.3260703086853027,-0.09333095699548721,0.17,0.5289456844329834,0.11321498453617096,0.4060188829898834,0.2378702312707901
1.346158742904663,-0.09811388701200485,0.17,0.5190041065216064,0.11277569830417633,0.41001248359680176,0.24664251506328583
1.3662326335906982,-0.09621349722146988,0.17,0.5208995342254639,0.11330561339855194,0.4101392328739166,0.24742348492145538
1.386368989944458,-0.09324953705072403,0.17,0.5240870714187622,0.11442485451698303,0.4104848802089691,0.24440476298332214
1.4063687324523926,-0.09380683302879333,0.17,0.5311675071716309,0.11679887771606445,0.40187254548072815,0.24000950157642365
1.426462173461914,-0.09229753166437149,0.17,0.5289785861968994,0.11647690832614899,0.4106735587120056,0.2392573356628418
1.4465234279632568,-0.09434738010168076,0.17,0.5261695384979248,0.1160144954919815,0.40574949979782104,0.24063250422477722
1.4666059017181396,-0.09460948407649994,0.17,0.5248780250549316,0.11567741632461548,0.4044063985347748,0.2411174178123474
1.486633539199829,-0.09655465930700302,0.17,0.5181310176849365,0.11509339511394501,0.40702179074287415,0.24557097256183624
1.5067179203033447,-0.09601586312055588,0.17,0.5175919532775879,0.11495710909366608,0.4055950343608856,0.24716100096702576
1.5268595218658447,-0.10011652857065201,0.17,0.5114974975585938,0.11526751518249512,0.4063379764556885,0.253307968378067
1.5469529628753662,-0.09672369807958603,0.17,0.5192927122116089,0.11708907783031464,0.3920004069805145,0.24802003800868988
1.56697678565979,-0.09457369893789291,0.17,0.5214370489120483,0.11615268886089325,0.3901529014110565,0.23854979872703552
1.5870521068572998,-0.09534236043691635,0.17,0.5174788236618042,0.11569155752658844,0.3929089903831482,0.23990888893604279
1.6071152687072754,-0.09845907241106033,0.17,0.5176440477371216,0.11676031351089478,0.392627477645874,0.2441202849149704
1.627166748046875,-0.09484049677848816,0.17,0.5176091194152832,0.11660946905612946,0.40142813324928284,0.24376483261585236
1.6472539901733398,-0.09498890489339828,0.17,0.5177046060562134,0.11709608137607574,0.399686723947525,0.24345903098583221
1.667313814163208,-0.0959620550274849,0.17,0.5185012817382812,0.11869187653064728,0.3985806405544281,0.24274908006191254
1.6873648166656494,-0.09619883447885513,0.17,0.5119552612304688,0.11643204092979431,0.39544615149497986,0.24526779353618622
1.707432508468628,-0.09759388118982315,0.17,0.512837290763855,0.11693499982357025,0.3909844160079956,0.2461962252855301
1.7275242805480957,-0.09571393579244614,0.17,0.5121095776557922,0.1166723370552063,0.39559152722358704,0.24465936422348022
1.747593879699707,-0.09781939536333084,0.17,0.5115194320678711,0.11765897274017334,0.39267203211784363,0.24678562581539154
1.7676427364349365,-0.09669782966375351,0.17,0.5066223740577698,0.11699484288692474,0.40403512120246887,0.24851424992084503
1.787783145904541,-0.09548195451498032,0.17,0.5094329118728638,0.11744202673435211,0.3969646990299225,0.24517183005809784
1.8078653812408447,-0.0940418615937233,0.17,0.5105492472648621,0.11675268411636353,0.3945338726043701,0.24305379390716553
1.8279402256011963,-0.0967237800359726,0.17,0.507928729057312,0.11653059720993042,0.3949742019176483,0.24479147791862488
1.8479855060577393,-0.09487497061491013,0.17,0.5098525285720825,0.11879758536815643,0.38950061798095703,0.2465507686138153
1.8681156635284424,-0.09439163655042648,0.17,0.5107172727584839,0.11989827454090118,0.387172132730484,0.24820493161678314
1.8882076740264893,-0.09293725341558456,0.17,0.5089508295059204,0.11911675333976746,0.398205041885376,0.24700599908828735
1.9082772731781006,-0.09481760114431381,0.17,0.5091238021850586,0.12084712088108063,0.391433447599411,0.2474582940340042
1.9283397197723389,-0.09700711816549301,0.17,0.5024065375328064,0.11914084851741791,0.3894479274749756,0.2516007721424103
1.9484169483184814,-0.0945400670170784,0.17,0.5048162341117859,0.11903421580791473,0.3878323435783386,0.24811477959156036
1.968498706817627,-0.096920907497406,0.17,0.505557119846344,0.11995495855808258,0.37590593099594116,0.24796083569526672
1.9885578155517578,-0.09448057413101196,0.17,0.4972408413887024,0.11825945973396301,0.3955441117286682,0.2496521919965744
2.008648157119751,-0.09292398393154144,0.17,0.502071738243103,0.11986115574836731,0.3990587890148163,0.24788059294223785
2.0287692546844482,-0.0939883291721344,0.17,0.5031123757362366,0.12087780237197876,0.39111921191215515,0.24942052364349365
2.048875331878662,-0.09619072079658508,0.17,0.4959787130355835,0.11894994974136353,0.39227983355522156,0.25078439712524414
2.0689215660095215,-0.09487629681825638,0.17,0.4987441599369049,0.12037211656570435,0.3872882127761841,0.25098273158073425
2.0890004634857178,-0.09386511892080307,0.17,0.5025922060012817,0.12113799154758453,0.3875484764575958,0.24931246042251587
2.1091227531433105,-0.09692830592393875,0.17,0.4991171956062317,0.12284351885318756,0.3805203437805176,0.252334862947464
2.129256248474121,-0.09861632436513901,0.17,0.4907649755477905,0.12106923758983612,0.3752163052558899,0.2553631663322449
2.149280309677124,-0.0963144525885582,0.17,0.4919882118701935,0.12130135297775269,0.38263949751853943,0.2545676827430725
2.169437885284424,-0.09559541940689087,0.17,0.4941626787185669,0.12103214859962463,0.38311728835105896,0.2527892291545868
2.1894800662994385,-0.09492930769920349,0.17,0.4924602508544922,0.12159313261508942,0.3821839988231659,0.2521224915981293
2.2095541954040527,-0.09619157761335373,0.17,0.491088330745697,0.12315204739570618,0.3820303678512573,0.25609728693962097
2.2295916080474854,-0.09832819551229477,0.17,0.49070778489112854,0.12558425962924957,0.3725021779537201,0.2583981156349182
2.249683380126953,-0.09781182557344437,0.17,0.4901633858680725,0.12491680681705475,0.36826685070991516,0.25647637248039246
2.2697579860687256,-0.09624097496271133,0.17,0.48254773020744324,0.12272103130817413,0.3847920894622803,0.2593325674533844
2.2898218631744385,-0.0918172299861908,0.17,0.4895501732826233,0.12465120851993561,0.39380398392677307,0.25518420338630676
2.3098974227905273,-0.09785611182451248,0.17,0.4833431839942932,0.12577782571315765,0.3743599057197571,0.2601993680000305
2.3299930095672607,-0.09429983049631119,0.17,0.4827757477760315,0.12384171783924103,0.37697282433509827,0.25445297360420227
2.3501014709472656,-0.097093366086483,0.17,0.4799574911594391,0.12364685535430908,0.3786810338497162,0.25769445300102234
2.3702778816223145,-0.09316803514957428,0.17,0.4824181795120239,0.12298418581485748,0.3829917907714844,0.2523627281188965
2.3904032707214355,-0.0942319855093956,0.17,0.48217886686325073,0.12434355914592743,0.384694367647171,0.2592023015022278
2.410545825958252,-0.094180166721344,0.17,0.483072966337204,0.1252191811800003,0.37531864643096924,0.25656232237815857
2.430767297744751,-0.09339413791894913,0.17,0.4814192056655884,0.12667284905910492,0.37777888774871826,0.2592938542366028
2.450732707977295,-0.09196215867996216,0.17,0.47868674993515015,0.12779387831687927,0.37970268726348877,0.26056113839149475
2.47088885307312,-0.0929306373000145,0.17,0.4800006151199341,0.12767069041728973,0.3722872734069824,0.25804415345191956
2.490902900695801,-0.09379264712333679,0.17,0.47344696521759033,0.12644319236278534,0.37758415937423706,0.26066097617149353
2.5110456943511963,-0.09412618726491928,0.17,0.4769619405269623,0.12835346162319183,0.36874857544898987,0.2605259120464325
2.5313894748687744,-0.09264454990625381,0.17,0.4711093008518219,0.12655271589756012,0.3780662715435028,0.25931790471076965
2.5515334606170654,-0.09479609876871109,0.17,0.464006245136261,0.12622109055519104,0.3838912546634674,0.26634716987609863
2.5715842247009277,-0.0899437889456749,0.17,0.4634712338447571,0.12785114347934723,0.3975822627544403,0.26594802737236023
2.59163236618042,-0.09115875512361526,0.17,0.46362337470054626,0.13031281530857086,0.39229288697242737,0.2679388225078583
2.611694812774658,-0.0912695974111557,0.17,0.4705953001976013,0.13040266931056976,0.3733154237270355,0.2579538822174072
2.6317811012268066,-0.0909876748919487,0.17,0.46497493982315063,0.12893816828727722,0.3745984137058258,0.2594737112522125
2.6518545150756836,-0.09070098400115967,0.17,0.4635591506958008,0.1302570104598999,0.3725379407405853,0.26336780190467834
2.6719682216644287,-0.09113942831754684,0.17,0.4634557068347931,0.1295590102672577,0.3722110390663147,0.26193487644195557
2.692150354385376,-0.092624232172966,0.17,0.4539617896080017,0.13002325594425201,0.3787376284599304,0.26961320638656616
2.7122998237609863,-0.09137050062417984,0.17,0.45919567346572876,0.13095396757125854,0.3735872507095337,0.2684294283390045
2.732480049133301,-0.08954732120037079,0.17,0.4615139961242676,0.13176654279232025,0.37227270007133484,0.2661716341972351
2.752438545227051,-0.08770731091499329,0.17,0.45690613985061646,0.13173985481262207,0.38523364067077637,0.26703760027885437
2.7726783752441406,-0.08690888434648514,0.17,0.4568077325820923,0.1325119435787201,0.38203638792037964,0.2669277787208557
2.792677640914917,-0.0855441763997078,0.17,0.4560222327709198,0.13303101062774658,0.3718567192554474,0.26602253317832947
2.8127188682556152,-0.08716189116239548,0.17,0.44773852825164795,0.13314032554626465,0.3733665645122528,0.27022555470466614
2.8328256607055664,-0.08773259073495865,0.17,0.4410131871700287,0.13212798535823822,0.3785555958747864,0.272952139377594
2.852921962738037,-0.08728417754173279,0.17,0.442285418510437,0.1349164992570877,0.36612191796302795,0.27663707733154297
2.873023509979248,-0.08818478137254715,0.17,0.44046130776405334,0.13544411957263947,0.3562805950641632,0.2787896692752838
2.8930437564849854,-0.08193885535001755,0.17,0.4459444284439087,0.13586992025375366,0.35147663950920105,0.26850777864456177
2.913205146789551,-0.07831064611673355,0.17,0.4442431628704071,0.13637469708919525,0.3502677381038666,0.2678195536136627
2.9333226680755615,-0.07530295103788376,0.17,0.4408799707889557,0.13827158510684967,0.3487760126590729,0.27114632725715637
2.9533393383026123,-0.06799202412366867,0.1326797753572464,0.43658122420310974,0.1407141536474228,0.34991368651390076,0.27259260416030884
2.9734129905700684,-0.06554052978754044,0.08406901359558105,0.43171972036361694,0.14233429729938507,0.35812970995903015,0.2812941372394562
2.9934873580932617,-0.06236893683671951,-0.03207580745220184,0.429119348526001,0.14500287175178528,0.3486954867839813,0.2867150604724884
3.0135281085968018,-0.050436265766620636,-0.16613668203353882,0.44790738821029663,0.15000276267528534,0.3237703740596771,0.287832111120224
3.033613681793213,-0.04702449589967728,-0.23723745346069336,0.4495719373226166,0.14987538754940033,0.3121735155582428,0.28967830538749695
3.0537643432617188,-0.042138345539569855,-0.3755159378051758,0.4466685354709625,0.14686904847621918,0.2958589494228363,0.29722824692726135
3.073822259902954,-0.042892612516880035,-0.5125290155410767,0.4441044330596924,0.140532448887825,0.2734622061252594,0.3091369867324829
3.0938949584960938,-0.040122680366039276,-0.6334957480430603,0.47440916299819946,0.13607893884181976,0.23040859401226044,0.31653404235839844
3.114021062850952,-0.029222868382930756,-0.6721987128257751,0.532597541809082,0.14482881128787994,0.22234459221363068,0.3058498799800873
3.134150266647339,-0.03291589766740799,-0.7139068841934204,0.5724841356277466,0.14749710261821747,0.22324290871620178,0.30457016825675964
3.154169797897339,-0.03601381927728653,-0.6934254765510559,0.6160619258880615,0.16177591681480408,0.23030401766300201,0.3008175194263458
3.1744279861450195,-0.0440027192234993,-0.6290441155433655,0.6490072011947632,0.17380647361278534,0.26504263281822205,0.2907009720802307
3.1945297718048096,-0.07811491936445236,-0.582832396030426,0.5498365163803101,0.12870992720127106,0.2829085886478424,0.33464834094047546
3.214595317840576,-0.09666881710290909,-0.4556116461753845,0.5529448986053467,0.13121581077575684,0.31073662638664246,0.3421812057495117
3.234670877456665,-0.10788813978433609,-0.3057355284690857,0.5512604117393494,0.13221943378448486,0.35099658370018005,0.3405924141407013
3.2548279762268066,-0.12340369075536728,-0.1397314816713333,0.510367214679718,0.12608927488327026,0.4068925678730011,0.3431869149208069
3.2750742435455322,-0.09032700210809708,-0.06843771040439606,0.6020239591598511,0.15254990756511688,0.40367767214775085,0.28413820266723633
3.2951252460479736,-0.1005035936832428,0.15996600687503815,0.5593893527984619,0.13859455287456512,0.4488224983215332,0.2841240167617798
3.315232276916504,-0.10941220819950104,0.17,0.5410904288291931,0.1259545087814331,0.4815216064453125,0.28750482201576233
3.3353395462036133,-0.11476267129182816,0.17,0.5457185506820679,0.12604296207427979,0.4920442998409271,0.31091681122779846
3.355408191680908,-0.1132245659828186,0.17,0.5701382160186768,0.11841094493865967,0.4767458438873291,0.3001847267150879
3.375480890274048,-0.11462213844060898,0.17,0.577006459236145,0.11237432062625885,0.46701279282569885,0.294064998626709
3.395534038543701,-0.11747633665800095,0.17,0.5809789896011353,0.11276806890964508,0.4552169442176819,0.29838457703590393
3.415663480758667,-0.11683262139558792,0.17,0.5771517753601074,0.11114771664142609,0.4580366313457489,0.29889771342277527
3.4357030391693115,-0.11941049247980118,0.17,0.5720459222793579,0.11022500693798065,0.4571326673030853,0.3046250343322754
3.4558870792388916,-0.11991658806800842,0.17,0.5731916427612305,0.11141864955425262,0.45970940589904785,0.3050481379032135
3.4773752689361572,-0.11915221065282822,0.17,0.5649961233139038,0.10942457616329193,0.46873220801353455,0.3068038523197174
3.497537136077881,-0.11653411388397217,0.17,0.5730167627334595,0.10925860702991486,0.45814505219459534,0.2953609824180603
3.5176167488098145,-0.11600557714700699,0.17,0.5729180574417114,0.10913160443305969,0.4539237320423126,0.29501375555992126
3.537618637084961,-0.11640223115682602,0.17,0.5756818056106567,0.1120569258928299,0.4481991231441498,0.29702579975128174
3.5583813190460205,-0.11589285731315613,0.17,0.5747500658035278,0.11241781711578369,0.4598334729671478,0.2998493015766144
3.5784709453582764,-0.1177254244685173,0.17,0.5722332000732422,0.11139415204524994,0.45954975485801697,0.30041617155075073
3.598567008972168,-0.1197056844830513,0.17,0.5663799047470093,0.10961887240409851,0.46002233028411865,0.3020099103450775
3.618825912475586,-0.11588118225336075,0.17,0.5687627792358398,0.11159719526767731,0.4684525430202484,0.3002879321575165
3.638960838317871,-0.11978396773338318,0.17,0.567507803440094,0.11189135909080505,0.4589039087295532,0.30413663387298584
3.659205913543701,-0.11993912607431412,0.17,0.5615369081497192,0.11020798981189728,0.4550745487213135,0.3065030872821808
3.679131031036377,-0.1174672320485115,0.17,0.5665977597236633,0.11078345775604248,0.45064327120780945,0.3022896945476532
3.699237823486328,-0.11850004643201828,0.17,0.5580576658248901,0.11047318577766418,0.4577869772911072,0.3084496259689331
3.719306230545044,-0.11726481467485428,0.17,0.5650843381881714,0.11147414147853851,0.45433637499809265,0.3041054904460907
3.739452362060547,-0.11843625456094742,0.17,0.5642379522323608,0.11266301572322845,0.4509584605693817,0.30357009172439575
3.760021924972534,-0.12301824241876602,0.17,0.5524100065231323,0.11077043414115906,0.45339837670326233,0.31258824467658997
3.780172348022461,-0.11912618577480316,0.17,0.5564747452735901,0.10981740057468414,0.4481222927570343,0.30254867672920227
3.8003249168395996,-0.11856786161661148,0.17,0.554903507232666,0.11052206158638,0.4511987268924713,0.3062397539615631
3.820297956466675,-0.11939091980457306,0.17,0.5540494918823242,0.1102025955915451,0.4490467309951782,0.3061041235923767
3.840615749359131,-0.12187150120735168,0.17,0.5543305277824402,0.11266995966434479,0.4389297068119049,0.3104568123817444
3.8607397079467773,-0.1193496510386467,0.17,0.5576133728027344,0.11279752850532532,0.4348250925540924,0.30586692690849304
3.8809316158294678,-0.11721424013376236,0.17,0.5519052743911743,0.11244054138660431,0.45559272170066833,0.3051184117794037
3.9009203910827637,-0.11757653206586838,0.17,0.5509464144706726,0.11307595670223236,0.45604488253593445,0.30179595947265625
3.9210050106048584,-0.12030095607042313,0.17,0.5447515845298767,0.11289338767528534,0.45958948135375977,0.3146536648273468
3.941100597381592,-0.12249492853879929,0.17,0.5364284515380859,0.11089830100536346,0.45897582173347473,0.318444162607193
3.961160898208618,-0.11952301114797592,0.17,0.5451411008834839,0.11262522637844086,0.45044049620628357,0.31301382184028625
3.9812443256378174,-0.11875330656766891,0.17,0.5462258458137512,0.11420519649982452,0.44121092557907104,0.31112030148506165
4.001349687576294,-0.1178545206785202,0.17,0.5452189445495605,0.11349223554134369,0.4401802122592926,0.30939534306526184
4.021393060684204,-0.11825640499591827,0.17,0.5399999618530273,0.11306965351104736,0.44266751408576965,0.3125019967556
4.041456699371338,-0.11800740659236908,0.17,0.5405490398406982,0.11433427035808563,0.44312357902526855,0.31374773383140564
4.061525106430054,-0.11740344017744064,0.17,0.5446116924285889,0.1158367395401001,0.436653733253479,0.30868443846702576
4.08165168762207,-0.12057462334632874,0.17,0.5370767116546631,0.11524005234241486,0.4384807050228119,0.3162198066711426
4.101763963699341,-0.11947106570005417,0.17,0.5366408228874207,0.11321243643760681,0.44305524230003357,0.312534362077713
4.121753215789795,-0.1181623712182045,0.17,0.5376545786857605,0.11423443257808685,0.4337216913700104,0.3110774755477905
4.141828775405884,-0.11814484000205994,0.17,0.5370816588401794,0.11562545597553253,0.43492284417152405,0.3145909905433655
4.162017107009888,-0.12159010767936707,0.17,0.5295961499214172,0.11650466918945312,0.4274303615093231,0.31880879402160645
4.182034730911255,-0.12223900854587555,0.17,0.5231190323829651,0.1159171462059021,0.43166297674179077,0.3243870139122009
4.202075719833374,-0.12152989208698273,0.17,0.521113395690918,0.11580930650234222,0.43756014108657837,0.32502982020378113
4.222157001495361,-0.11703454703092575,0.17,0.5286362767219543,0.11475057899951935,0.4288361966609955,0.30998656153678894
4.242221832275391,-0.1204519271850586,0.17,0.5251519083976746,0.11522156000137329,0.4251932203769684,0.3157605528831482
4.262291431427002,-0.11958339065313339,0.17,0.5259857177734375,0.11712220311164856,0.41971355676651,0.3162316381931305
4.282726526260376,-0.11940404772758484,0.17,0.517265796661377,0.11689998209476471,0.4323832392692566,0.3227311670780182
4.30281925201416,-0.1160770133137703,0.17,0.5188239812850952,0.11638231575489044,0.44011038541793823,0.316258043050766
4.322884798049927,-0.12036672979593277,0.17,0.5163034200668335,0.11821942031383514,0.4358192980289459,0.3216424286365509
4.342989206314087,-0.11892018467187881,0.17,0.5162281394004822,0.1179599016904831,0.426680326461792,0.32151857018470764
4.363072872161865,-0.1198243498802185,0.17,0.5065649747848511,0.1153755635023117,0.4354136288166046,0.3234466016292572
4.383160829544067,-0.11889036744832993,0.17,0.5093740820884705,0.11754761636257172,0.4321489930152893,0.3253289461135864
4.403235673904419,-0.12217061221599579,0.17,0.5048955678939819,0.11704747378826141,0.42764976620674133,0.32677218317985535
4.4232776165008545,-0.11774523556232452,0.17,0.5049750208854675,0.11819075047969818,0.42145898938179016,0.32481202483177185
4.443434953689575,-0.11431695520877838,0.17,0.5115747451782227,0.11896760761737823,0.4242973327636719,0.318360298871994
4.46345853805542,-0.11408035457134247,0.17,0.5070251822471619,0.11821074783802032,0.42130908370018005,0.31488466262817383
4.483576059341431,-0.11747144907712936,0.17,0.5042988061904907,0.11684678494930267,0.4145374000072479,0.316366046667099
4.5036773681640625,-0.12009380012750626,0.17,0.49823683500289917,0.11782440543174744,0.42315778136253357,0.33031395077705383
4.523782968521118,-0.11885172873735428,0.17,0.4877687096595764,0.11875949800014496,0.43391552567481995,0.3329429626464844
4.543798208236694,-0.11872972548007965,0.17,0.49256688356399536,0.12095023691654205,0.416777104139328,0.3320344388484955
4.5639801025390625,-0.11483016610145569,0.17,0.4914599061012268,0.11908262968063354,0.4189147651195526,0.32375308871269226
4.583979368209839,-0.11525922268629074,0.17,0.4902695119380951,0.12011180818080902,0.4151816666126251,0.32587358355522156
4.604133605957031,-0.11576656252145767,0.17,0.4865298867225647,0.11884000897407532,0.410339891910553,0.32586508989334106
4.624129295349121,-0.11622598022222519,0.17,0.48047900199890137,0.11921952664852142,0.41398558020591736,0.32890287041664124
4.644239664077759,-0.11357712745666504,0.17,0.4861883223056793,0.11974258720874786,0.41125091910362244,0.3266930878162384
4.6643147468566895,-0.11221553385257721,0.17,0.4851890206336975,0.11834318935871124,0.4116741716861725,0.3230140507221222
4.68437933921814,-0.11099940538406372,0.17,0.4779122769832611,0.11888694763183594,0.41599467396736145,0.32351478934288025
4.704444408416748,-0.1118912622332573,0.17,0.4728299379348755,0.11797440052032471,0.4079367518424988,0.32472631335258484
4.72461199760437,-0.11838725954294205,0.17,0.4593575596809387,0.12031181156635284,0.4112483561038971,0.3433251976966858
4.744703531265259,-0.11974227428436279,0.17,0.4574720859527588,0.12253592908382416,0.39799290895462036,0.34686926007270813
4.764722108840942,-0.11415912955999374,0.17,0.4556999206542969,0.12262481451034546,0.404666543006897,0.34522393345832825
4.784793853759766,-0.11467168480157852,0.17,0.4494502544403076,0.12332013249397278,0.40208882093429565,0.34719809889793396
4.804886102676392,-0.10634473711252213,0.17,0.46404731273651123,0.12095914781093597,0.38822031021118164,0.3264588415622711
4.824995994567871,-0.1084427610039711,0.17,0.4598744809627533,0.12146592140197754,0.3806590735912323,0.33176854252815247
4.845038890838623,-0.11137309670448303,0.17,0.45047807693481445,0.12167926132678986,0.3793502748012543,0.3409663140773773
4.86528754234314,-0.10717619210481644,0.17,0.4455118775367737,0.12440025806427002,0.3810472786426544,0.3446076214313507
4.885441541671753,-0.10042636841535568,0.17,0.4486076831817627,0.12253451347351074,0.38602980971336365,0.3363370895385742
4.9055116176605225,-0.09957531094551086,0.17,0.4345557987689972,0.12354317307472229,0.39282193779945374,0.3397020697593689
4.925565242767334,-0.09571114927530289,0.17,0.42844218015670776,0.12414629757404327,0.39683789014816284,0.34508875012397766
4.945647716522217,-0.09422290325164795,0.14038032293319702,0.4328994154930115,0.12729352712631226,0.3804266154766083,0.345123291015625
4.965750217437744,-0.09210816025733948,0.05652409791946411,0.42245450615882874,0.1274593323469162,0.36813586950302124,0.351529985666275
4.98579478263855,-0.0885961577296257,-0.04786062240600586,0.39971891045570374,0.12827913463115692,0.37412768602371216,0.36262866854667664
5.005942344665527,-0.08300041407346725,-0.17659765481948853,0.3972434103488922,0.13216277956962585,0.35100650787353516,0.36874261498451233
5.026134252548218,-0.06841815263032913,-0.24836866557598114,0.4307172894477844,0.1306144893169403,0.31409624218940735,0.34998929500579834
5.046144247055054,-0.04878567159175873,-0.41182786226272583,0.4544907808303833,0.1327846497297287,0.30291566252708435,0.35008659958839417
5.066202163696289,-0.044455625116825104,-0.5661860108375549,0.4793853461742401,0.1330367475748062,0.26067444682121277,0.3606701195240021
5.08639121055603,-0.03376098722219467,-0.6882773041725159,0.5256927013397217,0.13894565403461456,0.233918234705925,0.35890600085258484
5.106486797332764,-0.04167521744966507,-0.7314278483390808,0.5190572738647461,0.13722644746303558,0.23119735717773438,0.3753963112831116
5.126555681228638,-0.04015723615884781,-0.7535080909729004,0.5819748640060425,0.15625442564487457,0.19032594561576843,0.3714372515678406
5.146617412567139,-0.03593442589044571,-0.7228279113769531,0.6221386194229126,0.1681101769208908,0.2202654927968979,0.3612976372241974
5.166672229766846,-0.04067801684141159,-0.684781551361084,0.6356449723243713,0.1726202517747879,0.2290305644273758,0.35935068130493164
5.186760663986206,-0.05209221690893173,-0.571146547794342,0.6770504713058472,0.19098205864429474,0.2396509349346161,0.3507480323314667
5.206830263137817,-0.0679100826382637,-0.4435265362262726,0.6780807971954346,0.18865635991096497,0.2781561315059662,0.34420257806777954
5.226874351501465,-0.08025743812322617,-0.31649452447891235,0.6671929359436035,0.18222948908805847,0.3159972131252289,0.33875903487205505
5.246964693069458,-0.09975305944681168,-0.24465028941631317,0.6207096576690674,0.16052822768688202,0.3518892526626587,0.36439627408981323
5.2670464515686035,-0.10972709953784943,-0.08677434921264648,0.5825958251953125,0.1536255031824112,0.38981205224990845,0.36829665303230286
5.287116765975952,-0.1143544465303421,0.09228038787841797,0.5416773557662964,0.1460859328508377,0.44494715332984924,0.3650956451892853
5.307214260101318,-0.12160207331180573,0.17,0.528478741645813,0.1384616196155548,0.4757857024669647,0.36046600341796875
5.327305555343628,-0.12418082356452942,0.17,0.5173239707946777,0.13143174350261688,0.49014362692832947,0.35420772433280945
5.347381353378296,-0.1281619668006897,0.17,0.5263590812683105,0.1272432506084442,0.4927331507205963,0.3567188084125519
5.367430925369263,-0.1295647919178009,0.17,0.5405558347702026,0.12571905553340912,0.46937403082847595,0.3536686599254608
5.387521982192993,-0.13123105466365814,0.17,0.5416147708892822,0.12551142275333405,0.4607028365135193,0.3554965555667877
5.407578945159912,-0.1318684220314026,0.17,0.543973445892334,0.1251739114522934,0.4530979096889496,0.35859712958335876
5.4276487827301025,-0.13409622013568878,0.17,0.5518077611923218,0.12804068624973297,0.4326735734939575,0.35815414786338806
5.447702169418335,-0.1314661204814911,0.17,0.5407070517539978,0.1252659261226654,0.4561922252178192,0.3604583144187927
5.4678003787994385,-0.1315157413482666,0.17,0.546401858329773,0.1253473311662674,0.44183453917503357,0.350296288728714
5.48787784576416,-0.13088735938072205,0.17,0.5356789827346802,0.12308581173419952,0.45282891392707825,0.3528554439544678
5.507925033569336,-0.12469583749771118,0.17,0.5365225672721863,0.12316609919071198,0.47016361355781555,0.3491623103618622
5.528102397918701,-0.12559974193572998,0.17,0.532598614692688,0.12334005534648895,0.4603438377380371,0.3485594689846039
5.548190116882324,-0.13301663100719452,0.17,0.5167763233184814,0.12483876943588257,0.466830849647522,0.3689115047454834
5.568345785140991,-0.1300860047340393,0.17,0.5186811685562134,0.12454979121685028,0.4676927924156189,0.3673180043697357
5.5883471965789795,-0.1310739815235138,0.17,0.5171900987625122,0.12480650842189789,0.46062785387039185,0.3667530417442322
5.608397722244263,-0.1297185868024826,0.17,0.5170726776123047,0.1238570362329483,0.4616537094116211,0.3656151294708252
5.628575563430786,-0.12485779076814651,0.17,0.5186356902122498,0.12318821251392365,0.4667583703994751,0.35701918601989746
5.6485912799835205,-0.13007915019989014,0.17,0.5173931121826172,0.12471321225166321,0.44690731167793274,0.35948318243026733
5.668646335601807,-0.13052046298980713,0.17,0.5094783306121826,0.12396816909313202,0.44796428084373474,0.36464059352874756
5.688703536987305,-0.13010507822036743,0.17,0.5047565698623657,0.12337629497051239,0.45154109597206116,0.3680263161659241
5.7087931632995605,-0.12555187940597534,0.17,0.5099397301673889,0.1233503669500351,0.44923868775367737,0.35952165722846985
5.728924989700317,-0.12542541325092316,0.17,0.5140057802200317,0.12518461048603058,0.43805578351020813,0.35743075609207153
5.748991966247559,-0.1305290162563324,0.17,0.5065560340881348,0.12527324259281158,0.4278348386287689,0.3651992976665497
5.769067287445068,-0.12680783867835999,0.17,0.498416543006897,0.12357765436172485,0.44672664999961853,0.36769038438796997
5.789206504821777,-0.12974946200847626,0.17,0.49055224657058716,0.12471228837966919,0.44317424297332764,0.37076666951179504
5.809292793273926,-0.12857897579669952,0.17,0.4836929440498352,0.12425144016742706,0.4461784064769745,0.37206053733825684
5.829320907592773,-0.1301155388355255,0.17,0.4823378324508667,0.12502466142177582,0.43849608302116394,0.3732227087020874
5.8495776653289795,-0.1261061728000641,0.17,0.48736870288848877,0.12431417405605316,0.43105944991111755,0.3649236261844635
5.86962890625,-0.1263069361448288,0.17,0.48919621109962463,0.12659043073654175,0.4229916036128998,0.36929917335510254
5.889630079269409,-0.12721270322799683,0.17,0.47627905011177063,0.12505893409252167,0.4210691750049591,0.37286433577537537
5.909878492355347,-0.12811990082263947,0.17,0.4668314456939697,0.12415044009685516,0.4299097955226898,0.37644389271736145
5.92986798286438,-0.13150663673877716,0.17,0.45118820667266846,0.12625999748706818,0.4332859218120575,0.38418054580688477
5.949932098388672,-0.13051171600818634,0.17,0.45148882269859314,0.1275559663772583,0.4163815379142761,0.38534706830978394
5.970025300979614,-0.12140356749296188,0.17,0.4563361406326294,0.12430039048194885,0.41766878962516785,0.37145689129829407
5.990104675292969,-0.12246942520141602,0.17,0.4452008605003357,0.12479086220264435,0.42081937193870544,0.37707844376564026
6.01021933555603,-0.1183379739522934,0.17,0.4442218542098999,0.1253313273191452,0.4135484993457794,0.376520037651062
6.030447006225586,-0.11814036965370178,0.17,0.4400468170642853,0.12742821872234344,0.39432528614997864,0.3767453730106354
6.050563097000122,-0.12146417051553726,0.17,0.4241040349006653,0.12777096033096313,0.399922639131546,0.3900250494480133
6.070728540420532,-0.11380071938037872,0.17,0.40455693006515503,0.12566539645195007,0.41961413621902466,0.3882918059825897
6.090838432312012,-0.10282591730356216,0.13486424088478088,0.4150611162185669,0.12688496708869934,0.4015132486820221,0.3808687925338745
6.111271619796753,-0.09226713329553604,0.028368540108203888,0.39931759238243103,0.12566454708576202,0.3942282795906067,0.3800007998943329
6.131360292434692,-0.10684087127447128,-0.040763914585113525,0.342087984085083,0.13233093917369843,0.4215645492076874,0.41230061650276184
6.15144944190979,-0.10320676118135452,-0.22357872128486633,0.3096604347229004,0.13341477513313293,0.4123386740684509,0.4227922260761261
6.171481370925903,-0.08817321062088013,-0.46449318528175354,0.30633312463760376,0.13092616200447083,0.3838610053062439,0.42468494176864624
6.191540956497192,-0.06091021001338959,-0.7020398378372192,0.39531657099723816,0.12660500407218933,0.27950212359428406,0.4205900728702545
6.211630344390869,-0.037828005850315094,-0.8023924827575684,0.4478268027305603,0.12250031530857086,0.23660370707511902,0.4030194878578186
6.231696844100952,-0.02880670875310898,-0.9698379635810852,0.5012529492378235,0.1275174766778946,0.19960609078407288,0.4109897315502167
6.251821517944336,-0.02644582837820053,-1.0600202083587646,0.5504590272903442,0.14176145195960999,0.15636596083641052,0.4136408865451813
6.271940469741821,-0.02214048057794571,-1.0759000778198242,0.5815201997756958,0.14838264882564545,0.15252627432346344,0.41161277890205383
6.291947841644287,-0.023037977516651154,-1.0798890590667725,0.5951334238052368,0.14786390960216522,0.1576584428548813,0.4088509976863861
6.312028408050537,-0.02820592373609543,-1.0667905807495117,0.5920741558074951,0.14546027779579163,0.16425101459026337,0.41175204515457153
6.332163572311401,-0.03054378181695938,-1.05515456199646,0.5787962675094604,0.1408088207244873,0.18851763010025024,0.4136766493320465
6.352243185043335,-0.032566674053668976,-1.0549542903900146,0.5625778436660767,0.13564859330654144,0.19715149700641632,0.4152800738811493
6.3723464012146,-0.039461441338062286,-1.0487953424453735,0.5557273626327515,0.1350110024213791,0.1887165606021881,0.41924038529396057
6.392808198928833,-0.03633836656808853,-1.0340821743011475,0.5662776231765747,0.14023776352405548,0.1961156725883484,0.41658613085746765
6.412888288497925,-0.030853785574436188,-1.0161077976226807,0.5876601338386536,0.14566265046596527,0.1947404146194458,0.41104599833488464
6.433044910430908,-0.028236575424671173,-0.9698092937469482,0.607560396194458,0.15294362604618073,0.2110660970211029,0.4055587351322174
6.453290224075317,-0.040095530450344086,-0.9430952668190002,0.5889606475830078,0.15001709759235382,0.206251859664917,0.4126574397087097
6.473511457443237,-0.04590035229921341,-0.8576164245605469,0.6048201322555542,0.15893206000328064,0.2123076319694519,0.4117300808429718
6.493617057800293,-0.05937350541353226,-0.7594859004020691,0.5877960920333862,0.15687823295593262,0.2378467619419098,0.4154509902000427
6.513632535934448,-0.07836926728487015,-0.6247982382774353,0.5877220034599304,0.15774770081043243,0.2629026174545288,0.4219895899295807
6.533717632293701,-0.05020558089017868,-0.5498767495155334,0.7093247771263123,0.20830710232257843,0.26702845096588135,0.36242690682411194
6.553795337677002,-0.06198365241289139,-0.41553354263305664,0.7099317312240601,0.2106582373380661,0.29645875096321106,0.35373392701148987
6.5739617347717285,-0.07541542500257492,-0.2802899479866028,0.7031884789466858,0.20734743773937225,0.33036646246910095,0.347280353307724
6.5940022468566895,-0.12158862501382828,-0.18781259655952454,0.5810093879699707,0.15828806161880493,0.37383460998535156,0.423175573348999
6.614099025726318,-0.1301741898059845,-0.015470653772354126,0.5689738988876343,0.15656276047229767,0.41646090149879456,0.420933336019516
6.634203672409058,-0.12730835378170013,0.17,0.564173698425293,0.15676680207252502,0.4497990608215332,0.40256232023239136
6.6542463302612305,-0.1304815113544464,0.17,0.5401120781898499,0.14036060869693756,0.49277666211128235,0.38952532410621643
6.67434549331665,-0.12730532884597778,0.17,0.5391807556152344,0.13567982614040375,0.5137711763381958,0.38390880823135376
6.6943981647491455,-0.13419167697429657,0.17,0.5483487844467163,0.13335271179676056,0.4998847544193268,0.38162511587142944
6.7144691944122314,-0.13663408160209656,0.17,0.5498089790344238,0.13369540870189667,0.4802495539188385,0.3839378356933594
6.7345194816589355,-0.14128455519676208,0.17,0.5390779376029968,0.13390538096427917,0.4801092743873596,0.3944537937641144
6.754642724990845,-0.1401267945766449,0.17,0.5450724959373474,0.13509684801101685,0.4630855619907379,0.393148809671402
6.774754762649536,-0.1410139501094818,0.17,0.5421479940414429,0.13485676050186157,0.46243348717689514,0.3950589895248413
6.794795513153076,-0.14067524671554565,0.17,0.537610650062561,0.1336287409067154,0.4614357352256775,0.39695557951927185
6.814894676208496,-0.13564495742321014,0.17,0.5411035418510437,0.13153086602687836,0.4674830138683319,0.3861568868160248
6.835032224655151,-0.13576512038707733,0.17,0.5340261459350586,0.1326284557580948,0.4811738431453705,0.38991132378578186
6.855099678039551,-0.13721321523189545,0.17,0.5266922116279602,0.13247685134410858,0.4811847507953644,0.39374107122421265
6.875133275985718,-0.1369287222623825,0.17,0.5337340831756592,0.13494689762592316,0.46711665391921997,0.3900119364261627
6.895193815231323,-0.13526301085948944,0.17,0.5262301564216614,0.13273869454860687,0.4760887026786804,0.39098262786865234
6.9152631759643555,-0.13260558247566223,0.17,0.5259811878204346,0.13353419303894043,0.47172221541404724,0.38994792103767395
6.935329437255859,-0.13679343461990356,0.17,0.5103862285614014,0.13326379656791687,0.48196184635162354,0.40068140625953674
6.9554712772369385,-0.13796517252922058,0.17,0.5050035715103149,0.13327668607234955,0.481533020734787,0.40490612387657166
6.975642204284668,-0.13618949055671692,0.17,0.5014631748199463,0.1346186101436615,0.48491403460502625,0.4051226079463959
6.995629072189331,-0.13451434671878815,0.17,0.5080262422561646,0.13218091428279877,0.4684170186519623,0.391938716173172
7.015691518783569,-0.13169166445732117,0.17,0.5112093687057495,0.13177475333213806,0.45906153321266174,0.38937151432037354
7.0357584953308105,-0.13400684297084808,0.17,0.498590886592865,0.13195104897022247,0.4547043740749359,0.394923597574234
7.055803298950195,-0.13094206154346466,0.17,0.4830181896686554,0.13236354291439056,0.47440916299819946,0.4017423987388611
7.075908660888672,-0.13316786289215088,0.17,0.49075832962989807,0.13411879539489746,0.4559116065502167,0.4006010591983795
7.096032619476318,-0.12880975008010864,0.17,0.4789009988307953,0.13254646956920624,0.46765074133872986,0.4000629782676697
7.116047143936157,-0.13408836722373962,0.17,0.4674760103225708,0.1337563842535019,0.4565325081348419,0.4061630666255951
7.136195659637451,-0.13720566034317017,0.17,0.4538717567920685,0.13399119675159454,0.45364058017730713,0.4151628017425537
7.156278133392334,-0.12659919261932373,0.17,0.4766552448272705,0.1310414969921112,0.4375615417957306,0.39598119258880615
7.176342964172363,-0.13069605827331543,0.17,0.44874709844589233,0.1314050406217575,0.4468599855899811,0.4057161509990692
7.196384429931641,-0.13149437308311462,0.17,0.4358850121498108,0.1330542266368866,0.45390480756759644,0.4161992371082306
7.216483116149902,-0.1298816204071045,0.17,0.43702515959739685,0.13334912061691284,0.4413127601146698,0.4110660254955292
7.236562728881836,-0.13012662529945374,0.17,0.4239758849143982,0.13366059958934784,0.43057724833488464,0.41576501727104187
7.256625413894653,-0.13258257508277893,0.17,0.40326035022735596,0.13491274416446686,0.42555031180381775,0.4238679111003876
7.276699066162109,-0.12693646550178528,0.17,0.3786875605583191,0.1356855183839798,0.4473143517971039,0.431153804063797
7.296773910522461,-0.11326001584529877,0.14883160591125488,0.4033801555633545,0.1327940672636032,0.42128366231918335,0.41180619597435
7.316953182220459,-0.10680948197841644,0.03786110132932663,0.37200987339019775,0.13307595252990723,0.4367672801017761,0.41882097721099854
7.336956024169922,-0.10855458676815033,-0.11913244426250458,0.3345704674720764,0.13712178170681,0.42409029603004456,0.43379172682762146
7.356998682022095,-0.09116005897521973,-0.33970603346824646,0.31932973861694336,0.13832218945026398,0.4057143032550812,0.4389537274837494
7.377087354660034,-0.07098332047462463,-0.45768192410469055,0.3714929521083832,0.13390715420246124,0.3497661054134369,0.4303493797779083
7.397157907485962,-0.05051396042108536,-0.7155805826187134,0.41441068053245544,0.13001306354999542,0.2810806632041931,0.43197014927864075
7.417241811752319,-0.039333827793598175,-0.9265005588531494,0.4745568037033081,0.12985233962535858,0.21422888338565826,0.4379572570323944
7.4372758865356445,-0.030869029462337494,-1.0505187511444092,0.5487449169158936,0.15441438555717468,0.14073088765144348,0.44048839807510376
7.45754861831665,-0.037449561059474945,-1.0902130603790283,0.5588034987449646,0.1554354429244995,0.12637150287628174,0.4462567865848541
7.477703094482422,-0.03039824217557907,-1.1291136741638184,0.5913658142089844,0.16245263814926147,0.13299421966075897,0.4466404318809509
7.497645854949951,-0.03070589154958725,-1.1291961669921875,0.6038558483123779,0.1590394228696823,0.138924241065979,0.4464992582798004
7.517815828323364,-0.037041835486888885,-1.1263129711151123,0.5859813094139099,0.14801160991191864,0.15399779379367828,0.44853267073631287
7.537829637527466,-0.04178714007139206,-1.1325125694274902,0.5557337999343872,0.13869862258434296,0.17336568236351013,0.45212075114250183
7.557889699935913,-0.0429513081908226,-1.1476905345916748,0.5471750497817993,0.13787536323070526,0.1825619339942932,0.4532249867916107
7.578110933303833,-0.031878478825092316,-1.163208246231079,0.5576701760292053,0.13479924201965332,0.21071232855319977,0.4471217095851898
7.598203420639038,-0.03785274177789688,-1.167454481124878,0.5519188642501831,0.13764514029026031,0.19903504848480225,0.4494219720363617
7.618272542953491,-0.03853628784418106,-1.1639926433563232,0.553800106048584,0.13438014686107635,0.20659558475017548,0.4506162106990814
7.638328790664673,-0.039781175553798676,-1.134855031967163,0.5775818824768066,0.1445036232471466,0.1855676770210266,0.4487045407295227
7.658444404602051,-0.03762700408697128,-1.1118948459625244,0.5927815437316895,0.1501835137605667,0.1733318269252777,0.44595757126808167
7.678490161895752,-0.04182315617799759,-1.0774266719818115,0.5821901559829712,0.14754618704319,0.18575873970985413,0.44623294472694397
7.698546886444092,-0.04418603330850601,-1.0368763208389282,0.5833800435066223,0.1504102349281311,0.19186992943286896,0.44705793261528015
7.718770742416382,-0.04441522806882858,-0.9911187887191772,0.59052574634552,0.15518535673618317,0.19804176688194275,0.44450631737709045
7.738860368728638,-0.04986164718866348,-0.9708669781684875,0.5791380405426025,0.15415386855602264,0.20110924541950226,0.44714054465293884
7.758934736251831,-0.05698543041944504,-0.9237869381904602,0.5682741403579712,0.14938269555568695,0.21702340245246887,0.44932031631469727
7.779008626937866,-0.059240154922008514,-0.8672833442687988,0.5689846277236938,0.1535705178976059,0.23082900047302246,0.4492131173610687
7.799177408218384,-0.07319360226392746,-0.8009510040283203,0.547433614730835,0.15059496462345123,0.24585643410682678,0.45542585849761963
7.819171905517578,-0.039258651435375214,-0.7419241070747375,0.6660481691360474,0.19052746891975403,0.24599578976631165,0.4131249785423279
7.83927583694458,-0.0480947270989418,-0.6308348774909973,0.6955848932266235,0.20550917088985443,0.2651926577091217,0.40280237793922424
7.859354734420776,-0.061667464673519135,-0.49848541617393494,0.7101570963859558,0.21467699110507965,0.2873171865940094,0.3936600983142853
7.879380702972412,-0.11069227010011673,-0.4288376569747925,0.5884734392166138,0.16344106197357178,0.3182853162288666,0.45687663555145264
7.899482727050781,-0.12293276935815811,-0.26738250255584717,0.5932759046554565,0.1683097779750824,0.3406318426132202,0.45646706223487854
7.919543027877808,-0.13366922736167908,-0.09774178266525269,0.5768386125564575,0.16405154764652252,0.3876502215862274,0.45233413577079773
7.939641237258911,-0.1437285840511322,0.09649953246116638,0.5470274090766907,0.1585090309381485,0.44217631220817566,0.44879311323165894
7.959794282913208,-0.12481480091810226,0.17,0.5803948044776917,0.15974271297454834,0.435171902179718,0.3995583653450012
7.980020999908447,-0.1366027295589447,0.17,0.5386216044425964,0.14343707263469696,0.49960407614707947,0.4120651185512543
8.000105857849121,-0.133906289935112,0.17,0.5343673229217529,0.1417989581823349,0.532561182975769,0.41784772276878357
8.02009630203247,-0.14154291152954102,0.17,0.5456124544143677,0.14312197268009186,0.49721547961235046,0.41851019859313965
8.040201902389526,-0.1462094634771347,0.17,0.5372395515441895,0.14235727488994598,0.4904596507549286,0.42433154582977295
8.06025218963623,-0.14840686321258545,0.17,0.535800576210022,0.14173388481140137,0.4716057777404785,0.42776545882225037
8.08031678199768,-0.1424994319677353,0.17,0.536733090877533,0.14011216163635254,0.47928881645202637,0.4235650599002838
8.100390434265137,-0.14350095391273499,0.17,0.5273971557617188,0.13931436836719513,0.48843297362327576,0.4253409504890442
8.120561122894287,-0.14950276911258698,0.17,0.5258750915527344,0.14223922789096832,0.47168833017349243,0.43138137459754944
8.140693426132202,-0.14171376824378967,0.17,0.5284603834152222,0.1394672840833664,0.47441384196281433,0.42505764961242676
8.160708665847778,-0.13830584287643433,0.17,0.5298340320587158,0.13916374742984772,0.47997257113456726,0.41917142271995544
8.180867671966553,-0.14355698227882385,0.17,0.5086774230003357,0.14007124304771423,0.49540409445762634,0.43312421441078186
8.201099634170532,-0.13910558819770813,0.17,0.5084416270256042,0.14070113003253937,0.4987756311893463,0.42936161160469055
8.221065044403076,-0.13896378874778748,0.17,0.5099759697914124,0.14013110101222992,0.4871121346950531,0.4266665577888489
8.241140842437744,-0.14008978009223938,0.17,0.5095983147621155,0.14067915081977844,0.47412678599357605,0.42693427205085754
8.261213541030884,-0.13921907544136047,0.17,0.5048035979270935,0.13926537334918976,0.47896406054496765,0.4288751780986786
8.281317472457886,-0.13587553799152374,0.17,0.4936450719833374,0.1394098699092865,0.4954025447368622,0.4294407367706299
8.301415920257568,-0.14064690470695496,0.17,0.48409080505371094,0.13993825018405914,0.48273032903671265,0.43461018800735474
8.321495532989502,-0.141438826918602,0.17,0.49034783244132996,0.14030513167381287,0.4651080071926117,0.43467453122138977
8.341614246368408,-0.14169764518737793,0.17,0.4886724054813385,0.13941073417663574,0.456079363822937,0.43221691250801086
8.361714363098145,-0.13922983407974243,0.17,0.480243980884552,0.139085054397583,0.4579034149646759,0.43453046679496765
8.381747722625732,-0.13899624347686768,0.17,0.4730023145675659,0.14054952561855316,0.45013317465782166,0.43476924300193787
8.402207136154175,-0.13226494193077087,0.17,0.46600139141082764,0.13865934312343597,0.4609622061252594,0.43097683787345886
8.422377109527588,-0.14463788270950317,0.17,0.4362959563732147,0.14285880327224731,0.46649184823036194,0.44935670495033264
8.442408800125122,-0.1332636922597885,0.17,0.4424537420272827,0.13944604992866516,0.459459513425827,0.441994309425354
8.462525367736816,-0.13094794750213623,0.17,0.4200730323791504,0.13798294961452484,0.46523579955101013,0.43950650095939636
8.482629299163818,-0.1334570348262787,0.17,0.4068664610385895,0.1411239355802536,0.4644724428653717,0.44840309023857117
8.502657175064087,-0.12977300584316254,0.156425341963768,0.37734758853912354,0.14242379367351532,0.4739726483821869,0.4502200186252594
8.5228111743927,-0.12187659740447998,0.04453929513692856,0.34770578145980835,0.14548082649707794,0.4820910394191742,0.4572673439979553
8.542829275131226,-0.11102083325386047,-0.13249757885932922,0.3103243112564087,0.14847822487354279,0.48563072085380554,0.4618113338947296
8.5629301071167,-0.10471845418214798,-0.24254527688026428,0.31296706199645996,0.14922861754894257,0.45377370715141296,0.4577551782131195
8.582980632781982,-0.07281916588544846,-0.5166035294532776,0.35023555159568787,0.14367477595806122,0.38354286551475525,0.45696333050727844
8.60307240486145,-0.053380727767944336,-0.7888453602790833,0.4114651679992676,0.13576339185237885,0.2822592854499817,0.4632306396961212
8.6236572265625,-0.04566793888807297,-1.0014400482177734,0.47326183319091797,0.1343073844909668,0.1981026530265808,0.47172561287879944
8.643792390823364,-0.037139005959033966,-1.075185775756836,0.5105681419372559,0.13795368373394012,0.18125571310520172,0.4697428047657013
8.66383671760559,-0.04208043962717056,-1.1608760356903076,0.5546676516532898,0.15430010855197906,0.13500428199768066,0.4771462380886078
8.683925867080688,-0.039501674473285675,-1.1913599967956543,0.5931609272956848,0.17028191685676575,0.11689899116754532,0.4798293709754944
8.704089641571045,-0.040638722479343414,-1.1886537075042725,0.5934188365936279,0.161151722073555,0.12908340990543365,0.4791851341724396
8.724251747131348,-0.04361594468355179,-1.1909313201904297,0.5783964395523071,0.1490996927022934,0.14331166446208954,0.4776371121406555
8.74428677558899,-0.04398321360349655,-1.2040441036224365,0.5574432611465454,0.14097945392131805,0.1792610138654709,0.47997593879699707
8.764396667480469,-0.047580160200595856,-1.2359991073608398,0.529680609703064,0.13580672442913055,0.19138413667678833,0.4803217947483063
8.78453779220581,-0.039977021515369415,-1.2580506801605225,0.5306352376937866,0.12969160079956055,0.2041049599647522,0.47806090116500854
8.804646968841553,-0.03921817988157272,-1.2812466621398926,0.548425018787384,0.13541068136692047,0.1937738060951233,0.4779629409313202
8.8247230052948,-0.04417509585618973,-1.2840185165405273,0.5514172315597534,0.13647480309009552,0.18991830945014954,0.4802912771701813
8.844801902770996,-0.045335836708545685,-1.266148567199707,0.5660965442657471,0.14030461013317108,0.16539841890335083,0.48058438301086426
8.864899158477783,-0.03719765692949295,-1.2446153163909912,0.5956674814224243,0.1495000272989273,0.16036228835582733,0.4754510223865509
8.884958505630493,-0.04060446470975876,-1.2076194286346436,0.5981630086898804,0.15304771065711975,0.15716025233268738,0.47572872042655945
8.905058860778809,-0.04114235192537308,-1.1715912818908691,0.5996454954147339,0.15598545968532562,0.15865586698055267,0.4742574989795685
8.925086259841919,-0.050453729927539825,-1.1349146366119385,0.584565281867981,0.15506981313228607,0.15473029017448425,0.47767403721809387
8.94516897201538,-0.05450043827295303,-1.1250791549682617,0.5709429979324341,0.15309357643127441,0.16081500053405762,0.48022839426994324
8.965235233306885,-0.05230029672384262,-1.0991952419281006,0.5723915100097656,0.1521310657262802,0.179141104221344,0.47792360186576843
8.985326051712036,-0.05458224564790726,-1.0761523246765137,0.5639275312423706,0.15091721713542938,0.19370391964912415,0.47784358263015747
9.00549840927124,-0.05683586746454239,-1.0471711158752441,0.5677006244659424,0.15341666340827942,0.19768095016479492,0.4780389070510864
9.025601148605347,-0.04703734070062637,-1.0222842693328857,0.5934454202651978,0.1619306355714798,0.19806142151355743,0.47117266058921814
9.045715093612671,-0.04249674826860428,-0.9845444560050964,0.6066144704818726,0.16638952493667603,0.20611794292926788,0.46547117829322815
9.065811395645142,-0.046408988535404205,-0.9391191601753235,0.6058580875396729,0.16917727887630463,0.21336236596107483,0.46423399448394775
9.085877656936646,-0.051006294786930084,-0.9002897143363953,0.5911815166473389,0.16787908971309662,0.2257944643497467,0.46545109152793884
9.105965375900269,-0.06562670320272446,-0.8850858807563782,0.5634710788726807,0.16127876937389374,0.2295035719871521,0.4757917821407318
9.126106977462769,-0.07335346192121506,-0.824668288230896,0.5587866902351379,0.1610269695520401,0.24425017833709717,0.47789880633354187
9.146131753921509,-0.0846264511346817,-0.7346280813217163,0.5631158351898193,0.164193257689476,0.25592026114463806,0.48109352588653564
9.16629695892334,-0.09760592132806778,-0.6140012145042419,0.5709438323974609,0.1654009371995926,0.283632755279541,0.482631653547287
9.186391353607178,-0.058384306728839874,-0.5354269742965698,0.7084473371505737,0.21870000660419464,0.2826034128665924,0.41989150643348694
9.206493377685547,-0.07307916134595871,-0.38593196868896484,0.7489035129547119,0.24431662261486053,0.30957987904548645,0.40395990014076233
9.226519107818604,-0.09545645862817764,-0.19884485006332397,0.7286139726638794,0.23347900807857513,0.31844720244407654,0.4038980007171631
9.24660611152649,-0.1386515498161316,-0.09152548015117645,0.6177823543548584,0.17856340110301971,0.38412272930145264,0.4794395864009857
9.266671895980835,-0.1459234356880188,0.1314839869737625,0.5846291780471802,0.1735270470380783,0.4371996223926544,0.466879665851593
9.286741256713867,-0.13662075996398926,0.17,0.5486952066421509,0.1529994010925293,0.5380240678787231,0.45358145236968994
9.30681586265564,-0.13614080846309662,0.17,0.5465925931930542,0.14944957196712494,0.5608458518981934,0.44355928897857666
9.326918601989746,-0.1320016086101532,0.17,0.537090539932251,0.1458589881658554,0.5829712152481079,0.440674751996994
9.347155809402466,-0.13342097401618958,0.17,0.5284546613693237,0.1466372311115265,0.599016547203064,0.44434112310409546
9.367048263549805,-0.14622440934181213,0.17,0.5454190373420715,0.15185818076133728,0.5321900248527527,0.44297316670417786
9.387121438980103,-0.14999240636825562,0.17,0.531212568283081,0.1517416089773178,0.5224897265434265,0.4488580524921417
9.407190084457397,-0.1534188985824585,0.17,0.5486372709274292,0.1535034477710724,0.48047468066215515,0.45211565494537354
9.427243709564209,-0.15437445044517517,0.17,0.5430135726928711,0.1518230438232422,0.4656582176685333,0.4551306664943695
9.447303771972656,-0.15189725160598755,0.17,0.5323566794395447,0.14927847683429718,0.4858507812023163,0.45568063855171204
9.467387437820435,-0.151296466588974,0.17,0.5457546710968018,0.14995314180850983,0.46325552463531494,0.4450482726097107
9.487456798553467,-0.14722737669944763,0.17,0.53741854429245,0.14723388850688934,0.4787951409816742,0.4425901472568512
9.507547855377197,-0.14619626104831696,0.17,0.5257428288459778,0.14804603159427643,0.49482378363609314,0.44845131039619446
9.527573823928833,-0.14073383808135986,0.17,0.526007890701294,0.14732572436332703,0.4988548457622528,0.4427407681941986
9.547664642333984,-0.14862319827079773,0.17,0.4999707341194153,0.15105469524860382,0.5104933977127075,0.4620029032230377
9.567732810974121,-0.14874562621116638,0.17,0.49311986565589905,0.15086545050144196,0.5054844617843628,0.46410465240478516
9.587778091430664,-0.14435911178588867,0.17,0.4858109652996063,0.14912737905979156,0.5168898105621338,0.46322181820869446
9.607867002487183,-0.14442814886569977,0.17,0.4824972450733185,0.1488238275051117,0.5133492946624756,0.4610151946544647
9.628041505813599,-0.1357240378856659,0.17,0.4943426847457886,0.1460649073123932,0.5085486173629761,0.44764968752861023
9.648094892501831,-0.1357956826686859,0.17,0.4875679910182953,0.14747734367847443,0.5024113655090332,0.4492960572242737
9.668149948120117,-0.14041289687156677,0.17,0.475608229637146,0.1480742245912552,0.48845788836479187,0.4550713002681732
9.688186168670654,-0.14308306574821472,0.17,0.4761080741882324,0.1495283544063568,0.4594614505767822,0.45799750089645386
9.70827054977417,-0.15077748894691467,0.17,0.451582133769989,0.15060965716838837,0.4641605317592621,0.471817284822464
9.728341817855835,-0.14667940139770508,0.17,0.44637054204940796,0.1487666517496109,0.4616672694683075,0.4711841642856598
9.748414278030396,-0.1420120894908905,0.17,0.43602171540260315,0.1478569656610489,0.4641379117965698,0.4680865406990051
9.768471717834473,-0.13295936584472656,0.17,0.4210957884788513,0.14767400920391083,0.4779599905014038,0.4655093252658844
9.788578987121582,-0.13829943537712097,0.17,0.38758742809295654,0.15078969299793243,0.49574014544487,0.47523853182792664
9.808639526367188,-0.13762319087982178,0.10454681515693665,0.35147443413734436,0.1548479199409485,0.5004589557647705,0.48095211386680603
9.828700065612793,-0.13152578473091125,-0.023424021899700165,0.32398977875709534,0.15599219501018524,0.4903232157230377,0.4847360849380493
9.848804950714111,-0.11473389714956284,-0.24167324602603912,0.282230019569397,0.16093681752681732,0.5005113482475281,0.484174519777298
9.868869066238403,-0.09560927748680115,-0.37453287839889526,0.3068458139896393,0.15703199803829193,0.46826010942459106,0.47726646065711975
9.888929605484009,-0.0719255581498146,-0.6547747254371643,0.3547026515007019,0.15078303217887878,0.3825850188732147,0.4816305637359619
9.90908408164978,-0.053446538746356964,-0.8924098610877991,0.4456408619880676,0.1440742164850235,0.2509934604167938,0.48790425062179565
9.929105758666992,-0.04695258289575577,-1.0579781532287598,0.5128917098045349,0.1484234482049942,0.19047613441944122,0.49201369285583496
9.949252605438232,-0.0460641011595726,-1.0958707332611084,0.54720538854599,0.1653776913881302,0.13535065948963165,0.49143528938293457
9.96929121017456,-0.051957495510578156,-1.1563456058502197,0.5766915082931519,0.17698125541210175,0.11823376268148422,0.5016445517539978
9.98947525024414,-0.04489576071500778,-1.1549983024597168,0.6032031774520874,0.1730567067861557,0.13845783472061157,0.49867701530456543
10.009523630142212,-0.048357926309108734,-1.1623878479003906,0.5771656036376953,0.1574297696352005,0.1578974723815918,0.4986092448234558
10.029680252075195,-0.0493478998541832,-1.1754367351531982,0.5687178373336792,0.1536548137664795,0.17201101779937744,0.5009202361106873
10.049699544906616,-0.04746861010789871,-1.2216277122497559,0.5438321828842163,0.1453344076871872,0.207453191280365,0.5006666779518127
10.069751262664795,-0.043416619300842285,-1.270162582397461,0.5261457562446594,0.1306934654712677,0.24938949942588806,0.5009354948997498
10.089851140975952,-0.04177508503198624,-1.302487850189209,0.5485159158706665,0.14155252277851105,0.21010026335716248,0.49990564584732056
10.109971523284912,-0.04404734820127487,-1.3025867938995361,0.5603647232055664,0.1428055316209793,0.19153212010860443,0.5008252263069153
10.130019664764404,-0.04715622216463089,-1.2952537536621094,0.5719772577285767,0.14831800758838654,0.1773134171962738,0.5029357075691223
10.150113582611084,-0.05719452351331711,-1.2782745361328125,0.5632349252700806,0.15071702003479004,0.16163012385368347,0.5061623454093933
10.170155763626099,-0.05843796581029892,-1.2416505813598633,0.5773266553878784,0.15436013042926788,0.15541668236255646,0.5072291493415833
10.190321207046509,-0.05142807215452194,-1.2226378917694092,0.5875213146209717,0.15627391636371613,0.1628163605928421,0.5031198263168335
10.21043062210083,-0.058709658682346344,-1.1921322345733643,0.5764195919036865,0.15743562579154968,0.15309780836105347,0.5048137903213501
10.230484008789062,-0.06039487570524216,-1.1727163791656494,0.5694364309310913,0.158012256026268,0.16321122646331787,0.5052629709243774
10.250563859939575,-0.05807017534971237,-1.1642367839813232,0.5713517665863037,0.15843121707439423,0.16732516884803772,0.5041878819465637
10.27064037322998,-0.056661494076251984,-1.1556000709533691,0.5633752346038818,0.15403153002262115,0.18892668187618256,0.5025925636291504
10.290704488754272,-0.053114332258701324,-1.1437273025512695,0.5754740238189697,0.1591160148382187,0.1875610649585724,0.5009005069732666
10.31080150604248,-0.04923466593027115,-1.126922845840454,0.5861184597015381,0.1618792712688446,0.1939571052789688,0.49840280413627625
10.331029176712036,-0.04990503937005997,-1.098559856414795,0.5916157960891724,0.16392381489276886,0.19641754031181335,0.496983140707016
10.351178646087646,-0.06711670011281967,-1.0947916507720947,0.5542019009590149,0.15657611191272736,0.19949238002300262,0.5050727725028992
10.371214389801025,-0.07035449892282486,-1.0509929656982422,0.5596981048583984,0.16015000641345978,0.2072717398405075,0.505750834941864
10.391305446624756,-0.06958324462175369,-1.0065040588378906,0.5573298931121826,0.1590786725282669,0.2294892966747284,0.5035971403121948
10.411342144012451,-0.07007745653390884,-0.951815664768219,0.5701472759246826,0.16586484014987946,0.22652862966060638,0.5020120739936829
10.431432962417603,-0.057344965636730194,-0.9200406670570374,0.5954911708831787,0.17148132622241974,0.23022986948490143,0.4911816716194153
10.451485395431519,-0.06238517910242081,-0.8702303767204285,0.5891482830047607,0.17216424643993378,0.24084219336509705,0.49108609557151794
10.471547842025757,-0.06507060676813126,-0.8137562870979309,0.5902451276779175,0.1752132624387741,0.2542210817337036,0.4899008274078369
10.491608619689941,-0.06911966949701309,-0.7794476747512817,0.5921223163604736,0.17815475165843964,0.256084144115448,0.4916136860847473
10.511775255203247,-0.0754314437508583,-0.6882873177528381,0.6103877425193787,0.18344594538211823,0.2678000330924988,0.48827478289604187
10.531835079193115,-0.08045027405023575,-0.5744538307189941,0.63725745677948,0.19225041568279266,0.28082045912742615,0.4807281196117401
10.551928043365479,-0.09552741795778275,-0.4366638660430908,0.6530443429946899,0.1946682333946228,0.30677515268325806,0.47700971364974976
10.571993589401245,-0.10409293323755264,-0.3634648025035858,0.6604164838790894,0.19659441709518433,0.3195876181125641,0.4728482961654663
10.592174530029297,-0.11760856956243515,-0.21272890269756317,0.6584649085998535,0.194644495844841,0.35552123188972473,0.4683707356452942
10.612204313278198,-0.13494627177715302,-0.032166436314582825,0.6275498867034912,0.18274739384651184,0.3965950310230255,0.4734567701816559
10.632254362106323,-0.14595794677734375,0.17,0.5523759722709656,0.16311532258987427,0.47754326462745667,0.47893425822257996
10.652409791946411,-0.13945548236370087,0.17,0.5309444665908813,0.15953318774700165,0.5274499654769897,0.4773976504802704
10.672495603561401,-0.14015665650367737,0.17,0.5298882722854614,0.15567442774772644,0.5577159523963928,0.47082701325416565
10.692664861679077,-0.1410026252269745,0.17,0.5236852169036865,0.1509620100259781,0.5777144432067871,0.4635479152202606
10.712698698043823,-0.14356911182403564,0.17,0.5153958797454834,0.15603552758693695,0.5647797584533691,0.46837204694747925
10.732738733291626,-0.15145158767700195,0.17,0.5136100649833679,0.15862824022769928,0.5267813205718994,0.47724029421806335
10.752873659133911,-0.15073907375335693,0.17,0.529446542263031,0.15855175256729126,0.49882182478904724,0.47237399220466614
10.773036241531372,-0.1529606580734253,0.17,0.5302959084510803,0.1552061289548874,0.4786086976528168,0.4738781452178955
10.793070793151855,-0.1571102738380432,0.17,0.5255672931671143,0.1570296436548233,0.46852487325668335,0.47990596294403076
10.813089370727539,-0.15788236260414124,0.17,0.5089215636253357,0.1542304903268814,0.4792495369911194,0.4842768907546997
10.83316683769226,-0.14945536851882935,0.17,0.519780158996582,0.15361368656158447,0.47980406880378723,0.4750213921070099
10.85323166847229,-0.1480606198310852,0.17,0.5105416178703308,0.1540931612253189,0.4901929795742035,0.47421351075172424
10.873435497283936,-0.14184391498565674,0.17,0.5037504434585571,0.15300269424915314,0.4990602433681488,0.4704861044883728
10.893420457839966,-0.13644984364509583,0.17,0.4977571666240692,0.15224196016788483,0.5017796158790588,0.4666554033756256
10.913522720336914,-0.15210090577602386,0.17,0.4379667043685913,0.15894465148448944,0.5327103734016418,0.49713611602783203
10.933630466461182,-0.14814576506614685,0.17,0.4199269413948059,0.16030198335647583,0.539995014667511,0.49665483832359314
10.953724384307861,-0.1432993859052658,0.17,0.41973400115966797,0.15722618997097015,0.5272575616836548,0.49275240302085876
10.973886489868164,-0.13433170318603516,0.17,0.4280276298522949,0.15323646366596222,0.5171096324920654,0.4809517562389374
10.993916273117065,-0.13668221235275269,0.16049841046333313,0.40844178199768066,0.15433789789676666,0.5026317834854126,0.48513561487197876
11.013960599899292,-0.13636305928230286,0.08727118372917175,0.37165796756744385,0.15731696784496307,0.5050035715103149,0.49372002482414246
11.034016847610474,-0.128758043050766,-0.0529315359890461,0.34557855129241943,0.16180796921253204,0.49383077025413513,0.49594128131866455
11.054102420806885,-0.13040174543857574,-0.1712709367275238,0.28088122606277466,0.17202600836753845,0.5225481390953064,0.5063298940658569
11.074191093444824,-0.10033290088176727,-0.4646081030368805,0.28128182888031006,0.16737186908721924,0.4942260682582855,0.5025966167449951
11.094247102737427,-0.07421040534973145,-0.7671234011650085,0.349008172750473,0.15282969176769257,0.3747849762439728,0.5064804553985596
11.114346027374268,-0.0657854676246643,-0.9022167921066284,0.40210604667663574,0.15100489556789398,0.2927062213420868,0.5128236413002014
11.134555578231812,-0.05002034455537796,-1.0805871486663818,0.5048354268074036,0.15311485528945923,0.1924303025007248,0.513279139995575
11.154714584350586,-0.05183403939008713,-1.1654489040374756,0.5505126118659973,0.16300033032894135,0.14955823123455048,0.5188871026039124
11.17479419708252,-0.054340653121471405,-1.2205657958984375,0.5822911262512207,0.17933954298496246,0.1342109739780426,0.5245671272277832
11.194852352142334,-0.05858380347490311,-1.2078614234924316,0.6126536130905151,0.1965736299753189,0.12162067741155624,0.5342838764190674
11.215014219284058,-0.04361339658498764,-1.1764259338378906,0.6127662658691406,0.17112307250499725,0.16764888167381287,0.5204993486404419
11.235031366348267,-0.04749835282564163,-1.178468942642212,0.5875965356826782,0.15871472656726837,0.1973554491996765,0.5202625393867493
11.255035161972046,-0.04965301603078842,-1.2117249965667725,0.5515042543411255,0.1483812779188156,0.22812491655349731,0.5194366574287415
11.275124311447144,-0.04600318521261215,-1.239821195602417,0.5300526022911072,0.13537493348121643,0.2821824550628662,0.518909215927124
11.295194149017334,-0.05198242515325546,-1.274312973022461,0.5458052158355713,0.14999179542064667,0.20797152817249298,0.5227043032646179
11.315290212631226,-0.05181325227022171,-1.2788197994232178,0.5725468993186951,0.15369005501270294,0.18523548543453217,0.5247787237167358
11.335307836532593,-0.055341728031635284,-1.2720215320587158,0.576474666595459,0.15767429769039154,0.16764140129089355,0.5253940224647522
11.355406284332275,-0.06176414340734482,-1.2631604671478271,0.5724574327468872,0.15796782076358795,0.1581249237060547,0.52817702293396
11.375461339950562,-0.06825541704893112,-1.2306292057037354,0.5762679576873779,0.16431094706058502,0.1352721005678177,0.5298530459403992
11.395509481430054,-0.06358318775892258,-1.1943938732147217,0.5912339687347412,0.1702696681022644,0.13409355282783508,0.5269913673400879
11.415666580200195,-0.06591246277093887,-1.1794800758361816,0.5831636190414429,0.16654039919376373,0.14698946475982666,0.5287765860557556
11.43571925163269,-0.06431304663419724,-1.1565511226654053,0.574896514415741,0.16305695474147797,0.17857757210731506,0.526323676109314
11.455772638320923,-0.06349743157625198,-1.141467809677124,0.5708217024803162,0.16362161934375763,0.18929684162139893,0.5247977375984192
11.475859880447388,-0.0584423765540123,-1.1331872940063477,0.5673816204071045,0.1590389460325241,0.223471999168396,0.5228880047798157
11.4959135055542,-0.06336439400911331,-1.131068229675293,0.5584702491760254,0.16040538251399994,0.21593183279037476,0.5231370329856873
11.515981912612915,-0.05956357717514038,-1.1219415664672852,0.5598965883255005,0.15697726607322693,0.24432626366615295,0.5218936204910278
11.53603196144104,-0.06645072251558304,-1.094449758529663,0.5660960078239441,0.16356539726257324,0.21778860688209534,0.5239850282669067
11.556113958358765,-0.05512236803770065,-1.0675387382507324,0.5983626842498779,0.16969509422779083,0.21933549642562866,0.5189940333366394
11.576203107833862,-0.05091030150651932,-1.0268514156341553,0.6141549348831177,0.17706707119941711,0.22162958979606628,0.514277458190918
11.596277475357056,-0.05443497747182846,-0.9705488085746765,0.623076319694519,0.18327464163303375,0.21485546231269836,0.5131710767745972
11.61632776260376,-0.05468469113111496,-0.8964768052101135,0.6403871178627014,0.19193796813488007,0.2222021520137787,0.5087287425994873
11.636412858963013,-0.08843541145324707,-0.8755087852478027,0.563305139541626,0.170457124710083,0.23569265007972717,0.5267683863639832
11.656505584716797,-0.09580303728580475,-0.8057042360305786,0.5517525672912598,0.16905580461025238,0.24995356798171997,0.5275912880897522
11.676568746566772,-0.09790792316198349,-0.6984013915061951,0.5776287317276001,0.17755496501922607,0.2675628066062927,0.5251787304878235
11.696634531021118,-0.06240791827440262,-0.6109635233879089,0.7113054990768433,0.2286006659269333,0.2674223482608795,0.47929346561431885
11.716710567474365,0.145535409450531,-1.5715553760528564,0.784111499786377,0.18963642418384552,0.108396016061306,0.464741975069046
11.736754655838013,0.14681637287139893,-2.2969257831573486,0.855575680732727,0.13610737025737762,-0.0017814654856920242,0.4923754036426544
11.756845474243164,0.08609006553888321,-2.5599365234375,0.7731701135635376,0.09699892997741699,-0.07904230058193207,0.5289956331253052
11.776912212371826,0.05823708325624466,-2.8820419311523438,0.8161966800689697,0.10116539895534515,-0.10433148592710495,0.5375080108642578
11.796974658966064,0.060633979737758636,-2.96,0.7787795066833496,0.06257696449756622,-0.13803374767303467,0.536630392074585
11.817089796066284,0.07258164137601852,-2.96,0.7561858892440796,0.03459157422184944,-0.1181633248925209,0.5312333106994629
11.837180137634277,0.06433811038732529,-2.96,0.7494475245475769,0.04656453803181648,-0.142683207988739,0.5333850383758545
11.85733699798584,0.05275299400091171,-2.96,0.749908983707428,0.04935189709067345,-0.1579986959695816,0.5399545431137085
11.877339363098145,0.05575373023748398,-2.96,0.7887605428695679,0.06792616844177246,-0.17690500617027283,0.5343209505081177
11.89740538597107,0.052010320127010345,-2.96,0.7960323691368103,0.07408389449119568,-0.18978777527809143,0.5360720157623291
11.917565822601318,0.050296567380428314,-2.96,0.8176771402359009,0.08340825140476227,-0.19484804570674896,0.5357661247253418
11.937605142593384,0.050482116639614105,-2.96,0.8305789232254028,0.08096666634082794,-0.17988911271095276,0.5370171666145325
11.957677125930786,0.051937274634838104,-2.96,0.807206392288208,0.06830334663391113,-0.16717883944511414,0.538305401802063
11.977867126464844,0.051967017352581024,-2.96,0.7946010828018188,0.0641925036907196,-0.16531062126159668,0.5386257171630859
11.997875452041626,0.05755311995744705,-2.96,0.7894876003265381,0.05413719639182091,-0.13801419734954834,0.537317156791687
12.017969131469727,0.06259598582983017,-2.96,0.7910689115524292,0.04913461580872536,-0.12096590548753738,0.5383260846138
12.038047790527344,0.06143427640199661,-2.96,0.7970876693725586,0.058735284954309464,-0.13276506960391998,0.5335137844085693
12.058224439620972,0.056290529668331146,-2.96,0.8042789697647095,0.06378516554832458,-0.14175668358802795,0.5366629362106323
12.078279733657837,0.0542462095618248,-2.96,0.8024045825004578,0.061508696526288986,-0.14601834118366241,0.5382524728775024
12.098299264907837,0.05506058782339096,-2.96,0.8112802505493164,0.06721608340740204,-0.15955707430839539,0.5374094247817993
12.118388652801514,0.054016731679439545,-2.96,0.809562087059021,0.06801065802574158,-0.16313034296035767,0.5373121500015259
12.13849401473999,0.05301704257726669,-2.96,0.7971397042274475,0.06713584065437317,-0.1718910038471222,0.5375247001647949
12.15860366821289,0.05388294905424118,-2.96,0.7974772453308105,0.06322845816612244,-0.1605164110660553,0.5383232831954956
12.178654670715332,0.05515774339437485,-2.96,0.7968047857284546,0.061758559197187424,-0.15567739307880402,0.5382250547409058
12.198790073394775,0.05461858958005905,-2.96,0.7993228435516357,0.0642235279083252,-0.15604323148727417,0.5375527143478394
12.218824863433838,0.053201280534267426,-2.96,0.7990305423736572,0.06533002853393555,-0.16071996092796326,0.5383241176605225
12.238869190216064,0.058446161448955536,-2.96,0.816667914390564,0.06612496078014374,-0.1509469449520111,0.5370868444442749
12.259322166442871,0.05375722795724869,-2.96,0.8032227158546448,0.06331503391265869,-0.15120868384838104,0.5379522442817688
12.279485940933228,0.061307393014431,-2.96,0.8195282220840454,0.06522320210933685,-0.14282962679862976,0.5363900661468506
12.299606561660767,0.05486922711133957,-2.96,0.8028327226638794,0.06477466225624084,-0.15027832984924316,0.5377261638641357
12.319580316543579,0.053755827248096466,-2.96,0.8015583753585815,0.06440334022045135,-0.15125858783721924,0.537939727306366
12.33974838256836,0.05413902550935745,-2.96,0.8017441630363464,0.06482551991939545,-0.15717992186546326,0.5382890105247498
12.359852075576782,0.054103948175907135,-2.96,0.7977874279022217,0.0632985532283783,-0.1586771458387375,0.5381534099578857
12.379912376403809,0.05413394421339035,-2.96,0.8012784719467163,0.06538353860378265,-0.157617449760437,0.5380871891975403
12.400012016296387,0.05797339230775833,-2.96,0.8129582405090332,0.0649903416633606,-0.15095195174217224,0.5373213291168213
12.420061111450195,0.05273645371198654,-2.96,0.8015832901000977,0.0647050142288208,-0.15588319301605225,0.5380191802978516
12.440128326416016,0.052599795162677765,-2.96,0.8057425022125244,0.06531395018100739,-0.15340539813041687,0.5387107133865356
12.460193872451782,0.05331104248762131,-2.96,0.8081573247909546,0.06513930857181549,-0.14864443242549896,0.5385231971740723
12.480288982391357,0.05727625638246536,-2.96,0.8179701566696167,0.06766967475414276,-0.14673161506652832,0.5376172065734863
12.500422239303589,0.0527956560254097,-2.96,0.8071516752243042,0.06590740382671356,-0.1509099304676056,0.53867107629776
12.52048110961914,0.0561584010720253,-2.96,0.8122055530548096,0.06515993177890778,-0.14418736100196838,0.5380159616470337
12.540541887283325,0.05386323481798172,-2.96,0.8050820827484131,0.06592434644699097,-0.1505182832479477,0.5385370850563049
12.56097149848938,0.05369267612695694,-2.96,0.8032137751579285,0.06461118161678314,-0.1505061686038971,0.5384575128555298
12.581091165542603,0.052728258073329926,-2.96,0.8046165704727173,0.06733164191246033,-0.15484315156936646,0.538446843624115
12.601241827011108,0.052605412900447845,-2.96,0.803569495677948,0.06588473916053772,-0.15544047951698303,0.5391246676445007
12.62133502960205,0.053535379469394684,-2.96,0.8059065341949463,0.06563922762870789,-0.15248100459575653,0.5389658212661743
12.641407489776611,0.05429791659116745,-2.96,0.8071391582489014,0.06511273980140686,-0.15056368708610535,0.5381878614425659
12.66153860092163,0.05335945636034012,-2.96,0.8079050183296204,0.06519955396652222,-0.14868301153182983,0.5390801429748535
12.68161654472351,0.05438467115163803,-2.96,0.8062006235122681,0.06596291065216064,-0.15208806097507477,0.5382897853851318
12.701652765274048,0.052653275430202484,-2.96,0.8078435659408569,0.06611038744449615,-0.15091094374656677,0.5389856100082397
12.721729278564453,0.05301130563020706,-2.96,0.8065026998519897,0.06624568998813629,-0.15043261647224426,0.538555383682251
12.74185299873352,0.05352666229009628,-2.96,0.8107454776763916,0.06723430752754211,-0.15055496990680695,0.5387824773788452
12.761889457702637,0.05404455214738846,-2.96,0.8098856210708618,0.06661562621593475,-0.14914272725582123,0.5385361909866333
12.781935930252075,0.051344387233257294,-2.96,0.8068268299102783,0.06637006998062134,-0.1501801609992981,0.539373517036438
12.802024364471436,0.05728607624769211,-2.96,0.819581151008606,0.06861510872840881,-0.1459127813577652,0.5376014113426208
12.822169542312622,0.05552349239587784,-2.96,0.8152382373809814,0.06794573366641998,-0.14696314930915833,0.5381985902786255
12.842207908630371,0.0564536526799202,-2.96,0.8206225633621216,0.06872792541980743,-0.14536061882972717,0.538016676902771
12.862281322479248,0.05164053291082382,-2.96,0.809781551361084,0.06724753975868225,-0.14821583032608032,0.5393179655075073
12.882422685623169,0.050303734838962555,-2.96,0.8099448680877686,0.06681592762470245,-0.14669716358184814,0.5399804711341858
12.902508974075317,0.05487597733736038,-2.96,0.8145756721496582,0.06570789217948914,-0.14170224964618683,0.5395911931991577
12.922597646713257,0.053445570170879364,-2.96,0.8129153251647949,0.0674997866153717,-0.14552897214889526,0.5382863283157349
12.94275712966919,0.05263169854879379,-2.96,0.809852123260498,0.06684659421443939,-0.14803007245063782,0.5393509864807129
12.962761402130127,0.0564720556139946,-2.96,0.822314977645874,0.06902721524238586,-0.1469438225030899,0.5383442640304565
12.983041524887085,0.050723545253276825,-2.96,0.8123797178268433,0.06785297393798828,-0.1486390382051468,0.5401350259780884
13.003053903579712,0.052016548812389374,-2.96,0.816585898399353,0.06825727224349976,-0.1456095576286316,0.5400695204734802
13.023147344589233,0.05324503034353256,-2.96,0.8221155405044556,0.07104168832302094,-0.14608046412467957,0.5392110347747803
13.043320417404175,0.05028625577688217,-2.96,0.81434166431427,0.0692698210477829,-0.1447996199131012,0.5406228303909302
13.06335973739624,0.05166929215192795,-2.96,0.814571738243103,0.06768417358398438,-0.13963927328586578,0.5400474071502686
13.083400964736938,0.05293314903974533,-2.96,0.8111828565597534,0.0661417543888092,-0.13824351131916046,0.5396511554718018
13.103486776351929,0.05319385975599289,-2.96,0.811195969581604,0.06593719124794006,-0.1383817195892334,0.5398790836334229
13.12354326248169,0.05242011696100235,-2.96,0.810080885887146,0.06609828770160675,-0.14121156930923462,0.5399450063705444
13.143733501434326,0.05226927250623703,-2.96,0.8103320598602295,0.06605266034603119,-0.14202803373336792,0.5402114391326904
13.163724660873413,0.05171453207731247,-2.96,0.8139705657958984,0.06775982677936554,-0.14579083025455475,0.5404520630836487
13.183852672576904,0.05541893094778061,-2.96,0.8263181447982788,0.07041759788990021,-0.1442202627658844,0.5385262370109558
13.20390248298645,0.054065950214862823,-2.96,0.8208941221237183,0.06842398643493652,-0.14239910244941711,0.5394694805145264
13.223991870880127,0.05145920068025589,-2.96,0.8139941692352295,0.06884852051734924,-0.1435907483100891,0.5397627353668213
13.244018793106079,0.05194311589002609,-2.96,0.8144972920417786,0.06791068613529205,-0.1416528820991516,0.5403293967247009
13.264098882675171,0.05250038951635361,-2.96,0.8170731067657471,0.0684022307395935,-0.14159254729747772,0.5393767356872559
13.284164190292358,0.052271850407123566,-2.96,0.8136094808578491,0.06786035001277924,-0.14254522323608398,0.5400400161743164
13.304223537445068,0.05129460245370865,-2.96,0.818112850189209,0.06921952962875366,-0.14258593320846558,0.5401858687400818
13.324323654174805,0.05497332662343979,-2.96,0.82774817943573,0.0706557035446167,-0.13965241611003876,0.5391892194747925
13.344379186630249,0.050299547612667084,-2.96,0.8171755075454712,0.06887701153755188,-0.14119285345077515,0.5405933856964111
13.364521265029907,0.051272518932819366,-2.96,0.8228390216827393,0.0715770423412323,-0.1419081687927246,0.5400080680847168
13.384914875030518,0.05163150280714035,-2.96,0.8179389238357544,0.06938545405864716,-0.14070729911327362,0.5404136180877686
13.405003547668457,0.051875852048397064,-2.96,0.8192527294158936,0.06952320039272308,-0.13764753937721252,0.5398300290107727
13.425137758255005,0.051605768501758575,-2.96,0.8148331642150879,0.06845776736736298,-0.1410345733165741,0.5406175851821899
13.445201873779297,0.055247701704502106,-2.96,0.823844313621521,0.06978122889995575,-0.13944321870803833,0.5389988422393799
13.465278625488281,0.05050111562013626,-2.96,0.8146028518676758,0.06728313863277435,-0.14041736721992493,0.5412787199020386
13.485342979431152,0.05178504437208176,-2.96,0.8169273138046265,0.06890447437763214,-0.14020125567913055,0.540454626083374
13.505496263504028,0.05170799046754837,-2.96,0.8216265439987183,0.06918218731880188,-0.1394791603088379,0.540770947933197
13.525525331497192,0.05361679941415787,-2.96,0.832239031791687,0.07060298323631287,-0.13400577008724213,0.5396356582641602
13.545619487762451,0.05097102373838425,-2.96,0.821724534034729,0.06980651617050171,-0.13471248745918274,0.5411094427108765
13.565738677978516,0.05071749538183212,-2.96,0.8187465667724609,0.07093971967697144,-0.1380184441804886,0.5409778356552124
13.585748195648193,0.05080457776784897,-2.96,0.8193473815917969,0.06802710890769958,-0.13153278827667236,0.5415993928909302
13.605948209762573,0.0516548678278923,-2.96,0.8183655738830566,0.06805646419525146,-0.13145586848258972,0.5404326915740967
13.626051187515259,0.05261095613241196,-2.96,0.8175495862960815,0.06776465475559235,-0.1330910623073578,0.5404208898544312
13.64610767364502,0.05154090374708176,-2.96,0.8186657428741455,0.0684046745300293,-0.135802760720253,0.5413029789924622
13.666157245635986,0.051560111343860626,-2.96,0.8191694021224976,0.07002134621143341,-0.14047293365001678,0.5408369898796082
13.686262845993042,0.0555209144949913,-2.96,0.8362700939178467,0.07316626608371735,-0.1371861845254898,0.5393111705780029
13.706322431564331,0.05511913448572159,-2.96,0.8349289894104004,0.07158103585243225,-0.13394124805927277,0.5400622487068176
13.726421117782593,0.053068675100803375,-2.96,0.8293395042419434,0.07168620824813843,-0.13532626628875732,0.5400242805480957
13.74645447731018,0.050093524158000946,-2.96,0.8208523988723755,0.07181328535079956,-0.1342918574810028,0.5408897399902344
13.766542911529541,0.050521619617938995,-2.96,0.8200372457504272,0.07022175192832947,-0.13400985300540924,0.5413133502006531
13.786606073379517,0.05225586146116257,-2.96,0.8200244903564453,0.06673479080200195,-0.1262848973274231,0.5410628914833069
13.806679248809814,0.052267737686634064,-2.96,0.8191468715667725,0.0682143121957779,-0.13045236468315125,0.5408063530921936
13.82679557800293,0.05213233083486557,-2.96,0.8236043453216553,0.06930416822433472,-0.13211680948734283,0.5409860610961914
13.846880197525024,0.05310692638158798,-2.96,0.8286135196685791,0.06977756321430206,-0.1303604394197464,0.5404559373855591
13.866954565048218,0.05275260657072067,-2.96,0.8283653259277344,0.07101060450077057,-0.13230466842651367,0.5401789546012878
13.887030363082886,0.051169030368328094,-2.96,0.8267017602920532,0.07069136202335358,-0.13309627771377563,0.5410605072975159
13.907055616378784,0.053755827248096466,-2.96,0.8310970067977905,0.0698772668838501,-0.12807562947273254,0.5406191349029541
13.927123308181763,0.04969819635152817,-2.96,0.8225643634796143,0.07087373733520508,-0.1340181678533554,0.5408608317375183
13.947194337844849,0.048539333045482635,-2.96,0.8259216547012329,0.07318428158760071,-0.13368238508701324,0.5415679216384888
13.967359066009521,0.054027147591114044,-2.96,0.8322559595108032,0.07088594138622284,-0.1241670772433281,0.5402685403823853
13.987449407577515,0.05063136667013168,-2.96,0.825221061706543,0.07056908309459686,-0.1280699074268341,0.541238009929657
14.007527828216553,0.05030957609415054,-2.96,0.8223562240600586,0.07083074748516083,-0.13170775771141052,0.5412998795509338
14.0275719165802,0.05153649300336838,-2.96,0.8284875154495239,0.07166518270969391,-0.1289418637752533,0.5411370992660522
14.047651767730713,0.054163895547389984,-2.96,0.8325471878051758,0.06947667896747589,-0.12510955333709717,0.5406016111373901
14.06771445274353,0.056453146040439606,-2.96,0.8465726375579834,0.07470142841339111,-0.12537264823913574,0.5395822525024414
14.087831974029541,0.05395571142435074,-2.96,0.8345155715942383,0.0718299150466919,-0.12430866807699203,0.5407060384750366
14.10784649848938,0.051305852830410004,-2.96,0.8268369436264038,0.07161051034927368,-0.1258695423603058,0.5409650206565857
14.127937078475952,0.05096762627363205,-2.96,0.8281199932098389,0.07206159830093384,-0.12706637382507324,0.5415863990783691
14.148022651672363,0.04927653819322586,-2.96,0.8237719535827637,0.06992849707603455,-0.13282205164432526,0.5421048402786255
14.168083429336548,0.04983905702829361,-2.96,0.8256107568740845,0.07110363245010376,-0.12880568206310272,0.5421373248100281
14.1881263256073,0.050238944590091705,-2.96,0.8269534111022949,0.07256360352039337,-0.12712089717388153,0.5415064096450806
14.208219766616821,0.04950638860464096,-2.96,0.8264490365982056,0.07264253497123718,-0.13013555109500885,0.5417277812957764
14.228291749954224,0.05446618050336838,-2.96,0.8437460660934448,0.07461604475975037,-0.12713700532913208,0.540978193283081
14.248359680175781,0.04989274591207504,-2.96,0.8290386199951172,0.07289563119411469,-0.13013127446174622,0.541631817817688
14.268521070480347,0.05064377933740616,-2.96,0.8305327892303467,0.07284809648990631,-0.12802138924598694,0.5418320894241333
14.28860354423523,0.04788421839475632,-2.9589338302612305,0.8282914161682129,0.07379741966724396,-0.12810681760311127,0.5418784618377686
14.30864953994751,0.05064099282026291,-2.96,0.8288960456848145,0.07118822634220123,-0.12230195850133896,0.541977047920227
14.329161882400513,0.050203971564769745,-2.96,0.8267711400985718,0.07332028448581696,-0.12855829298496246,0.5410869121551514
14.349325180053711,0.04971378296613693,-2.96,0.8266290426254272,0.072577103972435,-0.13084545731544495,0.542333722114563
14.369350910186768,0.051086507737636566,-2.96,0.8310028314590454,0.07180042564868927,-0.1256387084722519,0.5415326952934265
14.389429330825806,0.04941491037607193,-2.96,0.8289512395858765,0.07221382856369019,-0.12856604158878326,0.5426307916641235
14.40957236289978,0.04918479174375534,-2.96,0.8299345970153809,0.07355867326259613,-0.1282964050769806,0.5418464541435242
14.429596662521362,0.04841787368059158,-2.9557483196258545,0.8327932357788086,0.07448174059391022,-0.1301230788230896,0.5422056913375854
14.449738264083862,0.051090843975543976,-2.942134380340576,0.8417806625366211,0.07412821054458618,-0.12093789875507355,0.5418626666069031
14.46975588798523,0.053318239748477936,-2.9402263164520264,0.844585657119751,0.07683087885379791,-0.12198811024427414,0.5406800508499146
14.489847421646118,0.04868873208761215,-2.940246105194092,0.8354412317276001,0.07429897785186768,-0.12271451205015182,0.5428079962730408
14.509979963302612,0.05100611597299576,-2.940650701522827,0.8371696472167969,0.07210618257522583,-0.11609455198049545,0.542797863483429
14.530049562454224,0.0503958985209465,-2.9376156330108643,0.8336911201477051,0.07135884463787079,-0.11210698634386063,0.5423182249069214
14.550190925598145,0.05283772200345993,-2.9377944469451904,0.8372256755828857,0.07291679084300995,-0.1126009002327919,0.5410091280937195
14.570235967636108,0.050487302243709564,-2.9421281814575195,0.83253014087677,0.07246653735637665,-0.114936463534832,0.5418089032173157
14.590288400650024,0.05251670628786087,-2.939929246902466,0.8407177925109863,0.07464288175106049,-0.11866208165884018,0.5412153005599976
14.610368013381958,0.04949142783880234,-2.9404447078704834,0.8316178321838379,0.07067438960075378,-0.11744866520166397,0.5429642796516418
14.630476236343384,0.05105128139257431,-2.939291477203369,0.8379634618759155,0.07423719763755798,-0.11980607360601425,0.5420213937759399
14.650524616241455,0.049167029559612274,-2.9397459030151367,0.8337091207504272,0.07306793332099915,-0.11853011697530746,0.5427401065826416
14.670692920684814,0.049240536987781525,-2.940220832824707,0.8338546752929688,0.07459540665149689,-0.12262154370546341,0.5417705774307251
14.690759897232056,0.05219828337430954,-2.9313480854034424,0.8461920022964478,0.07577656209468842,-0.12152928858995438,0.5418781042098999
14.710869073867798,0.05246748775243759,-2.92759108543396,0.8443496227264404,0.07492737472057343,-0.11707872152328491,0.5411823987960815
14.731035470962524,0.04817082732915878,-2.9271304607391357,0.8378653526306152,0.07592619955539703,-0.12008525431156158,0.542879045009613
14.751074314117432,0.048710621893405914,-2.928553819656372,0.8374079465866089,0.07505269348621368,-0.11785770952701569,0.5429302453994751
14.771149396896362,0.047845326364040375,-2.926553964614868,0.8360346555709839,0.07366004586219788,-0.11486273258924484,0.5434569716453552
14.791205883026123,0.04936309903860092,-2.9280717372894287,0.8354499340057373,0.07389891147613525,-0.11521840840578079,0.5423356890678406
14.811301231384277,0.04955761879682541,-2.931830406188965,0.8347972631454468,0.07181410491466522,-0.11060585826635361,0.5431175231933594
14.831395387649536,0.04953361302614212,-2.9328746795654297,0.8333002328872681,0.07291427254676819,-0.11724455654621124,0.5427237749099731
14.851686477661133,0.04893852025270462,-2.9335339069366455,0.8342050313949585,0.07469585537910461,-0.12085840851068497,0.542461097240448
14.87185025215149,0.04899618774652481,-2.9324305057525635,0.8341634273529053,0.07255321741104126,-0.11778523772954941,0.5429535508155823
14.891913890838623,0.04841666668653488,-2.927556037902832,0.8361973762512207,0.07317963242530823,-0.11570670455694199,0.5433279871940613
14.911975622177124,0.051745690405368805,-2.921949863433838,0.8466472625732422,0.07577656209468842,-0.11346476525068283,0.5422728657722473
14.932116985321045,0.0469813272356987,-2.922065496444702,0.8370281457901001,0.07547616958618164,-0.118304543197155,0.5429993867874146
14.952147006988525,0.04919540137052536,-2.9244980812072754,0.8367061614990234,0.07372669875621796,-0.11467202752828598,0.543074369430542
14.972171068191528,0.051237039268016815,-2.910588264465332,0.8490939140319824,0.07555858790874481,-0.11069680750370026,0.5422953963279724
14.992240905761719,0.055477313697338104,-2.902940511703491,0.857182502746582,0.07691234350204468,-0.10458044707775116,0.5410397052764893
15.012392520904541,0.04886395484209061,-2.900543451309204,0.8444020748138428,0.0757700502872467,-0.10974976420402527,0.5429010987281799
15.032508850097656,0.05093307048082352,-2.9007909297943115,0.847104549407959,0.07755784690380096,-0.11223583668470383,0.5424516201019287
15.052541494369507,0.04923195391893387,-2.9042394161224365,0.8422919511795044,0.07555332779884338,-0.10832130908966064,0.5429568290710449
15.072615623474121,0.04976724833250046,-2.9018924236297607,0.8492015600204468,0.07859209179878235,-0.11029321700334549,0.5424304008483887
15.092737913131714,0.048902519047260284,-2.904797077178955,0.8381861448287964,0.07408276200294495,-0.11236811429262161,0.5432321429252625
15.11286187171936,0.04884577542543411,-2.9049150943756104,0.8402915000915527,0.07513630390167236,-0.1142769306898117,0.543125331401825
15.132864713668823,0.04741164296865463,-2.907778739929199,0.8395662307739258,0.07596836984157562,-0.11481542885303497,0.5438007116317749
15.152947664260864,0.048099808394908905,-2.9085607528686523,0.8417069911956787,0.07557368278503418,-0.11159167438745499,0.5434617400169373
15.17301321029663,0.05208646506071091,-2.8995301723480225,0.855025053024292,0.07866495847702026,-0.11291865259408951,0.542085587978363
15.19308614730835,0.04996224492788315,-2.891740083694458,0.8487800359725952,0.07678820192813873,-0.11270704865455627,0.5427969098091125
15.213234186172485,0.049284927546978,-2.890798568725586,0.8473564386367798,0.07733118534088135,-0.1099318265914917,0.542795717716217
15.233360767364502,0.04642938822507858,-2.8936800956726074,0.8403114080429077,0.07709582149982452,-0.11236643046140671,0.5441203117370605
15.25344967842102,0.0482993945479393,-2.898050308227539,0.8430442810058594,0.0760183334350586,-0.10901917517185211,0.543752908706665
15.273558616638184,0.047979600727558136,-2.8950109481811523,0.8415427207946777,0.07502105832099915,-0.10991337150335312,0.5438652634620667
15.293859243392944,0.0481007918715477,-2.898829698562622,0.8411614894866943,0.07574275135993958,-0.11139896512031555,0.5439749956130981
15.314062118530273,0.04743369668722153,-2.898247480392456,0.8414883613586426,0.07653798162937164,-0.11226627975702286,0.5441861152648926
15.334192276000977,0.047706685960292816,-2.8995113372802734,0.8413389921188354,0.07558037340641022,-0.11195683479309082,0.5441310405731201
15.354170322418213,0.04795338958501816,-2.8983161449432373,0.8439134359359741,0.07717074453830719,-0.11094742268323898,0.5433285236358643
15.374246597290039,0.050539322197437286,-2.8906657695770264,0.8519694805145264,0.07775889337062836,-0.11129086464643478,0.5431233644485474
15.394519567489624,0.05011185258626938,-2.8903558254241943,0.8474981784820557,0.07471288740634918,-0.10327870398759842,0.5433265566825867
15.41446828842163,0.04772862046957016,-2.887791156768799,0.8421287536621094,0.07552286982536316,-0.1087915450334549,0.5440846681594849
15.434561014175415,0.04848753660917282,-2.8900370597839355,0.8434375524520874,0.07605843245983124,-0.10669218748807907,0.5437013506889343
15.454785823822021,0.04719998687505722,-2.8830723762512207,0.844775915145874,0.07634875178337097,-0.10521956533193588,0.5438060760498047
15.47476053237915,0.04913228005170822,-2.8731117248535156,0.8534027338027954,0.07736830413341522,-0.10399302840232849,0.5442377328872681
15.494869947433472,0.05013594776391983,-2.866844654083252,0.8585121631622314,0.08042199909687042,-0.10474205762147903,0.5425077676773071
15.514952659606934,0.04825172573328018,-2.8698570728302,0.8475635051727295,0.07755528390407562,-0.10356643050909042,0.5438998341560364
15.534991025924683,0.045796237885951996,-2.8745365142822266,0.8480122089385986,0.08107145130634308,-0.11029534786939621,0.5444724559783936
15.555784702301025,0.047745220363140106,-2.870149612426758,0.8478450775146484,0.07666195929050446,-0.10524248331785202,0.5439163446426392
15.575879335403442,0.05064936727285385,-2.870007038116455,0.8500401973724365,0.07555252313613892,-0.10218297690153122,0.5433024168014526
15.595973014831543,0.04676159471273422,-2.87495756149292,0.8421255350112915,0.07610958814620972,-0.10311019420623779,0.5448697209358215
