liuyurong129/humanoid-gym/humanoid/data/target_q_20250522-040402.csv
timestamp,joint_1,joint_2,joint_3,joint_4,joint_5,joint_6
5.412101745605469e-05,0.0,0.0,0.0,0.0,0.0,0.0
0.02013421058654785,0.0,0.0,0.0,0.0,0.0,0.0
0.04021406173706055,0.0,0.0,0.0,0.0,0.0,0.0
0.06030440330505371,0.0,0.0,0.0,0.0,0.0,0.0
0.08038187026977539,0.0,0.0,0.0,0.0,0.0,0.0
0.10060405731201172,0.15290290117263794,-0.8235356211662292,0.8242350816726685,0.5182319283485413,-0.19419535994529724,-0.14153437316417694
0.12069487571716309,0.14226479828357697,-0.843313992023468,0.8321418762207031,0.5257744193077087,-0.1952909380197525,-0.14173249900341034
0.1407945156097412,0.11884529143571854,-0.8825937509536743,0.8418973684310913,0.5391556620597839,-0.19733309745788574,-0.1422010213136673
0.16089177131652832,0.10679417103528976,-0.903687596321106,0.8437155485153198,0.5447454452514648,-0.19784846901893616,-0.14226305484771729
0.18099117279052734,0.08327161520719528,-0.9412537813186646,0.8593502640724182,0.558246910572052,-0.1965320110321045,-0.1427367627620697
0.20107173919677734,0.062157757580280304,-0.9766543507575989,0.8777157664299011,0.570675253868103,-0.1927359402179718,-0.14315277338027954
0.22122430801391602,0.05288832634687424,-0.9910050630569458,0.894270658493042,0.5777503252029419,-0.18974146246910095,-0.14336992800235748
0.24134063720703125,0.03090393915772438,-1.0244007110595703,0.9067543745040894,0.5875815153121948,-0.1866527795791626,-0.14382939040660858
0.2613649368286133,0.01178809069097042,-1.0538179874420166,0.9146445393562317,0.5932286381721497,-0.18314139544963837,-0.1443278193473816
0.2815513610839844,0.001305452547967434,-1.0682748556137085,0.9091223478317261,0.5938974022865295,-0.18309998512268066,-0.1447594165802002
0.30155277252197266,-0.013844851404428482,-1.0904923677444458,0.9232869744300842,0.5991126298904419,-0.1774366945028305,-0.14543955028057098
0.3216235637664795,-0.017980152741074562,-1.0995017290115356,0.9393843412399292,0.6015368103981018,-0.1734088510274887,-0.14574263989925385
0.3417644500732422,-0.027687115594744682,-1.1167734861373901,0.9546398520469666,0.6033865809440613,-0.1674344539642334,-0.14653992652893066
0.3617839813232422,-0.0345919243991375,-1.1329880952835083,0.9667088389396667,0.6028130650520325,-0.16375666856765747,-0.14724993705749512
0.38187336921691895,-0.04015005752444267,-1.1416274309158325,0.9590590000152588,0.6009613275527954,-0.16454994678497314,-0.14757367968559265
0.40199923515319824,-0.04373692721128464,-1.1527410745620728,0.9769520163536072,0.6008707880973816,-0.16017358005046844,-0.14824791252613068
0.4231722354888916,-0.0481385663151741,-1.1628615856170654,0.9844047427177429,0.6001920700073242,-0.15760639309883118,-0.14917074143886566
0.4433889389038086,-0.0464569628238678,-1.1650772094726562,1.0043493509292603,0.6009822487831116,-0.15484943985939026,-0.14951740205287933
0.4641151428222656,-0.04965278133749962,-1.1722543239593506,1.0149863958358765,0.6000386476516724,-0.15283870697021484,-0.15081985294818878
0.4841957092285156,-0.05186392739415169,-1.1774380207061768,1.0119179487228394,0.5977886915206909,-0.15396568179130554,-0.15143634378910065
0.5042681694030762,-0.05177316442131996,-1.1819274425506592,1.0234808921813965,0.5963922739028931,-0.1534426212310791,-0.15223845839500427
0.5255334377288818,-0.05170177295804024,-1.1849908828735352,1.0312732458114624,0.5949609279632568,-0.15338566899299622,-0.15302492678165436
0.5456283092498779,-0.04929812625050545,-1.1837879419326782,1.0503875017166138,0.5970048904418945,-0.15227451920509338,-0.1532151997089386
0.5657486915588379,-0.045568086206912994,-1.1837395429611206,1.059271216392517,0.5945062637329102,-0.1513826549053192,-0.15426132082939148
0.5858039855957031,-0.0442478321492672,-1.1830695867538452,1.0680774450302124,0.5940698981285095,-0.15381044149398804,-0.15522868931293488
0.6058564186096191,-0.04303836449980736,-1.1849907636642456,1.062440037727356,0.5918260216712952,-0.1553090661764145,-0.15599428117275238
0.6259353160858154,-0.0413699708878994,-1.1853976249694824,1.0671970844268799,0.5922686457633972,-0.15842853486537933,-0.15706001222133636
0.6462466716766357,-0.03860941156744957,-1.1838290691375732,1.0837070941925049,0.5944260358810425,-0.1591828167438507,-0.15725484490394592
0.6663415431976318,-0.03978065028786659,-1.186019778251648,1.0767040252685547,0.5907278656959534,-0.16344185173511505,-0.15896780788898468
0.6863982677459717,-0.041480958461761475,-1.187699794769287,1.0725247859954834,0.5890756249427795,-0.16784818470478058,-0.16070672869682312
0.7065129280090332,-0.044116999953985214,-1.1895897388458252,1.0601006746292114,0.585048258304596,-0.17103338241577148,-0.16219522058963776
0.7265987396240234,-0.04664592072367668,-1.1899230480194092,1.0600074529647827,0.585253119468689,-0.1754196733236313,-0.16398245096206665
0.7466981410980225,-0.04442982375621796,-1.1857143640518188,1.0769743919372559,0.5890002250671387,-0.1758688986301422,-0.1640913188457489
0.766772985458374,-0.04550914093852043,-1.184170126914978,1.078808307647705,0.5884259939193726,-0.1799880713224411,-0.16625885665416718
0.7868084907531738,-0.045778919011354446,-1.1832917928695679,1.0816336870193481,0.5885869264602661,-0.1841871589422226,-0.16825921833515167
0.8069131374359131,-0.04775723069906235,-1.1840953826904297,1.0718135833740234,0.5868110656738281,-0.18606476485729218,-0.16967572271823883
0.8269870281219482,-0.04738856106996536,-1.1829227209091187,1.069869041442871,0.5872656106948853,-0.18924662470817566,-0.1717304289340973
0.8470766544342041,-0.04297400638461113,-1.180474042892456,1.0796358585357666,0.5893487334251404,-0.18944299221038818,-0.17230749130249023
0.8671576976776123,-0.044056568294763565,-1.1799191236495972,1.0767877101898193,0.5893332362174988,-0.19364428520202637,-0.17473489046096802
0.8872191905975342,-0.04557865858078003,-1.1798104047775269,1.0745939016342163,0.5898904800415039,-0.19891540706157684,-0.17691545188426971
0.907311201095581,-0.047427982091903687,-1.1797795295715332,1.0662634372711182,0.5886138677597046,-0.20090097188949585,-0.17860031127929688
0.927398681640625,-0.04354054108262062,-1.1774232387542725,1.0689539909362793,0.5886790752410889,-0.20369991660118103,-0.18111541867256165
0.9474771022796631,-0.04423955827951431,-1.175916075706482,1.0666342973709106,0.5894302725791931,-0.20912568271160126,-0.18349027633666992
0.9675683975219727,-0.04366610199213028,-1.1747530698776245,1.0683672428131104,0.5904400944709778,-0.21179170906543732,-0.18458454310894012
0.9876291751861572,-0.041768256574869156,-1.1711963415145874,1.0679384469985962,0.5905487537384033,-0.21451257169246674,-0.18735340237617493
1.0079975128173828,-0.04029735177755356,-1.1668806076049805,1.0677279233932495,0.5908113121986389,-0.21780307590961456,-0.1901436299085617
1.028141975402832,-0.04149320721626282,-1.166438102722168,1.064369797706604,0.5894774794578552,-0.22129422426223755,-0.19205835461616516
1.048170566558838,-0.03992711007595062,-1.1626583337783813,1.0694305896759033,0.5907952785491943,-0.22737936675548553,-0.19438618421554565
1.0683391094207764,-0.0368405319750309,-1.1597071886062622,1.073354721069336,0.5904042720794678,-0.22872629761695862,-0.19593343138694763
1.0883700847625732,-0.03296178951859474,-1.1553013324737549,1.075393557548523,0.5885236263275146,-0.23298963904380798,-0.19937603175640106
1.1084434986114502,-0.03075740672647953,-1.1510059833526611,1.077777624130249,0.5871190428733826,-0.23962420225143433,-0.20258715748786926
1.1286280155181885,-0.029476452618837357,-1.1492910385131836,1.0765354633331299,0.5852847695350647,-0.2420184165239334,-0.20463337004184723
1.1486477851867676,-0.023091016337275505,-1.142545223236084,1.086852788925171,0.5853427648544312,-0.24774792790412903,-0.20715004205703735
1.1686854362487793,-0.016126755625009537,-1.1351038217544556,1.0980377197265625,0.5867767930030823,-0.25450801849365234,-0.20892362296581268
1.1887760162353516,-0.013094410300254822,-1.130841612815857,1.1024566888809204,0.5870535373687744,-0.25816166400909424,-0.20990929007530212
1.2089118957519531,-0.005466356407850981,-1.122178316116333,1.1130090951919556,0.5873117446899414,-0.2653588056564331,-0.2116703987121582
1.2292180061340332,0.001268043415620923,-1.1125328540802002,1.1194777488708496,0.5872212648391724,-0.2727081775665283,-0.2135961651802063
1.2493619918823242,0.004906665999442339,-1.1079126596450806,1.1225723028182983,0.5861958265304565,-0.2755813002586365,-0.21493056416511536
1.2694098949432373,0.01500263437628746,-1.0951879024505615,1.1342082023620605,0.5854829549789429,-0.28195086121559143,-0.21673472225666046
1.2895853519439697,0.019388142973184586,-1.0886540412902832,1.1414804458618164,0.5861075520515442,-0.28808531165122986,-0.21690084040164948
1.309617280960083,0.03036964312195778,-1.075695514678955,1.1527401208877563,0.5827907919883728,-0.29449716210365295,-0.2198270708322525
1.3298077583312988,0.04137333109974861,-1.0647051334381104,1.159932255744934,0.5749678611755371,-0.2969943881034851,-0.22535154223442078
1.3498475551605225,0.0465206541121006,-1.0596253871917725,1.161057710647583,0.5688924789428711,-0.29592230916023254,-0.22917160391807556
1.3699367046356201,0.04881737381219864,-1.0511595010757446,1.1546742916107178,0.550471305847168,-0.2947549819946289,-0.238459050655365
1.3905513286590576,0.040759045630693436,-1.0385626554489136,1.1269453763961792,0.5206843018531799,-0.2867823839187622,-0.2502599060535431
1.4106640815734863,0.036760419607162476,-1.0301356315612793,1.1117101907730103,0.505525529384613,-0.279659628868103,-0.2552960216999054
1.4307193756103516,0.025908511132001877,-1.014634370803833,1.0775481462478638,0.47775715589523315,-0.26722705364227295,-0.26217278838157654
1.4508976936340332,0.02092776820063591,-1.0078037977218628,1.059436559677124,0.4649016857147217,-0.2600799798965454,-0.26519981026649475
1.4709110260009766,0.01083408109843731,-0.9956178665161133,1.0221771001815796,0.44011953473091125,-0.24569274485111237,-0.2709645926952362
1.4909992218017578,0.000488311517983675,-0.9839993715286255,0.9831932187080383,0.41891345381736755,-0.23012185096740723,-0.2775907516479492
1.5110666751861572,-0.005162382964044809,-0.9783117771148682,0.9628995656967163,0.4099431335926056,-0.22268173098564148,-0.281205415725708
1.531123161315918,-0.011890561319887638,-0.9660826325416565,0.9233143925666809,0.3934067189693451,-0.20285600423812866,-0.28920871019363403
1.5512559413909912,-0.011625139974057674,-0.952451765537262,0.8867552876472473,0.37963274121284485,-0.17640423774719238,-0.2984957993030548
1.5713832378387451,-0.007670256309211254,-0.9452298283576965,0.8715822696685791,0.3741016685962677,-0.1600111573934555,-0.30375465750694275
1.5914628505706787,0.008006402291357517,-0.9312825202941895,0.850736677646637,0.36758407950401306,-0.1223602294921875,-0.31501609086990356
1.6115353107452393,0.020582260563969612,-0.9256839156150818,0.8501147031784058,0.36888447403907776,-0.10338400304317474,-0.3204815983772278
1.6316680908203125,0.05079968646168709,-0.9186282753944397,0.8699032068252563,0.37698599696159363,-0.07152195274829865,-0.3283754587173462
1.6517822742462158,0.07947862893342972,-0.9136247038841248,0.9018352627754211,0.38766300678253174,-0.04949062690138817,-0.33362025022506714
1.6718900203704834,0.09293219447135925,-0.9119579792022705,0.9194458723068237,0.39598149061203003,-0.042046502232551575,-0.3361656367778778
1.6920504570007324,0.11579578369855881,-0.9101898670196533,0.9588938355445862,0.41459858417510986,-0.03493602201342583,-0.33920225501060486
1.7125728130340576,0.13616028428077698,-0.9096490144729614,0.9992775917053223,0.43524661660194397,-0.032385144382715225,-0.3415510058403015
1.7326369285583496,0.1454860121011734,-0.9109565615653992,1.0178322792053223,0.4490426182746887,-0.03249920532107353,-0.34285613894462585
1.7527287006378174,0.15757595002651215,-0.9164291024208069,1.0478895902633667,0.48014500737190247,-0.03743999823927879,-0.3466315269470215
1.7729263305664062,0.15683339536190033,-0.9216495752334595,1.0574549436569214,0.4945099651813507,-0.04644598066806793,-0.34867990016937256
1.793013572692871,0.1508149355649948,-0.9321703910827637,1.059251070022583,0.519950270652771,-0.06276996433734894,-0.35290560126304626
1.813105583190918,0.14145390689373016,-0.9416409730911255,1.0503898859024048,0.5406835675239563,-0.07869239151477814,-0.3569066822528839
1.8332791328430176,0.1370328962802887,-0.9453606605529785,1.0444782972335815,0.5491307973861694,-0.08464261889457703,-0.3592153787612915
1.8534090518951416,0.12515118718147278,-0.9535340070724487,1.0315836668014526,0.5638120174407959,-0.0998014584183693,-0.36362701654434204
1.8734986782073975,0.12009634077548981,-0.9569454789161682,1.0268863439559937,0.5704249739646912,-0.10583704710006714,-0.3659612238407135
1.893538236618042,0.11070853471755981,-0.9624616503715515,1.0161099433898926,0.5818459987640381,-0.11550629884004593,-0.37075677514076233
1.913604497909546,0.09434527903795242,-0.9693039655685425,0.9993592500686646,0.5904144048690796,-0.13084156811237335,-0.3760378956794739
1.9337704181671143,0.07945815473794937,-0.9734230637550354,0.9877307415008545,0.5925228595733643,-0.14290466904640198,-0.3789995312690735
1.9538426399230957,0.05164402723312378,-0.9804345965385437,0.9635722041130066,0.5953211784362793,-0.16446663439273834,-0.38552024960517883
1.9740021228790283,0.03217829018831253,-0.986477792263031,0.950485348701477,0.6027215719223022,-0.18272747099399567,-0.3920557498931885
1.9940998554229736,0.0239266324788332,-0.9893110394477844,0.9449087381362915,0.6082700490951538,-0.1912817656993866,-0.3942455053329468
2.0142624378204346,0.02205285057425499,-0.9890711903572083,0.940552830696106,0.6132823824882507,-0.19178509712219238,-0.401326447725296
2.0343093872070312,0.03185059502720833,-0.9857635498046875,0.9481553435325623,0.6145710349082947,-0.18235242366790771,-0.4058145582675934
2.0545105934143066,0.05249260738492012,-0.9771863222122192,0.9625952243804932,0.6175897717475891,-0.15899841487407684,-0.4150576591491699
2.074969530105591,0.07061722129583359,-0.9694486856460571,0.9798840284347534,0.6264761090278625,-0.13737823069095612,-0.42443305253982544
2.095057249069214,0.07635641098022461,-0.9653666615486145,0.9819632768630981,0.6297163367271423,-0.12659843266010284,-0.4293684959411621
2.115107774734497,0.0797424465417862,-0.9562491774559021,0.9710793495178223,0.6314199566841125,-0.10593493282794952,-0.4400569200515747
2.1351966857910156,0.07431717962026596,-0.9544983506202698,0.9595673084259033,0.6332194805145264,-0.10299073159694672,-0.44536906480789185
2.1552677154541016,0.0559849813580513,-0.9523956179618835,0.9268839359283447,0.6355751752853394,-0.10219594836235046,-0.455526739358902
2.1753573417663574,0.03702627122402191,-0.9517592787742615,0.8976995348930359,0.6413446068763733,-0.10596820712089539,-0.4639508128166199
2.1954543590545654,0.032261088490486145,-0.9515484571456909,0.8921858668327332,0.6466525197029114,-0.10643155127763748,-0.46753978729248047
2.215681552886963,0.0267627090215683,-0.9496718049049377,0.8865265250205994,0.655103325843811,-0.1031942069530487,-0.47450220584869385
2.236062526702881,0.03426676243543625,-0.9457166790962219,0.8896833062171936,0.6646528244018555,-0.08658101409673691,-0.48195165395736694
2.256145715713501,0.04074482619762421,-0.9432605504989624,0.8962883353233337,0.6688219904899597,-0.0765625536441803,-0.48588818311691284
2.2762086391448975,0.056495506316423416,-0.9408527612686157,0.9245399236679077,0.6863346099853516,-0.05910544842481613,-0.4922325015068054
2.2965633869171143,0.05790141597390175,-0.9384192228317261,0.9243211150169373,0.6892800331115723,-0.05022827535867691,-0.4962790310382843
2.3167564868927,0.06158887594938278,-0.9340770840644836,0.923043429851532,0.699341893196106,-0.03129173442721367,-0.5034135580062866
2.3367807865142822,0.052173126488924026,-0.9338514804840088,0.9061606526374817,0.7071055173873901,-0.02429179660975933,-0.5103666186332703
2.356858491897583,0.04308418929576874,-0.9344765543937683,0.8923291563987732,0.7091636657714844,-0.024075554683804512,-0.5137221813201904
2.376950979232788,0.023809153586626053,-0.9378178119659424,0.8684062361717224,0.7156364321708679,-0.029261481016874313,-0.5195131301879883
2.3972461223602295,0.014602644369006157,-0.9414453506469727,0.8614053726196289,0.7249578833580017,-0.032650090754032135,-0.5239441394805908
2.4173038005828857,0.014598749577999115,-0.9428267478942871,0.8628849983215332,0.7309166193008423,-0.031203079968690872,-0.5257003903388977
2.4374003410339355,0.01566913351416588,-0.9445377588272095,0.8687752485275269,0.7401148080825806,-0.02423875778913498,-0.5302342176437378
2.4575161933898926,0.021676883101463318,-0.9434234499931335,0.8757587671279907,0.7450276017189026,-0.013940022327005863,-0.532586395740509
2.477656364440918,0.033732201904058456,-0.9405367970466614,0.8913164138793945,0.7566190958023071,0.008031562902033329,-0.5373889803886414
2.497684955596924,0.0369328148663044,-0.9393504858016968,0.8946644067764282,0.7645496129989624,0.02335578203201294,-0.5428001880645752
2.517758369445801,0.035737570375204086,-0.9399480223655701,0.8911146521568298,0.7686577439308167,0.028595104813575745,-0.5452784895896912
2.5378258228302,0.02689744532108307,-0.9424993395805359,0.8779857158660889,0.7753658294677734,0.03351300209760666,-0.5498820543289185
2.5583107471466064,0.015152717009186745,-0.9457995891571045,0.8646000623703003,0.7801798582077026,0.03469790145754814,-0.5544691681861877
2.578420639038086,0.008788183331489563,-0.9480882287025452,0.8596726655960083,0.7830904126167297,0.03329037129878998,-0.5564761161804199
2.598522901535034,-0.0018634251318871975,-0.9531779289245605,0.8543610572814941,0.7892359495162964,0.029463982209563255,-0.5597643852233887
2.6186392307281494,-0.0052552781999111176,-0.956627607345581,0.8570521473884583,0.7965905070304871,0.03207578510046005,-0.5626895427703857
2.6387224197387695,-0.0021162801422178745,-0.9574381113052368,0.8628966808319092,0.8018161058425903,0.03771238029003143,-0.5638156533241272
2.658799409866333,0.009419415146112442,-0.9573509097099304,0.8762809038162231,0.8134797811508179,0.05589841306209564,-0.5660465359687805
2.678891897201538,0.012482772581279278,-0.9573587775230408,0.8811806440353394,0.8181661367416382,0.06343383342027664,-0.5675488114356995
2.6989829540252686,0.015607072971761227,-0.9577715396881104,0.8855524659156799,0.8261746168136597,0.07657966762781143,-0.5708826184272766
2.719057083129883,0.014229029417037964,-0.9582268595695496,0.8806681036949158,0.8324314951896667,0.08860436826944351,-0.5743085741996765
2.7391796112060547,0.01025744341313839,-0.9596409797668457,0.8763560652732849,0.8346734642982483,0.09069579839706421,-0.5760363340377808
2.7592580318450928,-3.784429281949997e-06,-0.9635016918182373,0.867611289024353,0.8386717438697815,0.09121041744947433,-0.5793094635009766
2.7796151638031006,-0.0059127165004611015,-0.9659452438354492,0.8637201189994812,0.840583324432373,0.08965013921260834,-0.5806880593299866
2.799762010574341,-0.017351998016238213,-0.9706121683120728,0.8575034737586975,0.8442108035087585,0.0866803452372551,-0.5829821228981018
2.819821357727051,-0.02179887518286705,-0.9741094708442688,0.8584732413291931,0.8500848412513733,0.08874903619289398,-0.5845900774002075
2.83992862701416,-0.021821504458785057,-0.975879430770874,0.8598515391349792,0.8544719219207764,0.09125567227602005,-0.5849846601486206
2.85998797416687,-0.016827814280986786,-0.9776079058647156,0.8668478727340698,0.8634401559829712,0.10188321024179459,-0.5860097408294678
2.8804333209991455,-0.010109936818480492,-0.9781309366226196,0.8739632964134216,0.8722459673881531,0.11585564911365509,-0.5872624516487122
2.9006080627441406,-0.006422275211662054,-0.9785219430923462,0.8777114152908325,0.8760936856269836,0.122797891497612,-0.5880569815635681
2.9206767082214355,-0.0033855955116450787,-0.9803570508956909,0.8814108371734619,0.8831677436828613,0.13295529782772064,-0.5896052122116089
2.9407236576080322,-0.0046141501516103745,-0.9810441732406616,0.8805701732635498,0.8854173421859741,0.1368558555841446,-0.5906323194503784
2.9608616828918457,-0.0089943315833807,-0.9824778437614441,0.8774467706680298,0.8883989453315735,0.14303141832351685,-0.5928575992584229
2.9808874130249023,-0.01613064482808113,-0.9859434962272644,0.8751683831214905,0.891787052154541,0.1435689628124237,-0.5945252180099487
3.00095272064209,-0.02126416191458702,-0.9882898330688477,0.8731391429901123,0.8934425711631775,0.1418408751487732,-0.5951007604598999
3.021066188812256,-0.030117955058813095,-0.9926948547363281,0.8711912035942078,0.896584689617157,0.13892337679862976,-0.5958815813064575
3.0413835048675537,-0.034499190747737885,-0.9963212013244629,0.8709649443626404,0.9016722440719604,0.13973405957221985,-0.5960540175437927
3.061570405960083,-0.03314369171857834,-0.9974790811538696,0.8730404376983643,0.9054318070411682,0.14333951473236084,-0.5960525274276733
3.081590175628662,-0.02916882187128067,-0.9998082518577576,0.8787679672241211,0.9127214550971985,0.1507928967475891,-0.5960769653320312
3.1019062995910645,-0.02566198818385601,-0.9997650384902954,0.8815706968307495,0.9162877798080444,0.15752069652080536,-0.5962252616882324
3.1219847202301025,-0.01884284056723118,-0.9997784495353699,0.8867139220237732,0.9231962561607361,0.17097492516040802,-0.5967613458633423
3.1420624256134033,-0.016987338662147522,-1.0008025169372559,0.8896912336349487,0.9281290173530579,0.17951853573322296,-0.5978106260299683
3.1621344089508057,-0.018066855147480965,-1.0017609596252441,0.8895111680030823,0.9299511313438416,0.1820479929447174,-0.5983607769012451
3.182218313217163,-0.02600874938070774,-1.0047215223312378,0.8850454092025757,0.9312493205070496,0.18188974261283875,-0.5994889736175537
3.202324628829956,-0.030968887731432915,-1.0067371129989624,0.88266521692276,0.9318051338195801,0.18006373941898346,-0.5998239517211914
3.2224459648132324,-0.0411362424492836,-1.0112042427062988,0.8780824542045593,0.9334564805030823,0.17516663670539856,-0.599972128868103
3.2425379753112793,-0.04670029133558273,-1.0146629810333252,0.877981960773468,0.9358296394348145,0.17344488203525543,-0.5997381806373596
3.262624979019165,-0.04653860256075859,-1.015478491783142,0.8788739442825317,0.9377339482307434,0.1758560836315155,-0.5995436906814575
3.282687187194824,-0.041023507714271545,-1.0154253244400024,0.8818103671073914,0.9436242580413818,0.18712837994098663,-0.598988950252533
3.303006172180176,-0.03677713871002197,-1.015263319015503,0.8863598704338074,0.9471442103385925,0.1930505335330963,-0.5987672209739685
3.3231115341186523,-0.02883291058242321,-1.0145196914672852,0.8941539525985718,0.9527122974395752,0.20544171333312988,-0.5987358689308167
3.343536138534546,-0.02556646056473255,-1.0141452550888062,0.8952927589416504,0.9563928246498108,0.21600575745105743,-0.5991575717926025
3.3636279106140137,-0.028427885845303535,-1.0152359008789062,0.895058274269104,0.956401526927948,0.21595096588134766,-0.5997666120529175
3.3837039470672607,-0.03505130857229233,-1.0178344249725342,0.8911411762237549,0.9568477869033813,0.21541555225849152,-0.6005977392196655
3.4037790298461914,-0.03867954760789871,-1.0193531513214111,0.8886982202529907,0.9573788642883301,0.21467141807079315,-0.6007444858551025
3.4239344596862793,-0.0473761186003685,-1.0237725973129272,0.8856693506240845,0.9586313962936401,0.20917387306690216,-0.6005144119262695
3.443985939025879,-0.05257631838321686,-1.0275514125823975,0.887606143951416,0.9606274366378784,0.20497408509254456,-0.5998630523681641
3.4641594886779785,-0.0526222288608551,-1.0285433530807495,0.8893206715583801,0.9623947143554688,0.20574118196964264,-0.5994186401367188
3.484405279159546,-0.0487581267952919,-1.0285367965698242,0.8919655680656433,0.9663160443305969,0.21354703605175018,-0.5987476110458374
3.504375457763672,-0.04106263816356659,-1.0280075073242188,0.8978018164634705,0.9717137813568115,0.22422875463962555,-0.5980207324028015
3.524460792541504,-0.03764967620372772,-1.027350664138794,0.8987849354743958,0.9740257859230042,0.23060999810695648,-0.5978261232376099
3.544551134109497,-0.03401389718055725,-1.0267795324325562,0.900592565536499,0.9770144820213318,0.23974020779132843,-0.5981055498123169
3.564972162246704,-0.03570950776338577,-1.027757167816162,0.899803876876831,0.9776253700256348,0.2433285415172577,-0.5988485813140869
3.5850822925567627,-0.03941163793206215,-1.0293521881103516,0.8979145884513855,0.9775851964950562,0.24166768789291382,-0.5990825891494751
3.605189561843872,-0.04724114388227463,-1.0328723192214966,0.8937747478485107,0.9773536324501038,0.2373296469449997,-0.5991758704185486
3.626093626022339,-0.054367028176784515,-1.037058711051941,0.8918085694313049,0.9781151413917542,0.2313070148229599,-0.5983846187591553
3.646190881729126,-0.0556996688246727,-1.038071870803833,0.8920826315879822,0.9789047241210938,0.23098967969417572,-0.5980060696601868
3.6662728786468506,-0.05580631643533707,-1.0396125316619873,0.8959779143333435,0.9814226031303406,0.23147542774677277,-0.5970788598060608
3.6863479614257812,-0.05430668964982033,-1.0395921468734741,0.8978686928749084,0.983180046081543,0.23398521542549133,-0.5965765118598938
3.706533908843994,-0.04844703525304794,-1.0388630628585815,0.9033924341201782,0.9872612357139587,0.24159984290599823,-0.5957475304603577
3.7265868186950684,-0.04315599054098129,-1.037569284439087,0.9049625396728516,0.9907723069190979,0.2513892650604248,-0.5953449010848999
3.746687412261963,-0.0418991819024086,-1.0374674797058105,0.9036669135093689,0.9920222163200378,0.2553570866584778,-0.595267653465271
3.766763925552368,-0.04378075152635574,-1.0388803482055664,0.9013146758079529,0.9927310347557068,0.2572813034057617,-0.595544159412384
3.786869764328003,-0.045829322189092636,-1.0398186445236206,0.8992437124252319,0.9924832582473755,0.2572619915008545,-0.5957348346710205
3.806990623474121,-0.053795017302036285,-1.0436830520629883,0.8955905437469482,0.9917795658111572,0.2508092224597931,-0.5954861640930176
3.8271384239196777,-0.057182639837265015,-1.0452096462249756,0.8941509127616882,0.991591215133667,0.2482614666223526,-0.5952367782592773
3.8472788333892822,-0.06214296072721481,-1.047964096069336,0.8933476209640503,0.991760790348053,0.24411219358444214,-0.5944006443023682
3.867445468902588,-0.06277728825807571,-1.0485341548919678,0.8938620686531067,0.9923441410064697,0.24413518607616425,-0.5939321517944336
3.88753342628479,-0.059934455901384354,-1.0486863851547241,0.8978865742683411,0.9947046637535095,0.24767355620861053,-0.592911422252655
3.907602310180664,-0.055099233984947205,-1.0473763942718506,0.9015383720397949,0.9973076581954956,0.25495994091033936,-0.5921445488929749
3.9276881217956543,-0.05191352590918541,-1.046675682067871,0.9045423269271851,0.9984481930732727,0.2588794231414795,-0.5919486284255981
3.9477598667144775,-0.04646873474121094,-1.045404076576233,0.9066417217254639,1.0012845993041992,0.26756033301353455,-0.591479480266571
3.968125820159912,-0.04452596604824066,-1.0449343919754028,0.9064034819602966,1.0025299787521362,0.2734067738056183,-0.5915216207504272
3.988234281539917,-0.04581195116043091,-1.0455713272094727,0.9058403968811035,1.0021514892578125,0.27337053418159485,-0.5917465686798096
4.008303642272949,-0.052621547132730484,-1.0483089685440063,0.9031482934951782,1.0009111166000366,0.26818275451660156,-0.5919415950775146
4.028379440307617,-0.05592029541730881,-1.049710750579834,0.9015814661979675,1.0004996061325073,0.26553136110305786,-0.5918363332748413
4.0485639572143555,-0.06331536173820496,-1.053222417831421,0.8979055881500244,0.9999668002128601,0.2584308087825775,-0.5910923480987549
4.068580865859985,-0.0673363208770752,-1.0548795461654663,0.8980183005332947,0.9997000694274902,0.2547183334827423,-0.5903946757316589
4.088699817657471,-0.0678921490907669,-1.0555356740951538,0.8989211916923523,0.9999397397041321,0.2538233995437622,-0.5899362564086914
4.108835697174072,-0.06499990820884705,-1.0548945665359497,0.8997046947479248,1.0019265413284302,0.25833696126937866,-0.58894282579422
4.129018783569336,-0.0565178245306015,-1.0531058311462402,0.905604898929596,1.0054582357406616,0.2672671973705292,-0.5879123210906982
4.149168252944946,-0.05294589325785637,-1.0523533821105957,0.9080836176872253,1.00670325756073,0.27132341265678406,-0.5876218676567078
4.169199228286743,-0.047222401946783066,-1.0509288311004639,0.9110402464866638,1.0085772275924683,0.2790876626968384,-0.5872540473937988
4.189567565917969,-0.04464266821742058,-1.0503367185592651,0.9138847589492798,1.0092164278030396,0.2831827998161316,-0.5872945785522461
4.209656476974487,-0.044787824153900146,-1.0506579875946045,0.9143229126930237,1.0099186897277832,0.2836677134037018,-0.5871815085411072
4.229721784591675,-0.049726732075214386,-1.0530979633331299,0.9146893620491028,1.0096687078475952,0.278300404548645,-0.5869985222816467
4.2498619556427,-0.05338283255696297,-1.0543569326400757,0.9138509631156921,1.0088406801223755,0.2748000919818878,-0.5869396924972534
4.26997709274292,-0.06326175481081009,-1.0573359727859497,0.9097474217414856,1.0064942836761475,0.2657007575035095,-0.5866539478302002
4.290101051330566,-0.07055117189884186,-1.0588107109069824,0.9061273336410522,1.0042824745178223,0.25995007157325745,-0.5863850116729736
4.310139179229736,-0.07153025269508362,-1.0591599941253662,0.9039661288261414,1.0045418739318848,0.259784460067749,-0.5859166383743286
4.330289840698242,-0.0687779113650322,-1.0585198402404785,0.9026842713356018,1.0060436725616455,0.2642374336719513,-0.5849960446357727
4.350434303283691,-0.06083943322300911,-1.0567952394485474,0.9054002165794373,1.009096384048462,0.27323517203330994,-0.5839762687683105
4.370595932006836,-0.057053934782743454,-1.0562589168548584,0.9073946475982666,1.0105000734329224,0.27708446979522705,-0.5835994482040405
4.3906168937683105,-0.046891577541828156,-1.053382158279419,0.9108989238739014,1.0139286518096924,0.29001039266586304,-0.5831058025360107
4.410714149475098,-0.04389600828289986,-1.0522019863128662,0.9128269553184509,1.014671802520752,0.2943686246871948,-0.5832293033599854
4.430871963500977,-0.043358348309993744,-1.0524240732192993,0.9162389039993286,1.0143640041351318,0.2950156033039093,-0.5837664604187012
4.450892686843872,-0.04857596755027771,-1.0543156862258911,0.9174001216888428,1.0124413967132568,0.289223849773407,-0.5842365622520447
4.470979928970337,-0.052864089608192444,-1.0558676719665527,0.9160440564155579,1.0115594863891602,0.28481727838516235,-0.5842485427856445
4.491125583648682,-0.06326071918010712,-1.059335470199585,0.9111127853393555,1.009024977684021,0.27442899346351624,-0.5839411616325378
4.511224746704102,-0.072393037378788,-1.0619521141052246,0.9060004949569702,1.0062806606292725,0.2657638490200043,-0.5834534168243408
4.531273603439331,-0.07428685575723648,-1.062751054763794,0.9046659469604492,1.005833387374878,0.2636474668979645,-0.5830344557762146
4.551397085189819,-0.07269696891307831,-1.062671184539795,0.9028142690658569,1.0068550109863281,0.26584357023239136,-0.5820729732513428
4.571668863296509,-0.0658896192908287,-1.0607142448425293,0.9045767188072205,1.0091160535812378,0.2738410234451294,-0.5812034010887146
4.591775417327881,-0.061002109199762344,-1.0593714714050293,0.9071692228317261,1.0105831623077393,0.27900105714797974,-0.5808060169219971
4.61188817024231,-0.05160420015454292,-1.0562771558761597,0.9090095162391663,1.0135564804077148,0.2913907468318939,-0.5802761912345886
4.631950855255127,-0.04782233014702797,-1.054482102394104,0.910197377204895,1.0144617557525635,0.2970547378063202,-0.5803786516189575
4.652129173278809,-0.04817638546228409,-1.054993748664856,0.9126247763633728,1.0136466026306152,0.2964610755443573,-0.5811414122581482
4.6724584102630615,-0.05330188572406769,-1.0576728582382202,0.9117050170898438,1.0122942924499512,0.2901720106601715,-0.5814042687416077
4.692615270614624,-0.05780297890305519,-1.0600253343582153,0.9106045365333557,1.011569857597351,0.2841223478317261,-0.5811918377876282
4.712714195251465,-0.0665849968791008,-1.0642863512039185,0.9077627658843994,1.0101608037948608,0.27265363931655884,-0.580401599407196
4.733060598373413,-0.07019215822219849,-1.065901279449463,0.9073720574378967,1.0093669891357422,0.2676452100276947,-0.5799545049667358
4.753129243850708,-0.06996031850576401,-1.0654653310775757,0.9067907333374023,1.0094027519226074,0.2683663070201874,-0.5792602896690369
4.77316427230835,-0.06610852479934692,-1.06417715549469,0.9086854457855225,1.0108784437179565,0.27236586809158325,-0.5785035490989685
4.79325008392334,-0.062222227454185486,-1.0627633333206177,0.910291314125061,1.012121558189392,0.2769058644771576,-0.5781360268592834
4.813347101211548,-0.055119678378105164,-1.0592775344848633,0.9127548336982727,1.0139859914779663,0.28682565689086914,-0.577883780002594
4.834354639053345,-0.05030585080385208,-1.057250738143921,0.9128223657608032,1.0150318145751953,0.2943538725376129,-0.5780680775642395
4.854478359222412,-0.05007937550544739,-1.0574729442596436,0.9125306010246277,1.0153732299804688,0.29494690895080566,-0.5781643390655518
4.87455415725708,-0.054032616317272186,-1.05918288230896,0.9113412499427795,1.0139764547348022,0.29081857204437256,-0.5786882638931274
4.894647121429443,-0.057779040187597275,-1.0605928897857666,0.9090045690536499,1.0129643678665161,0.2871643304824829,-0.5788249969482422
4.91473388671875,-0.06566154211759567,-1.0639114379882812,0.9054533243179321,1.010861873626709,0.2779782712459564,-0.5787138342857361
4.934797763824463,-0.07060497999191284,-1.0658032894134521,0.9052959084510803,1.0093492269515991,0.27137765288352966,-0.5783429145812988
4.954897403717041,-0.07087118923664093,-1.0661725997924805,0.9052145481109619,1.0093494653701782,0.2705666422843933,-0.5780197381973267
4.974970817565918,-0.066783607006073,-1.0647474527359009,0.9065155386924744,1.0106933116912842,0.27516472339630127,-0.5773909091949463
4.995152950286865,-0.05870537459850311,-1.0625832080841064,0.9102521538734436,1.0135818719863892,0.28355202078819275,-0.5766798853874207
5.0153398513793945,-0.05330360680818558,-1.0605690479278564,0.9123043417930603,1.0152220726013184,0.29022204875946045,-0.5763857364654541
5.03538703918457,-0.044264212250709534,-1.0574536323547363,0.9151031970977783,1.0181632041931152,0.30193522572517395,-0.5762203335762024
5.055509328842163,-0.04039184749126434,-1.0558199882507324,0.9186553359031677,1.018532633781433,0.3070032596588135,-0.576953113079071
5.0755980014801025,-0.041134219616651535,-1.0561866760253906,0.9202603101730347,1.0179011821746826,0.3057534396648407,-0.57738196849823
5.095653057098389,-0.048329874873161316,-1.0580613613128662,0.9194329977035522,1.0150278806686401,0.2983647286891937,-0.5783051252365112
5.115740776062012,-0.05338970199227333,-1.059682011604309,0.917485237121582,1.0137269496917725,0.29302817583084106,-0.5785130858421326
5.135817527770996,-0.06407026201486588,-1.0638251304626465,0.9121533632278442,1.0112460851669312,0.2808762192726135,-0.5782442092895508
5.155993938446045,-0.0737270638346672,-1.0669946670532227,0.910979688167572,1.0085042715072632,0.2685985565185547,-0.5776719450950623
5.176095962524414,-0.07487054914236069,-1.0676664113998413,0.9094592928886414,1.0086582899093628,0.2668716013431549,-0.5771194100379944
5.196139812469482,-0.07145466655492783,-1.0663982629776,0.9075676202774048,1.0099693536758423,0.271340548992157,-0.576208770275116
5.216231822967529,-0.06850606203079224,-1.065329670906067,0.9073340892791748,1.0108152627944946,0.2751050889492035,-0.5758587121963501
5.236308336257935,-0.06059269979596138,-1.0621992349624634,0.9096158146858215,1.0127733945846558,0.28491145372390747,-0.5755115151405334
5.256516456604004,-0.05294952541589737,-1.0592529773712158,0.911591649055481,1.0143440961837769,0.2948985695838928,-0.575484037399292
5.276603937149048,-0.05103164166212082,-1.058741569519043,0.9124950766563416,1.0148875713348389,0.2971789538860321,-0.575543224811554
5.296742677688599,-0.051785144954919815,-1.059774398803711,0.9132452607154846,1.0145198106765747,0.29562458395957947,-0.575905978679657
5.316840648651123,-0.054552048444747925,-1.061302900314331,0.9130113124847412,1.0137463808059692,0.2916848361492157,-0.5760000348091125
5.336904048919678,-0.06137415021657944,-1.0645748376846313,0.9119940996170044,1.012073040008545,0.2823316752910614,-0.5757336616516113
5.357023477554321,-0.06492991745471954,-1.066034197807312,0.9119896292686462,1.0111119747161865,0.27734795212745667,-0.575495183467865
5.377073287963867,-0.06783685088157654,-1.066954255104065,0.9113634824752808,1.010310411453247,0.27349239587783813,-0.5749610066413879
5.397140264511108,-0.06822304427623749,-1.0666955709457397,0.9119062423706055,1.0101499557495117,0.27263912558555603,-0.5744137167930603
5.417232036590576,-0.06642962992191315,-1.0661556720733643,0.9120944142341614,1.0108561515808105,0.27447402477264404,-0.5740568041801453
5.437290668487549,-0.06184602156281471,-1.0642956495285034,0.9126443862915039,1.0121018886566162,0.2802530527114868,-0.5736664533615112
5.457377195358276,-0.058950722217559814,-1.0632176399230957,0.9130033254623413,1.0130311250686646,0.2839564383029938,-0.5735055208206177
5.477452278137207,-0.054972339421510696,-1.0619770288467407,0.9122857451438904,1.0139808654785156,0.2894779145717621,-0.5735372304916382
5.497523069381714,-0.05441905930638313,-1.0620709657669067,0.9124041795730591,1.0140997171401978,0.2899708151817322,-0.5736410021781921
5.517613887786865,-0.05527672916650772,-1.0626866817474365,0.9125984311103821,1.0135812759399414,0.288773775100708,-0.574016273021698
5.537670135498047,-0.057535454630851746,-1.0634828805923462,0.912822961807251,1.012755274772644,0.2859764099121094,-0.5743218660354614
5.557758092880249,-0.05948881059885025,-1.0643913745880127,0.9132248759269714,1.0121426582336426,0.28301629424095154,-0.5743438601493835
5.577864646911621,-0.06165146827697754,-1.065767765045166,0.9126894474029541,1.0117030143737793,0.2794800400733948,-0.5741021633148193
5.5979108810424805,-0.06260696798563004,-1.0659457445144653,0.9129282832145691,1.0112155675888062,0.2782212793827057,-0.57408207654953
5.618039846420288,-0.06307419389486313,-1.0653923749923706,0.9133119583129883,1.010608196258545,0.2780359983444214,-0.5740365386009216
5.638087272644043,-0.06162048876285553,-1.0642668008804321,0.913175106048584,1.0106483697891235,0.280484139919281,-0.5739929676055908
5.658330917358398,-0.06027746945619583,-1.0632773637771606,0.9133173227310181,1.0108412504196167,0.28275224566459656,-0.5740195512771606
5.67842435836792,-0.059500109404325485,-1.0627330541610718,0.9133958220481873,1.0111027956008911,0.28400930762290955,-0.5740986466407776
5.6985764503479,-0.05948382988572121,-1.0627659559249878,0.9133918881416321,1.0111405849456787,0.2839580476284027,-0.5741403698921204
5.718597888946533,-0.05987140163779259,-1.063058614730835,0.913248598575592,1.0112731456756592,0.2832575738430023,-0.574134886264801
5.7386839389801025,-0.06088303402066231,-1.0638045072555542,0.9127236008644104,1.0111380815505981,0.28156161308288574,-0.5740952491760254
5.758859634399414,-0.06084658205509186,-1.0638079643249512,0.9124213457107544,1.0111377239227295,0.2816550135612488,-0.5740982294082642
5.778889417648315,-0.06012777239084244,-1.063515067100525,0.912208080291748,1.011224627494812,0.2826811373233795,-0.5741104483604431
5.7989630699157715,-0.059652283787727356,-1.063409447669983,0.9120213389396667,1.0113928318023682,0.2833019495010376,-0.5741063356399536
5.8190693855285645,-0.05904611200094223,-1.063225507736206,0.9120520353317261,1.0114701986312866,0.28411152958869934,-0.5741701722145081
5.839110612869263,-0.058890581130981445,-1.0633165836334229,0.9121540784835815,1.0115163326263428,0.2841562032699585,-0.5742142796516418
5.85919713973999,-0.05895612761378288,-1.0634225606918335,0.9122170805931091,1.0114483833312988,0.2839833199977875,-0.5742520093917847
5.879472017288208,-0.059275347739458084,-1.0636979341506958,0.9122326374053955,1.0114412307739258,0.2834075391292572,-0.5742567777633667
5.8994433879852295,-0.05972446873784065,-1.0639865398406982,0.9122354984283447,1.0114675760269165,0.28264138102531433,-0.5742014050483704
5.919662952423096,-0.05982978641986847,-1.0640530586242676,0.9121905565261841,1.0114448070526123,0.28248220682144165,-0.5741865038871765
5.939709186553955,-0.05967678129673004,-1.06398606300354,0.9122029542922974,1.011425495147705,0.28267350792884827,-0.5741772055625916
5.95993447303772,-0.05955051630735397,-1.0639400482177734,0.9122304916381836,1.0114232301712036,0.28283828496932983,-0.5741686820983887
5.9800286293029785,-0.05949520692229271,-1.063963770866394,0.9122757911682129,1.0114030838012695,0.282819926738739,-0.5741610527038574
6.000131845474243,-0.05945371091365814,-1.0639935731887817,0.9123154878616333,1.0113873481750488,0.28279492259025574,-0.5741391181945801
6.020265340805054,-0.05950302630662918,-1.0640827417373657,0.9123361110687256,1.0113531351089478,0.28260746598243713,-0.5741292238235474
6.040371656417847,-0.0595596618950367,-1.0641939640045166,0.9123472571372986,1.0114259719848633,0.2823408246040344,-0.5740716457366943
6.060391426086426,-0.05967121571302414,-1.064326286315918,0.9123743772506714,1.0113497972488403,0.2820029556751251,-0.5740297436714172
6.080541372299194,-0.05963538587093353,-1.064308762550354,0.9123872518539429,1.011332392692566,0.28202101588249207,-0.5740117430686951
6.100579261779785,-0.05968652665615082,-1.0643374919891357,0.9123538136482239,1.0112212896347046,0.2819312810897827,-0.5739864706993103
6.120685338973999,-0.05917426943778992,-1.0640356540679932,0.9125051498413086,1.011202335357666,0.2826734781265259,-0.5739941000938416
6.140791177749634,-0.05893673002719879,-1.0639238357543945,0.9126054644584656,1.011230230331421,0.2829851508140564,-0.5739763975143433
6.1608405113220215,-0.058702897280454636,-1.0638408660888672,0.9127557277679443,1.0112719535827637,0.2832530736923218,-0.5739495158195496
6.1809985637664795,-0.05870884656906128,-1.0638704299926758,0.9127987623214722,1.0112823247909546,0.283210813999176,-0.5739326477050781
6.2011096477508545,-0.058803290128707886,-1.0640076398849487,0.9128711819648743,1.0112720727920532,0.282945841550827,-0.5738946199417114
6.221432209014893,-0.05898430943489075,-1.0641400814056396,0.9128139019012451,1.0113106966018677,0.28266867995262146,-0.5738276243209839
6.241545915603638,-0.05900268629193306,-1.064159631729126,0.9128016233444214,1.0112998485565186,0.2826422452926636,-0.5738099217414856
6.261671781539917,-0.058970168232917786,-1.0641213655471802,0.9127768278121948,1.0113059282302856,0.2827640771865845,-0.5737783312797546
6.281789064407349,-0.05882414057850838,-1.0640809535980225,0.9128425717353821,1.0112348794937134,0.2829256057739258,-0.5737799406051636
6.301969766616821,-0.058695994317531586,-1.0640701055526733,0.9129181504249573,1.011186957359314,0.28304293751716614,-0.5737621188163757
6.3219382762908936,-0.05869119241833687,-1.0641509294509888,0.9129794239997864,1.0111875534057617,0.2829219400882721,-0.5737008452415466
6.3420729637146,-0.05872299522161484,-1.0641366243362427,0.9128291010856628,1.0111929178237915,0.28298360109329224,-0.5736852288246155
6.36215615272522,-0.05907759815454483,-1.0644357204437256,0.9128036499023438,1.0112630128860474,0.2822726368904114,-0.5735759139060974
6.3822009563446045,-0.059135712683200836,-1.0645440816879272,0.9128292798995972,1.011200189590454,0.28202059864997864,-0.573508083820343
6.402290344238281,-0.0590241439640522,-1.064455270767212,0.9128389954566956,1.0111401081085205,0.282220721244812,-0.5735054016113281
6.422496318817139,-0.05887727811932564,-1.0644077062606812,0.912903904914856,1.0110678672790527,0.28235551714897156,-0.5734583139419556
6.442551612854004,-0.05874042585492134,-1.0643624067306519,0.9129661917686462,1.0110715627670288,0.2824789583683014,-0.5734385251998901
6.462630033493042,-0.058507926762104034,-1.0642671585083008,0.9130710363388062,1.0110936164855957,0.28272420167922974,-0.5734066963195801
6.4826812744140625,-0.058702435344457626,-1.0644460916519165,0.9130610227584839,1.0109972953796387,0.2823231816291809,-0.5733807682991028
6.50275993347168,-0.058837469667196274,-1.0645194053649902,0.9130030274391174,1.0109896659851074,0.28212693333625793,-0.5733563899993896
6.522844314575195,-0.05886319279670715,-1.0645354986190796,0.9129483103752136,1.0110434293746948,0.2820446789264679,-0.5733045339584351
6.543006658554077,-0.05896075814962387,-1.0646145343780518,0.9129019379615784,1.0110090970993042,0.2818288207054138,-0.5732771754264832
6.563152074813843,-0.058979980647563934,-1.0646014213562012,0.9128616452217102,1.01100492477417,0.28182506561279297,-0.57326340675354
6.583262920379639,-0.05885184556245804,-1.064520001411438,0.912858784198761,1.0109933614730835,0.2819783687591553,-0.5732570290565491
6.603335857391357,-0.058740708976984024,-1.0644481182098389,0.912874162197113,1.0109986066818237,0.28213661909103394,-0.5732596516609192
6.623408555984497,-0.058486297726631165,-1.064342737197876,0.9129624962806702,1.0109962224960327,0.28241512179374695,-0.5732727646827698
6.64349365234375,-0.0585644356906414,-1.0644166469573975,0.9129655361175537,1.0109107494354248,0.28225231170654297,-0.5732897520065308
6.663642883300781,-0.058668240904808044,-1.0644949674606323,0.9129404425621033,1.0108970403671265,0.28204166889190674,-0.573279082775116
6.6837286949157715,-0.05895603448152542,-1.0645020008087158,0.9130162000656128,1.010807752609253,0.2817305028438568,-0.5732821822166443
6.703754425048828,-0.059002503752708435,-1.0645043849945068,0.9129843711853027,1.0108659267425537,0.28166526556015015,-0.5732514262199402
6.723872423171997,-0.05896419286727905,-1.0644996166229248,0.913037896156311,1.0108214616775513,0.2816143333911896,-0.5732405185699463
6.744070529937744,-0.05894289165735245,-1.0644575357437134,0.9130918979644775,1.0107399225234985,0.28163570165634155,-0.5732389092445374
6.764163255691528,-0.058944571763277054,-1.0644237995147705,0.9131019115447998,1.0106834173202515,0.2816750407218933,-0.5732443332672119
6.784279108047485,-0.058944717049598694,-1.0643947124481201,0.9131367802619934,1.0106953382492065,0.281659334897995,-0.5732261538505554
6.804610967636108,-0.05935736745595932,-1.0644035339355469,0.9133071303367615,1.0106819868087769,0.28114762902259827,-0.5731987953186035
6.824743747711182,-0.05963654816150665,-1.0643380880355835,0.913505494594574,1.0105355978012085,0.28087541460990906,-0.5732189416885376
6.84487771987915,-0.05970216169953346,-1.0642849206924438,0.9134424924850464,1.0105512142181396,0.28079843521118164,-0.5731637477874756
6.865052223205566,-0.05970935523509979,-1.0642629861831665,0.9134343862533569,1.0105249881744385,0.2807725667953491,-0.5731356143951416
6.885059356689453,-0.05970028042793274,-1.0642118453979492,0.9134324193000793,1.0104104280471802,0.28076639771461487,-0.5731207132339478
6.905197381973267,-0.05961396545171738,-1.0641165971755981,0.9134331941604614,1.0104106664657593,0.2809239327907562,-0.5731128454208374
6.925284147262573,-0.05981020629405975,-1.0641348361968994,0.9133177995681763,1.0103847980499268,0.280733197927475,-0.5730878114700317
6.945347785949707,-0.05964023247361183,-1.0639474391937256,0.9133085608482361,1.0104031562805176,0.28105854988098145,-0.5730786919593811
6.965430974960327,-0.05955589562654495,-1.0638679265975952,0.9133064150810242,1.010404348373413,0.28121304512023926,-0.5730881690979004
6.985560178756714,-0.05958804115653038,-1.0638699531555176,0.9132870435714722,1.0103816986083984,0.2811574637889862,-0.5730852484703064
7.0057053565979,-0.05977495014667511,-1.0639249086380005,0.9131916761398315,1.0104198455810547,0.280921995639801,-0.573066771030426
7.025764465332031,-0.059774573892354965,-1.0639222860336304,0.9131873846054077,1.0104012489318848,0.28090181946754456,-0.573059618473053
7.045826435089111,-0.05992691591382027,-1.0639530420303345,0.9129782915115356,1.0104119777679443,0.280762255191803,-0.5730340480804443
7.065978288650513,-0.05993819981813431,-1.0639026165008545,0.9128220081329346,1.010392665863037,0.2808627188205719,-0.573043942451477
7.086071729660034,-0.059925224632024765,-1.0638699531555176,0.9126858115196228,1.0103412866592407,0.2809416651725769,-0.5730651617050171
7.106128692626953,-0.059951722621917725,-1.0639489889144897,0.9126679301261902,1.0103126764297485,0.28079286217689514,-0.5730704665184021
7.126219987869263,-0.05998886004090309,-1.0640316009521484,0.9126726984977722,1.0102717876434326,0.28062260150909424,-0.5730733871459961
7.146317005157471,-0.060022711753845215,-1.064086675643921,0.9126346111297607,1.0102291107177734,0.2804955244064331,-0.5730860233306885
7.166396856307983,-0.05971970781683922,-1.0639750957489014,0.9126152992248535,1.010277271270752,0.2808547019958496,-0.5730864405632019
7.186594724655151,-0.05940474569797516,-1.0639475584030151,0.9127823114395142,1.0103334188461304,0.28107208013534546,-0.5730679631233215
7.206750392913818,-0.05856473743915558,-1.0638971328735352,0.91311115026474,1.0105143785476685,0.28172436356544495,-0.5730156898498535
7.2267746925354,-0.058364465832710266,-1.0637586116790771,0.9131209254264832,1.0105632543563843,0.2820918560028076,-0.5730485916137695
7.246953725814819,-0.05819720774888992,-1.0637171268463135,0.9132087230682373,1.010547161102295,0.28230783343315125,-0.5730997920036316
7.267021894454956,-0.05832292512059212,-1.063905954360962,0.913222074508667,1.0104795694351196,0.28198185563087463,-0.5731419920921326
7.287115573883057,-0.05840165913105011,-1.0639978647232056,0.9132099151611328,1.010481595993042,0.2818065583705902,-0.5731448531150818
7.307176113128662,-0.058449868112802505,-1.0640758275985718,0.9131838083267212,1.0104337930679321,0.2816930413246155,-0.5731639266014099
7.327247381210327,-0.058417316526174545,-1.0640640258789062,0.9131787419319153,1.0103942155838013,0.2817516028881073,-0.5731856226921082
7.347307920455933,-0.05821191892027855,-1.0639618635177612,0.913200855255127,1.010533332824707,0.28205955028533936,-0.5731687545776367
7.36738657951355,-0.05816780403256416,-1.0639722347259521,0.9132296442985535,1.0104808807373047,0.28209176659584045,-0.5731955766677856
7.387466192245483,-0.05834111198782921,-1.0641448497772217,0.9132069945335388,1.010486364364624,0.28173860907554626,-0.5731932520866394
7.407592535018921,-0.05827011168003082,-1.0641449689865112,0.9132264256477356,1.010445475578308,0.2817918658256531,-0.5732183456420898
7.427692890167236,-0.05829727649688721,-1.0641688108444214,0.9132060408592224,1.0105297565460205,0.28174901008605957,-0.5731894969940186
7.447745323181152,-0.05821119248867035,-1.0641961097717285,0.9132547378540039,1.0105289220809937,0.2817429304122925,-0.5732008218765259
7.467832326889038,-0.0582590326666832,-1.064198613166809,0.9132112860679626,1.0106151103973389,0.28171682357788086,-0.5731760263442993
7.487952470779419,-0.058240633457899094,-1.0642104148864746,0.913210391998291,1.0106159448623657,0.28172215819358826,-0.5731759071350098
7.508119583129883,-0.05840067192912102,-1.0643696784973145,0.9131873846054077,1.010573387145996,0.281377911567688,-0.5731652975082397
7.528268575668335,-0.058289334177970886,-1.0642943382263184,0.9131949543952942,1.0105870962142944,0.28156429529190063,-0.5731646418571472
7.548326730728149,-0.058278899639844894,-1.0642974376678467,0.9131842255592346,1.0105868577957153,0.28157711029052734,-0.573158323764801
7.568444013595581,-0.05820414423942566,-1.064291000366211,0.9132251739501953,1.0105103254318237,0.2816214859485626,-0.573188066482544
7.588475942611694,-0.05823748558759689,-1.0643259286880493,0.9132369756698608,1.0106216669082642,0.281513512134552,-0.5731460452079773
7.608587265014648,-0.058379165828228,-1.064358115196228,0.9133086204528809,1.010612964630127,0.28130629658699036,-0.5731334686279297
7.628693580627441,-0.0590808168053627,-1.0644179582595825,0.9137280583381653,1.0101752281188965,0.28041958808898926,-0.5731995701789856
7.648761034011841,-0.05928775668144226,-1.0644068717956543,0.9135633707046509,1.0101433992385864,0.2802438735961914,-0.5731422901153564
7.669385671615601,-0.059191860258579254,-1.0643130540847778,0.9135527610778809,1.0101344585418701,0.2804027199745178,-0.5731287598609924
7.68967604637146,-0.05918393284082413,-1.0642346143722534,0.9134507179260254,1.0102204084396362,0.2804619371891022,-0.5730809569358826
7.710014581680298,-0.0593830831348896,-1.0642457008361816,0.9132881760597229,1.0101683139801025,0.28029298782348633,-0.5730628371238708
7.730155944824219,-0.05949403718113899,-1.0642324686050415,0.9130716323852539,1.0100665092468262,0.280280202627182,-0.5730944871902466
7.750181198120117,-0.059757933020591736,-1.0642306804656982,0.9126499891281128,1.0100150108337402,0.28017669916152954,-0.5731114149093628
7.770280838012695,-0.059757914394140244,-1.064205288887024,0.912643313407898,1.0100038051605225,0.28018468618392944,-0.5731099247932434
7.79034948348999,-0.059834111481904984,-1.0641655921936035,0.9125427603721619,1.0100523233413696,0.28017470240592957,-0.5730932950973511
7.8107593059539795,-0.05973506346344948,-1.0640575885772705,0.9125403165817261,1.010035514831543,0.28036463260650635,-0.5731033682823181
7.830883264541626,-0.05983094498515129,-1.0640947818756104,0.9125233292579651,1.0099530220031738,0.28024229407310486,-0.5731180906295776
7.850936412811279,-0.059660524129867554,-1.0640949010849,0.9128924608230591,1.0099445581436157,0.280185341835022,-0.5730947852134705
7.871059894561768,-0.05950862914323807,-1.064058542251587,0.9131014943122864,1.009947419166565,0.28023970127105713,-0.5730803608894348
7.891173362731934,-0.059072718024253845,-1.063779592514038,0.9133338332176208,1.0099518299102783,0.2808547914028168,-0.5730920433998108
7.911456108093262,-0.059065889567136765,-1.0637879371643066,0.913352370262146,1.0099544525146484,0.2808302044868469,-0.5730949640274048
7.931564807891846,-0.059141095727682114,-1.063795804977417,0.9133197069168091,1.0100268125534058,0.28075146675109863,-0.5730685591697693
7.951650619506836,-0.05931616574525833,-1.0638751983642578,0.9132641553878784,1.0100752115249634,0.2805057466030121,-0.5730365514755249
7.97180438041687,-0.05933721736073494,-1.063889503479004,0.913254976272583,1.0101256370544434,0.28044894337654114,-0.5730145573616028
7.9918904304504395,-0.05922717601060867,-1.0638213157653809,0.9132440090179443,1.0101627111434937,0.2805848717689514,-0.5730055570602417
8.012077569961548,-0.05915767699480057,-1.0638195276260376,0.9132384061813354,1.0101433992385864,0.280612975358963,-0.573025643825531
8.032190084457397,-0.05906873568892479,-1.0637359619140625,0.9132208228111267,1.0101613998413086,0.2808077931404114,-0.5730318427085876
8.052327871322632,-0.05914485827088356,-1.0638108253479004,0.913192093372345,1.0101583003997803,0.28065645694732666,-0.5730417966842651
8.072455644607544,-0.05914439260959625,-1.063814401626587,0.9131596088409424,1.0102183818817139,0.2806457281112671,-0.5730322003364563
8.092561960220337,-0.059232279658317566,-1.0639005899429321,0.9131410717964172,1.0102450847625732,0.2804381549358368,-0.5730173587799072
8.112663745880127,-0.059287428855895996,-1.0639454126358032,0.9131034016609192,1.0101919174194336,0.2803161144256592,-0.5730306506156921
8.13273286819458,-0.05929258093237877,-1.063896894454956,0.9130381345748901,1.0101780891418457,0.2803879678249359,-0.5730347633361816
8.152825593948364,-0.059162747114896774,-1.063794493675232,0.9130476713180542,1.0101306438446045,0.2806379795074463,-0.5730632543563843
8.172993659973145,-0.059025850147008896,-1.0637773275375366,0.9129880666732788,1.010168433189392,0.280805379152298,-0.5730610489845276
8.193113565444946,-0.05897815525531769,-1.0638360977172852,0.9129081964492798,1.0102062225341797,0.2808058559894562,-0.5730556845664978
8.2132248878479,-0.05865556374192238,-1.0637933015823364,0.912681519985199,1.0104461908340454,0.28127333521842957,-0.5730204582214355
8.233291625976562,-0.05855737626552582,-1.0638227462768555,0.9127545952796936,1.0104392766952515,0.28133368492126465,-0.5730599761009216
8.253325462341309,-0.05851314961910248,-1.0638368129730225,0.9127883911132812,1.0104377269744873,0.28136205673217773,-0.573077380657196
8.273402690887451,-0.05836189538240433,-1.0637843608856201,0.9128457307815552,1.0104631185531616,0.2815951108932495,-0.5731075406074524
8.29345178604126,-0.058301374316215515,-1.063823938369751,0.912912130355835,1.010467290878296,0.2816273868083954,-0.5731350183486938
8.313663959503174,-0.058242298662662506,-1.0638318061828613,0.9129599928855896,1.0104031562805176,0.28168320655822754,-0.5731688141822815
8.333676815032959,-0.05812998116016388,-1.0638090372085571,0.9130149483680725,1.0105050802230835,0.28183919191360474,-0.573168158531189
8.353991746902466,-0.05806734412908554,-1.0638415813446045,0.9130868315696716,1.0104458332061768,0.28189024329185486,-0.5732088685035706
8.374122381210327,-0.05805534869432449,-1.0638628005981445,0.9131107330322266,1.0104568004608154,0.2818937599658966,-0.5732153058052063
8.394199848175049,-0.05796871334314346,-1.0638283491134644,0.9131516814231873,1.010503888130188,0.282071977853775,-0.5732264518737793
8.414264440536499,-0.05809418857097626,-1.063932180404663,0.9131383895874023,1.0105639696121216,0.2818547785282135,-0.5732067227363586
8.434469938278198,-0.05799352377653122,-1.0639243125915527,0.9131945967674255,1.0106381177902222,0.28197047114372253,-0.5731980204582214
8.45448923110962,-0.057970963418483734,-1.0639803409576416,0.9132497906684875,1.0106201171875,0.2819437086582184,-0.5732100605964661
8.474555492401123,-0.05787789449095726,-1.063930869102478,0.9132761359214783,1.0106319189071655,0.28210774064064026,-0.5732131004333496
8.494649171829224,-0.05811939388513565,-1.0641024112701416,0.9132303595542908,1.010604977607727,0.28175297379493713,-0.5732015371322632
8.51539158821106,-0.05804791674017906,-1.064037561416626,0.9132865071296692,1.010520339012146,0.2819162905216217,-0.573219358921051
8.535467624664307,-0.057949259877204895,-1.0639841556549072,0.9133080244064331,1.0105410814285278,0.28208184242248535,-0.5732213258743286
8.555578708648682,-0.058139268308877945,-1.0640034675598145,0.9132483601570129,1.0106252431869507,0.2819889485836029,-0.5731801986694336
8.575644731521606,-0.05814158171415329,-1.0639557838439941,0.91336590051651,1.0105098485946655,0.28202393651008606,-0.5732158422470093
8.595751523971558,-0.058854084461927414,-1.064050316810608,0.9136631488800049,1.010308861732483,0.2811700999736786,-0.5732240080833435
8.615802764892578,-0.05903930589556694,-1.0640987157821655,0.9135787487030029,1.0102540254592896,0.28092581033706665,-0.5731886029243469
8.635918855667114,-0.0590599924325943,-1.0641043186187744,0.9135665893554688,1.0102237462997437,0.2808774411678314,-0.573170006275177
8.656035661697388,-0.05915817618370056,-1.0640795230865479,0.9134501814842224,1.010123610496521,0.28085848689079285,-0.5731651782989502
8.676063060760498,-0.05913051217794418,-1.0640039443969727,0.9133853912353516,1.0100455284118652,0.2809988260269165,-0.5731619596481323
8.696135520935059,-0.05919628217816353,-1.0639911890029907,0.9133216142654419,1.0100593566894531,0.28097987174987793,-0.5731521248817444
8.716204404830933,-0.05909964069724083,-1.0638458728790283,0.9132688641548157,1.0100971460342407,0.2812652587890625,-0.57314532995224
8.73625922203064,-0.05917932093143463,-1.0638679265975952,0.9132220149040222,1.0100935697555542,0.28118109703063965,-0.573138952255249
8.756350994110107,-0.05921600013971329,-1.063877820968628,0.9131991267204285,1.0100865364074707,0.28113946318626404,-0.5731356143951416
8.776467323303223,-0.05937237665057182,-1.0639382600784302,0.9131264090538025,1.010004997253418,0.2809465825557709,-0.5731416940689087
8.796547651290894,-0.05933721363544464,-1.063940405845642,0.9131450653076172,1.0099246501922607,0.28094807267189026,-0.5731631517410278
8.816630125045776,-0.059263281524181366,-1.0638724565505981,0.9131393432617188,1.0098825693130493,0.2810935080051422,-0.5731768608093262
8.836702346801758,-0.05923016741871834,-1.0638271570205688,0.9131253361701965,1.00991952419281,0.28118592500686646,-0.573167622089386
8.856788635253906,-0.059290435165166855,-1.0638304948806763,0.9130868911743164,1.0099384784698486,0.2811538875102997,-0.5731582045555115
8.87685775756836,-0.05937248840928078,-1.063845157623291,0.9130381941795349,1.009959101676941,0.2810846269130707,-0.5731459856033325
8.896925687789917,-0.05956461653113365,-1.0639086961746216,0.912945568561554,1.0099661350250244,0.28086644411087036,-0.5731277465820312
8.917026042938232,-0.05960378050804138,-1.0639023780822754,0.9129095673561096,1.009974479675293,0.28084808588027954,-0.5731214880943298
8.937093257904053,-0.05972110480070114,-1.0639913082122803,0.9128708243370056,1.0100079774856567,0.2805846631526947,-0.5730955004692078
8.957175731658936,-0.05975531041622162,-1.0639957189559937,0.9128382205963135,1.0100631713867188,0.2805293798446655,-0.573073148727417
8.977264881134033,-0.05972975492477417,-1.0639920234680176,0.9128336310386658,1.0100200176239014,0.2804969847202301,-0.5730788111686707
8.997323274612427,-0.05945168063044548,-1.0638375282287598,0.9129087924957275,1.0098884105682373,0.28088217973709106,-0.5731324553489685
9.017407178878784,-0.0594039224088192,-1.063838005065918,0.9129122495651245,1.0098379850387573,0.28092217445373535,-0.573154628276825
9.037477254867554,-0.059529829770326614,-1.0639240741729736,0.9128246307373047,1.00993812084198,0.2807219326496124,-0.5731229782104492
9.057790756225586,-0.05950962379574776,-1.0639276504516602,0.9128119349479675,1.0099468231201172,0.2807278037071228,-0.5731241106987
9.078039407730103,-0.05942685157060623,-1.0639605522155762,0.9128403663635254,1.009944200515747,0.2807137370109558,-0.5731335878372192
9.098024606704712,-0.059302717447280884,-1.0639517307281494,0.9128996729850769,1.0098263025283813,0.28079378604888916,-0.5731738805770874
9.118132591247559,-0.05928743630647659,-1.0639528036117554,0.9129120111465454,1.009851098060608,0.28079381585121155,-0.573164701461792
9.138254880905151,-0.059093303978443146,-1.0639904737472534,0.912830114364624,1.0099024772644043,0.2809341847896576,-0.5731476545333862
9.158416032791138,-0.05875897407531738,-1.0639638900756836,0.9127761125564575,1.0099848508834839,0.2812809944152832,-0.5731454491615295
9.178540468215942,-0.058498114347457886,-1.063924789428711,0.9126617908477783,1.0100655555725098,0.28163784742355347,-0.5731436610221863
9.198991060256958,-0.058402229100465775,-1.063903570175171,0.912731945514679,1.010223150253296,0.2817853093147278,-0.5731345415115356
9.219127893447876,-0.05837826803326607,-1.063928246498108,0.9127756953239441,1.0102488994598389,0.2817855775356293,-0.5731414556503296
9.239652395248413,-0.058309659361839294,-1.0639818906784058,0.9128746390342712,1.0102853775024414,0.2817777395248413,-0.573156476020813
9.259740114212036,-0.058291997760534286,-1.0640013217926025,0.91290682554245,1.0103063583374023,0.2817782759666443,-0.5731610059738159
9.279850482940674,-0.058138877153396606,-1.0639814138412476,0.9130095839500427,1.010343074798584,0.2819347381591797,-0.5731782913208008
9.299886703491211,-0.05816439166665077,-1.0640127658843994,0.9130181670188904,1.010428786277771,0.2818872034549713,-0.573159396648407
9.319948434829712,-0.05813054367899895,-1.0640662908554077,0.9131162762641907,1.0104254484176636,0.2818339765071869,-0.5731697082519531
9.340041399002075,-0.0581248477101326,-1.0640804767608643,0.9131311774253845,1.010435700416565,0.28183144330978394,-0.5731725096702576
9.360169649124146,-0.05820279195904732,-1.0641486644744873,0.9131285548210144,1.010379672050476,0.28171268105506897,-0.5731913447380066
9.380181074142456,-0.05816200003027916,-1.06417977809906,0.9131749272346497,1.0103956460952759,0.28170251846313477,-0.5731963515281677
9.400414228439331,-0.05802367627620697,-1.0641050338745117,0.9132176637649536,1.0103557109832764,0.28191816806793213,-0.5732213258743286
9.420393943786621,-0.05815674737095833,-1.0642099380493164,0.9131991863250732,1.010442852973938,0.2816949784755707,-0.573192834854126
9.441519737243652,-0.058216456323862076,-1.0642950534820557,0.9132094383239746,1.0104312896728516,0.28152284026145935,-0.5731928944587708
9.461633443832397,-0.05823761224746704,-1.064300775527954,0.9131892919540405,1.010502815246582,0.2814936935901642,-0.5731704831123352
9.481765031814575,-0.0581430047750473,-1.064211368560791,0.9131815433502197,1.0105243921279907,0.28169766068458557,-0.5731726288795471
9.501815795898438,-0.058171700686216354,-1.064212679862976,0.913195013999939,1.010512351989746,0.28167441487312317,-0.5731711983680725
9.521886348724365,-0.05825527012348175,-1.0642236471176147,0.9131981730461121,1.010556936264038,0.2815907597541809,-0.573146402835846
9.541958808898926,-0.05838898569345474,-1.064283013343811,0.9131902456283569,1.0105069875717163,0.28139159083366394,-0.5731427073478699
9.562089204788208,-0.05850590765476227,-1.0642902851104736,0.9132593870162964,1.010441780090332,0.2812422215938568,-0.573153555393219
9.58218502998352,-0.05901714414358139,-1.064263939857483,0.9136041402816772,1.0101478099822998,0.28062841296195984,-0.5731886625289917
9.602261781692505,-0.05898872762918472,-1.0641789436340332,0.9135648012161255,1.0102143287658691,0.2807396948337555,-0.5731529593467712
9.62245225906372,-0.05916905030608177,-1.0642116069793701,0.91347336769104,1.010156273841858,0.2805219292640686,-0.5731159448623657
9.642891883850098,-0.05918854847550392,-1.0640891790390015,0.9133777618408203,1.010209321975708,0.2806413471698761,-0.573085367679596
9.66297173500061,-0.05911649391055107,-1.0640047788619995,0.9133743643760681,1.0102016925811768,0.2807917892932892,-0.573080837726593
9.68318510055542,-0.05907619744539261,-1.0639183521270752,0.9133595824241638,1.0101706981658936,0.2809106707572937,-0.5730723142623901
9.703173160552979,-0.05907769501209259,-1.063907504081726,0.9133656024932861,1.0100882053375244,0.28091874718666077,-0.5730880498886108
9.723387956619263,-0.059208810329437256,-1.0639090538024902,0.9132738709449768,1.0101377964019775,0.2808286249637604,-0.5730553865432739
9.743513107299805,-0.05929187685251236,-1.0638999938964844,0.913209080696106,1.0101145505905151,0.28078413009643555,-0.5730487108230591
9.763658046722412,-0.05932082235813141,-1.0639017820358276,0.9131781458854675,1.0100969076156616,0.2807610034942627,-0.5730504989624023
9.783748149871826,-0.05937708914279938,-1.063877820968628,0.9131035208702087,1.0100151300430298,0.2807760238647461,-0.5730838775634766
9.803858518600464,-0.05946763604879379,-1.0639405250549316,0.9130791425704956,1.0099241733551025,0.2806234359741211,-0.5731013417243958
9.823957681655884,-0.05943293496966362,-1.063875436782837,0.9130291938781738,1.0099936723709106,0.28072667121887207,-0.5730796456336975
9.844024181365967,-0.059486862272024155,-1.0638610124588013,0.9129744172096252,1.0099958181381226,0.2807253897190094,-0.5730897188186646
9.864147186279297,-0.05967593938112259,-1.0639389753341675,0.912885308265686,1.010040521621704,0.2804830074310303,-0.5730595588684082
9.884254932403564,-0.05969006195664406,-1.0639511346817017,0.9128590226173401,1.0100648403167725,0.2804153561592102,-0.5730443596839905
9.904415607452393,-0.0597262978553772,-1.063955307006836,0.9128249287605286,1.010110855102539,0.2803681492805481,-0.5730250477790833
9.924577236175537,-0.05976210907101631,-1.0639522075653076,0.9127784371376038,1.0101280212402344,0.2803182601928711,-0.573011040687561
9.944597244262695,-0.05979399383068085,-1.0639549493789673,0.9127479195594788,1.0101659297943115,0.2802748680114746,-0.5729944705963135
9.964760780334473,-0.059686195105314255,-1.063880443572998,0.9126933813095093,1.0102107524871826,0.28045567870140076,-0.5729947090148926
9.984814405441284,-0.05956672132015228,-1.0638295412063599,0.9126801490783691,1.0102440118789673,0.28061121702194214,-0.5730001926422119
10.004950284957886,-0.05956759676337242,-1.0638437271118164,0.9126847982406616,1.010291337966919,0.28057563304901123,-0.5729842185974121
10.025310277938843,-0.05949701368808746,-1.0638400316238403,0.9127283692359924,1.010239601135254,0.280596524477005,-0.5730050206184387
10.045409202575684,-0.05941097065806389,-1.0638428926467896,0.9127893447875977,1.010143756866455,0.28063464164733887,-0.5730355978012085
10.065499067306519,-0.05934350937604904,-1.0638600587844849,0.9128440618515015,1.0101174116134644,0.2806370258331299,-0.5730427503585815
10.085570096969604,-0.05942511558532715,-1.0639325380325317,0.9128387570381165,1.010095238685608,0.28047147393226624,-0.5730401277542114
10.105731010437012,-0.058792367577552795,-1.0637190341949463,0.9126951098442078,1.0102252960205078,0.2813590168952942,-0.5730540156364441
10.125760793685913,-0.0587642602622509,-1.0637906789779663,0.9126190543174744,1.010286569595337,0.2813590168952942,-0.5730464458465576
10.145843505859375,-0.058870136737823486,-1.0639457702636719,0.9126378893852234,1.0102876424789429,0.28108662366867065,-0.5730717778205872
10.166383266448975,-0.05865883082151413,-1.063896656036377,0.9127297401428223,1.0103225708007812,0.28131991624832153,-0.5731063485145569
10.186488151550293,-0.0586477629840374,-1.06397545337677,0.9127860069274902,1.0102394819259644,0.28121012449264526,-0.5731422305107117
10.206690073013306,-0.05861496925354004,-1.064023494720459,0.9128313660621643,1.0101383924484253,0.2811965346336365,-0.5731958150863647
10.226879835128784,-0.058573365211486816,-1.0640168190002441,0.9128421545028687,1.0101639032363892,0.2812432646751404,-0.5732152462005615
10.246963739395142,-0.058527037501335144,-1.064037799835205,0.9128658771514893,1.010270357131958,0.28126493096351624,-0.5731961727142334
10.267006397247314,-0.05848520249128342,-1.064038872718811,0.912887692451477,1.0102853775024414,0.2812977135181427,-0.5732018947601318
10.28724193572998,-0.05850236862897873,-1.0641359090805054,0.9129270315170288,1.0102864503860474,0.28116607666015625,-0.5731992721557617
10.30733585357666,-0.058561213314533234,-1.0641989707946777,0.912922739982605,1.0102827548980713,0.2810320556163788,-0.5732004046440125
10.327385663986206,-0.05857744812965393,-1.064246654510498,0.912926197052002,1.01029372215271,0.28094422817230225,-0.5732029676437378
10.347481489181519,-0.05865910276770592,-1.064289927482605,0.9128917455673218,1.0102956295013428,0.2808290123939514,-0.5731990337371826
10.367580890655518,-0.058508746325969696,-1.0641875267028809,0.9129040837287903,1.010339379310608,0.281095027923584,-0.5731979608535767
10.387662172317505,-0.058435939252376556,-1.0640997886657715,0.9128834009170532,1.010437250137329,0.28128379583358765,-0.5731948018074036
10.40774393081665,-0.05814696475863457,-1.0639536380767822,0.9129843711853027,1.0104117393493652,0.2817174196243286,-0.5732339024543762
10.427929878234863,-0.058141302317380905,-1.0639737844467163,0.9130074381828308,1.0104221105575562,0.28172215819358826,-0.5732313990592957
10.448004007339478,-0.05804482102394104,-1.0639231204986572,0.9130545258522034,1.0104691982269287,0.28191521763801575,-0.573239803314209
10.468270540237427,-0.05794074386358261,-1.0638906955718994,0.9131056666374207,1.0105509757995605,0.28203845024108887,-0.5732299089431763
10.48828911781311,-0.057941336184740067,-1.0639495849609375,0.9131600856781006,1.010616660118103,0.2819807231426239,-0.5732223391532898
10.508479595184326,-0.058048348873853683,-1.0640422105789185,0.9131576418876648,1.010597825050354,0.2818007171154022,-0.5732178688049316
10.5284743309021,-0.0580713115632534,-1.0639781951904297,0.9131659269332886,1.0106019973754883,0.28193649649620056,-0.5732050538063049
10.548706293106079,-0.058105144649744034,-1.06399667263031,0.9131870865821838,1.0105880498886108,0.28190329670906067,-0.5732021331787109
10.568880319595337,-0.05869171768426895,-1.064080834388733,0.9135592579841614,1.0102390050888062,0.28117096424102783,-0.5732823014259338
10.589107990264893,-0.05906375125050545,-1.0641487836837769,0.9135149121284485,1.0102351903915405,0.28075355291366577,-0.5732203722000122
10.609222412109375,-0.059165772050619125,-1.0641897916793823,0.9134827852249146,1.0101408958435059,0.28060320019721985,-0.5732208490371704
10.629324674606323,-0.059247810393571854,-1.064139485359192,0.9133968949317932,1.0101209878921509,0.2805776298046112,-0.5731803178787231
10.649487257003784,-0.05943470075726509,-1.0642095804214478,0.9133154153823853,1.0102232694625854,0.28030896186828613,-0.5731168985366821
10.66981315612793,-0.059424109756946564,-1.064145565032959,0.9132776856422424,1.0101083517074585,0.2803446650505066,-0.5731177926063538
10.689949989318848,-0.05943600833415985,-1.0641233921051025,0.913253664970398,1.0100895166397095,0.2803388237953186,-0.5731062889099121
10.710054397583008,-0.0592661052942276,-1.0639210939407349,0.9132354259490967,1.0100404024124146,0.28072652220726013,-0.5731262564659119
10.730124473571777,-0.05921172350645065,-1.0638238191604614,0.9132137894630432,1.0100603103637695,0.2809000313282013,-0.5731360912322998
10.750305414199829,-0.05912987142801285,-1.0637545585632324,0.9132459163665771,1.0100146532058716,0.2810552418231964,-0.573140025138855
10.77035641670227,-0.059192828834056854,-1.0637688636779785,0.9132348299026489,1.010026216506958,0.2809963822364807,-0.573133647441864
10.79052209854126,-0.0592782236635685,-1.0637788772583008,0.913192093372345,1.0101027488708496,0.2809296250343323,-0.5730977654457092
10.810570240020752,-0.059167832136154175,-1.0637160539627075,0.9132375121116638,1.0100247859954834,0.2810797095298767,-0.573126494884491
10.831137418746948,-0.059222448617219925,-1.063720703125,0.9132150411605835,1.0100363492965698,0.281049907207489,-0.5731132626533508
10.85132098197937,-0.05916319414973259,-1.0636895895004272,0.9132455587387085,1.0101078748703003,0.2811048626899719,-0.5730897784233093
10.871310234069824,-0.05921874940395355,-1.0636370182037354,0.9131647944450378,1.01019287109375,0.28118640184402466,-0.5730711221694946
10.891402006149292,-0.05936947464942932,-1.0637166500091553,0.913131058216095,1.0101745128631592,0.2809789776802063,-0.5730599164962769
10.911463975906372,-0.05936281755566597,-1.0637112855911255,0.9131510853767395,1.0100290775299072,0.2809983193874359,-0.5730912089347839
10.931546211242676,-0.059347476810216904,-1.0637359619140625,0.9131437540054321,1.0099477767944336,0.2809755504131317,-0.5731129050254822
10.951635599136353,-0.059236474335193634,-1.0636882781982422,0.9131907224655151,1.0099595785140991,0.281104177236557,-0.5731120109558105
10.971723556518555,-0.05909765511751175,-1.063590407371521,0.9132150411605835,1.0100016593933105,0.28136464953422546,-0.5731096267700195
10.991917848587036,-0.05922785401344299,-1.0636860132217407,0.9132075905799866,1.0099940299987793,0.2811416983604431,-0.5730991959571838
11.01197075843811,-0.05930907651782036,-1.0637069940567017,0.9131112098693848,1.0100250244140625,0.28111010789871216,-0.5730935335159302
11.03206181526184,-0.05932772159576416,-1.0637564659118652,0.9130471348762512,1.010107159614563,0.28104716539382935,-0.5730786323547363
11.052158832550049,-0.05932006984949112,-1.0637731552124023,0.9130264520645142,1.0101064443588257,0.2810378074645996,-0.5730836391448975
11.072288274765015,-0.05920775979757309,-1.0637342929840088,0.9130082726478577,1.0101203918457031,0.2811910808086395,-0.5730962753295898
11.092334032058716,-0.059208206832408905,-1.0637550354003906,0.9129956364631653,1.0101209878921509,0.28117474913597107,-0.573100745677948
11.112454652786255,-0.05921405181288719,-1.0637861490249634,0.9129626154899597,1.0101206302642822,0.2811530530452728,-0.5731223821640015
11.13252568244934,-0.05918809026479721,-1.063817024230957,0.912965714931488,1.0100544691085815,0.28115636110305786,-0.5731498003005981
11.152651309967041,-0.05926193296909332,-1.0639125108718872,0.9129605293273926,1.0100351572036743,0.28096213936805725,-0.5731502175331116
11.17274785041809,-0.059259090572595596,-1.0639023780822754,0.9129160046577454,1.0099940299987793,0.2810083031654358,-0.5731789469718933
11.193182468414307,-0.05911776050925255,-1.0639643669128418,0.9127447605133057,1.010103702545166,0.2811219394207001,-0.5731536149978638
11.213290691375732,-0.05908571183681488,-1.0640287399291992,0.9126585125923157,1.0101487636566162,0.28110218048095703,-0.5731435418128967
11.233362674713135,-0.05885167047381401,-1.0640829801559448,0.9125884175300598,1.0102497339248657,0.2812441885471344,-0.573126494884491
11.25377607345581,-0.05864189565181732,-1.064029335975647,0.9126632809638977,1.0102797746658325,0.2814689874649048,-0.5731649398803711
11.273866891860962,-0.05847734212875366,-1.0639821290969849,0.9127432703971863,1.0103013515472412,0.28164610266685486,-0.5731761455535889
11.293945074081421,-0.058418963104486465,-1.0639492273330688,0.9127646684646606,1.0104862451553345,0.2817675769329071,-0.5731539726257324
11.314249038696289,-0.05844613537192345,-1.0639749765396118,0.9127734899520874,1.0105684995651245,0.28175458312034607,-0.5731668472290039
11.33433485031128,-0.058421630412340164,-1.06399405002594,0.9128094911575317,1.0105642080307007,0.2817544937133789,-0.5731719732284546
11.35444688796997,-0.05835627019405365,-1.0640449523925781,0.9129011631011963,1.0105485916137695,0.2817379832267761,-0.5731845498085022
11.374684810638428,-0.05831709876656532,-1.0640040636062622,0.9128984212875366,1.0106959342956543,0.2818494141101837,-0.5731621384620667
11.394859075546265,-0.05830129608511925,-1.0640220642089844,0.9129272699356079,1.0106821060180664,0.28184419870376587,-0.5731677412986755
11.414917469024658,-0.05843730270862579,-1.064116358757019,0.9129009246826172,1.0107090473175049,0.28164348006248474,-0.5731566548347473
11.43498945236206,-0.05841391906142235,-1.064124584197998,0.9129226803779602,1.010690450668335,0.28164738416671753,-0.5731619596481323
11.455062866210938,-0.05827246606349945,-1.0640701055526733,0.9129811525344849,1.0106743574142456,0.28182628750801086,-0.5731744170188904
11.475178956985474,-0.05839657038450241,-1.0641505718231201,0.9129567742347717,1.0106561183929443,0.2816532850265503,-0.573164165019989
11.495315074920654,-0.05836654454469681,-1.0641701221466064,0.9129880666732788,1.0106300115585327,0.2816542088985443,-0.5731656551361084
11.515408992767334,-0.05849098041653633,-1.0642342567443848,0.9129459857940674,1.0106124877929688,0.2814989686012268,-0.5731694102287292
11.535531520843506,-0.0583559051156044,-1.0641591548919678,0.9129806756973267,1.0105533599853516,0.28172627091407776,-0.5731828212738037
11.555561065673828,-0.0584397166967392,-1.0642293691635132,0.9129993319511414,1.0104517936706543,0.2815777659416199,-0.5732036828994751
11.575623512268066,-0.05852484703063965,-1.0643070936203003,0.9129894971847534,1.0104397535324097,0.2814085781574249,-0.5731935501098633
11.595703125,-0.05852894112467766,-1.064377784729004,0.9130198955535889,1.0103510618209839,0.28128865361213684,-0.5732028484344482
11.615994691848755,-0.05848909169435501,-1.064367413520813,0.9130197763442993,1.0103744268417358,0.28132399916648865,-0.5731884241104126
11.636088371276855,-0.058506276458501816,-1.0643619298934937,0.9130292534828186,1.010368824005127,0.28131169080734253,-0.5731781721115112
11.65632677078247,-0.058447208255529404,-1.0643067359924316,0.9130731225013733,1.0104247331619263,0.2814038395881653,-0.5731474757194519
11.676421403884888,-0.058565653860569,-1.0643749237060547,0.913062334060669,1.0103996992111206,0.28121641278266907,-0.5731368660926819
11.69655442237854,-0.05849562585353851,-1.064296007156372,0.9130902290344238,1.0103967189788818,0.2813648581504822,-0.5731275081634521
11.716590881347656,-0.058747176080942154,-1.0643891096115112,0.9131259322166443,1.010390281677246,0.2809984087944031,-0.5731073021888733
11.736803770065308,-0.05916828662157059,-1.0643230676651,0.913377046585083,1.0101743936538696,0.2805716395378113,-0.5731340050697327
11.756932973861694,-0.05927030369639397,-1.0642532110214233,0.9132823348045349,1.0101577043533325,0.2805587649345398,-0.5731097459793091
11.777082204818726,-0.05946050584316254,-1.064302921295166,0.9132001399993896,1.0102064609527588,0.2803362011909485,-0.5730648636817932
11.79708480834961,-0.05940660461783409,-1.0641915798187256,0.9131788015365601,1.0101747512817383,0.280475378036499,-0.57304447889328
11.817197322845459,-0.05933801084756851,-1.064098834991455,0.9131693840026855,1.0101650953292847,0.28063538670539856,-0.5730510950088501
11.83729076385498,-0.059378448873758316,-1.0640616416931152,0.9131439924240112,1.0101395845413208,0.2806066870689392,-0.5730563402175903
11.857362270355225,-0.05921345204114914,-1.0639022588729858,0.9131739735603333,1.010144829750061,0.28090739250183105,-0.5730556845664978
11.877449989318848,-0.059236932545900345,-1.063901662826538,0.9131755828857422,1.0101395845413208,0.2808789908885956,-0.5730530619621277
11.897525310516357,-0.05941632017493248,-1.0639704465866089,0.913127064704895,1.0101643800735474,0.2806212604045868,-0.5730374455451965
11.917603731155396,-0.05938226357102394,-1.06395423412323,0.9131587743759155,1.0100629329681396,0.2806181311607361,-0.573055624961853
11.937682628631592,-0.05946953222155571,-1.0639991760253906,0.9131402373313904,1.0099685192108154,0.28047874569892883,-0.5730828046798706
11.957749605178833,-0.059422388672828674,-1.0639234781265259,0.9131282567977905,1.0100350379943848,0.2805798053741455,-0.5730515122413635
11.977840662002563,-0.0594320073723793,-1.063916802406311,0.9131239652633667,1.0100339651107788,0.2805679142475128,-0.5730476379394531
11.997934103012085,-0.05950299650430679,-1.0638859272003174,0.9130694270133972,1.0100260972976685,0.28055456280708313,-0.5730332136154175
12.017987728118896,-0.05939531326293945,-1.0638256072998047,0.9131121635437012,1.0100146532058716,0.28067928552627563,-0.5730340480804443
12.038094997406006,-0.05940625071525574,-1.063826084136963,0.9131125807762146,1.010016679763794,0.2806631028652191,-0.5730318427085876
12.058172225952148,-0.059402767568826675,-1.0638386011123657,0.9131336808204651,1.009993076324463,0.28061559796333313,-0.5730291604995728
12.078298807144165,-0.059513334184885025,-1.063908338546753,0.9131122827529907,1.0099713802337646,0.2804268002510071,-0.5730221271514893
12.098456144332886,-0.05961213633418083,-1.0639429092407227,0.9130340814590454,1.0099599361419678,0.28029024600982666,-0.573025643825531
12.11849069595337,-0.05948612093925476,-1.0638920068740845,0.9130183458328247,1.010098934173584,0.28041064739227295,-0.5729904770851135
12.138545036315918,-0.059393465518951416,-1.0638011693954468,0.9129939079284668,1.0101157426834106,0.2806170582771301,-0.5730074048042297
12.158674955368042,-0.05940765142440796,-1.0638102293014526,0.9129550457000732,1.0101720094680786,0.28059983253479004,-0.5729895830154419
12.17870306968689,-0.05937981605529785,-1.0637996196746826,0.9129411578178406,1.010168194770813,0.28063422441482544,-0.573002278804779
12.198832988739014,-0.05922897532582283,-1.063730239868164,0.9129807949066162,1.0101629495620728,0.2808188796043396,-0.5730342864990234
12.218996286392212,-0.05937378481030464,-1.063815951347351,0.9129242897033691,1.0102100372314453,0.2806214988231659,-0.5730221271514893
12.239046335220337,-0.05938180536031723,-1.0638105869293213,0.9129063487052917,1.0102052688598633,0.2806364893913269,-0.5730205774307251
12.25916576385498,-0.05930866301059723,-1.0638227462768555,0.9129129648208618,1.010189414024353,0.28067341446876526,-0.573029100894928
12.279383420944214,-0.05903062969446182,-1.0637264251708984,0.9128718376159668,1.0101861953735352,0.2810656428337097,-0.5730624794960022
12.299363374710083,-0.05866333097219467,-1.0636754035949707,0.9127880334854126,1.010385274887085,0.28151676058769226,-0.5730448365211487
12.319408178329468,-0.058611221611499786,-1.0637000799179077,0.9128221273422241,1.0103920698165894,0.2815372943878174,-0.5730640292167664
12.339575052261353,-0.05851190537214279,-1.0637266635894775,0.9128807783126831,1.0103638172149658,0.2816278636455536,-0.5731154680252075
12.35957956314087,-0.05843103304505348,-1.0637727975845337,0.9129394888877869,1.0103874206542969,0.2816588878631592,-0.5731416344642639
12.37979245185852,-0.058295875787734985,-1.0637245178222656,0.9129849672317505,1.0104141235351562,0.2818444073200226,-0.5731565356254578
12.399873495101929,-0.058414723724126816,-1.0638724565505981,0.9129822254180908,1.0105472803115845,0.2815978229045868,-0.5731251835823059
12.419899463653564,-0.058331992477178574,-1.0638933181762695,0.9130409359931946,1.010465145111084,0.2816391587257385,-0.5731567740440369
12.44000768661499,-0.058296188712120056,-1.063934326171875,0.9130690693855286,1.0104721784591675,0.28165483474731445,-0.5731627345085144
12.460056781768799,-0.05833393335342407,-1.0640316009521484,0.913093090057373,1.0104031562805176,0.28153687715530396,-0.5731841325759888
12.48013710975647,-0.05830439180135727,-1.0640357732772827,0.913104236125946,1.0104116201400757,0.28155621886253357,-0.5731911659240723
12.500224590301514,-0.058161258697509766,-1.063979983329773,0.913141131401062,1.010451316833496,0.2817617654800415,-0.5732019543647766
12.520331859588623,-0.0582415908575058,-1.0640770196914673,0.9131373167037964,1.0104495286941528,0.2816033363342285,-0.5731967091560364
12.540438413619995,-0.05818982422351837,-1.064017415046692,0.9131201505661011,1.0105468034744263,0.2817515730857849,-0.5731740593910217
12.560516119003296,-0.058166589587926865,-1.0640404224395752,0.9131381511688232,1.0105422735214233,0.2817622721195221,-0.5731778740882874
12.580652236938477,-0.05806044861674309,-1.063984990119934,0.9131672382354736,1.0105570554733276,0.28193429112434387,-0.5731832385063171
12.600692749023438,-0.05805949866771698,-1.0640236139297485,0.9131925702095032,1.0105586051940918,0.2819203734397888,-0.5731872320175171
12.620774030685425,-0.058058708906173706,-1.0640573501586914,0.9132128953933716,1.0105597972869873,0.2819073796272278,-0.5731903910636902
12.640884160995483,-0.05812425538897514,-1.0641300678253174,0.9132205843925476,1.0104866027832031,0.2817755937576294,-0.5732109546661377
12.660978555679321,-0.05815615504980087,-1.0641651153564453,0.9132405519485474,1.0105421543121338,0.28170138597488403,-0.5731870532035828
12.681000232696533,-0.05850320681929588,-1.064266562461853,0.9132461547851562,1.0105938911437988,0.28127244114875793,-0.5731416344642639
12.701087951660156,-0.05869041010737419,-1.0642971992492676,0.913396418094635,1.0104598999023438,0.28097978234291077,-0.5731669664382935
12.721245050430298,-0.059204984456300735,-1.0643634796142578,0.9135280251502991,1.0102310180664062,0.28033125400543213,-0.5731698274612427
12.741525888442993,-0.059496741741895676,-1.0644220113754272,0.9133699536323547,1.0101619958877563,0.27999359369277954,-0.5731343626976013
12.761654138565063,-0.05953867733478546,-1.06436026096344,0.9132922291755676,1.0101426839828491,0.2800218164920807,-0.573130190372467
12.781769037246704,-0.05947696417570114,-1.0642040967941284,0.9132202863693237,1.0101159811019897,0.2802182137966156,-0.573103666305542
12.801777839660645,-0.05948565900325775,-1.0641767978668213,0.91319739818573,1.0100936889648438,0.2802177369594574,-0.5730929970741272
12.821939468383789,-0.0594128742814064,-1.064082145690918,0.9131845235824585,1.0101217031478882,0.28033286333084106,-0.573061466217041
12.842185974121094,-0.05939321964979172,-1.0640536546707153,0.9131870269775391,1.0100330114364624,0.28036779165267944,-0.5730763673782349
12.862281322479248,-0.05951767787337303,-1.0640921592712402,0.9131414294242859,1.009992003440857,0.28018394112586975,-0.5730569362640381
12.882704019546509,-0.05957801267504692,-1.0640673637390137,0.9130435585975647,1.0100253820419312,0.28015440702438354,-0.5730322003364563
12.902772188186646,-0.059621039777994156,-1.0640604496002197,0.9129906296730042,1.0100703239440918,0.28012025356292725,-0.5730112195014954
12.922977447509766,-0.059415243566036224,-1.0638868808746338,0.9129889607429504,1.0099925994873047,0.2805088460445404,-0.5730437636375427
12.943044900894165,-0.059399399906396866,-1.0638937950134277,0.9130191802978516,1.0099742412567139,0.2804870009422302,-0.5730434060096741
12.963080644607544,-0.05925852060317993,-1.0637397766113281,0.9130218029022217,1.010000228881836,0.2808167636394501,-0.5730499625205994
12.983291864395142,-0.05927727743983269,-1.0637438297271729,0.9130130410194397,1.0100018978118896,0.28080466389656067,-0.5730597972869873
13.00331449508667,-0.05922776460647583,-1.0636838674545288,0.9130071401596069,1.0100057125091553,0.280945748090744,-0.5730923414230347
13.023357391357422,-0.059293195605278015,-1.0637121200561523,0.9129807353019714,1.010067105293274,0.2808760404586792,-0.5730699300765991
13.043446779251099,-0.059398528188467026,-1.0637342929840088,0.9129241704940796,1.0101205110549927,0.2807988226413727,-0.5730534195899963
13.063548803329468,-0.05930909886956215,-1.0636916160583496,0.9129183888435364,1.010111689567566,0.28095000982284546,-0.5730656981468201
13.08361005783081,-0.05929344892501831,-1.0637086629867554,0.9129332304000854,1.0101122856140137,0.2809418737888336,-0.573065996170044
13.103716135025024,-0.05942636728286743,-1.0638048648834229,0.9128710031509399,1.0101680755615234,0.28073471784591675,-0.5730419158935547
13.12386965751648,-0.05939265713095665,-1.0638046264648438,0.9128864407539368,1.010159969329834,0.2807420492172241,-0.5730504989624023
13.143938064575195,-0.05920832231640816,-1.063734769821167,0.912918746471405,1.0100293159484863,0.2810008227825165,-0.5731144547462463
13.164016723632812,-0.05918840318918228,-1.0637434720993042,0.912939727306366,1.0100393295288086,0.28099730610847473,-0.5731176733970642
13.18419861793518,-0.05916159972548485,-1.063761830329895,0.9129530191421509,1.010053038597107,0.2809942960739136,-0.5731284618377686
13.204237461090088,-0.05914035066962242,-1.0637825727462769,0.9129846096038818,1.0100679397583008,0.28098154067993164,-0.5731253027915955
13.22437071800232,-0.059262361377477646,-1.063854694366455,0.9129540920257568,1.0100681781768799,0.2808099091053009,-0.5731129050254822
13.244498491287231,-0.05916919931769371,-1.0638048648834229,0.9129774570465088,1.0101583003997803,0.28093627095222473,-0.5730928778648376
13.26467251777649,-0.059013497084379196,-1.0637942552566528,0.9129169583320618,1.0102158784866333,0.2811012864112854,-0.5730897784233093
13.284847974777222,-0.058681972324848175,-1.0637484788894653,0.9127146601676941,1.0103907585144043,0.2815631628036499,-0.5730690360069275
13.305118083953857,-0.058433450758457184,-1.063706636428833,0.9127218723297119,1.010477900505066,0.2819049656391144,-0.573101282119751
13.325200080871582,-0.05840831622481346,-1.0637437105178833,0.9127681851387024,1.0104830265045166,0.28189924359321594,-0.5731118321418762
13.345287322998047,-0.05821121111512184,-1.0637601613998413,0.9129140973091125,1.010488748550415,0.28204286098480225,-0.5731404423713684
13.36536169052124,-0.05817313492298126,-1.0638056993484497,0.9129739999771118,1.0104862451553345,0.2820223867893219,-0.5731513500213623
13.385455131530762,-0.0581204779446125,-1.0638176202774048,0.9130159020423889,1.0106427669525146,0.28209200501441956,-0.5731239914894104
13.405503988265991,-0.058084651827812195,-1.063889741897583,0.9130951762199402,1.010622262954712,0.2820534110069275,-0.5731438994407654
13.425591230392456,-0.05814969912171364,-1.0639760494232178,0.9131162166595459,1.0105360746383667,0.28190961480140686,-0.5731683969497681
13.445665836334229,-0.05814172700047493,-1.064033031463623,0.9131506085395813,1.0105901956558228,0.2818499803543091,-0.5731583833694458
13.46583604812622,-0.05806640535593033,-1.063977599143982,0.9131960868835449,1.0105476379394531,0.28203365206718445,-0.5731834769248962
13.48592734336853,-0.05819612368941307,-1.064078688621521,0.9131724238395691,1.0106019973754883,0.28180986642837524,-0.5731604695320129
13.505983114242554,-0.05812161788344383,-1.0641008615493774,0.9132269024848938,1.0105305910110474,0.28184133768081665,-0.5731918215751648
13.526075839996338,-0.05814901739358902,-1.0641224384307861,0.913213849067688,1.010599136352539,0.28179749846458435,-0.5731709003448486
13.546156883239746,-0.058008406311273575,-1.0640490055084229,0.9132586121559143,1.0104889869689941,0.28204578161239624,-0.573218047618866
13.5663161277771,-0.058286942541599274,-1.0642181634902954,0.9132123589515686,1.0104858875274658,0.281659871339798,-0.5731884837150574
13.586406469345093,-0.05828240141272545,-1.0642273426055908,0.9132078289985657,1.0104882717132568,0.2816583812236786,-0.5731822848320007
13.60647964477539,-0.058241747319698334,-1.0641698837280273,0.9132089614868164,1.0105069875717163,0.28180041909217834,-0.5731684565544128
13.626542329788208,-0.058247122913599014,-1.0641918182373047,0.9132408499717712,1.0104880332946777,0.2817571759223938,-0.5731649398803711
13.646641492843628,-0.05838259682059288,-1.0642893314361572,0.9132518172264099,1.0104472637176514,0.28151461482048035,-0.5731500387191772
13.666697978973389,-0.05870102345943451,-1.0643965005874634,0.9133725762367249,1.0103083848953247,0.28102031350135803,-0.5731559991836548
13.686801433563232,-0.05917634442448616,-1.0644112825393677,0.9136257767677307,1.0100274085998535,0.2804657816886902,-0.5732070207595825
13.706872701644897,-0.05931023508310318,-1.0643541812896729,0.9134837985038757,1.0100880861282349,0.2803986966609955,-0.5731304883956909
13.727656364440918,-0.059547290205955505,-1.0643540620803833,0.9133129119873047,1.0101256370544434,0.28018125891685486,-0.5730586647987366
13.747782230377197,-0.059628766030073166,-1.0643831491470337,0.913275420665741,1.010018229484558,0.2800440192222595,-0.5730626583099365
13.76785159111023,-0.05951966345310211,-1.0642436742782593,0.913244903087616,1.0099431276321411,0.28025320172309875,-0.5730603933334351
13.787964582443237,-0.05956703796982765,-1.0642317533493042,0.9131996631622314,1.0100018978118896,0.28020378947257996,-0.573024332523346
13.80803918838501,-0.05957929044961929,-1.06417977809906,0.9131551384925842,1.009997844696045,0.2802046537399292,-0.5730095505714417
13.828088998794556,-0.05944342911243439,-1.0639946460723877,0.9131231904029846,1.0100806951522827,0.28051140904426575,-0.5729885101318359
13.848206043243408,-0.05941937118768692,-1.0639722347259521,0.9131355881690979,1.010006070137024,0.2805419862270355,-0.5730113387107849
13.868289470672607,-0.05934163182973862,-1.0638853311538696,0.913144052028656,1.0100191831588745,0.28068599104881287,-0.5730101466178894
13.888349056243896,-0.05959676206111908,-1.0640064477920532,0.9130538105964661,1.0099847316741943,0.2803249657154083,-0.5730025768280029
13.908442258834839,-0.059736669063568115,-1.0640745162963867,0.9129854440689087,1.010020136833191,0.28011155128479004,-0.5729808807373047
13.928595542907715,-0.05964363366365433,-1.0639536380767822,0.9129688739776611,1.0100187063217163,0.2803035378456116,-0.5729811191558838
13.948789119720459,-0.059537507593631744,-1.0638631582260132,0.9129884243011475,1.0100054740905762,0.28046584129333496,-0.572985053062439
13.968883275985718,-0.05954044684767723,-1.0638601779937744,0.9129927754402161,1.0099945068359375,0.28045418858528137,-0.5729854106903076
13.98900032043457,-0.05948330834507942,-1.0637998580932617,0.9130043983459473,1.0100516080856323,0.2805565297603607,-0.5729696154594421
14.009066104888916,-0.059586141258478165,-1.063882827758789,0.9129654169082642,1.0100998878479004,0.2803548574447632,-0.5729494094848633
14.029134035110474,-0.05964430421590805,-1.0639208555221558,0.9128994345664978,1.0100715160369873,0.2802465260028839,-0.5729687213897705
14.049274206161499,-0.059448231011629105,-1.063773274421692,0.9128881692886353,1.010156512260437,0.2805980443954468,-0.5729754567146301
14.069358348846436,-0.05942327156662941,-1.0637798309326172,0.9128963947296143,1.0101450681686401,0.2806054353713989,-0.5729813575744629
14.089400053024292,-0.059362370520830154,-1.063835620880127,0.9128369092941284,1.0101555585861206,0.280595600605011,-0.5729852914810181
14.110081195831299,-0.05937548726797104,-1.0638490915298462,0.9128324389457703,1.0102102756500244,0.2805618345737457,-0.5729689002037048
14.130274772644043,-0.05907308682799339,-1.0637491941452026,0.9128633737564087,1.0101318359375,0.2809697985649109,-0.5730260014533997
14.150559902191162,-0.05892866849899292,-1.0637032985687256,0.9128983616828918,1.0101759433746338,0.28117847442626953,-0.5730461478233337
14.170685529708862,-0.059002358466386795,-1.0637954473495483,0.9128987789154053,1.0101689100265503,0.2810133993625641,-0.5730487108230591
14.190815448760986,-0.05887218192219734,-1.0637633800506592,0.9129346013069153,1.0102591514587402,0.2811698019504547,-0.5730491876602173
14.210920095443726,-0.05881916731595993,-1.0637719631195068,0.912968635559082,1.0101933479309082,0.28121623396873474,-0.5730769634246826
14.231093883514404,-0.058810312300920486,-1.06380033493042,0.9129757285118103,1.010218620300293,0.28123238682746887,-0.5730806589126587
14.251135110855103,-0.05868343636393547,-1.0637412071228027,0.9130130410194397,1.0102412700653076,0.2814130187034607,-0.5730944871902466
14.271316766738892,-0.05862998589873314,-1.0637593269348145,0.913060188293457,1.0101388692855835,0.28149089217185974,-0.5731387138366699
14.29136347770691,-0.05865166336297989,-1.0637738704681396,0.9130523800849915,1.010168194770813,0.2814915180206299,-0.5731343030929565
14.311564445495605,-0.05870532989501953,-1.0638912916183472,0.9130824208259583,1.0101730823516846,0.28130337595939636,-0.5731335878372192
14.33230185508728,-0.05856737494468689,-1.06386399269104,0.9131428599357605,1.010205626487732,0.2814582288265228,-0.5731390118598938
14.352359294891357,-0.05843398720026016,-1.0637998580932617,0.9131882190704346,1.0101759433746338,0.281667560338974,-0.5731642246246338
14.372534275054932,-0.058410465717315674,-1.0638298988342285,0.9132239818572998,1.0101597309112549,0.2816867232322693,-0.573180079460144
14.392870903015137,-0.05849074572324753,-1.0639322996139526,0.9132381081581116,1.0101555585861206,0.2814895510673523,-0.5731765627861023
14.41302752494812,-0.05864611640572548,-1.0640209913253784,0.9131790399551392,1.010242223739624,0.2812783420085907,-0.5731409788131714
14.433110475540161,-0.058792684227228165,-1.0641181468963623,0.9131251573562622,1.0103726387023926,0.28103163838386536,-0.573093831539154
14.453675985336304,-0.058807745575904846,-1.064091444015503,0.9131234288215637,1.0102943181991577,0.2810651957988739,-0.5731099247932434
14.47378134727478,-0.058972377330064774,-1.064160704612732,0.9130958914756775,1.010311484336853,0.28082212805747986,-0.5730801224708557
14.493913412094116,-0.05905139446258545,-1.064194917678833,0.9130955934524536,1.0101985931396484,0.2806848883628845,-0.5730966925621033
14.513951778411865,-0.05905364826321602,-1.0641788244247437,0.9130911827087402,1.0101866722106934,0.28068646788597107,-0.5730929374694824
14.53406834602356,-0.059088341891765594,-1.0641453266143799,0.9130660891532898,1.01018488407135,0.28069454431533813,-0.5730839371681213
14.55447506904602,-0.05908798798918724,-1.0641322135925293,0.9130642414093018,1.0101741552352905,0.2806958258152008,-0.5730812549591064
14.574472904205322,-0.05908595770597458,-1.0641069412231445,0.9130616188049316,1.0101635456085205,0.2807031571865082,-0.5730774402618408
14.594528675079346,-0.05899719521403313,-1.0640432834625244,0.9130885601043701,1.0102204084396362,0.2808193862438202,-0.5730590224266052
14.614610433578491,-0.05900246277451515,-1.064037799835205,0.9130895733833313,1.010208249092102,0.2808150053024292,-0.5730586051940918
14.634706735610962,-0.05900588631629944,-1.0640058517456055,0.913085401058197,1.010138988494873,0.28086137771606445,-0.5730767250061035
14.654743194580078,-0.05904451012611389,-1.0640095472335815,0.9130719900131226,1.0101909637451172,0.280811071395874,-0.5730533003807068
