liuyurong129/humanoid-gym/humanoid/data/target_q_20250523-020115.csv
timestamp,joint_1,joint_2,joint_3,joint_4,joint_5,joint_6
0.00013184547424316406,0.0,0.0,0.0,0.0,0.0,0.0
0.02019333839416504,0.0,0.0,0.0,0.0,0.0,0.0
0.0402829647064209,0.0,0.0,0.0,0.0,0.0,0.0
0.06033825874328613,0.0,0.0,0.0,0.0,0.0,0.0
0.08038973808288574,0.1734243631362915,-0.34155499935150146,0.4912830591201782,-0.15621069073677063,0.014177069067955017,-0.498371958732605
0.10048484802246094,0.17328275740146637,-0.344005286693573,0.49130910634994507,-0.15559104084968567,0.01469164714217186,-0.4960527718067169
0.12058830261230469,0.17324146628379822,-0.34872403740882874,0.49136003851890564,-0.154246985912323,0.015859724953770638,-0.4914588928222656
0.14061236381530762,0.17359820008277893,-0.3532108962535858,0.49132871627807617,-0.1527581661939621,0.017272206023335457,-0.48692405223846436
0.1607067584991455,0.17391033470630646,-0.355419397354126,0.49125322699546814,-0.15197916328907013,0.018052799627184868,-0.4846951365470886
0.18079018592834473,0.17456480860710144,-0.35984402894973755,0.4910918176174164,-0.1504596769809723,0.01960809715092182,-0.48033779859542847
0.20093441009521484,0.17515432834625244,-0.3642878234386444,0.49099963903427124,-0.1490417867898941,0.021097062155604362,-0.47612741589546204
0.22094154357910156,0.17566820979118347,-0.3687134385108948,0.4909747838973999,-0.14772382378578186,0.022504683583974838,-0.47205206751823425
0.2410883903503418,0.17589809000492096,-0.370932012796402,0.49098309874534607,-0.1470986306667328,0.023195449262857437,-0.470063716173172
0.2611675262451172,0.17634019255638123,-0.37537848949432373,0.4910215735435486,-0.1458759903907776,0.02455618791282177,-0.4661807119846344
0.2812654972076416,0.17656074464321136,-0.3776129484176636,0.49104198813438416,-0.14527106285095215,0.02523697353899479,-0.464282751083374
0.3013498783111572,0.17704056203365326,-0.38209983706474304,0.4910702705383301,-0.14405739307403564,0.026614287868142128,-0.4605731666088104
0.32144927978515625,0.1775420755147934,-0.38660234212875366,0.4910956919193268,-0.1428593397140503,0.027985168620944023,-0.4569767713546753
0.34148287773132324,0.17802616953849792,-0.3911297619342804,0.49113231897354126,-0.1417090892791748,0.029353497549891472,-0.4534905254840851
0.3615837097167969,0.178264319896698,-0.3933967053890228,0.491156667470932,-0.14114539325237274,0.03002871759235859,-0.45178818702697754
0.3817331790924072,0.17873552441596985,-0.3979434072971344,0.4912136495113373,-0.14004580676555634,0.03136894479393959,-0.4484626352787018
0.40201234817504883,0.17920513451099396,-0.40249738097190857,0.49128854274749756,-0.1389847844839096,0.032679032534360886,-0.4452442526817322
0.42209458351135254,0.17943701148033142,-0.40477728843688965,0.49133169651031494,-0.13846883177757263,0.03332356736063957,-0.4436734616756439
0.4421675205230713,0.1798972487449646,-0.4093465507030487,0.49142685532569885,-0.13745896518230438,0.03460304066538811,-0.44060638546943665
0.4622347354888916,0.18035125732421875,-0.41392797231674194,0.4915318489074707,-0.13647061586380005,0.035868823528289795,-0.4376341998577118
0.4823338985443115,0.1805734634399414,-0.416223406791687,0.49158912897109985,-0.13598766922950745,0.036497168242931366,-0.43618279695510864
0.5025591850280762,0.18099753558635712,-0.4208221733570099,0.491721510887146,-0.13505278527736664,0.03773690015077591,-0.4333493709564209
0.5224785804748535,0.18140879273414612,-0.4254269301891327,0.49187183380126953,-0.13415192067623138,0.03895731642842293,-0.4306058883666992
0.5426030158996582,0.18161475658416748,-0.4277307689189911,0.4919513165950775,-0.13370880484580994,0.0395616851747036,-0.4292668104171753
0.5627825260162354,0.18203681707382202,-0.43234309554100037,0.49211186170578003,-0.13283631205558777,0.040765222162008286,-0.4266512989997864
0.5827877521514893,0.18224939703941345,-0.4346538186073303,0.49219322204589844,-0.13240456581115723,0.0413656048476696,-0.4253740906715393
0.6028931140899658,0.18267472088336945,-0.4392872452735901,0.4923616051673889,-0.13155272603034973,0.042556796222925186,-0.4228808879852295
0.6229286193847656,0.1831006556749344,-0.443936824798584,0.49253687262535095,-0.13070689141750336,0.04373643919825554,-0.4204668402671814
0.6430537700653076,0.1833074986934662,-0.44626298546791077,0.49263331294059753,-0.13029205799102783,0.04431631416082382,-0.41929012537002563
0.6631600856781006,0.18370185792446136,-0.45092102885246277,0.492836594581604,-0.12948662042617798,0.045473262667655945,-0.4169900715351105
0.6831834316253662,0.18407967686653137,-0.4555799067020416,0.49305036664009094,-0.12871260941028595,0.04662857949733734,-0.414760023355484
0.7033064365386963,0.18427002429962158,-0.4579099416732788,0.49315765500068665,-0.1283351182937622,0.047206148505210876,-0.41367027163505554
0.7233705520629883,0.1846572905778885,-0.46256446838378906,0.49338048696517944,-0.12759308516979218,0.04834657162427902,-0.41154468059539795
0.7435016632080078,0.18504250049591064,-0.4672175347805023,0.49361681938171387,-0.12687860429286957,0.04946247488260269,-0.4094882905483246
0.7635903358459473,0.18523429334163666,-0.4695458710193634,0.49373796582221985,-0.12652845680713654,0.05001450330018997,-0.40848466753959656
0.7836611270904541,0.1856118142604828,-0.47420576214790344,0.4939913749694824,-0.12584681808948517,0.051100313663482666,-0.40652692317962646
0.8037481307983398,0.18597736954689026,-0.47886985540390015,0.49425965547561646,-0.12518969178199768,0.05216781795024872,-0.4046323001384735
0.8238482475280762,0.18615569174289703,-0.48120275139808655,0.4943973422050476,-0.12487053126096725,0.05269874632358551,-0.40370675921440125
0.8439164161682129,0.18650946021080017,-0.485870897769928,0.49467310309410095,-0.12425194680690765,0.053760528564453125,-0.4018961489200592
0.864001989364624,0.18686841428279877,-0.4905347526073456,0.49494948983192444,-0.12364115566015244,0.05482172966003418,-0.400139182806015
0.8841407299041748,0.18704834580421448,-0.4928654432296753,0.49509015679359436,-0.12333990633487701,0.05534787476062775,-0.3992820084095001
0.9043381214141846,0.1873895674943924,-0.4975259304046631,0.49538466334342957,-0.1227574571967125,0.05638701841235161,-0.39760923385620117
0.9244005680084229,0.18770475685596466,-0.5021872520446777,0.49569499492645264,-0.12220387160778046,0.057411227375268936,-0.3959906995296478
0.9446060657501221,0.187859445810318,-0.5045163035392761,0.4958535432815552,-0.12193113565444946,0.057920362800359726,-0.3952006995677948
0.9646530151367188,0.1881825178861618,-0.5091714859008789,0.49616774916648865,-0.121381476521492,0.058938492089509964,-0.39365851879119873
0.984642744064331,0.18852242827415466,-0.5138244032859802,0.49647819995880127,-0.1208377406001091,0.05995148792862892,-0.3921654224395752
1.004772663116455,0.18869103491306305,-0.5161511898040771,0.4966352880001068,-0.1205766573548317,0.06045316159725189,-0.39143696427345276
1.0248804092407227,0.1890241801738739,-0.5208026170730591,0.4969542622566223,-0.12006358802318573,0.061449553817510605,-0.3900144100189209
1.0449094772338867,0.18934063613414764,-0.5254494547843933,0.49728572368621826,-0.11956291645765305,0.062433019280433655,-0.38863709568977356
1.0650246143341064,0.18948735296726227,-0.5277715921401978,0.4974586069583893,-0.11932159960269928,0.06291743367910385,-0.38796523213386536
1.0852715969085693,0.1897662729024887,-0.5324137806892395,0.4978143870830536,-0.11886049807071686,0.06387408822774887,-0.3866540789604187
1.1052441596984863,0.1900455504655838,-0.5370538234710693,0.4981732964515686,-0.1184224858880043,0.06482252478599548,-0.38538387417793274
1.1253950595855713,0.19019295275211334,-0.5393725037574768,0.4983500838279724,-0.11820069700479507,0.06529787927865982,-0.3847636282444
1.1455440521240234,0.19048961997032166,-0.5440152287483215,0.4987063407897949,-0.11775417625904083,0.06624022126197815,-0.383556067943573
1.1655070781707764,0.19077417254447937,-0.54866623878479,0.4990740716457367,-0.11729979515075684,0.06716728210449219,-0.38239189982414246
1.1858916282653809,0.19105949997901917,-0.5533168315887451,0.49944838881492615,-0.11684384942054749,0.0680849477648735,-0.38126614689826965
1.206068754196167,0.19120804965496063,-0.5556375980377197,0.49963387846946716,-0.11661876738071442,0.06854600459337234,-0.38071539998054504
1.2261905670166016,0.191502183675766,-0.5602704882621765,0.5000054240226746,-0.1161813959479332,0.0694706067442894,-0.37963899970054626
1.2463278770446777,0.19164122641086578,-0.5625813603401184,0.5001978874206543,-0.11597639322280884,0.06992500275373459,-0.37911516427993774
1.2663326263427734,0.19191037118434906,-0.5671960115432739,0.5005884766578674,-0.11557956039905548,0.07082927972078323,-0.37809324264526367
1.2864501476287842,0.19218343496322632,-0.5718038082122803,0.5009818077087402,-0.115199975669384,0.07172512263059616,-0.37710538506507874
1.306640386581421,0.19246499240398407,-0.5764156579971313,0.5013633966445923,-0.11482391506433487,0.07263390719890594,-0.3761482238769531
1.3267228603363037,0.19260752201080322,-0.5787211656570435,0.5015535950660706,-0.11463366448879242,0.07308778911828995,-0.37568429112434387
1.3467960357666016,0.19289250671863556,-0.5833292007446289,0.5019354224205017,-0.11424568295478821,0.07399500161409378,-0.37478840351104736
1.3668339252471924,0.19317086040973663,-0.587918221950531,0.5023348927497864,-0.11384645104408264,0.07488244771957397,-0.3739382326602936
1.3869476318359375,0.1933002918958664,-0.5902085304260254,0.5025416016578674,-0.11365722864866257,0.07531919330358505,-0.3735269010066986
1.4070453643798828,0.19355127215385437,-0.594781219959259,0.5029639601707458,-0.11330389231443405,0.07617885619401932,-0.3727262318134308
1.427215576171875,0.19380119442939758,-0.599354088306427,0.5033837556838989,-0.11299128830432892,0.07703443616628647,-0.37194857001304626
1.4475138187408447,0.19405747950077057,-0.603923499584198,0.5037965178489685,-0.112694650888443,0.07789300382137299,-0.3711920976638794
1.4675893783569336,0.19418464601039886,-0.6062060594558716,0.5040016770362854,-0.11254779994487762,0.07832343876361847,-0.37082183361053467
1.4876594543457031,0.19442299008369446,-0.6107710003852844,0.5044161677360535,-0.11225501447916031,0.07918050140142441,-0.37009862065315247
1.5077064037322998,0.19466030597686768,-0.615334689617157,0.5048372149467468,-0.1119544580578804,0.0800221860408783,-0.3694014847278595
1.5277938842773438,0.19478106498718262,-0.6176129579544067,0.5050505995750427,-0.11180669814348221,0.0804363489151001,-0.36906272172927856
1.5478835105895996,0.1950375884771347,-0.6221605539321899,0.505472719669342,-0.11151674389839172,0.08126559853553772,-0.368399977684021
1.5679316520690918,0.19529344141483307,-0.6266916394233704,0.5058931708335876,-0.11124184727668762,0.08209633827209473,-0.3677574098110199
1.5880210399627686,0.19541798532009125,-0.6289539337158203,0.506102979183197,-0.1111074835062027,0.08251108229160309,-0.36744362115859985
1.6080904006958008,0.19564828276634216,-0.6334701180458069,0.5065305829048157,-0.11084885895252228,0.08333034813404083,-0.3668330907821655
1.6281538009643555,0.19584836065769196,-0.6379734873771667,0.5069730281829834,-0.11061152070760727,0.08413203060626984,-0.3662439286708832
1.6482017040252686,0.19603891670703888,-0.6424627304077148,0.5074233412742615,-0.11038590222597122,0.08492356538772583,-0.3656739890575409
1.6682884693145752,0.19614116847515106,-0.644702672958374,0.5076468586921692,-0.1102735698223114,0.08531877398490906,-0.36539533734321594
1.6883571147918701,0.1963484138250351,-0.6491736769676208,0.5080950260162354,-0.11005760729312897,0.08610323071479797,-0.36485087871551514
1.7084465026855469,0.19654424488544464,-0.6536352634429932,0.5085501670837402,-0.10985250771045685,0.08687512576580048,-0.36432453989982605
1.7286713123321533,0.19664205610752106,-0.6558624505996704,0.5087792873382568,-0.10975069552659988,0.08725710958242416,-0.36406823992729187
1.7486815452575684,0.19685140252113342,-0.6603065729141235,0.5092352032661438,-0.10953695327043533,0.08801904320716858,-0.36357003450393677
1.7687382698059082,0.1970759630203247,-0.664739191532135,0.5096836090087891,-0.10931575298309326,0.08878707140684128,-0.36308807134628296
1.7888078689575195,0.19718635082244873,-0.6669521331787109,0.5099070072174072,-0.1092052161693573,0.08917155861854553,-0.36285316944122314
1.8088939189910889,0.1973847597837448,-0.6713730692863464,0.510357141494751,-0.10899143666028976,0.08993930369615555,-0.36239367723464966
1.8289906978607178,0.19756843149662018,-0.6757832765579224,0.5108107924461365,-0.10878448188304901,0.09070272743701935,-0.3619479835033417
1.849039077758789,0.19775009155273438,-0.6801840662956238,0.5112611055374146,-0.10858972370624542,0.09146936237812042,-0.36151283979415894
1.86916184425354,0.19784538447856903,-0.6823803782463074,0.5114841461181641,-0.1084943488240242,0.09185365587472916,-0.3613000512123108
1.8892927169799805,0.1980212926864624,-0.6867639422416687,0.5119357705116272,-0.10831455141305923,0.0926140770316124,-0.36088722944259644
1.9092347621917725,0.19818119704723358,-0.6911289095878601,0.5123996138572693,-0.10814178735017776,0.0933595821261406,-0.3604934811592102
1.9293179512023926,0.1982644647359848,-0.6933057308197021,0.5126317143440247,-0.1080554723739624,0.09373054653406143,-0.3603021502494812
1.9494850635528564,0.198445662856102,-0.6976537108421326,0.5130888819694519,-0.1078839898109436,0.09447575360536575,-0.35992684960365295
1.9695160388946533,0.1986362487077713,-0.7019943594932556,0.5135393142700195,-0.10771346837282181,0.09522299468517303,-0.35956379771232605
1.989581823348999,0.19871747493743896,-0.7041592597961426,0.513770580291748,-0.1076328232884407,0.09558916091918945,-0.3593894839286804
2.0096704959869385,0.19886747002601624,-0.7084754705429077,0.51424241065979,-0.10746940225362778,0.09631145000457764,-0.35905563831329346
2.0298266410827637,0.19902868568897247,-0.7127789855003357,0.5147128105163574,-0.10729293525218964,0.09703236073255539,-0.3587384819984436
2.049914836883545,0.19922491908073425,-0.7170782089233398,0.5151653289794922,-0.10709582269191742,0.09776869416236877,-0.35843655467033386
2.07002592086792,0.1993275284767151,-0.7192268371582031,0.5153878927230835,-0.10699666291475296,0.09813904762268066,-0.3582930862903595
2.090181827545166,0.19952532649040222,-0.723524272441864,0.5158360004425049,-0.10680732131004333,0.09886865317821503,-0.3580227196216583
2.110182762145996,0.19961310923099518,-0.7256679534912109,0.5160670876502991,-0.1067250445485115,0.09922298789024353,-0.35789522528648376
2.1302642822265625,0.19978171586990356,-0.7299407124519348,0.516537606716156,-0.10657159239053726,0.099918432533741,-0.357649564743042
2.1503543853759766,0.19994516670703888,-0.7341886758804321,0.517012894153595,-0.10643065720796585,0.10060835629701614,-0.3574110269546509
2.1704142093658447,0.2000313252210617,-0.7363091707229614,0.5172454714775085,-0.10635976493358612,0.10095828026533127,-0.3572923243045807
2.190485954284668,0.20020261406898499,-0.740542471408844,0.5177066922187805,-0.10622652620077133,0.10165916383266449,-0.35705843567848206
2.210606098175049,0.2003677487373352,-0.7447637915611267,0.5181642770767212,-0.106098473072052,0.1023617759346962,-0.3568298816680908
2.230668067932129,0.20051532983779907,-0.74896639585495,0.518631637096405,-0.10597162693738937,0.10304874926805496,-0.3566136360168457
2.250777006149292,0.20058250427246094,-0.751063346862793,0.5188671350479126,-0.10590624064207077,0.10338888317346573,-0.35650986433029175
2.270845651626587,0.200714111328125,-0.7552496790885925,0.5193384885787964,-0.10577676445245743,0.10406545549631119,-0.35630926489830017
2.2909228801727295,0.20085984468460083,-0.7594243884086609,0.519801676273346,-0.10564836114645004,0.10474863648414612,-0.3561137616634369
2.3110287189483643,0.20094096660614014,-0.761503279209137,0.5200330018997192,-0.10558364540338516,0.10508798807859421,-0.35601869225502014
2.3310763835906982,0.2011069506406784,-0.7656489014625549,0.5204963684082031,-0.10545097291469574,0.10576021671295166,-0.3558344542980194
2.3511226177215576,0.20125718414783478,-0.7697795033454895,0.5209673047065735,-0.10531968623399734,0.10641849040985107,-0.3556586503982544
2.371216297149658,0.20139411091804504,-0.7738977670669556,0.5214416980743408,-0.10520356148481369,0.1070689782500267,-0.3554878532886505
2.3913042545318604,0.20146340131759644,-0.7759509086608887,0.5216787457466125,-0.10514893382787704,0.10739276558160782,-0.3554039001464844
2.4113714694976807,0.20161832869052887,-0.7800462245941162,0.5221466422080994,-0.105035699903965,0.10804098099470139,-0.3552389144897461
2.4314208030700684,0.20176929235458374,-0.7841272354125977,0.5226132869720459,-0.10492181032896042,0.10868563503026962,-0.35508134961128235
2.4517390727996826,0.20183530449867249,-0.7861611843109131,0.5228493809700012,-0.10486949235200882,0.10900450497865677,-0.3550054728984833
2.471964120864868,0.20195937156677246,-0.7902166843414307,0.5233244299888611,-0.10477613657712936,0.1096404492855072,-0.3548584282398224
2.491962432861328,0.20209115743637085,-0.7942596077919006,0.5237946510314941,-0.10468664020299911,0.11028040200471878,-0.3547140061855316
2.5120644569396973,0.20223578810691833,-0.7982944250106812,0.5242531895637512,-0.1045929417014122,0.1109299585223198,-0.35457125306129456
2.5322020053863525,0.20230375230312347,-0.8003074526786804,0.5244812369346619,-0.1045459508895874,0.11125463247299194,-0.3545010983943939
2.5522565841674805,0.20242567360401154,-0.8043150305747986,0.5249461531639099,-0.10445300489664078,0.1118902862071991,-0.35436761379241943
2.572305679321289,0.2025424838066101,-0.8083027601242065,0.525414764881134,-0.10435988008975983,0.11251822113990784,-0.35423991084098816
2.5924322605133057,0.20260310173034668,-0.8102914094924927,0.5256478786468506,-0.10431366413831711,0.1128314882516861,-0.35417717695236206
2.612504243850708,0.20273923873901367,-0.814262330532074,0.526104211807251,-0.10421311110258102,0.11346574872732162,-0.35405200719833374
2.6325857639312744,0.20288363099098206,-0.8182175755500793,0.5265594720840454,-0.10410483181476593,0.11409317702054977,-0.3539341390132904
2.6529085636138916,0.20301520824432373,-0.8221542835235596,0.5270202159881592,-0.10399425774812698,0.11471058428287506,-0.3538249433040619
2.67301869392395,0.20307360589504242,-0.8241153359413147,0.5272549986839294,-0.10394107550382614,0.11501195281744003,-0.35377398133277893
2.6930816173553467,0.2031896561384201,-0.8280346989631653,0.5277215242385864,-0.10383699089288712,0.11561401933431625,-0.3536737859249115
2.713118314743042,0.2033161222934723,-0.8319467902183533,0.5281811356544495,-0.10373608022928238,0.11622127145528793,-0.35357487201690674
2.733189582824707,0.2033846080303192,-0.8338987827301025,0.5284081697463989,-0.10368632525205612,0.11652687937021255,-0.3535264730453491
2.753343343734741,0.2035071849822998,-0.837783932685852,0.5288681387901306,-0.10359436273574829,0.11713076382875443,-0.3534351885318756
2.7734243869781494,0.2036106437444687,-0.841648280620575,0.5293362140655518,-0.10351503640413284,0.11772288382053375,-0.35335078835487366
2.7934460639953613,0.20371468365192413,-0.8454985618591309,0.5298011898994446,-0.10343902558088303,0.11831660568714142,-0.35326769948005676
2.8136181831359863,0.20377355813980103,-0.847419798374176,0.5300303101539612,-0.10340184718370438,0.11861586570739746,-0.3532264530658722
2.8336777687072754,0.2039034217596054,-0.8512539863586426,0.5304821729660034,-0.10331959277391434,0.1192159354686737,-0.35314682126045227
2.853732109069824,0.2040368616580963,-0.8550782203674316,0.5309279561042786,-0.10323319584131241,0.1198153868317604,-0.3530730903148651
2.874110698699951,0.20416593551635742,-0.8588954210281372,0.5313688516616821,-0.1031411737203598,0.1204129233956337,-0.35300734639167786
2.894207000732422,0.20422083139419556,-0.8608009219169617,0.53159099817276,-0.10309788584709167,0.12070812284946442,-0.3529801070690155
2.914306640625,0.2043130099773407,-0.8645991683006287,0.5320433974266052,-0.10301779955625534,0.12128973752260208,-0.3529389798641205
2.9343385696411133,0.20440168678760529,-0.8683763742446899,0.5325025320053101,-0.10294204205274582,0.12186719477176666,-0.3529120683670044
2.954437255859375,0.20445233583450317,-0.8702563047409058,0.5327318906784058,-0.1029035821557045,0.12215662002563477,-0.35290107131004333
2.9745068550109863,0.20455756783485413,-0.8740028142929077,0.5331902503967285,-0.10282599180936813,0.12273282557725906,-0.3528805673122406
2.994558572769165,0.20466358959674835,-0.8777322769165039,0.5336487889289856,-0.10274569690227509,0.1233043521642685,-0.3528619110584259
3.014652967453003,0.20471757650375366,-0.8795911073684692,0.5338765382766724,-0.10270427167415619,0.12359140813350677,-0.3528522849082947
3.0348641872406006,0.20483656227588654,-0.8833001255989075,0.5343241095542908,-0.10261792689561844,0.12417151033878326,-0.3528311252593994
3.0547943115234375,0.20496053993701935,-0.8869963884353638,0.5347655415534973,-0.10253557562828064,0.12475306540727615,-0.3528074324131012
3.0748775005340576,0.20502448081970215,-0.888838529586792,0.5349865555763245,-0.10249435901641846,0.12503953278064728,-0.3527960777282715
3.094940662384033,0.20514972507953644,-0.8925092220306396,0.5354300737380981,-0.10241308808326721,0.12560628354549408,-0.352774977684021
3.115053653717041,0.20525068044662476,-0.8961640000343323,0.5358794927597046,-0.10233554244041443,0.12616214156150818,-0.35275784134864807
3.1351282596588135,0.20534269511699677,-0.8998151421546936,0.536323070526123,-0.10225523263216019,0.1267205774784088,-0.3527402877807617
3.15519380569458,0.20538997650146484,-0.9016386270523071,0.5365421175956726,-0.10221593081951141,0.12700186669826508,-0.3527311682701111
3.175276041030884,0.20550337433815002,-0.9052749872207642,0.5369744896888733,-0.1021360456943512,0.12756817042827606,-0.3527122139930725
3.1953279972076416,0.20560680329799652,-0.9088849425315857,0.5374159216880798,-0.10207159072160721,0.1281217783689499,-0.3526962995529175
3.2154107093811035,0.20565125346183777,-0.9106800556182861,0.537641704082489,-0.10204371064901352,0.1283920556306839,-0.3526897132396698
3.23549485206604,0.20573630928993225,-0.9142568707466125,0.5380949378013611,-0.10198910534381866,0.1289285272359848,-0.3526776134967804
3.255577564239502,0.20583251118659973,-0.9178202748298645,0.5385422110557556,-0.10193032771348953,0.1294686496257782,-0.3526653051376343
3.2756402492523193,0.2058868706226349,-0.9195979237556458,0.538762092590332,-0.10190090537071228,0.1297406554222107,-0.3526584506034851
3.29573130607605,0.20599709451198578,-0.9231438636779785,0.5391976833343506,-0.10184379667043686,0.13028544187545776,-0.3526439070701599
3.3158040046691895,0.20609048008918762,-0.9266775846481323,0.5396351218223572,-0.1017882227897644,0.13082098960876465,-0.3526309132575989
3.336050271987915,0.20618323981761932,-0.930206298828125,0.5400709509849548,-0.10171747207641602,0.13134871423244476,-0.35262301564216614
3.3562099933624268,0.20623061060905457,-0.9319666624069214,0.5402897000312805,-0.10167928785085678,0.1316087543964386,-0.3526214063167572
3.3762712478637695,0.20633919537067413,-0.9354767203330994,0.5407214164733887,-0.1016041561961174,0.13213543593883514,-0.35261833667755127
3.3963217735290527,0.20643755793571472,-0.9389611482620239,0.5411540269851685,-0.10154151171445847,0.13266369700431824,-0.3526138961315155
3.416553258895874,0.20647843182086945,-0.9406935572624207,0.5413732528686523,-0.10151532292366028,0.13292403519153595,-0.3526119589805603
3.436657667160034,0.20655737817287445,-0.9441431164741516,0.5418119430541992,-0.10145989060401917,0.13344308733940125,-0.35260847210884094
3.4567086696624756,0.20664426684379578,-0.947579026222229,0.5422437787055969,-0.10140148550271988,0.13396669924259186,-0.3526029884815216
3.4768574237823486,0.206745445728302,-0.9510060548782349,0.5426653027534485,-0.10134478658437729,0.13449648022651672,-0.3525947630405426
3.49699068069458,0.20679806172847748,-0.9527146816253662,0.5428763628005981,-0.10131953656673431,0.1347571164369583,-0.35259193181991577
3.5170371532440186,0.2068977952003479,-0.9561180472373962,0.5433024168014526,-0.10127440094947815,0.13526879251003265,-0.35259056091308594
3.5370993614196777,0.20698434114456177,-0.9594994783401489,0.5437378287315369,-0.10123316198587418,0.13576404750347137,-0.35259589552879333
3.5571727752685547,0.2070269137620926,-0.9611829519271851,0.5439562201499939,-0.10121172666549683,0.13600961863994598,-0.3525994122028351
3.577246904373169,0.20712266862392426,-0.964539647102356,0.5443880558013916,-0.1011638417840004,0.13650394976139069,-0.35260534286499023
3.597308397293091,0.20723426342010498,-0.9678869247436523,0.5448049902915955,-0.10110516846179962,0.13701209425926208,-0.3526079058647156
3.61786150932312,0.20729252696037292,-0.9695566296577454,0.5450092554092407,-0.1010734811425209,0.1372693032026291,-0.35260918736457825
3.6379454135894775,0.20740753412246704,-0.9728877544403076,0.5454115867614746,-0.10101179778575897,0.13778741657733917,-0.35261237621307373
3.6579949855804443,0.20751361548900604,-0.9762038588523865,0.545815110206604,-0.10095392912626266,0.13829754292964935,-0.35261860489845276
3.678070068359375,0.20759789645671844,-0.9795030951499939,0.5462254285812378,-0.10090406239032745,0.13879580795764923,-0.3526277244091034
3.69816255569458,0.2076367437839508,-0.9811471700668335,0.5464323163032532,-0.1008802279829979,0.13904206454753876,-0.3526332676410675
3.718233108520508,0.20772641897201538,-0.9844288229942322,0.5468397736549377,-0.1008291244506836,0.13954070210456848,-0.3526446521282196
3.7382822036743164,0.20783717930316925,-0.9877032041549683,0.5472372174263,-0.10076675564050674,0.1400459259748459,-0.35265907645225525
3.7584335803985596,0.20789535343647003,-0.9893369078636169,0.5474338531494141,-0.10073252767324448,0.14029818773269653,-0.352668821811676
3.778618335723877,0.2079997956752777,-0.9925926923751831,0.5478308796882629,-0.10066436976194382,0.14079347252845764,-0.35269832611083984
3.7986602783203125,0.2080790251493454,-0.9958257675170898,0.5482390522956848,-0.10060548037290573,0.14127403497695923,-0.35274049639701843
3.818671703338623,0.2081492841243744,-0.9990355372428894,0.5486525297164917,-0.10055109858512878,0.14175279438495636,-0.35279130935668945
3.8387527465820312,0.20818814635276794,-1.0006345510482788,0.5488570332527161,-0.10052462667226791,0.14199601113796234,-0.3528161644935608
3.85884428024292,0.20827753841876984,-1.0038292407989502,0.5492556095123291,-0.10047070682048798,0.14249171316623688,-0.35286277532577515
3.878878116607666,0.20837080478668213,-1.0070198774337769,0.5496494174003601,-0.10042126476764679,0.14298097789287567,-0.3529079556465149
3.8989672660827637,0.20841190218925476,-1.008610725402832,0.5498486161231995,-0.10040049999952316,0.14321847259998322,-0.35293179750442505
3.9190261363983154,0.2084827423095703,-1.011773705482483,0.5502581596374512,-0.10036390274763107,0.1436755508184433,-0.3529830873012543
3.9390738010406494,0.2085464894771576,-1.0149110555648804,0.5506728291511536,-0.1003282442688942,0.14412614703178406,-0.35303452610969543
3.9591455459594727,0.20858469605445862,-1.0164730548858643,0.55087810754776,-0.1003069207072258,0.1443532258272171,-0.3530593812465668
3.979231834411621,0.2086673229932785,-1.019590973854065,0.5512789487838745,-0.10026472806930542,0.14481580257415771,-0.3531044125556946
3.9993488788604736,0.20874999463558197,-1.0226973295211792,0.5516718029975891,-0.10022397339344025,0.14528395235538483,-0.3531452417373657
4.019370794296265,0.2088068276643753,-1.0257842540740967,0.5520673394203186,-0.10018908232450485,0.14574669301509857,-0.3531852066516876
4.039459705352783,0.20883122086524963,-1.027319073677063,0.5522676110267639,-0.10017241537570953,0.14597448706626892,-0.3532058894634247
4.059674978256226,0.20888426899909973,-1.0303771495819092,0.5526662468910217,-0.10013530403375626,0.14643001556396484,-0.3532460331916809
4.079791307449341,0.20895524322986603,-1.0334223508834839,0.5530585646629333,-0.1000874787569046,0.14688840508460999,-0.3532841205596924
4.099835157394409,0.20901860296726227,-1.0364506244659424,0.5534533262252808,-0.10004353523254395,0.1473388522863388,-0.35332179069519043
4.1199562549591064,0.20904913544654846,-1.0379583835601807,0.5536511540412903,-0.10002270340919495,0.14756286144256592,-0.35334092378616333
4.140074253082275,0.20911748707294464,-1.0409656763076782,0.5540434718132019,-0.09998548030853271,0.1480136513710022,-0.3533790707588196
4.160077810287476,0.20920729637145996,-1.0439658164978027,0.5544237494468689,-0.09994081407785416,0.14847435057163239,-0.35341617465019226
4.18016791343689,0.2092554271221161,-1.0454607009887695,0.5546127557754517,-0.09991686046123505,0.14870353043079376,-0.35343512892723083
4.20024299621582,0.2093515396118164,-1.0484387874603271,0.5549887418746948,-0.09986554086208344,0.14916080236434937,-0.35347282886505127
4.220295190811157,0.2094256430864334,-1.0513988733291626,0.5553668737411499,-0.09981977939605713,0.14961297810077667,-0.35350966453552246
4.240607023239136,0.2094816118478775,-1.0543429851531982,0.555747389793396,-0.09978093206882477,0.1500602513551712,-0.35354477167129517
4.26074481010437,0.20951159298419952,-1.055809497833252,0.5559384822845459,-0.09976055473089218,0.15028071403503418,-0.35356226563453674
4.2808544635772705,0.20959274470806122,-1.0587327480316162,0.5563154220581055,-0.09970938414335251,0.1507231742143631,-0.3535967171192169
4.300914525985718,0.20969080924987793,-1.0616443157196045,0.5566832423210144,-0.09964944422245026,0.15116962790489197,-0.35362911224365234
4.320947885513306,0.20974044501781464,-1.0630943775177002,0.5568649768829346,-0.09961839020252228,0.15139438211917877,-0.35364460945129395
4.341205358505249,0.20982524752616882,-1.0659810304641724,0.5572320818901062,-0.09956478327512741,0.15183617174625397,-0.35367563366889954
4.361191272735596,0.20988605916500092,-1.0688480138778687,0.5576088428497314,-0.0995263010263443,0.15226347744464874,-0.3537093698978424
4.381244659423828,0.20991449058055878,-1.0702764987945557,0.5577974915504456,-0.09950871765613556,0.15247540175914764,-0.3537268042564392
4.4013166427612305,0.20998260378837585,-1.0731257200241089,0.5581692457199097,-0.0994698703289032,0.15290454030036926,-0.35376158356666565
4.4214043617248535,0.21007156372070312,-1.0759663581848145,0.5585260391235352,-0.09941595047712326,0.15334965288639069,-0.35379356145858765
4.44149923324585,0.21011793613433838,-1.0773814916610718,0.5587018132209778,-0.09938696771860123,0.1535731703042984,-0.3538091480731964
4.46163272857666,0.21021242439746857,-1.0802000761032104,0.5590495467185974,-0.09932620823383331,0.15401923656463623,-0.35384032130241394
4.48171067237854,0.21029634773731232,-1.083000898361206,0.5594022274017334,-0.09927091747522354,0.15445074439048767,-0.353873074054718
4.501752138137817,0.21033039689064026,-1.0843952894210815,0.5595802664756775,-0.09924644231796265,0.15466256439685822,-0.35388901829719543
4.521847248077393,0.21038644015789032,-1.0871756076812744,0.5599365830421448,-0.0992051512002945,0.15508456528186798,-0.35391765832901
4.541918516159058,0.21045376360416412,-1.0899441242218018,0.5602893829345703,-0.09916125982999802,0.15550781786441803,-0.35394373536109924
4.56196403503418,0.21054157614707947,-1.0926998853683472,0.5606358647346497,-0.0991092249751091,0.1559341847896576,-0.35396939516067505
4.582065105438232,0.21058954298496246,-1.0940744876861572,0.5608070492744446,-0.09908108413219452,0.1561473160982132,-0.3539828360080719
4.602120876312256,0.2106751799583435,-1.0968185663223267,0.5611496567726135,-0.09903144091367722,0.15656602382659912,-0.35401225090026855
4.622217416763306,0.21073685586452484,-1.0995491743087769,0.5615032315254211,-0.09899429976940155,0.1569644957780838,-0.35404694080352783
4.642326354980469,0.21076272428035736,-1.1009085178375244,0.5616818070411682,-0.09897936880588531,0.15716087818145752,-0.3540642261505127
4.662404537200928,0.21081922948360443,-1.103613018989563,0.5620372891426086,-0.09895296394824982,0.15755823254585266,-0.3540967106819153
4.682538270950317,0.21089954674243927,-1.1063029766082764,0.5623828172683716,-0.09891755878925323,0.15796779096126556,-0.3541260361671448
4.702853441238403,0.2109432965517044,-1.107641577720642,0.5625547170639038,-0.09889611601829529,0.15817216038703918,-0.3541409969329834
4.722999811172485,0.21101513504981995,-1.1103047132492065,0.5629034638404846,-0.09885327517986298,0.15857112407684326,-0.3541721999645233
4.743119716644287,0.2110716849565506,-1.1129554510116577,0.5632520318031311,-0.09881427139043808,0.15896867215633392,-0.3542024493217468
4.7631402015686035,0.2110990285873413,-1.1142768859863281,0.5634244084358215,-0.09879496693611145,0.15916965901851654,-0.3542167842388153
4.783204793930054,0.21116967499256134,-1.116912841796875,0.5637614130973816,-0.09874783456325531,0.1595797836780548,-0.35424479842185974
4.803311347961426,0.2112278938293457,-1.11952805519104,0.5641072988510132,-0.0987054705619812,0.15997453033924103,-0.3542766869068146
4.823363304138184,0.2112865000963211,-1.1221269369125366,0.5644543170928955,-0.09866148978471756,0.16036495566368103,-0.3543097972869873
4.843491315841675,0.2113189697265625,-1.123422384262085,0.5646253824234009,-0.09864036738872528,0.16056297719478607,-0.3543250858783722
4.863541841506958,0.2114076018333435,-1.1260098218917847,0.5649552941322327,-0.0985884815454483,0.16097386181354523,-0.35435372591018677
4.883618354797363,0.2115011215209961,-1.1285853385925293,0.5652806758880615,-0.09853439033031464,0.1613861322402954,-0.3543842136859894
4.9037158489227295,0.21154727041721344,-1.1298679113388062,0.5654425621032715,-0.09850645065307617,0.16159088909626007,-0.35440048575401306
4.923795223236084,0.2116328775882721,-1.1324231624603271,0.5657646656036377,-0.09845273941755295,0.16199685633182526,-0.3544330596923828
4.943896532058716,0.21169540286064148,-1.1349602937698364,0.5660971999168396,-0.09840415418148041,0.16238397359848022,-0.3544711768627167
4.964247941970825,0.2117239385843277,-1.1362245082855225,0.566264271736145,-0.0983768105506897,0.1625753492116928,-0.35449326038360596
4.984333038330078,0.21179461479187012,-1.1387438774108887,0.5665993690490723,-0.0983048677444458,0.16295543313026428,-0.35454946756362915
5.004484176635742,0.21189947426319122,-1.141252875328064,0.5669220089912415,-0.09820198267698288,0.16335143148899078,-0.35461682081222534
5.024670839309692,0.2119562327861786,-1.1425023078918457,0.5670809745788574,-0.09814810752868652,0.16355274617671967,-0.3546522557735443
5.044814825057983,0.21205022931098938,-1.1449930667877197,0.5673992037773132,-0.09806003421545029,0.1639542430639267,-0.35471898317337036
5.064904451370239,0.21211057901382446,-1.1474730968475342,0.5677251219749451,-0.09801435470581055,0.1643434762954712,-0.35477951169013977
5.085067987442017,0.2121654748916626,-1.1499388217926025,0.5680590271949768,-0.09799009561538696,0.16471914947032928,-0.3548382520675659
5.105180740356445,0.21220265328884125,-1.1511666774749756,0.5682260990142822,-0.09797710925340652,0.16490529477596283,-0.354867547750473
5.125475168228149,0.21229326725006104,-1.1536130905151367,0.5685606598854065,-0.09794701635837555,0.1652713119983673,-0.3549264967441559
5.145412445068359,0.2123885601758957,-1.1560473442077637,0.5688905715942383,-0.09791426360607147,0.1656356304883957,-0.35498374700546265
5.16552209854126,0.21243326365947723,-1.1572598218917847,0.569054365158081,-0.09790118783712387,0.16581663489341736,-0.35501137375831604
5.1855785846710205,0.21249809861183167,-1.159672737121582,0.5693818926811218,-0.0978834256529808,0.1661759614944458,-0.3550642430782318
5.205645799636841,0.21254855394363403,-1.162072777748108,0.5697061419487,-0.09787113964557648,0.16653843224048615,-0.3551129400730133
5.2257397174835205,0.2125752717256546,-1.163267970085144,0.5698665380477905,-0.09786132723093033,0.16672177612781525,-0.3551369607448578
5.245840549468994,0.21264855563640594,-1.1656537055969238,0.5701780319213867,-0.09783241152763367,0.1670975387096405,-0.3551822304725647
5.265945196151733,0.21273715794086456,-1.1680245399475098,0.5704898238182068,-0.0977981761097908,0.16746549308300018,-0.35522952675819397
5.2859673500061035,0.2127825915813446,-1.1692065000534058,0.5706450939178467,-0.09778355062007904,0.16764627397060394,-0.3552524149417877
5.306132793426514,0.21287629008293152,-1.1715630292892456,0.5709559321403503,-0.09775469452142715,0.1679992824792862,-0.35529839992523193
5.32622766494751,0.2129461169242859,-1.1739040613174438,0.5712738037109375,-0.09773984551429749,0.16833879053592682,-0.3553454279899597
5.346347332000732,0.21300336718559265,-1.1762272119522095,0.5715974569320679,-0.09773454070091248,0.16867142915725708,-0.3553938865661621
5.366430044174194,0.21303415298461914,-1.1773841381072998,0.5717574954032898,-0.09772960096597672,0.16884011030197144,-0.3554181754589081
5.386497974395752,0.21311521530151367,-1.1796964406967163,0.572063684463501,-0.09770827740430832,0.16919183731079102,-0.3554629981517792
5.406559944152832,0.21320700645446777,-1.1820032596588135,0.5723530650138855,-0.09767728298902512,0.1695605367422104,-0.3555031716823578
5.4266862869262695,0.21325130760669708,-1.183153748512268,0.5724955201148987,-0.09766477346420288,0.1697460561990738,-0.35552167892456055
5.446729898452759,0.2133338302373886,-1.1854413747787476,0.5727863907814026,-0.09763924777507782,0.17010580003261566,-0.3555610179901123
5.466817378997803,0.2133977860212326,-1.1877045631408691,0.5730926990509033,-0.09761305898427963,0.1704428642988205,-0.355606347322464
5.48687219619751,0.21342700719833374,-1.1888279914855957,0.5732492208480835,-0.09759796410799026,0.1706063151359558,-0.355630487203598
5.506940126419067,0.21349477767944336,-1.1910696029663086,0.5735557079315186,-0.09756829589605331,0.170940563082695,-0.3556751310825348
5.527128458023071,0.21358293294906616,-1.1933099031448364,0.5738495588302612,-0.09753880649805069,0.1712852269411087,-0.3557130694389343
5.54711389541626,0.21362996101379395,-1.1944276094436646,0.5739936828613281,-0.0975247472524643,0.17145831882953644,-0.35573074221611023
5.567182540893555,0.21371813118457794,-1.1966526508331299,0.5742824673652649,-0.09749869257211685,0.17179954051971436,-0.35576581954956055
5.587284564971924,0.21378199756145477,-1.198857307434082,0.574580729007721,-0.09748008102178574,0.17212489247322083,-0.3558031916618347
5.6073157787323,0.21383315324783325,-1.201049566268921,0.5748786330223083,-0.09746605902910233,0.17244912683963776,-0.35583773255348206
5.627405881881714,0.2138579785823822,-1.2021422386169434,0.5750260353088379,-0.0974603071808815,0.1726130247116089,-0.355853408575058
5.647479057312012,0.21392479538917542,-1.2043253183364868,0.5753099918365479,-0.09744074940681458,0.17295394837856293,-0.3558822274208069
5.667524576187134,0.21400460600852966,-1.2064968347549438,0.5755903124809265,-0.097410187125206,0.17329660058021545,-0.35591429471969604
5.687612533569336,0.2140478491783142,-1.2075775861740112,0.5757309198379517,-0.09739185124635696,0.17346495389938354,-0.355932354927063
5.707672834396362,0.21412986516952515,-1.2097264528274536,0.5760180354118347,-0.0973571166396141,0.17378810048103333,-0.3559717535972595
5.733173847198486,0.2141622006893158,-1.2107932567596436,0.5761682987213135,-0.09734603762626648,0.1739385426044464,-0.3559931516647339
5.753368854522705,0.21417295932769775,-1.2118514776229858,0.5763282179832458,-0.09734439104795456,0.17407619953155518,-0.3560166358947754
5.773455381393433,0.21414439380168915,-1.2139533758163452,0.57667475938797,-0.09735435992479324,0.1743127703666687,-0.35607123374938965
5.7934653759002686,0.2141110748052597,-1.216044306755066,0.5770336389541626,-0.09735992550849915,0.17454786598682404,-0.3561279773712158
5.813563346862793,0.21411645412445068,-1.217093586921692,0.5772027969360352,-0.09735230356454849,0.1746869534254074,-0.3561519384384155
5.833619832992554,0.21417377889156342,-1.219190001487732,0.577515184879303,-0.09732389450073242,0.17501457035541534,-0.3561895191669464
5.853692531585693,0.2142498642206192,-1.2212811708450317,0.5778073072433472,-0.09729168564081192,0.1753704696893692,-0.3562188148498535
5.873783349990845,0.21432723104953766,-1.223361849784851,0.5780946016311646,-0.09725593030452728,0.17572470009326935,-0.35624685883522034
5.893873691558838,0.21436572074890137,-1.224397897720337,0.5782366394996643,-0.09723722189664841,0.17590118944644928,-0.35626062750816345
5.913940191268921,0.21444261074066162,-1.2264604568481445,0.5785202980041504,-0.09720004349946976,0.17624886333942413,-0.3562886118888855
5.933993577957153,0.21451926231384277,-1.2285077571868896,0.5788073539733887,-0.09716629981994629,0.17658500373363495,-0.3563190698623657
5.954073905944824,0.21455855667591095,-1.2295252084732056,0.5789542198181152,-0.09714894741773605,0.1767466515302658,-0.3563363552093506
5.974272727966309,0.2146311104297638,-1.2315471172332764,0.5792521834373474,-0.09711749851703644,0.1770612746477127,-0.35637298226356506
5.9943742752075195,0.21468734741210938,-1.2335501909255981,0.5795587301254272,-0.09709051251411438,0.17736147344112396,-0.3564126193523407
6.014386415481567,0.21474365890026093,-1.235546350479126,0.5798630118370056,-0.09706337004899979,0.17765933275222778,-0.35645169019699097
6.034579277038574,0.21477504074573517,-1.2365440130233765,0.5800127387046814,-0.0970495194196701,0.1778094619512558,-0.35647064447402954
6.05462908744812,0.21485170722007751,-1.2385369539260864,0.5803030729293823,-0.0970165878534317,0.17811983823776245,-0.3565073013305664
6.0746941566467285,0.2149277925491333,-1.2405186891555786,0.5805866718292236,-0.09698828309774399,0.17843782901763916,-0.3565415143966675
6.094867706298828,0.21496398746967316,-1.241504430770874,0.5807273983955383,-0.09697683155536652,0.1785971224308014,-0.35655802488327026
6.11490797996521,0.21503695845603943,-1.2434661388397217,0.5810105800628662,-0.09695395827293396,0.17890924215316772,-0.35659173130989075
6.135033369064331,0.21507224440574646,-1.2444409132003784,0.581155002117157,-0.09694315493106842,0.17905952036380768,-0.3566098213195801
6.1551361083984375,0.21513111889362335,-1.2463792562484741,0.5814477205276489,-0.09692560136318207,0.1793520301580429,-0.35664603114128113
6.175224304199219,0.21517837047576904,-1.2483055591583252,0.5817402601242065,-0.09691204875707626,0.179642915725708,-0.35668009519577026
6.195296049118042,0.21520312130451202,-1.2492660284042358,0.5818840265274048,-0.09690423309803009,0.17979103326797485,-0.35669559240341187
6.215449810028076,0.21526597440242767,-1.2511833906173706,0.58216392993927,-0.09687783569097519,0.18009459972381592,-0.3567257225513458
6.235563516616821,0.21534138917922974,-1.2530962228775024,0.5824366211891174,-0.09684354811906815,0.18040168285369873,-0.35675591230392456
6.255580425262451,0.21541905403137207,-1.2550021409988403,0.5827044248580933,-0.0968080684542656,0.18070854246616364,-0.35678648948669434
6.275670289993286,0.21545708179473877,-1.255950927734375,0.5828375816345215,-0.09679242223501205,0.18086113035678864,-0.35680168867111206
6.295734643936157,0.21552354097366333,-1.2578365802764893,0.5831052660942078,-0.09676315635442734,0.18116198480129242,-0.35683485865592957
6.3157899379730225,0.21557088196277618,-1.259703278541565,0.5833794474601746,-0.09673593193292618,0.18145254254341125,-0.35687386989593506
6.336071252822876,0.21559259295463562,-1.2606303691864014,0.5835186839103699,-0.09672123938798904,0.18159516155719757,-0.35689547657966614
6.356075286865234,0.21564514935016632,-1.2624770402908325,0.5837965607643127,-0.09668853133916855,0.1818811148405075,-0.3569386601448059
6.376116514205933,0.21571333706378937,-1.2643165588378906,0.5840709209442139,-0.09665217250585556,0.18216930329799652,-0.3569796085357666
6.3966264724731445,0.21574679017066956,-1.2652332782745361,0.5842065215110779,-0.09663373231887817,0.18231350183486938,-0.3569994866847992
6.416884183883667,0.2157992422580719,-1.2670588493347168,0.5844773650169373,-0.0966002568602562,0.18259914219379425,-0.35703909397125244
6.437021255493164,0.21584275364875793,-1.268875002861023,0.5847452878952026,-0.09656461328268051,0.18288686871528625,-0.3570791780948639
6.456990957260132,0.2158982753753662,-1.2706822156906128,0.5850107669830322,-0.09652109444141388,0.18317760527133942,-0.35712215304374695
6.477077484130859,0.2159333974123001,-1.2715834379196167,0.5851415991783142,-0.09649726003408432,0.1833251416683197,-0.3571440577507019
6.497158765792847,0.21601223945617676,-1.2733787298202515,0.5854027271270752,-0.09644970297813416,0.18362084031105042,-0.35719090700149536
6.517215967178345,0.21608993411064148,-1.275163173675537,0.5856634974479675,-0.0964086577296257,0.18391649425029755,-0.3572394847869873
6.537296772003174,0.2161247581243515,-1.2760508060455322,0.585795521736145,-0.09639158099889755,0.18406128883361816,-0.35726475715637207
6.557346820831299,0.2161790430545807,-1.2778105735778809,0.5860702395439148,-0.09636623412370682,0.18433541059494019,-0.35731878876686096
6.577390193939209,0.21622616052627563,-1.2795579433441162,0.5863498449325562,-0.09634599834680557,0.1846006065607071,-0.3573724031448364
6.5974836349487305,0.21625283360481262,-1.280428171157837,0.5864891409873962,-0.09633547812700272,0.18473300337791443,-0.3573985993862152
6.617602825164795,0.21631784737110138,-1.2821708917617798,0.5867512822151184,-0.09630708396434784,0.18501541018486023,-0.35744336247444153
6.637622833251953,0.21638798713684082,-1.283908724784851,0.5870010256767273,-0.0962727963924408,0.1853078007698059,-0.3574829697608948
6.6577301025390625,0.21642372012138367,-1.2847734689712524,0.5871229767799377,-0.0962521955370903,0.18545612692832947,-0.35750213265419006
6.677900552749634,0.2164832204580307,-1.2864859104156494,0.5873820781707764,-0.09621815383434296,0.18573059141635895,-0.35754629969596863
6.697915315628052,0.21653860807418823,-1.2881826162338257,0.5876535177230835,-0.09619007259607315,0.18598943948745728,-0.35759636759757996
6.7179999351501465,0.21656617522239685,-1.289027452468872,0.5877912044525146,-0.09617748111486435,0.18611617386341095,-0.35762226581573486
6.738072156906128,0.21663421392440796,-1.2907178401947021,0.5880550146102905,-0.09614812582731247,0.18638403713703156,-0.3576701283454895
6.758117198944092,0.2167081981897354,-1.2924020290374756,0.588311493396759,-0.09611736983060837,0.18665701150894165,-0.3577151894569397
6.778210163116455,0.21674446761608124,-1.2932409048080444,0.5884377956390381,-0.0961032509803772,0.18679408729076385,-0.35773688554763794
6.798280715942383,0.21680456399917603,-1.2949073314666748,0.588693380355835,-0.09607996791601181,0.1870597004890442,-0.3577808737754822
6.8183512687683105,0.21684105694293976,-1.29655921459198,0.588954746723175,-0.0960666686296463,0.18731465935707092,-0.3578241765499115
6.838397741317749,0.21687595546245575,-1.298200249671936,0.5892152786254883,-0.09604931622743607,0.1875704973936081,-0.3578658998012543
6.858489036560059,0.21690382063388824,-1.2990199327468872,0.5893416404724121,-0.09603553265333176,0.18770286440849304,-0.35788530111312866
6.878596544265747,0.21697162091732025,-1.3006564378738403,0.5895842909812927,-0.09599783271551132,0.187978133559227,-0.3579208552837372
6.89864444732666,0.21704211831092834,-1.3022854328155518,0.5898224711418152,-0.09595945477485657,0.18825452029705048,-0.3579545319080353
6.918726444244385,0.2170751392841339,-1.3030966520309448,0.5899404287338257,-0.0959441289305687,0.1883930265903473,-0.3579704165458679
6.93886137008667,0.21712978184223175,-1.30470871925354,0.5901830196380615,-0.09592746198177338,0.18865832686424255,-0.35800307989120483
6.958878517150879,0.21716783940792084,-1.3063064813613892,0.5904331803321838,-0.09592343121767044,0.18891111016273499,-0.3580368459224701
6.9789910316467285,0.2171870619058609,-1.3071006536483765,0.5905596017837524,-0.09592002630233765,0.18903537094593048,-0.3580552339553833
6.999063730239868,0.2172357589006424,-1.3086857795715332,0.5908031463623047,-0.09590095281600952,0.1892959028482437,-0.35809120535850525
7.019113302230835,0.21730276942253113,-1.3102673292160034,0.5910323262214661,-0.09586572647094727,0.1895723044872284,-0.3581261932849884
7.039268732070923,0.21737617254257202,-1.3118401765823364,0.5912560820579529,-0.09582182765007019,0.18984940648078918,-0.3581613302230835
7.059467077255249,0.21741338074207306,-1.3126221895217896,0.591369092464447,-0.09579937905073166,0.18998369574546814,-0.35817989706993103
7.079457759857178,0.21748536825180054,-1.314178705215454,0.5915982127189636,-0.09575879573822021,0.19024460017681122,-0.35821735858917236
7.099525690078735,0.21752864122390747,-1.3157193660736084,0.5918363332748413,-0.09573238343000412,0.19049102067947388,-0.35825490951538086
7.119692325592041,0.21754573285579681,-1.3164836168289185,0.5919590592384338,-0.0957220047712326,0.19061022996902466,-0.3582742512226105
7.139782190322876,0.217579185962677,-1.3180058002471924,0.5922048091888428,-0.0957014337182045,0.19084827601909637,-0.3583110272884369
7.159773111343384,0.21763324737548828,-1.3195300102233887,0.5924367904663086,-0.09567414969205856,0.1911025494337082,-0.35834068059921265
7.179995059967041,0.21769222617149353,-1.3210543394088745,0.5926573276519775,-0.09564782679080963,0.19136562943458557,-0.3583638370037079
7.200088262557983,0.217721626162529,-1.3218145370483398,0.5927643775939941,-0.09563355147838593,0.1914989948272705,-0.3583741784095764
7.220154285430908,0.21778227388858795,-1.3233271837234497,0.5929787755012512,-0.09560471773147583,0.1917615681886673,-0.3583957850933075
7.240224599838257,0.21783335506916046,-1.3248229026794434,0.59320068359375,-0.09557727724313736,0.19201137125492096,-0.35842153429985046
7.260379314422607,0.21785269677639008,-1.3255631923675537,0.593315839767456,-0.09556544572114944,0.19213053584098816,-0.3584362268447876
7.280470371246338,0.21788650751113892,-1.3270334005355835,0.5935482978820801,-0.09554531425237656,0.19236622750759125,-0.35846611857414246
7.300508260726929,0.21792937815189362,-1.328500509262085,0.5937697887420654,-0.09551776945590973,0.19261504709720612,-0.3584929406642914
7.320576190948486,0.21795828640460968,-1.3292332887649536,0.5938777327537537,-0.0955013856291771,0.19274236261844635,-0.35850581526756287
7.340654611587524,0.21802175045013428,-1.330694556236267,0.5940918922424316,-0.09546411037445068,0.1929970383644104,-0.35853302478790283
7.360723972320557,0.21808579564094543,-1.3321484327316284,0.5943083763122559,-0.0954301506280899,0.1932443082332611,-0.35856175422668457
7.380974531173706,0.21812491118907928,-1.3335914611816406,0.5945307016372681,-0.09540733695030212,0.1934787780046463,-0.35859131813049316
7.40108323097229,0.2181360274553299,-1.3343086242675781,0.5946438312530518,-0.09540003538131714,0.19359266757965088,-0.35860583186149597
7.421195983886719,0.2181520164012909,-1.3357354402542114,0.5948673486709595,-0.09538766741752625,0.19382497668266296,-0.35863298177719116
7.44130277633667,0.21818415820598602,-1.3371589183807373,0.5950765609741211,-0.09536764770746231,0.19407697021961212,-0.35865533351898193
7.461630821228027,0.21820764243602753,-1.3378690481185913,0.595177412033081,-0.09535405784845352,0.19420655071735382,-0.35866579413414
7.481773376464844,0.21826456487178802,-1.3392823934555054,0.5953817963600159,-0.09532274305820465,0.1944577842950821,-0.35868918895721436
7.501788377761841,0.2183276265859604,-1.3406873941421509,0.5955897569656372,-0.09528791904449463,0.19469840824604034,-0.358715683221817
7.52193808555603,0.21837259829044342,-1.3420811891555786,0.5958029627799988,-0.09525905549526215,0.19492781162261963,-0.35874369740486145
7.5421142578125,0.21838834881782532,-1.342772364616394,0.5959129333496094,-0.09524726867675781,0.19503870606422424,-0.35875892639160156
7.562227487564087,0.21841220557689667,-1.3441444635391235,0.5961376428604126,-0.09522993862628937,0.19525626301765442,-0.35879093408584595
7.582263469696045,0.2184520661830902,-1.3455095291137695,0.5963596105575562,-0.09520997852087021,0.19547919929027557,-0.3588235080242157
7.602608919143677,0.21847888827323914,-1.3461915254592896,0.5964668989181519,-0.09519723057746887,0.19559358060359955,-0.35883909463882446
7.622687339782715,0.21854203939437866,-1.347551703453064,0.5966743230819702,-0.09516426920890808,0.19582636654376984,-0.35886916518211365
7.64277458190918,0.21860185265541077,-1.3489023447036743,0.5968794822692871,-0.09513015300035477,0.19605763256549835,-0.35889890789985657
7.662806987762451,0.21863757073879242,-1.3502362966537476,0.5970921516418457,-0.09510290622711182,0.19627666473388672,-0.3589305877685547
7.682915925979614,0.21864810585975647,-1.3508975505828857,0.597201943397522,-0.09509214758872986,0.1963818073272705,-0.35894688963890076
7.702982187271118,0.218671515583992,-1.3522145748138428,0.5974220633506775,-0.09507021307945251,0.1965915858745575,-0.3589783310890198
7.723059415817261,0.2187144011259079,-1.3535317182540894,0.5976338982582092,-0.09504694491624832,0.19681204855442047,-0.3590048551559448
7.743163585662842,0.21874284744262695,-1.3541927337646484,0.5977345108985901,-0.09503424167633057,0.19692638516426086,-0.35901597142219543
7.763206481933594,0.21881169080734253,-1.3555275201797485,0.5979257822036743,-0.09500399231910706,0.19715239107608795,-0.3590359091758728
7.783262014389038,0.21887362003326416,-1.3568612337112427,0.5981178283691406,-0.09497228264808655,0.19736841320991516,-0.35905784368515015
7.8034656047821045,0.21889594197273254,-1.357521653175354,0.598219633102417,-0.0949598029255867,0.1974698007106781,-0.35907086730003357
7.823551416397095,0.2189195603132248,-1.358822226524353,0.5984330773353577,-0.09494488686323166,0.19767116010189056,-0.35909873247146606
7.843622446060181,0.21894654631614685,-1.3601090908050537,0.5986458659172058,-0.09492581337690353,0.1978793740272522,-0.3591277599334717
7.863694429397583,0.21898993849754333,-1.3613932132720947,0.5988464951515198,-0.09489747136831284,0.19810350239276886,-0.3591538667678833
7.883817434310913,0.2190159261226654,-1.3620333671569824,0.5989455580711365,-0.09488309174776077,0.19821681082248688,-0.3591664433479309
7.903885364532471,0.2190674990415573,-1.3633110523223877,0.5991402268409729,-0.0948576033115387,0.19844554364681244,-0.3591887354850769
7.9239795207977295,0.21912258863449097,-1.364579677581787,0.599335253238678,-0.09482768923044205,0.19866840541362762,-0.35921239852905273
7.944055795669556,0.21916966140270233,-1.3658344745635986,0.5995383262634277,-0.09479743242263794,0.1988765001296997,-0.3592415452003479
7.964094638824463,0.21918676793575287,-1.366455078125,0.5996447801589966,-0.09478352218866348,0.19897380471229553,-0.35925912857055664
7.984161615371704,0.21921353042125702,-1.3676886558532715,0.5998607873916626,-0.09475985169410706,0.1991647481918335,-0.35929620265960693
8.004230976104736,0.2192470282316208,-1.3689208030700684,0.6000686883926392,-0.09473640471696854,0.19936582446098328,-0.3593299686908722
8.024595260620117,0.21927034854888916,-1.3695399761199951,0.6001668572425842,-0.09472322463989258,0.19947229325771332,-0.3593451678752899
8.044718503952026,0.2193281352519989,-1.3707822561264038,0.6003566980361938,-0.09468871355056763,0.19968904554843903,-0.35937902331352234
8.064809560775757,0.2193906605243683,-1.3720251321792603,0.6005396842956543,-0.09464516490697861,0.19991087913513184,-0.3594236671924591
8.084880828857422,0.21944306790828705,-1.373258113861084,0.6007245779037476,-0.09460697323083878,0.20013150572776794,-0.3594799041748047
8.105021238327026,0.2194586545228958,-1.3738679885864258,0.6008214950561523,-0.0945950299501419,0.20023679733276367,-0.3595113456249237
8.1250581741333,0.21947842836380005,-1.3750776052474976,0.6010223627090454,-0.09457939118146896,0.20043973624706268,-0.3595755100250244
8.145123958587646,0.21950113773345947,-1.3762788772583008,0.6012227535247803,-0.09456344693899155,0.20064511895179749,-0.3596385717391968
8.165361642837524,0.2195192277431488,-1.3768792152404785,0.6013182401657104,-0.0945524275302887,0.20075473189353943,-0.35966891050338745
8.185389518737793,0.219564288854599,-1.3780779838562012,0.6015023589134216,-0.09452584385871887,0.20098121464252472,-0.35972923040390015
8.205610275268555,0.21961364150047302,-1.379271388053894,0.6016841530799866,-0.09449613839387894,0.20120708644390106,-0.3597906231880188
8.225736141204834,0.21963773667812347,-1.3798648118972778,0.6017764806747437,-0.0944812074303627,0.20131702721118927,-0.3598215878009796
8.245867252349854,0.21967267990112305,-1.3810410499572754,0.6019669771194458,-0.09445637464523315,0.2015281319618225,-0.35988423228263855
8.265871524810791,0.21969224512577057,-1.3822096586227417,0.6021583676338196,-0.09443694353103638,0.2017352283000946,-0.35994386672973633
8.285969495773315,0.21970173716545105,-1.3827921152114868,0.6022533774375916,-0.09442824870347977,0.2018391191959381,-0.3599723279476166
8.306031227111816,0.2197328507900238,-1.3839552402496338,0.602438747882843,-0.0944063737988472,0.20205287635326385,-0.36002638936042786
8.326094150543213,0.21977998316287994,-1.385110855102539,0.6026219129562378,-0.09437521547079086,0.20226915180683136,-0.36007997393608093
8.346147298812866,0.21980717778205872,-1.3856844902038574,0.6027151346206665,-0.09435740113258362,0.20237423479557037,-0.3601078391075134
8.3662269115448,0.21985885500907898,-1.3868271112442017,0.6029002666473389,-0.09432513266801834,0.20258226990699768,-0.3601616621017456
8.386303186416626,0.21990470588207245,-1.387961983680725,0.6030881404876709,-0.09430137276649475,0.20278194546699524,-0.3602152168750763
8.406431436538696,0.21992331743240356,-1.3890844583511353,0.6032778024673462,-0.09428557753562927,0.2029753476381302,-0.3602684736251831
8.426541805267334,0.21992981433868408,-1.3896410465240479,0.6033744812011719,-0.09427732229232788,0.20306964218616486,-0.3602965474128723
8.446633100509644,0.2199435979127884,-1.3907487392425537,0.603566586971283,-0.09425841271877289,0.20326058566570282,-0.3603525161743164
8.466764211654663,0.21997860074043274,-1.3918571472167969,0.6037520170211792,-0.09423627704381943,0.20346012711524963,-0.3604046404361725
8.4868643283844,0.2200227677822113,-1.3929636478424072,0.6039324402809143,-0.09421486407518387,0.20366501808166504,-0.36045268177986145
8.5069580078125,0.22004547715187073,-1.3935151100158691,0.6040216684341431,-0.0942036584019661,0.2037678360939026,-0.36047619581222534
8.527001857757568,0.22009305655956268,-1.3946101665496826,0.6042019128799438,-0.09417708218097687,0.20396912097930908,-0.360524982213974
8.547131776809692,0.22012218832969666,-1.3956903219223022,0.6043899655342102,-0.09415220469236374,0.20415478944778442,-0.3605763614177704
8.567230939865112,0.2201300859451294,-1.3962247371673584,0.6044871211051941,-0.09414202719926834,0.20424291491508484,-0.3606026768684387
8.587300062179565,0.22014310956001282,-1.3972864151000977,0.6046794652938843,-0.09411831200122833,0.20442253351211548,-0.36065369844436646
8.607347249984741,0.2201748937368393,-1.3983454704284668,0.6048627495765686,-0.09408358484506607,0.20461654663085938,-0.3607005476951599
8.627432107925415,0.2201923429965973,-1.3988717794418335,0.6049535870552063,-0.09406275302171707,0.20471428334712982,-0.3607235252857208
8.647497653961182,0.22021396458148956,-1.3999123573303223,0.6051466464996338,-0.09402963519096375,0.20489497482776642,-0.36077168583869934
8.667543411254883,0.22023044526576996,-1.4009416103363037,0.6053449511528015,-0.09400005638599396,0.20506985485553741,-0.3608197569847107
8.687638282775879,0.22024402022361755,-1.4014548063278198,0.6054422855377197,-0.09398408234119415,0.20516055822372437,-0.3608429729938507
8.707741022109985,0.22028812766075134,-1.4024839401245117,0.6056248545646667,-0.09394212812185287,0.20535728335380554,-0.3608860671520233
8.727770328521729,0.22033800184726715,-1.4035149812698364,0.6057984232902527,-0.09389850497245789,0.2055612951517105,-0.36092567443847656
8.747864246368408,0.220362588763237,-1.404030203819275,0.605884313583374,-0.09387889504432678,0.20566263794898987,-0.3609445095062256
8.768036127090454,0.22040778398513794,-1.4050573110580444,0.606056809425354,-0.09384742379188538,0.20586127042770386,-0.3609803318977356
8.788044452667236,0.22043052315711975,-1.4060657024383545,0.6062467098236084,-0.0938296839594841,0.20603612065315247,-0.3610215187072754
8.80814266204834,0.2204429656267166,-1.4070619344711304,0.6064442992210388,-0.09381771087646484,0.20620407164096832,-0.36106541752815247
8.82830023765564,0.22045087814331055,-1.4075572490692139,0.6065422296524048,-0.09380850940942764,0.2062898427248001,-0.36108818650245667
8.848320484161377,0.22048869729042053,-1.4085509777069092,0.606727659702301,-0.09378140419721603,0.20647528767585754,-0.36113226413726807
8.868367433547974,0.2205386459827423,-1.409542202949524,0.606907069683075,-0.0937492623925209,0.2066630721092224,-0.36117610335350037
8.88847303390503,0.22056500613689423,-1.4100358486175537,0.6069968342781067,-0.09373375028371811,0.20675483345985413,-0.36119797825813293
8.908496141433716,0.22061383724212646,-1.4110227823257446,0.6071680188179016,-0.0937037244439125,0.20694397389888763,-0.36123740673065186
8.92854380607605,0.22065041959285736,-1.4120012521743774,0.607339084148407,-0.09367474168539047,0.2071305215358734,-0.3612784743309021
8.94880747795105,0.22066183388233185,-1.4124845266342163,0.6074296832084656,-0.0936623364686966,0.20721730589866638,-0.36130157113075256
8.968892812728882,0.22068458795547485,-1.413442850112915,0.607618510723114,-0.09363693743944168,0.20738255977630615,-0.36135244369506836
8.989072322845459,0.2207147479057312,-1.4143997430801392,0.6078042387962341,-0.09361319988965988,0.20755161345005035,-0.3614031970500946
9.009061336517334,0.22075949609279633,-1.415358066558838,0.6079747080802917,-0.093580462038517,0.20773808658123016,-0.3614538013935089
9.029155254364014,0.22078272700309753,-1.4158363342285156,0.6080566048622131,-0.09356220066547394,0.20783428847789764,-0.3614802658557892
9.049278020858765,0.2208329439163208,-1.4167886972427368,0.6082202196121216,-0.0935201346874237,0.20802505314350128,-0.3615386486053467
9.069356918334961,0.2208753079175949,-1.417734146118164,0.6083898544311523,-0.09348268806934357,0.2082066386938095,-0.36160361766815186
9.089442729949951,0.22088636457920074,-1.4182016849517822,0.6084796786308289,-0.09346888959407806,0.208290696144104,-0.3616386353969574
9.109514951705933,0.2208976000547409,-1.4191280603408813,0.608669102191925,-0.09345174580812454,0.20844781398773193,-0.36171188950538635
9.1295645236969,0.22091256082057953,-1.4200488328933716,0.6088584065437317,-0.09343830496072769,0.20860640704631805,-0.3617842495441437
9.149664878845215,0.22092969715595245,-1.4205095767974854,0.6089498996734619,-0.09342894703149796,0.20868997275829315,-0.3618190288543701
9.169769287109375,0.22097621858119965,-1.4214286804199219,0.6091265082359314,-0.0934031531214714,0.2088620960712433,-0.3618869483470917
9.18978238105774,0.2210238128900528,-1.4223459959030151,0.6092939376831055,-0.09337470680475235,0.20903977751731873,-0.3619496822357178
9.209965944290161,0.22106841206550598,-1.42326021194458,0.6094536781311035,-0.09334659576416016,0.209221750497818,-0.36200785636901855
9.23005485534668,0.2210882008075714,-1.4237152338027954,0.6095324158668518,-0.09333290904760361,0.20931276679039001,-0.3620356619358063
9.250133752822876,0.2211116999387741,-1.4246126413345337,0.6096985936164856,-0.09331159293651581,0.20948268473148346,-0.3620937466621399
9.27017879486084,0.22112073004245758,-1.4254961013793945,0.6098724007606506,-0.0932946503162384,0.20964427292346954,-0.36215338110923767
9.290264129638672,0.22112412750720978,-1.4259356260299683,0.609958291053772,-0.09328661859035492,0.2097272127866745,-0.3621828854084015
9.310418128967285,0.2211483120918274,-1.4268145561218262,0.61012864112854,-0.09326742589473724,0.20989690721035004,-0.3622424900531769
9.330507516860962,0.22118496894836426,-1.4276922941207886,0.610295832157135,-0.09325051307678223,0.21007013320922852,-0.3623006343841553
9.350830554962158,0.22122003138065338,-1.4285614490509033,0.610467791557312,-0.09323537349700928,0.21023377776145935,-0.3623601198196411
9.370921850204468,0.22122842073440552,-1.4289902448654175,0.6105571389198303,-0.0932290256023407,0.2103099375963211,-0.36239057779312134
9.391010284423828,0.22123630344867706,-1.4298408031463623,0.6107419729232788,-0.09321791678667068,0.21045343577861786,-0.36245274543762207
9.411761999130249,0.22124889492988586,-1.4306858777999878,0.6109251976013184,-0.09320077300071716,0.21060051023960114,-0.3625131845474243
9.431839942932129,0.22126348316669464,-1.4311093091964722,0.6110115647315979,-0.09318925440311432,0.21068137884140015,-0.3625410795211792
9.451924800872803,0.22130566835403442,-1.431952953338623,0.6111757755279541,-0.09315410256385803,0.2108526974916458,-0.362595796585083
9.47206735610962,0.2213524729013443,-1.4327914714813232,0.6113364696502686,-0.09311626851558685,0.21102400124073029,-0.3626491129398346
9.492149829864502,0.22137492895126343,-1.4332083463668823,0.6114176511764526,-0.09309875220060349,0.2111065536737442,-0.3626757264137268
9.512169599533081,0.22140344977378845,-1.434035301208496,0.6115896701812744,-0.09307964146137238,0.2112564593553543,-0.3627287447452545
9.532259702682495,0.22141119837760925,-1.4348506927490234,0.6117714643478394,-0.0930752381682396,0.21139290928840637,-0.3627817630767822
9.552401781082153,0.22141315042972565,-1.435255765914917,0.6118631362915039,-0.09307452291250229,0.2114604413509369,-0.36280760169029236
9.572449207305908,0.22143004834651947,-1.436066746711731,0.6120371222496033,-0.09306371957063675,0.2116066813468933,-0.3628556728363037
9.592555046081543,0.22146296501159668,-1.4368795156478882,0.6121976375579834,-0.09304364025592804,0.21176737546920776,-0.3628987669944763
9.612682342529297,0.22148248553276062,-1.4372845888137817,0.612275242805481,-0.09303112328052521,0.2118498831987381,-0.36291953921318054
9.632839441299438,0.22152338922023773,-1.4380884170532227,0.6124286651611328,-0.09300200641155243,0.21201655268669128,-0.3629634380340576
9.652830123901367,0.22155408561229706,-1.4388799667358398,0.6125908493995667,-0.0929727703332901,0.21217113733291626,-0.3630136549472809
9.672911405563354,0.22156240046024323,-1.4392701387405396,0.6126760840415955,-0.09295859187841415,0.21224288642406464,-0.3630411624908447
9.692972421646118,0.22157081961631775,-1.4400476217269897,0.6128475069999695,-0.0929374024271965,0.21238555014133453,-0.3630935251712799
9.713074207305908,0.22158892452716827,-1.4408246278762817,0.613013744354248,-0.09291703253984451,0.21253593266010284,-0.36314135789871216
9.733163118362427,0.22160452604293823,-1.441214680671692,0.6130932569503784,-0.09290778636932373,0.2126154750585556,-0.36316290497779846
9.75327181816101,0.22164341807365417,-1.4419909715652466,0.6132534146308899,-0.09288710355758667,0.21277070045471191,-0.36320680379867554
9.773399353027344,0.22168228030204773,-1.4427640438079834,0.613405704498291,-0.09286265075206757,0.21293044090270996,-0.3632477819919586
9.793568134307861,0.2217031866312027,-1.4431483745574951,0.6134810447692871,-0.09284806251525879,0.21300935745239258,-0.3632683753967285
9.81356430053711,0.2217419296503067,-1.4439138174057007,0.6136309504508972,-0.09282126277685165,0.2131657898426056,-0.3633081018924713
9.833666801452637,0.2217676341533661,-1.444669246673584,0.613788366317749,-0.09280041605234146,0.21330931782722473,-0.36334916949272156
9.853725671768188,0.22177450358867645,-1.4450421333312988,0.6138683557510376,-0.09279037266969681,0.21337895095348358,-0.36337006092071533
9.87378978729248,0.22178494930267334,-1.4457803964614868,0.6140276789665222,-0.09276452660560608,0.21351785957813263,-0.36341455578804016
9.89400601387024,0.2218056172132492,-1.4465183019638062,0.6141790747642517,-0.09273388236761093,0.21366675198078156,-0.3634571433067322
9.91403317451477,0.22183643281459808,-1.4472600221633911,0.6143217086791992,-0.09270258247852325,0.21382661163806915,-0.3634960949420929
9.934216976165771,0.22185413539409637,-1.447630763053894,0.6143912672996521,-0.09268590062856674,0.21390816569328308,-0.36351460218429565
9.954295635223389,0.2218901664018631,-1.448368787765503,0.6145312190055847,-0.09265471249818802,0.21406935155391693,-0.3635524809360504
9.974345445632935,0.22192418575286865,-1.4491022825241089,0.6146723628044128,-0.09263137727975845,0.21422624588012695,-0.36358970403671265
9.994474172592163,0.22193831205368042,-1.449468731880188,0.614740788936615,-0.09262338280677795,0.21430598199367523,-0.3636064827442169
10.01460313796997,0.22196002304553986,-1.4501941204071045,0.6148777008056641,-0.09260552376508713,0.21446268260478973,-0.363640695810318
10.034648180007935,0.22196358442306519,-1.450551152229309,0.614949107170105,-0.09259682893753052,0.21453605592250824,-0.36365920305252075
10.054719686508179,0.22196295857429504,-1.4512559175491333,0.6150971055030823,-0.0925770029425621,0.21467506885528564,-0.3636981248855591
10.074784517288208,0.22196410596370697,-1.4519542455673218,0.6152493357658386,-0.09255880862474442,0.21481119096279144,-0.36373791098594666
10.094833135604858,0.22198426723480225,-1.4526532888412476,0.615395724773407,-0.09253564476966858,0.21495775878429413,-0.3637750446796417
10.114964962005615,0.22199992835521698,-1.4530024528503418,0.6154677271842957,-0.09252236783504486,0.2150328904390335,-0.36379337310791016
10.135030269622803,0.2220352292060852,-1.4536956548690796,0.6156132817268372,-0.0924941673874855,0.21517935395240784,-0.36383214592933655
10.15511178970337,0.22206108272075653,-1.4543784856796265,0.6157650351524353,-0.0924670472741127,0.21531453728675842,-0.3638758659362793
10.175188064575195,0.22206707298755646,-1.454713225364685,0.6158474087715149,-0.09245482832193375,0.21537306904792786,-0.36390113830566406
10.195318460464478,0.2220683991909027,-1.4553775787353516,0.616013765335083,-0.0924375057220459,0.21548710763454437,-0.36395034193992615
10.215430974960327,0.22207486629486084,-1.4560422897338867,0.6161741614341736,-0.0924256443977356,0.2156091332435608,-0.3639942705631256
10.235527515411377,0.22210270166397095,-1.4567103385925293,0.6163230538368225,-0.09240762144327164,0.2157457321882248,-0.3640329837799072
10.255613803863525,0.22212223708629608,-1.4570426940917969,0.6163959503173828,-0.09239267557859421,0.21581584215164185,-0.3640523850917816
10.275686740875244,0.2221650928258896,-1.4577057361602783,0.616544246673584,-0.09235990047454834,0.215950608253479,-0.36409297585487366
10.296026945114136,0.22218896448612213,-1.4583622217178345,0.6166958808898926,-0.0923319086432457,0.2160772979259491,-0.36413511633872986
10.316119909286499,0.222194105386734,-1.4586862325668335,0.6167758703231812,-0.09232234209775925,0.2161356508731842,-0.36415815353393555
10.336207389831543,0.22220014035701752,-1.4593297243118286,0.6169346570968628,-0.0923045352101326,0.2162548154592514,-0.3642031252384186
10.356318950653076,0.22222085297107697,-1.4599741697311401,0.6170880794525146,-0.09228570014238358,0.2163829356431961,-0.36424481868743896
10.376508474349976,0.2222364991903305,-1.460299015045166,0.6171586513519287,-0.09227323532104492,0.21645328402519226,-0.36426374316215515
10.396522998809814,0.22227096557617188,-1.460947036743164,0.6172935962677002,-0.0922432467341423,0.2165997475385666,-0.36430397629737854
10.416587114334106,0.22230316698551178,-1.4615904092788696,0.6174268126487732,-0.09220356494188309,0.2167457789182663,-0.36435243487358093
10.436716318130493,0.2223130762577057,-1.461908221244812,0.6174969673156738,-0.09218291938304901,0.21681350469589233,-0.3643813133239746
10.456757545471191,0.22232742607593536,-1.4625355005264282,0.6176473498344421,-0.09214197844266891,0.21693909168243408,-0.3644491732120514
10.476837873458862,0.22234107553958893,-1.4631584882736206,0.6177951693534851,-0.09210290759801865,0.21707317233085632,-0.3645211160182953
10.497010231018066,0.2223699539899826,-1.463782787322998,0.617933988571167,-0.0920615866780281,0.21722275018692017,-0.3645906150341034
10.5171217918396,0.22238533198833466,-1.4640957117080688,0.6179996728897095,-0.09204206615686417,0.2173016220331192,-0.36462271213531494
10.537175416946411,0.22241735458374023,-1.4647200107574463,0.6181333661079407,-0.09200859814882278,0.2174539715051651,-0.3646853566169739
10.557506084442139,0.22244782745838165,-1.4653412103652954,0.6182711124420166,-0.09198648482561111,0.21759824454784393,-0.3647457957267761
10.577565431594849,0.22246135771274567,-1.4656498432159424,0.6183424592018127,-0.09197918325662613,0.2176661342382431,-0.36477574706077576
10.597598552703857,0.2224760800600052,-1.4662597179412842,0.6184902191162109,-0.09196998178958893,0.21779325604438782,-0.3648356795310974
10.617668390274048,0.2224746197462082,-1.4668552875518799,0.6186500787734985,-0.09196573495864868,0.2179035246372223,-0.3648988604545593
10.637746572494507,0.22247344255447388,-1.4671499729156494,0.6187299489974976,-0.09196141362190247,0.21795859932899475,-0.3649309575557709
10.657843589782715,0.22248384356498718,-1.4677412509918213,0.6188835501670837,-0.09194403141736984,0.21807557344436646,-0.36499449610710144
10.677978277206421,0.22250699996948242,-1.4683359861373901,0.6190258860588074,-0.09192026406526566,0.2182064950466156,-0.3650553822517395
10.697993516921997,0.22252030670642853,-1.4686331748962402,0.6190959811210632,-0.09190875291824341,0.2182731330394745,-0.36508530378341675
10.71805477142334,0.22254638373851776,-1.4692208766937256,0.6192374229431152,-0.09188859164714813,0.21840563416481018,-0.3651459813117981
10.738098621368408,0.2225697636604309,-1.4698026180267334,0.6193773150444031,-0.09186922758817673,0.21853768825531006,-0.36520546674728394
10.758193016052246,0.2225760817527771,-1.470089316368103,0.6194494962692261,-0.0918601006269455,0.21859920024871826,-0.365235835313797
10.778265476226807,0.22257493436336517,-1.4706546068191528,0.619601309299469,-0.09184808284044266,0.21871106326580048,-0.36529719829559326
10.798335313796997,0.2225709855556488,-1.4712127447128296,0.619759202003479,-0.0918440967798233,0.21881717443466187,-0.3653581738471985
10.818543910980225,0.22258268296718597,-1.4717730283737183,0.6199091672897339,-0.09183704107999802,0.2189345806837082,-0.36541441082954407
10.83863377571106,0.22259443998336792,-1.4720542430877686,0.6199796199798584,-0.0918300449848175,0.21899855136871338,-0.36544060707092285
10.85870099067688,0.22262126207351685,-1.4726154804229736,0.6201146841049194,-0.09180989116430283,0.2191319465637207,-0.3654904365539551
10.878854751586914,0.2226390689611435,-1.4731699228286743,0.6202538013458252,-0.0917929857969284,0.21925747394561768,-0.3655398190021515
10.898943662643433,0.22264009714126587,-1.4734419584274292,0.6203292012214661,-0.0917874276638031,0.21931178867816925,-0.36556583642959595
10.919018745422363,0.22263407707214355,-1.4739776849746704,0.620486319065094,-0.09177935123443604,0.2194126397371292,-0.3656190037727356
10.939268112182617,0.2226351797580719,-1.4745090007781982,0.6206397414207458,-0.09176572412252426,0.2195206880569458,-0.36567071080207825
10.95937180519104,0.22264336049556732,-1.4747763872146606,0.620711088180542,-0.0917564183473587,0.2195822149515152,-0.36569464206695557
10.979461431503296,0.22266899049282074,-1.4753142595291138,0.620846688747406,-0.09173291176557541,0.2197117805480957,-0.3657405376434326
10.999484777450562,0.22269782423973083,-1.4758503437042236,0.620979905128479,-0.0917091891169548,0.21984054148197174,-0.3657851815223694
11.019579648971558,0.22271116077899933,-1.4761165380477905,0.6210483312606812,-0.09169887006282806,0.21990200877189636,-0.3658080995082855
11.039690017700195,0.22272595763206482,-1.4766396284103394,0.6211912631988525,-0.09168257564306259,0.22001564502716064,-0.3658568263053894
11.05970573425293,0.22272361814975739,-1.4771556854248047,0.6213382482528687,-0.09167472273111343,0.22012506425380707,-0.3659060597419739
11.079823017120361,0.22272111475467682,-1.4774130582809448,0.6214087605476379,-0.09166960418224335,0.2201838195323944,-0.36592885851860046
11.099891185760498,0.22272397577762604,-1.4779306650161743,0.6215444207191467,-0.09166008979082108,0.22031041979789734,-0.3659699857234955
11.119988441467285,0.22274190187454224,-1.4784479141235352,0.6216764450073242,-0.09164448082447052,0.22044089436531067,-0.3660098612308502
11.140146255493164,0.22275285422801971,-1.4787049293518066,0.6217427253723145,-0.09163656830787659,0.22050470113754272,-0.36603009700775146
11.160247802734375,0.22277449071407318,-1.4792141914367676,0.6218749284744263,-0.09161946177482605,0.22063037753105164,-0.3660711646080017
11.180352449417114,0.22277213633060455,-1.479711651802063,0.6220129132270813,-0.09161008894443512,0.22074547410011292,-0.36611294746398926
11.200769901275635,0.22275526821613312,-1.4801985025405884,0.6221585869789124,-0.09160435944795609,0.22085125744342804,-0.36615580320358276
11.220857620239258,0.22274693846702576,-1.4804413318634033,0.6222301125526428,-0.09159954637289047,0.22090615332126617,-0.3661758005619049
11.240927696228027,0.2227463275194168,-1.4809337854385376,0.6223621964454651,-0.09158484637737274,0.22103160619735718,-0.36621013283729553
11.26098895072937,0.22275927662849426,-1.4814296960830688,0.6224828362464905,-0.09156208485364914,0.22117072343826294,-0.3662427067756653
11.281093835830688,0.22276751697063446,-1.4816762208938599,0.6225433349609375,-0.09155088663101196,0.22123950719833374,-0.3662605583667755
11.301310300827026,0.22278492152690887,-1.4821646213531494,0.6226639151573181,-0.09152525663375854,0.2213752716779709,-0.3662995994091034
11.32124924659729,0.2227853685617447,-1.4826446771621704,0.6227906942367554,-0.09150964021682739,0.22149905562400818,-0.3663397431373596
11.34139084815979,0.22277788817882538,-1.48288094997406,0.6228564381599426,-0.09150482714176178,0.22155697643756866,-0.36635997891426086
11.361549377441406,0.22276338934898376,-1.483346939086914,0.6229955554008484,-0.0914982408285141,0.22166487574577332,-0.3664025366306305
11.3815598487854,0.22276745736598969,-1.483810544013977,0.6231347322463989,-0.09148600697517395,0.22177444398403168,-0.3664458394050598
11.401664018630981,0.22277748584747314,-1.4840433597564697,0.6232016086578369,-0.09147689491510391,0.22183212637901306,-0.36646658182144165
11.421810388565063,0.22280336916446686,-1.4845079183578491,0.6233310699462891,-0.09145288169384003,0.22194933891296387,-0.3665072023868561
11.441860437393188,0.2228301763534546,-1.4849677085876465,0.6234631538391113,-0.09142989665269852,0.22206151485443115,-0.3665490746498108
11.461930990219116,0.2228395640850067,-1.4851939678192139,0.6235334277153015,-0.09142142534255981,0.2221120297908783,-0.36657217144966125
11.481984853744507,0.2228326052427292,-1.485633373260498,0.6236879229545593,-0.09141818434000015,0.22219553589820862,-0.3666225075721741
11.502044677734375,0.2228153496980667,-1.486067295074463,0.623843789100647,-0.09141738712787628,0.2222781479358673,-0.366673082113266
11.522275924682617,0.222808837890625,-1.4862853288650513,0.623917281627655,-0.09141550213098526,0.22232535481452942,-0.3666960597038269
11.542377948760986,0.2228175550699234,-1.4867302179336548,0.624052107334137,-0.09140684455633163,0.22243539988994598,-0.3667370676994324
11.562386751174927,0.22283726930618286,-1.4871768951416016,0.624179482460022,-0.09139291942119598,0.22255142033100128,-0.3667769432067871
11.582536220550537,0.22284939885139465,-1.4873979091644287,0.6242440938949585,-0.09138520807027817,0.22260718047618866,-0.3667981028556824
11.602614402770996,0.22287504374980927,-1.4878370761871338,0.6243691444396973,-0.09136275202035904,0.22272205352783203,-0.3668416440486908
11.622640609741211,0.22289615869522095,-1.4882711172103882,0.624496579170227,-0.09134162962436676,0.22283244132995605,-0.3668871819972992
11.64285922050476,0.22289904952049255,-1.4886956214904785,0.6246336698532104,-0.09132503718137741,0.22292861342430115,-0.36693719029426575
11.662917137145996,0.22289550304412842,-1.488905429840088,0.6247044801712036,-0.09131915867328644,0.22297397255897522,-0.36696305871009827
11.683040142059326,0.22288601100444794,-1.4893262386322021,0.6248392462730408,-0.09130796790122986,0.22307449579238892,-0.36701223254203796
11.703515768051147,0.22289030253887177,-1.4897527694702148,0.6249598264694214,-0.09129104763269424,0.2231956273317337,-0.36705896258354187
11.723623275756836,0.22289741039276123,-1.4899675846099854,0.6250166296958923,-0.09127885103225708,0.22325998544692993,-0.367082804441452
11.74367880821228,0.22291788458824158,-1.490397572517395,0.6251272559165955,-0.09124500304460526,0.22338983416557312,-0.36713624000549316
11.76373553276062,0.22293895483016968,-1.4908236265182495,0.6252394914627075,-0.09120038896799088,0.2235146164894104,-0.3672007620334625
11.783939361572266,0.22294235229492188,-1.4910324811935425,0.6252980828285217,-0.0911802276968956,0.22357405722141266,-0.3672368824481964
11.803959608078003,0.2229398787021637,-1.491440773010254,0.6254245042800903,-0.09114900976419449,0.2236844003200531,-0.3673149645328522
11.82410740852356,0.22293272614479065,-1.491845726966858,0.6255531907081604,-0.09113338589668274,0.22379760444164276,-0.3673909604549408
11.844170570373535,0.22293365001678467,-1.492049217224121,0.625617265701294,-0.09112854301929474,0.2238563895225525,-0.3674272298812866
11.864272594451904,0.2229427695274353,-1.492456316947937,0.62574303150177,-0.09111793339252472,0.22397750616073608,-0.3674973249435425
11.884404182434082,0.2229577600955963,-1.49285888671875,0.625868558883667,-0.0911022424697876,0.224096417427063,-0.3675675392150879
11.90446949005127,0.22296610474586487,-1.4930570125579834,0.6259322166442871,-0.09109187871217728,0.22415302693843842,-0.367603600025177
11.924507141113281,0.22297245264053345,-1.4934449195861816,0.6260652542114258,-0.09107345342636108,0.22425594925880432,-0.367677241563797
11.944668531417847,0.22296977043151855,-1.4938240051269531,0.6262088418006897,-0.09105896204710007,0.2243441641330719,-0.3677523136138916
11.964777708053589,0.21829424798488617,-1.4972206354141235,0.623487114906311,-0.09058424085378647,0.216979518532753,-0.3645041286945343
11.98478078842163,0.21600250899791718,-1.4989101886749268,0.6221396923065186,-0.09035256505012512,0.21335819363594055,-0.36290475726127625
12.004972457885742,0.21150468289852142,-1.502272129058838,0.6194707155227661,-0.0899038091301918,0.20624446868896484,-0.35975372791290283
12.024971961975098,0.20712338387966156,-1.505602478981018,0.6168503761291504,-0.08946618437767029,0.19928158819675446,-0.3566717207431793
12.045059442520142,0.20497585833072662,-1.5072548389434814,0.6155593991279602,-0.08925067633390427,0.19585439562797546,-0.3551567792892456
12.065176248550415,0.20076829195022583,-1.5105305910110474,0.6130179166793823,-0.08882062882184982,0.18910019099712372,-0.3521808683872223
12.085249900817871,0.1966705024242401,-1.5137711763381958,0.6105251312255859,-0.0883973017334938,0.18248891830444336,-0.34927254915237427
12.105847835540771,0.19267591834068298,-1.516977310180664,0.6080822944641113,-0.0879942998290062,0.17602063715457916,-0.3464276194572449
12.126004695892334,0.19071568548679352,-1.5185641050338745,0.6068862676620483,-0.08780459314584732,0.17283476889133453,-0.34502941370010376
12.146023273468018,0.18687056005001068,-1.5217009782791138,0.6045542359352112,-0.0874471664428711,0.1665457934141159,-0.34228357672691345
12.166100978851318,0.1831257939338684,-1.5247968435287476,0.6022878885269165,-0.08710802346467972,0.1603751927614212,-0.3396027386188507
12.18621277809143,0.18129026889801025,-1.526336431503296,0.6011663675308228,-0.0869416669011116,0.15734371542930603,-0.33828288316726685
12.206251382827759,0.17769315838813782,-1.5294018983840942,0.5989416241645813,-0.08661746978759766,0.1513858288526535,-0.3356834948062897
12.226326704025269,0.17419329285621643,-1.5324426889419556,0.5967514514923096,-0.0863088071346283,0.1455547958612442,-0.3331395387649536
12.246705770492554,0.17079025506973267,-1.5354533195495605,0.5946050882339478,-0.0860065147280693,0.13984006643295288,-0.33065536618232727
12.266824960708618,0.16912397742271423,-1.5369479656219482,0.5935477018356323,-0.08585656434297562,0.13702696561813354,-0.32943451404571533
12.286927938461304,0.16585709154605865,-1.5399106740951538,0.5914701223373413,-0.08556356281042099,0.13148830831050873,-0.327035516500473
12.307016372680664,0.1626710146665573,-1.5428297519683838,0.5894615054130554,-0.08529570698738098,0.12605580687522888,-0.32469385862350464
12.327165603637695,0.16110919415950775,-1.5442736148834229,0.5884807109832764,-0.08516927063465118,0.12337778508663177,-0.32354414463043213
12.34721040725708,0.158047154545784,-1.5471423864364624,0.5865448713302612,-0.0849280133843422,0.11811167746782303,-0.32127997279167175
12.367332220077515,0.15507104992866516,-1.5499929189682007,0.5846239924430847,-0.0846918523311615,0.1129683330655098,-0.31906020641326904
12.387721538543701,0.15217716991901398,-1.552819848060608,0.5827271938323975,-0.0844634622335434,0.10793957114219666,-0.3168867230415344
12.407891750335693,0.15076173841953278,-1.5542218685150146,0.5817931890487671,-0.08435005694627762,0.10546154528856277,-0.3158193528652191
12.427935600280762,0.14798946678638458,-1.5570062398910522,0.5799516439437866,-0.08412712812423706,0.10058359801769257,-0.31372085213661194
12.448009967803955,0.14528799057006836,-1.559760570526123,0.578154981136322,-0.08391545712947845,0.09580989927053452,-0.3116718530654907
12.468060731887817,0.14396099746227264,-1.561123013496399,0.5772824287414551,-0.08381731063127518,0.09345821291208267,-0.3106667995452881
12.48823356628418,0.1413561999797821,-1.5638182163238525,0.5755804777145386,-0.08363523334264755,0.0888240858912468,-0.3086937963962555
12.508216619491577,0.13882426917552948,-1.566483497619629,0.5739136338233948,-0.08345866948366165,0.08428481966257095,-0.3067665696144104
12.528343915939331,0.13758713006973267,-1.56781005859375,0.5730817317962646,-0.08337134122848511,0.08205491304397583,-0.3058174252510071
12.548458099365234,0.1351669281721115,-1.57044517993927,0.5714399814605713,-0.08320073038339615,0.07766333222389221,-0.3039519190788269
12.568477153778076,0.13281157612800598,-1.5730457305908203,0.5698485374450684,-0.08304399251937866,0.07335324585437775,-0.30213215947151184
12.588563919067383,0.13165739178657532,-1.5743334293365479,0.5690717697143555,-0.08296973258256912,0.07122915238142014,-0.3012390434741974
12.608689546585083,0.12939532101154327,-1.5768945217132568,0.5675323605537415,-0.0828244611620903,0.06705870479345322,-0.2994796931743622
12.628727912902832,0.12719818949699402,-1.5794411897659302,0.5659993886947632,-0.08268383145332336,0.06299334764480591,-0.29775434732437134
12.648815631866455,0.12612642347812653,-1.5807116031646729,0.565234363079071,-0.08261516690254211,0.06100558862090111,-0.29690539836883545
12.668884992599487,0.12403379380702972,-1.5832387208938599,0.5637210011482239,-0.0824800580739975,0.05710550397634506,-0.295238733291626
12.688978433609009,0.12200004607439041,-1.585744023323059,0.562237024307251,-0.08235301077365875,0.05329125374555588,-0.2936103343963623
12.709052324295044,0.12099950760602951,-1.5869848728179932,0.5615087747573853,-0.08229289948940277,0.051410216838121414,-0.2928091287612915
12.729103565216064,0.11902957409620285,-1.5894333124160767,0.5601034164428711,-0.08218548446893692,0.04768717288970947,-0.2912382185459137
12.749233484268188,0.1171068549156189,-1.591844081878662,0.5587555170059204,-0.08208706229925156,0.0440293624997139,-0.28970882296562195
12.769302129745483,0.11616607755422592,-1.5930383205413818,0.5580951571464539,-0.08203940838575363,0.042226601392030716,-0.288958340883255
12.789385080337524,0.11432871967554092,-1.5954188108444214,0.5567711591720581,-0.0819457471370697,0.0386885330080986,-0.2874773442745209
12.809566736221313,0.11254487931728363,-1.5977927446365356,0.5554401278495789,-0.08185556530952454,0.0352468267083168,-0.286021888256073
12.829653024673462,0.11167317628860474,-1.5989735126495361,0.5547806620597839,-0.08181165903806686,0.03355446457862854,-0.2853062152862549
12.849766969680786,0.10996465384960175,-1.6013200283050537,0.55348140001297,-0.081731878221035,0.03022649511694908,-0.28389912843704224
12.869846820831299,0.10829931497573853,-1.603630542755127,0.5522435307502747,-0.08166182786226273,0.026951385661959648,-0.2825329601764679
12.890190601348877,0.10667753219604492,-1.6059108972549438,0.5510521531105042,-0.0816006138920784,0.023736586794257164,-0.28120115399360657
12.910331726074219,0.10588496923446655,-1.6070419549942017,0.5504661202430725,-0.08156953006982803,0.02215394377708435,-0.2805470824241638
12.930467128753662,0.10434010624885559,-1.6092954874038696,0.549286425113678,-0.08151184767484665,0.01904798299074173,-0.27925485372543335
12.950544118881226,0.10284214466810226,-1.6115312576293945,0.5481151938438416,-0.0814654529094696,0.01601288467645645,-0.27798882126808167
12.970571041107178,0.10210855305194855,-1.6126420497894287,0.5475351214408875,-0.08144500851631165,0.014522569254040718,-0.2773657441139221
12.990659236907959,0.10067196190357208,-1.6148488521575928,0.5463906526565552,-0.081405870616436,0.011592142283916473,-0.2761405408382416
13.010753393173218,0.09927202761173248,-1.6170320510864258,0.5452854633331299,-0.08136682212352753,0.00872065033763647,-0.27494654059410095
13.030871391296387,0.09790405631065369,-1.6191868782043457,0.5442320108413696,-0.08133570849895477,0.0059020319022238255,-0.27378416061401367
13.050999164581299,0.09723427891731262,-1.6202564239501953,0.5437151193618774,-0.08132018893957138,0.004515768960118294,-0.27321311831474304
13.071154356002808,0.09592659771442413,-1.6223844289779663,0.5426830649375916,-0.08129557967185974,0.0017930875765159726,-0.27208659052848816
13.091193437576294,0.0946652814745903,-1.6245012283325195,0.5416474342346191,-0.08127795159816742,-0.0008672763360664248,-0.2709796726703644
13.111339092254639,0.09404870867729187,-1.6255543231964111,0.5411322116851807,-0.08127057552337646,-0.002172725275158882,-0.2704341411590576
13.131407737731934,0.09284291416406631,-1.6276485919952393,0.5401126742362976,-0.08124697208404541,-0.004736183676868677,-0.269362211227417
13.151432037353516,0.09167121350765228,-1.6297239065170288,0.5391151905059814,-0.08122369647026062,-0.007242952007800341,-0.2683156728744507
13.171511888504028,0.09109814465045929,-1.6307538747787476,0.5386284589767456,-0.08121640235185623,-0.008479348383843899,-0.2678021192550659
13.191604614257812,0.08996956795454025,-1.6327937841415405,0.5376890301704407,-0.0812162458896637,-0.010917067527770996,-0.26679444313049316
13.2116858959198,0.08886823058128357,-1.6348094940185547,0.5367860794067383,-0.08122677356004715,-0.013306831009685993,-0.2658117115497589
13.23184084892273,0.08779951930046082,-1.6368091106414795,0.5358938574790955,-0.08123286813497543,-0.015636848285794258,-0.2648518681526184
13.252036571502686,0.08728047460317612,-1.637805461883545,0.5354446172714233,-0.0812339261174202,-0.01677977852523327,-0.26437920331954956
13.272096633911133,0.08626879006624222,-1.6397895812988281,0.5345426797866821,-0.08123292028903961,-0.019020354375243187,-0.26344841718673706
13.292192220687866,0.08528909087181091,-1.6417598724365234,0.5336523056030273,-0.0812406837940216,-0.021212026476860046,-0.26253542304039
13.31233263015747,0.0848105251789093,-1.642739176750183,0.5332136750221252,-0.08124621212482452,-0.02229013293981552,-0.2620868384838104
13.332379817962646,0.08387283235788345,-1.644683837890625,0.5323570370674133,-0.08125514537096024,-0.0244117584079504,-0.26120761036872864
13.352521896362305,0.08295953273773193,-1.6466009616851807,0.5315466523170471,-0.0812593400478363,-0.02649950608611107,-0.26035815477371216
13.372606992721558,0.08251135796308517,-1.6475504636764526,0.5311547517776489,-0.08126173168420792,-0.02752801403403282,-0.2599424421787262
13.392646074295044,0.08163737505674362,-1.6494388580322266,0.5303810238838196,-0.08126795291900635,-0.029551394283771515,-0.25912395119667053
13.412708282470703,0.08079402148723602,-1.651322603225708,0.5295954942703247,-0.08127476274967194,-0.031515613198280334,-0.25831636786460876
13.43297815322876,0.07997625321149826,-1.6532005071640015,0.5288029313087463,-0.08127956837415695,-0.033419542014598846,-0.2575233578681946
13.453137159347534,0.07957568764686584,-1.6541353464126587,0.5284090042114258,-0.08128319680690765,-0.034351661801338196,-0.257133424282074
13.47318410873413,0.07879038900136948,-1.6559919118881226,0.5276424884796143,-0.08129367232322693,-0.03618745505809784,-0.2563703656196594
13.493371486663818,0.07802573591470718,-1.657822847366333,0.5269314050674438,-0.0813068374991417,-0.038004301488399506,-0.2556370794773102
13.513384580612183,0.07765185087919235,-1.6587311029434204,0.5265878438949585,-0.0813126415014267,-0.0389004722237587,-0.25528013706207275
13.53350830078125,0.07692675292491913,-1.6605404615402222,0.5259096622467041,-0.08131890743970871,-0.04066497087478638,-0.2545848786830902
13.553521633148193,0.07623273134231567,-1.662346363067627,0.5252144932746887,-0.0813184380531311,-0.04237549006938934,-0.2539086639881134
13.5736083984375,0.07589602470397949,-1.6632450819015503,0.5248680710792542,-0.08131720125675201,-0.04321505129337311,-0.2535794973373413
13.593715906143188,0.07523677498102188,-1.6650296449661255,0.5241814851760864,-0.08132204413414001,-0.0448618046939373,-0.2529345750808716
13.613831281661987,0.07459937036037445,-1.6667953729629517,0.5235131978988647,-0.08133430778980255,-0.046477798372507095,-0.25230711698532104
13.633965492248535,0.07428622990846634,-1.6676702499389648,0.5231932997703552,-0.0813436210155487,-0.04727623239159584,-0.2520006597042084
13.654000997543335,0.07366947084665298,-1.6694042682647705,0.5225839614868164,-0.08136676996946335,-0.04885285720229149,-0.2514023780822754
13.674126625061035,0.07306414842605591,-1.671127438545227,0.5219928026199341,-0.08140105754137039,-0.0503869354724884,-0.25081419944763184
13.694178104400635,0.07248114049434662,-1.6728428602218628,0.521393358707428,-0.08144289255142212,-0.05187677592039108,-0.25023114681243896
13.714280128479004,0.07219862937927246,-1.673697829246521,0.5210904479026794,-0.08146457374095917,-0.052605994045734406,-0.24994276463985443
13.734392166137695,0.07165165990591049,-1.6753970384597778,0.5204894542694092,-0.08150006830692291,-0.05404098704457283,-0.2493780255317688
13.75443172454834,0.07112405449151993,-1.6770834922790527,0.5198980569839478,-0.08152887225151062,-0.05544191971421242,-0.2488282024860382
13.77451467514038,0.0708664208650589,-1.6779206991195679,0.519607663154602,-0.08154086768627167,-0.05613020434975624,-0.24855917692184448
13.794581174850464,0.07035719603300095,-1.6795769929885864,0.5190573334693909,-0.08157069981098175,-0.057490427047014236,-0.24803468585014343
13.814676761627197,0.06985829770565033,-1.6812105178833008,0.5185497999191284,-0.08161105215549469,-0.058834321796894073,-0.2475273758172989
13.834853172302246,0.06961376219987869,-1.6820224523544312,0.5183000564575195,-0.08163339644670486,-0.059493087232112885,-0.24727705121040344
13.855016708374023,0.06913960725069046,-1.6836438179016113,0.5177879333496094,-0.08168034255504608,-0.06077725440263748,-0.2467784732580185
13.87511944770813,0.06868505477905273,-1.685265302658081,0.5172545909881592,-0.0817207545042038,-0.062013689428567886,-0.24628275632858276
13.895179271697998,0.06824947893619537,-1.686877727508545,0.516732394695282,-0.08176332712173462,-0.06322627514600754,-0.24579812586307526
13.915267944335938,0.06803733110427856,-1.6876803636550903,0.5164757966995239,-0.08178609609603882,-0.06382222473621368,-0.2455599009990692
13.935335874557495,0.06762135773897171,-1.6892756223678589,0.515973687171936,-0.08183208107948303,-0.06499093025922775,-0.2450927048921585
13.955424070358276,0.06720776110887527,-1.6908472776412964,0.5155141949653625,-0.08187659829854965,-0.06613752245903015,-0.24464409053325653
13.975497245788574,0.06700555980205536,-1.6916258335113525,0.5152950286865234,-0.08189664781093597,-0.06670353561639786,-0.24442586302757263
13.995625495910645,0.06661176681518555,-1.6931735277175903,0.514862596988678,-0.0819365531206131,-0.06781399995088577,-0.24399612843990326
14.015679359436035,0.06623924523591995,-1.6947211027145386,0.5144034028053284,-0.08197576552629471,-0.06888271868228912,-0.24356648325920105
14.035840511322021,0.06605934351682663,-1.695493459701538,0.5141711831092834,-0.08199575543403625,-0.06940534710884094,-0.24335335195064545
14.055957317352295,0.06570886820554733,-1.697030782699585,0.5137106776237488,-0.08203893154859543,-0.07043082267045975,-0.24293294548988342
14.07597541809082,0.06536969542503357,-1.6985514163970947,0.5132766366004944,-0.08208329230546951,-0.07144289463758469,-0.24252687394618988
14.096022844314575,0.06503677368164062,-1.7000519037246704,0.5128772258758545,-0.08212973177433014,-0.07244101911783218,-0.24213585257530212
14.116111993789673,0.06487372517585754,-1.7007979154586792,0.5126835703849792,-0.08215394616127014,-0.07293135672807693,-0.24194404482841492
14.136246919631958,0.0645589828491211,-1.7022863626480103,0.5122900009155273,-0.08220605552196503,-0.07388653606176376,-0.24156403541564941
14.156259059906006,0.06426969915628433,-1.703782558441162,0.5118723511695862,-0.08226196467876434,-0.07478154450654984,-0.24119141697883606
14.176335096359253,0.06413061171770096,-1.704529881477356,0.5116624236106873,-0.0822903960943222,-0.07521286606788635,-0.24100910127162933
14.196420192718506,0.06385944783687592,-1.7060203552246094,0.5112481713294983,-0.08234798163175583,-0.07605554908514023,-0.24065229296684265
14.216472387313843,0.06358487904071808,-1.7074949741363525,0.5108456015586853,-0.08240669220685959,-0.07689109444618225,-0.24030059576034546
14.236520528793335,0.06331799924373627,-1.7089550495147705,0.5104543566703796,-0.08246190845966339,-0.077717125415802,-0.23995797336101532
14.256708860397339,0.06318848580121994,-1.7096810340881348,0.5102607607841492,-0.08248641341924667,-0.07812240719795227,-0.23979008197784424
14.2767174243927,0.06294410675764084,-1.7111214399337769,0.509890079498291,-0.08253294229507446,-0.07893460243940353,-0.23946541547775269
14.296776294708252,0.06271125376224518,-1.7125508785247803,0.5095329284667969,-0.08257981389760971,-0.07973441481590271,-0.2391500025987625
14.316861391067505,0.0625966340303421,-1.713258981704712,0.5093638896942139,-0.08260492980480194,-0.08013014495372772,-0.2389967441558838
14.336929321289062,0.06236521527171135,-1.7146632671356201,0.509043276309967,-0.08265697211027145,-0.0809040516614914,-0.23869670927524567
14.357022523880005,0.062137994915246964,-1.7160547971725464,0.508734941482544,-0.08271052688360214,-0.08165580779314041,-0.23840340971946716
14.377168655395508,0.06202913820743561,-1.7167490720748901,0.5085781216621399,-0.08273551613092422,-0.08202209323644638,-0.2382577508687973
14.397275924682617,0.06182326376438141,-1.7181365489959717,0.5082545876502991,-0.08278454095125198,-0.08273719996213913,-0.23796741664409637
14.417346954345703,0.061628419905900955,-1.719517707824707,0.5079249739646912,-0.08282507210969925,-0.08342815935611725,-0.23768243193626404
14.437405824661255,0.06153300032019615,-1.7202057838439941,0.5077598094940186,-0.0828450471162796,-0.08376402407884598,-0.23754136264324188
14.457520961761475,0.061347175389528275,-1.7215756177902222,0.5074320435523987,-0.08288389444351196,-0.08442028611898422,-0.23726342618465424
14.477568626403809,0.06116512417793274,-1.7229347229003906,0.5071223378181458,-0.0829286277294159,-0.0850633904337883,-0.23699218034744263
