liuyurong129/humanoid-gym/humanoid/data/target_q_20250523-230252.csv
timestamp,joint_1,joint_2,joint_3,joint_4,joint_5,joint_6
0.0002906322479248047,0.0,0.0,0.0,0.0,0.0,0.0
0.02036905288696289,0.0,0.0,0.0,0.0,0.0,0.0
0.04042696952819824,0.0,0.0,0.0,0.0,0.0,0.0
0.060491323471069336,-0.12891966104507446,-0.1927238404750824,0.531550943851471,0.3768114745616913,-0.06873191893100739,0.1587117463350296
0.0805673599243164,-0.15918731689453125,-0.24889817833900452,0.4000624120235443,0.24463039636611938,-0.07992663979530334,0.12477651238441467
0.10062599182128906,-0.17093804478645325,-0.325528085231781,0.37695300579071045,0.24544838070869446,-0.08482544124126434,0.1175161600112915
0.12085080146789551,-0.17654094099998474,-0.3631528317928314,0.3716026544570923,0.25573861598968506,-0.077578604221344,0.12092436850070953
0.1409151554107666,-0.15878671407699585,-0.28424009680747986,0.4220917820930481,0.22022908926010132,-0.041727107018232346,0.10880081355571747
0.16097712516784668,-0.17339661717414856,-0.3212774097919464,0.41379863023757935,0.21814192831516266,-0.03932880982756615,0.11081762611865997
0.18108510971069336,-0.17907655239105225,-0.34987813234329224,0.42121079564094543,0.21587154269218445,-0.01772967353463173,0.11375091969966888
0.2011411190032959,-0.19524997472763062,-0.39782899618148804,0.42725682258605957,0.22331734001636505,-0.0038402415812015533,0.12032175064086914
0.22122550010681152,-0.18741095066070557,-0.44854483008384705,0.4164515733718872,0.23865173757076263,0.026350732892751694,0.13189995288848877
0.24129128456115723,-0.1968976855278015,-0.47335389256477356,0.43898484110832214,0.22843602299690247,0.057017553597688675,0.13562503457069397
0.2613532543182373,-0.20111432671546936,-0.4848664700984955,0.47378140687942505,0.2108154147863388,0.09553620219230652,0.1358933001756668
0.28140759468078613,-0.22319546341896057,-0.49443966150283813,0.5124471783638,0.19929222762584686,0.12034700810909271,0.13956403732299805
0.30164432525634766,-0.24722623825073242,-0.553954005241394,0.5231847763061523,0.19339781999588013,0.14945225417613983,0.1514873206615448
0.3217897415161133,-0.20952892303466797,-0.5475289821624756,0.581727147102356,0.17192859947681427,0.24070963263511658,0.15072882175445557
0.3418149948120117,-0.22842630743980408,-0.6120522022247314,0.5922709107398987,0.15680569410324097,0.2679215371608734,0.15584510564804077
0.36188650131225586,-0.23968231678009033,-0.6520727872848511,0.6148822903633118,0.13692264258861542,0.3151712119579315,0.1607348471879959
0.38193750381469727,-0.2685582935810089,-0.6934612989425659,0.6310580372810364,0.13386990129947662,0.33203789591789246,0.166352778673172
0.4020707607269287,-0.28421029448509216,-0.7125539183616638,0.6392037868499756,0.13113847374916077,0.33947449922561646,0.17592687904834747
0.4221060276031494,-0.2866024672985077,-0.7276108264923096,0.6885656118392944,0.11093742400407791,0.3922080397605896,0.1757572889328003
0.44216060638427734,-0.30425000190734863,-0.7721189856529236,0.6964812278747559,0.10529520362615585,0.4052064120769501,0.17443718016147614
0.46221494674682617,-0.3171088993549347,-0.7857906818389893,0.7215151190757751,0.09630703181028366,0.42772382497787476,0.1726546585559845
0.4823720455169678,-0.33079081773757935,-0.8043248653411865,0.744087815284729,0.0887966901063919,0.4410593509674072,0.17038904130458832
0.5024580955505371,-0.34978464245796204,-0.8429144024848938,0.7209233045578003,0.10457725077867508,0.4191245436668396,0.1726810187101364
0.5225443840026855,-0.3633551299571991,-0.8496937155723572,0.7477821111679077,0.09912484884262085,0.4253942370414734,0.1713525801897049
0.5425970554351807,-0.36630377173423767,-0.8659769296646118,0.7702341079711914,0.10584565252065659,0.4237893521785736,0.16932113468647003
0.5627038478851318,-0.3703886866569519,-0.8716095685958862,0.7965431213378906,0.11150182038545609,0.4210696816444397,0.165554940700531
0.582761287689209,-0.37900683283805847,-0.8918144702911377,0.7931395769119263,0.12106351554393768,0.41054385900497437,0.16602525115013123
0.6028237342834473,-0.3868583142757416,-0.896906316280365,0.8159738183021545,0.12395182996988297,0.4022412896156311,0.16364985704421997
0.6228926181793213,-0.3878311812877655,-0.9035921096801758,0.8384512662887573,0.1257522851228714,0.414286345243454,0.16648465394973755
0.6429502964019775,-0.38937512040138245,-0.8962122201919556,0.8725832104682922,0.13384203612804413,0.40983468294143677,0.16883833706378937
0.6630003452301025,-0.39576372504234314,-0.8937426805496216,0.898161768913269,0.14025093615055084,0.40796366333961487,0.17127931118011475
0.6830899715423584,-0.39525529742240906,-0.9387536644935608,0.8688399791717529,0.14895886182785034,0.4187031388282776,0.17886817455291748
0.7031517028808594,-0.39854300022125244,-0.956213653087616,0.8794460296630859,0.15464742481708527,0.4197445213794708,0.1812879890203476
0.723214864730835,-0.397462397813797,-0.9595267176628113,0.9008729457855225,0.15862873196601868,0.4252259433269501,0.18513312935829163
0.7432799339294434,-0.40019604563713074,-0.9365341067314148,0.9445254802703857,0.16142328083515167,0.4256265163421631,0.18706391751766205
0.7636775970458984,-0.4009193778038025,-0.9463943243026733,0.9581303000450134,0.163644477725029,0.43242347240448,0.1890276074409485
0.7837674617767334,-0.40167728066444397,-0.9318761825561523,0.9784270524978638,0.16252267360687256,0.4352772831916809,0.19044756889343262
0.8038361072540283,-0.40158554911613464,-0.959118664264679,0.976504385471344,0.16787563264369965,0.4423999786376953,0.19315487146377563
0.8238835334777832,-0.40687575936317444,-0.9742710590362549,0.9809029698371887,0.1718275398015976,0.43995389342308044,0.19535624980926514
0.8439352512359619,-0.4072624742984772,-0.9807954430580139,0.9919517040252686,0.17174792289733887,0.4447717070579529,0.19687114655971527
0.8640389442443848,-0.4111974537372589,-0.9986084699630737,0.9854960441589355,0.17516280710697174,0.4420233368873596,0.1974221169948578
0.8841278553009033,-0.40674328804016113,-1.015360951423645,0.9781725406646729,0.1716555505990982,0.45872747898101807,0.2005304992198944
0.904144287109375,-0.4050610065460205,-1.0211313962936401,0.9792382717132568,0.170795738697052,0.46009498834609985,0.2004065215587616
0.9242134094238281,-0.41013339161872864,-1.0384858846664429,0.9647007584571838,0.17088782787322998,0.45640045404434204,0.20093530416488647
0.9442613124847412,-0.41827502846717834,-1.0424768924713135,0.9613291621208191,0.17668409645557404,0.44174689054489136,0.20114652812480927
0.9643573760986328,-0.41428110003471375,-1.0522913932800293,0.9528505206108093,0.17493823170661926,0.4525159001350403,0.20352324843406677
0.984417200088501,-0.4198472499847412,-1.0503569841384888,0.9556567668914795,0.17957256734371185,0.4453989565372467,0.20480458438396454
1.0044853687286377,-0.4253736436367035,-1.0478459596633911,0.9599061608314514,0.18231631815433502,0.43825337290763855,0.2052924931049347
1.0245299339294434,-0.42887255549430847,-1.0424914360046387,0.9662397503852844,0.18168917298316956,0.4447280168533325,0.20772495865821838
1.0446248054504395,-0.4271102845668793,-1.0469560623168945,0.9621845483779907,0.1838165521621704,0.44712725281715393,0.21047723293304443
1.0647101402282715,-0.43526870012283325,-1.044809103012085,0.9662747383117676,0.1875355839729309,0.4358901381492615,0.2107967734336853
1.0847642421722412,-0.44170883297920227,-1.0448788404464722,0.9670048356056213,0.18931595981121063,0.43139132857322693,0.21193300187587738
1.1048214435577393,-0.4421974718570709,-1.0492359399795532,0.9623225927352905,0.18894684314727783,0.4369087815284729,0.2148870825767517
1.1248877048492432,-0.44664618372917175,-1.047537088394165,0.9665427803993225,0.1909274160861969,0.43746334314346313,0.21626988053321838
1.144972562789917,-0.42652690410614014,-1.052448034286499,0.9588015079498291,0.1851690113544464,0.47166550159454346,0.22102102637290955
1.1650397777557373,-0.4262213110923767,-1.0535061359405518,0.9591445922851562,0.18540611863136292,0.47823572158813477,0.2235812246799469
1.1851189136505127,-0.4270661771297455,-1.0502749681472778,0.9642158150672913,0.1845334768295288,0.48612016439437866,0.22540664672851562
1.2051620483398438,-0.4308314025402069,-1.0576118230819702,0.9571263790130615,0.1854998767375946,0.4869961738586426,0.22865185141563416
1.2256505489349365,-0.43107226490974426,-1.0572049617767334,0.9599781036376953,0.1862805336713791,0.49041205644607544,0.23148833215236664
1.245833158493042,-0.4598655104637146,-1.05507230758667,0.9627823829650879,0.19408920407295227,0.4495096802711487,0.2281319946050644
1.265824794769287,-0.4599343538284302,-1.0563526153564453,0.9613915681838989,0.19035212695598602,0.4614226818084717,0.2304677963256836
1.2858846187591553,-0.46707916259765625,-1.0576523542404175,0.9649916291236877,0.19603471457958221,0.4503016769886017,0.2327551543712616
1.3059899806976318,-0.4659520089626312,-1.0604643821716309,0.9622633457183838,0.19483789801597595,0.4599105715751648,0.2360198050737381
1.3265435695648193,-0.4440697431564331,-1.064824104309082,0.9575943946838379,0.1899476945400238,0.49743586778640747,0.2420148104429245
1.3465955257415771,-0.4444563090801239,-1.0634592771530151,0.9599798917770386,0.19245216250419617,0.4999305009841919,0.24471691250801086
1.3667783737182617,-0.45051831007003784,-1.0671545267105103,0.9575427770614624,0.19441168010234833,0.49599289894104004,0.2470690906047821
1.3867335319519043,-0.4484260380268097,-1.066495656967163,0.9582133889198303,0.19355018436908722,0.5065118670463562,0.2508449852466583
1.406787633895874,-0.4530459940433502,-1.0700079202651978,0.9575066566467285,0.19618679583072662,0.5053099393844604,0.2542533278465271
1.4268827438354492,-0.48186805844306946,-1.068138599395752,0.9606548547744751,0.20472708344459534,0.4616268277168274,0.251547247171402
1.4469866752624512,-0.4810190498828888,-1.066996455192566,0.9617509245872498,0.20542798936367035,0.4674330949783325,0.25513559579849243
1.4670276641845703,-0.47868087887763977,-1.0707693099975586,0.9591479301452637,0.20709343254566193,0.4742477536201477,0.2591545581817627
1.4871175289154053,-0.4824240505695343,-1.0742517709732056,0.9575478434562683,0.21096274256706238,0.47036218643188477,0.2632041275501251
1.5074100494384766,-0.48270466923713684,-1.0748305320739746,0.9577611684799194,0.21068383753299713,0.4785225987434387,0.26755309104919434
1.5275542736053467,-0.4753377139568329,-1.0754700899124146,0.9569621682167053,0.20972390472888947,0.48932790756225586,0.27046117186546326
1.5475952625274658,-0.4865927994251251,-1.0757746696472168,0.9599555730819702,0.21641024947166443,0.47518402338027954,0.27278968691825867
1.5676240921020508,-0.4837745130062103,-1.0729464292526245,0.9653935432434082,0.21520552039146423,0.4846041202545166,0.2763018310070038
1.5876998901367188,-0.48189225792884827,-1.0797728300094604,0.9584571123123169,0.21660849452018738,0.4903889298439026,0.2812860906124115
1.6077849864959717,-0.49049296975135803,-1.0819993019104004,0.9565243721008301,0.22198227047920227,0.477614164352417,0.28283679485321045
1.627842664718628,-0.49039503931999207,-1.0812740325927734,0.9588466286659241,0.22198134660720825,0.4836656451225281,0.28666505217552185
1.6479125022888184,-0.48921552300453186,-1.0789822340011597,0.9622619152069092,0.2234436273574829,0.48860377073287964,0.28989583253860474
1.6679856777191162,-0.481777161359787,-1.0797290802001953,0.960805356502533,0.22032831609249115,0.5060054063796997,0.2936055362224579
1.688056230545044,-0.4915520250797272,-1.086065649986267,0.9570169448852539,0.22360295057296753,0.49508243799209595,0.29578426480293274
1.7081310749053955,-0.4892710745334625,-1.0814752578735352,0.9615190029144287,0.2240896224975586,0.4988400936126709,0.29859623312950134
1.7282326221466064,-0.487600713968277,-1.081345558166504,0.9618022441864014,0.2251674085855484,0.5026767253875732,0.30134308338165283
1.7482638359069824,-0.4891902506351471,-1.0847848653793335,0.9587530493736267,0.22614485025405884,0.5032033324241638,0.3044765889644623
1.7683160305023193,-0.49113211035728455,-1.0877015590667725,0.9568189382553101,0.2272661179304123,0.5028153657913208,0.30680587887763977
1.788393259048462,-0.4947752058506012,-1.0818783044815063,0.9659059047698975,0.23187121748924255,0.4925957918167114,0.30757254362106323
1.8084723949432373,-0.49172350764274597,-1.0838693380355835,0.9632061123847961,0.23085451126098633,0.5012566447257996,0.3109445869922638
1.828584909439087,-0.4966028034687042,-1.087048053741455,0.9610753059387207,0.2338351309299469,0.4957885146141052,0.3132342994213104
1.8485915660858154,-0.4930022060871124,-1.0867187976837158,0.9605001211166382,0.23056316375732422,0.5051159858703613,0.31547996401786804
1.8686904907226562,-0.49499931931495667,-1.0861566066741943,0.9626845121383667,0.23330220580101013,0.5010507106781006,0.31674569845199585
1.8887608051300049,-0.49499472975730896,-1.0880258083343506,0.9619884490966797,0.23402030766010284,0.5026090145111084,0.31943315267562866
1.9088258743286133,-0.4989624321460724,-1.0880458354949951,0.963813304901123,0.23527908325195312,0.5006961822509766,0.32175782322883606
1.928877592086792,-0.4970267117023468,-1.090790033340454,0.9600872993469238,0.23491588234901428,0.503939688205719,0.32273080945014954
1.9489336013793945,-0.49098023772239685,-1.0926001071929932,0.957850456237793,0.23186689615249634,0.5169849395751953,0.325033575296402
1.969020128250122,-0.49786874651908875,-1.091275930404663,0.9614794254302979,0.23598192632198334,0.5062980055809021,0.32652950286865234
1.9891064167022705,-0.4968290627002716,-1.0932203531265259,0.9597019553184509,0.23674660921096802,0.5050989389419556,0.32745710015296936
2.0092051029205322,-0.49576690793037415,-1.0947858095169067,0.9588323831558228,0.23618552088737488,0.5090245604515076,0.32976990938186646
2.029309034347534,-0.4950067102909088,-1.0963011980056763,0.9560517072677612,0.23596447706222534,0.5122252702713013,0.33181849122047424
2.049309253692627,-0.49714866280555725,-1.0926305055618286,0.9622929096221924,0.23667199909687042,0.5073095560073853,0.3315480351448059
2.0693936347961426,-0.49664178490638733,-1.0948781967163086,0.9608381390571594,0.23670819401741028,0.5083685517311096,0.33384791016578674
2.089459180831909,-0.4962520897388458,-1.094966173171997,0.9607003331184387,0.23880000412464142,0.5071688294410706,0.33537569642066956
2.109520673751831,-0.49531546235084534,-1.096282720565796,0.9583766460418701,0.23722201585769653,0.5135605335235596,0.33600032329559326
2.1295740604400635,-0.49652907252311707,-1.095320701599121,0.9605892896652222,0.23773877322673798,0.5118547081947327,0.3373773992061615
2.1496567726135254,-0.49579235911369324,-1.0945560932159424,0.9605896472930908,0.2373153567314148,0.5125150680541992,0.336866557598114
2.1697306632995605,-0.4933679401874542,-1.0942325592041016,0.962347149848938,0.23567070066928864,0.5185662508010864,0.33852094411849976
2.189840316772461,-0.4973137676715851,-1.0971943140029907,0.9607717394828796,0.23808284103870392,0.5109080076217651,0.3393217921257019
2.2098865509033203,-0.4994651973247528,-1.0995793342590332,0.9582528471946716,0.2394627034664154,0.5083861947059631,0.3411208689212799
2.229947566986084,-0.49807289242744446,-1.0949331521987915,0.9629071950912476,0.23918238282203674,0.5105681419372559,0.3418276011943817
2.250025749206543,-0.49882248044013977,-1.099855899810791,0.9582728147506714,0.23911525309085846,0.5102058053016663,0.34288856387138367
2.2701027393341064,-0.49824783205986023,-1.0992467403411865,0.9594063758850098,0.2397029548883438,0.5089302062988281,0.34322354197502136
2.290161371231079,-0.4992131292819977,-1.099179983139038,0.9604843854904175,0.24026766419410706,0.5075481534004211,0.3443765342235565
2.3102266788482666,-0.4994529187679291,-1.0969974994659424,0.9624584317207336,0.24046428501605988,0.507773756980896,0.3446766436100006
2.3302741050720215,-0.49881795048713684,-1.0982592105865479,0.9615750312805176,0.2401902973651886,0.5091496706008911,0.34483399987220764
2.3503592014312744,-0.49643674492836,-1.0986871719360352,0.961149275302887,0.23860494792461395,0.5153152942657471,0.3462340533733368
2.3704302310943604,-0.49756255745887756,-1.0973726511001587,0.96284019947052,0.23923802375793457,0.5133418440818787,0.3465402126312256
2.39052414894104,-0.49764344096183777,-1.0985594987869263,0.9607479572296143,0.23779483139514923,0.5159446597099304,0.3465610146522522
2.4105629920959473,-0.49935802817344666,-1.0996896028518677,0.960501492023468,0.23874270915985107,0.5127217769622803,0.3468134105205536
2.4307496547698975,-0.498858243227005,-1.1000045537948608,0.9603500366210938,0.23892462253570557,0.5121204257011414,0.34700992703437805
2.450819253921509,-0.4991014301776886,-1.0991586446762085,0.9614148139953613,0.2391686737537384,0.5118839740753174,0.347823828458786
2.471015214920044,-0.49883726239204407,-1.1006338596343994,0.9591734409332275,0.23925133049488068,0.5120793581008911,0.34804460406303406
2.4909920692443848,-0.4979994595050812,-1.099253535270691,0.9608545899391174,0.23905152082443237,0.5128031969070435,0.3482723534107208
2.5110557079315186,-0.49855342507362366,-1.1001923084259033,0.9604235887527466,0.2391267716884613,0.5116804242134094,0.3480883538722992
2.5311551094055176,-0.4987201988697052,-1.098705768585205,0.9620133638381958,0.23892901837825775,0.5113052129745483,0.3479728400707245
2.5512185096740723,-0.4989764392375946,-1.0984182357788086,0.962572455406189,0.23952457308769226,0.5105462074279785,0.3480973541736603
2.5712835788726807,-0.5001670122146606,-1.102243423461914,0.9591922760009766,0.24040170013904572,0.5089980959892273,0.3485046625137329
2.5913829803466797,-0.498567134141922,-1.100580096244812,0.9604597091674805,0.23919065296649933,0.5126323103904724,0.34875136613845825
2.6114158630371094,-0.4987117350101471,-1.099977970123291,0.9612696766853333,0.23901434242725372,0.5126621723175049,0.3486960828304291
2.631503105163574,-0.4975825250148773,-1.0996971130371094,0.961179256439209,0.2382189780473709,0.5147814154624939,0.3489226996898651
2.651567220687866,-0.498991459608078,-1.1000854969024658,0.9614859819412231,0.23913419246673584,0.51179438829422,0.3493644595146179
2.671644687652588,-0.4989747107028961,-1.100036859512329,0.9615378379821777,0.23911739885807037,0.5115149021148682,0.34976741671562195
2.6916916370391846,-0.49828198552131653,-1.1000739336013794,0.9613776206970215,0.23855586349964142,0.5126680135726929,0.34990978240966797
2.7117526531219482,-0.4961712062358856,-1.1004434823989868,0.9611448645591736,0.23637869954109192,0.5184766054153442,0.3502536118030548
2.7318413257598877,-0.5000560283660889,-1.099997639656067,0.9621380567550659,0.23820051550865173,0.5121698379516602,0.3500169813632965
2.7519381046295166,-0.49996069073677063,-1.1003679037094116,0.961839497089386,0.2388533353805542,0.5107409358024597,0.349839985370636
2.771986961364746,-0.4996754229068756,-1.10025155544281,0.9618027210235596,0.23844830691814423,0.511566162109375,0.34984466433525085
2.7920379638671875,-0.4988400638103485,-1.1003252267837524,0.9614514112472534,0.23834694921970367,0.5119901895523071,0.3499910533428192
2.8123152256011963,-0.49904629588127136,-1.1003001928329468,0.9615859985351562,0.23842330276966095,0.5118234157562256,0.35004034638404846
2.832422971725464,-0.49933138489723206,-1.10019052028656,0.961776852607727,0.23850902915000916,0.5117205381393433,0.3504643440246582
2.8524763584136963,-0.4995304048061371,-1.1004302501678467,0.9618715047836304,0.23877792060375214,0.510927677154541,0.3509741723537445
2.872520685195923,-0.4991399943828583,-1.101056694984436,0.9605274200439453,0.23825760185718536,0.5121411085128784,0.35150519013404846
2.8925795555114746,-0.49948206543922424,-1.1020827293395996,0.959317684173584,0.23862497508525848,0.511101245880127,0.35169854760169983
2.9126694202423096,-0.4991179406642914,-1.1023473739624023,0.9590650796890259,0.23809197545051575,0.5122400522232056,0.35167619585990906
2.9327337741851807,-0.4997505247592926,-1.1006876230239868,0.9621016383171082,0.2391880601644516,0.5105052590370178,0.35155442357063293
2.95280122756958,-0.49898746609687805,-1.1004778146743774,0.9619823694229126,0.23897603154182434,0.5116626620292664,0.3513734042644501
2.972865104675293,-0.4989199936389923,-1.1000391244888306,0.96239173412323,0.23909373581409454,0.5118448138237,0.3516027629375458
2.9930078983306885,-0.49883928894996643,-1.097063660621643,0.9654347896575928,0.23932123184204102,0.5116978287696838,0.3516266644001007
3.013092279434204,-0.4992115795612335,-1.102757215499878,0.9596735239028931,0.23918627202510834,0.512434720993042,0.35199376940727234
3.0331506729125977,-0.49955984950065613,-1.101589560508728,0.96150141954422,0.2393103837966919,0.5118000507354736,0.3521522581577301
3.0532028675079346,-0.49927201867103577,-1.101116418838501,0.9621174931526184,0.23942315578460693,0.5108168125152588,0.35194671154022217
3.0732581615448,-0.4993292987346649,-1.1008479595184326,0.9623494744300842,0.23916995525360107,0.5115743279457092,0.3521760106086731
3.0933427810668945,-0.4992155134677887,-1.1011675596237183,0.9620436429977417,0.23945672810077667,0.5108773112297058,0.35194483399391174
3.1134066581726074,-0.49973824620246887,-1.1018112897872925,0.9612186551094055,0.23941975831985474,0.5108758807182312,0.35240814089775085
3.1334726810455322,-0.49880120158195496,-1.1015843152999878,0.9612843990325928,0.2388373464345932,0.5130351781845093,0.3526071012020111
3.153531074523926,-0.4991144835948944,-1.1016085147857666,0.961728036403656,0.23904797434806824,0.5120682716369629,0.35291069746017456
3.1736347675323486,-0.4991386830806732,-1.1019654273986816,0.9609599113464355,0.2390105426311493,0.5118740797042847,0.3530825078487396
3.1937057971954346,-0.4983483850955963,-1.1005988121032715,0.96266770362854,0.23908232152462006,0.5125344395637512,0.35306957364082336
3.2138123512268066,-0.498661607503891,-1.1011766195297241,0.9622980356216431,0.23956063389778137,0.5116943120956421,0.3534322679042816
3.233816146850586,-0.4999571144580841,-1.1014984846115112,0.9625965356826782,0.24027733504772186,0.5094209313392639,0.353246808052063
3.2538774013519287,-0.4998129904270172,-1.1010100841522217,0.9626010060310364,0.24050360918045044,0.5089534521102905,0.3531745374202728
3.2739622592926025,-0.5031005144119263,-1.100396752357483,0.9632724523544312,0.2435743808746338,0.5004732012748718,0.3525782823562622
3.2940244674682617,-0.4981047213077545,-1.1008391380310059,0.9622471928596497,0.24078477919101715,0.5091067552566528,0.3535135090351105
3.3140981197357178,-0.49844226241111755,-1.1006711721420288,0.9625513553619385,0.2405533790588379,0.5101456642150879,0.3535907566547394
3.3341424465179443,-0.4989294111728668,-1.1007474660873413,0.9626893997192383,0.2409897893667221,0.5090487003326416,0.3535636365413666
3.3542234897613525,-0.49884602427482605,-1.1008720397949219,0.9626762866973877,0.2410832941532135,0.5091589093208313,0.3539116084575653
3.374297618865967,-0.49852505326271057,-1.1007013320922852,0.9625265598297119,0.24081984162330627,0.5100740194320679,0.3537803590297699
3.3943803310394287,-0.49835720658302307,-1.1005011796951294,0.9625777006149292,0.2404547929763794,0.5111693143844604,0.3538344204425812
3.414424419403076,-0.49820587038993835,-1.1006306409835815,0.9623923301696777,0.2404429018497467,0.5112998485565186,0.35376453399658203
3.434481620788574,-0.4986061751842499,-1.1007304191589355,0.9622570276260376,0.24077655375003815,0.51021409034729,0.35366061329841614
3.454564094543457,-0.49840012192726135,-1.100759744644165,0.9624841213226318,0.24077941477298737,0.5103603601455688,0.35372471809387207
3.4746296405792236,-0.4984005391597748,-1.1008245944976807,0.9621727466583252,0.24071209132671356,0.5102514028549194,0.3538440763950348
3.494678258895874,-0.49825844168663025,-1.1007944345474243,0.9620664715766907,0.24084731936454773,0.5102237462997437,0.3537493646144867
3.5147407054901123,-0.49862805008888245,-1.1010231971740723,0.96224045753479,0.24098360538482666,0.5092607736587524,0.35383304953575134
3.534839153289795,-0.49824896454811096,-1.1009271144866943,0.9620510935783386,0.2408207654953003,0.510320782661438,0.3538658618927002
3.5549213886260986,-0.497953861951828,-1.1007024049758911,0.9620630741119385,0.24054557085037231,0.5113325715065002,0.35389944911003113
3.5750551223754883,-0.49885573983192444,-1.101084589958191,0.962268590927124,0.24123965203762054,0.5092024803161621,0.3540353775024414
3.5950512886047363,-0.4979313910007477,-1.100774884223938,0.962060809135437,0.24062591791152954,0.511350691318512,0.3541698753833771
3.6151576042175293,-0.4985261857509613,-1.1008377075195312,0.962250828742981,0.24089285731315613,0.5101673603057861,0.3540249168872833
3.635249376296997,-0.4979429543018341,-1.1006667613983154,0.962081789970398,0.24054449796676636,0.5113388299942017,0.35407182574272156
3.6553637981414795,-0.49838557839393616,-1.1009464263916016,0.9621783494949341,0.2407715916633606,0.5103855729103088,0.35422661900520325
3.675394296646118,-0.49876049160957336,-1.100819706916809,0.9624189138412476,0.24092736840248108,0.5101005434989929,0.3545167148113251
3.695439338684082,-0.4988955557346344,-1.1008515357971191,0.9625110030174255,0.24090978503227234,0.5100736618041992,0.3547634780406952
3.715508222579956,-0.4985465109348297,-1.1008270978927612,0.9623772501945496,0.24088558554649353,0.5103490352630615,0.3549191653728485
3.7356743812561035,-0.4980129301548004,-1.1006324291229248,0.9623004198074341,0.2404969185590744,0.5111628174781799,0.3552529811859131
3.7556700706481934,-0.49935218691825867,-1.101118564605713,0.9625827670097351,0.24162495136260986,0.5078370571136475,0.35517236590385437
3.775718927383423,-0.4990600049495697,-1.1009029150009155,0.9625489711761475,0.2412988245487213,0.5086127519607544,0.3551689684391022
3.7957847118377686,-0.4987984001636505,-1.1006735563278198,0.9625421762466431,0.24091756343841553,0.5096758008003235,0.35517725348472595
3.815913200378418,-0.4977366030216217,-1.1006869077682495,0.9621467590332031,0.24048607051372528,0.5111367702484131,0.35515153408050537
3.835935354232788,-0.49830004572868347,-1.1007773876190186,0.962311863899231,0.24087193608283997,0.5100412368774414,0.35516059398651123
3.85603404045105,-0.49791374802589417,-1.100581169128418,0.9622475504875183,0.240568146109581,0.5109478831291199,0.35519710183143616
3.8761353492736816,-0.49849650263786316,-1.1007715463638306,0.96240234375,0.2407642900943756,0.5099467635154724,0.35511311888694763
3.89619779586792,-0.49837520718574524,-1.1007930040359497,0.9623444676399231,0.2408558875322342,0.5099775195121765,0.35517704486846924
3.916280508041382,-0.4976942241191864,-1.1007075309753418,0.9621328115463257,0.24047206342220306,0.511104941368103,0.3552183210849762
3.9363276958465576,-0.49890998005867004,-1.101151943206787,0.9623739719390869,0.24144437909126282,0.5080294013023376,0.3550654649734497
3.9563844203948975,-0.49815991520881653,-1.1007777452468872,0.9622569680213928,0.24080373346805573,0.5097904801368713,0.3551066815853119
3.9764695167541504,-0.4983622133731842,-1.1007658243179321,0.9623298645019531,0.24086932837963104,0.5099138021469116,0.35514315962791443
3.996575355529785,-0.4978550374507904,-1.100683569908142,0.9621927738189697,0.24046017229557037,0.5109573602676392,0.35515084862709045
4.0166542530059814,-0.4982040822505951,-1.1008803844451904,0.9621680974960327,0.2408037632703781,0.5101076364517212,0.35505247116088867
4.036718130111694,-0.49850454926490784,-1.100738286972046,0.962324321269989,0.24088479578495026,0.5098679661750793,0.3550419509410858
4.056801795959473,-0.4987764060497284,-1.1009728908538818,0.9623273611068726,0.2411528378725052,0.5088806748390198,0.3550228178501129
4.07689356803894,-0.4980258047580719,-1.100874423980713,0.9620957374572754,0.24081996083259583,0.5101145505905151,0.3550753891468048
4.096996784210205,-0.49832287430763245,-1.1007959842681885,0.9622452259063721,0.2410060167312622,0.5099311470985413,0.35512229800224304
4.117027282714844,-0.49883297085762024,-1.1009718179702759,0.962374746799469,0.24131637811660767,0.508815586566925,0.3551078736782074
4.137087106704712,-0.4982673227787018,-1.100907325744629,0.9619535207748413,0.2409195899963379,0.5100523233413696,0.3551247715950012
4.157153367996216,-0.4980222284793854,-1.1009067296981812,0.9620527029037476,0.24078956246376038,0.5101418495178223,0.3550660312175751
4.177247762680054,-0.4984433948993683,-1.1008440256118774,0.9620489478111267,0.2408791333436966,0.5098912715911865,0.35508474707603455
4.197298526763916,-0.4982297718524933,-1.100808024406433,0.9621645212173462,0.2408190816640854,0.5099034309387207,0.3550240099430084
4.217403888702393,-0.4978512227535248,-1.10077702999115,0.9620243310928345,0.24062491953372955,0.5110924243927002,0.3550877869129181
4.23745059967041,-0.4981447756290436,-1.1009759902954102,0.9621104001998901,0.24093839526176453,0.5101528167724609,0.3550328016281128
4.257523775100708,-0.4983657896518707,-1.1008288860321045,0.962151288986206,0.24096736311912537,0.5099744200706482,0.355048269033432
4.2775890827178955,-0.4982363283634186,-1.1008408069610596,0.9620864391326904,0.24098818004131317,0.509990394115448,0.3550151288509369
4.2976391315460205,-0.49806031584739685,-1.1009608507156372,0.9619921445846558,0.24092929065227509,0.510227382183075,0.3550644814968109
4.317723989486694,-0.498214989900589,-1.100883960723877,0.9621019959449768,0.24095138907432556,0.5100224614143372,0.35502883791923523
4.337775468826294,-0.49820390343666077,-1.1008825302124023,0.9621395468711853,0.24074488878250122,0.5099725723266602,0.35478463768959045
4.357846260070801,-0.4982018768787384,-1.100766897201538,0.9622154235839844,0.24089361727237701,0.5098836421966553,0.3550971448421478
4.377903938293457,-0.4984906017780304,-1.1008474826812744,0.9620258808135986,0.24102796614170074,0.5098496675491333,0.3550584018230438
4.398005723953247,-0.49825432896614075,-1.1009106636047363,0.961902379989624,0.240976020693779,0.5099911689758301,0.355000764131546
4.418043851852417,-0.49825772643089294,-1.1008360385894775,0.9622061252593994,0.24081949889659882,0.5100067257881165,0.354821115732193
4.438201427459717,-0.4982203543186188,-1.1008524894714355,0.9620504975318909,0.24100235104560852,0.5100324153900146,0.35483595728874207
4.4583258628845215,-0.4986055791378021,-1.101041555404663,0.9621149301528931,0.24126704037189484,0.5089584589004517,0.35475286841392517
4.478323936462402,-0.4977112114429474,-1.1007554531097412,0.9617702960968018,0.24052944779396057,0.5111424922943115,0.3549353778362274
4.498386859893799,-0.4978990852832794,-1.100974202156067,0.9619787335395813,0.24092043936252594,0.5102851390838623,0.3548396825790405
4.518503427505493,-0.4989342987537384,-1.100955843925476,0.9623883962631226,0.24123947322368622,0.5088195204734802,0.35485655069351196
4.538830757141113,-0.497995525598526,-1.1009409427642822,0.9617968201637268,0.24081474542617798,0.5102308988571167,0.3548635244369507
4.558864593505859,-0.4978697597980499,-1.1008929014205933,0.961872935295105,0.24095085263252258,0.5101596117019653,0.35479405522346497
4.579092502593994,-0.498788446187973,-1.1010645627975464,0.9619776606559753,0.241289421916008,0.5088178515434265,0.354763388633728
4.599072694778442,-0.4983201324939728,-1.1008723974227905,0.9620815515518188,0.2409336268901825,0.5099020004272461,0.3548144996166229
4.6191322803497314,-0.4982331097126007,-1.1009113788604736,0.9620406627655029,0.2409544736146927,0.5100441575050354,0.3548256456851959
4.6397271156311035,-0.498972088098526,-1.1009777784347534,0.9623782634735107,0.24120700359344482,0.5088210105895996,0.3548373579978943
4.659849405288696,-0.4979204833507538,-1.1009713411331177,0.9619146585464478,0.24092023074626923,0.5102940201759338,0.3548400104045868
4.679916620254517,-0.4977225363254547,-1.100775957107544,0.9619473814964294,0.24065470695495605,0.5111051201820374,0.35488077998161316
4.699958801269531,-0.49824002385139465,-1.1009454727172852,0.9620825052261353,0.24096548557281494,0.5101884007453918,0.3548855483531952
4.720014810562134,-0.49814507365226746,-1.1008210182189941,0.9620542526245117,0.24098248779773712,0.5099566578865051,0.35479068756103516
4.74018406867981,-0.4982081353664398,-1.1008570194244385,0.9620468616485596,0.24098989367485046,0.5100386142730713,0.35481998324394226
4.760274171829224,-0.49823322892189026,-1.1009160280227661,0.9620728492736816,0.2409362941980362,0.5100332498550415,0.3548189699649811
4.7803332805633545,-0.49872907996177673,-1.100942611694336,0.9622838497161865,0.24120545387268066,0.5089317560195923,0.35483449697494507
4.800400733947754,-0.49806270003318787,-1.1006923913955688,0.962080180644989,0.24065983295440674,0.5108778476715088,0.35484346747398376
4.8204851150512695,-0.49828866124153137,-1.1009312868118286,0.9620943069458008,0.24094432592391968,0.5101471543312073,0.3548724353313446
4.840625762939453,-0.49822917580604553,-1.100843071937561,0.9620848894119263,0.240976482629776,0.5100266337394714,0.3548222482204437
4.860730886459351,-0.49775925278663635,-1.1007112264633179,0.9619660377502441,0.24064645171165466,0.5110868811607361,0.35484886169433594
4.880833864212036,-0.4986110031604767,-1.1010662317276,0.9622220993041992,0.24126750230789185,0.5090851187705994,0.35478973388671875
4.900861501693726,-0.49832960963249207,-1.1008076667785645,0.9622329473495483,0.2408330887556076,0.5098985433578491,0.35486069321632385
4.920918703079224,-0.49823132157325745,-1.100909948348999,0.9620511531829834,0.24094974994659424,0.5100461840629578,0.35482078790664673
4.941001653671265,-0.4982324540615082,-1.1008989810943604,0.9620789289474487,0.24093696475028992,0.5100373029708862,0.35482287406921387
4.9611005783081055,-0.49859854578971863,-1.101007103919983,0.9622210264205933,0.24124747514724731,0.5089377760887146,0.35473284125328064
4.98114013671875,-0.4985333979129791,-1.1008226871490479,0.9622188806533813,0.24098293483257294,0.5097596049308777,0.35481053590774536
5.001264333724976,-0.49827876687049866,-1.1008670330047607,0.9620963931083679,0.2409212440252304,0.5099921226501465,0.35481390357017517
5.021308660507202,-0.4983194172382355,-1.1009178161621094,0.9621080160140991,0.2409532219171524,0.510068953037262,0.35486647486686707
5.041388750076294,-0.49822553992271423,-1.1009047031402588,0.9620697498321533,0.24092131853103638,0.510079026222229,0.35481497645378113
5.061457872390747,-0.4983067810535431,-1.1009255647659302,0.962101936340332,0.24093763530254364,0.5101186037063599,0.3548584580421448
5.08157205581665,-0.4986092746257782,-1.101046085357666,0.9621167182922363,0.24126854538917542,0.5089656114578247,0.3547528088092804
5.101632595062256,-0.49923112988471985,-1.1012294292449951,0.9620580077171326,0.24160492420196533,0.5078109502792358,0.3547290861606598
5.121700048446655,-0.49791452288627625,-1.1006951332092285,0.961999237537384,0.24061131477355957,0.5108624696731567,0.3548395335674286
5.141884088516235,-0.4983964264392853,-1.1008328199386597,0.962172269821167,0.24102382361888885,0.509944498538971,0.35482218861579895
5.161905527114868,-0.4984917938709259,-1.1008542776107788,0.9621942043304443,0.2409425675868988,0.5099248886108398,0.354804128408432
5.181969404220581,-0.4982377588748932,-1.1008012294769287,0.962180495262146,0.2407936453819275,0.5099242329597473,0.3548159599304199
5.202014923095703,-0.49824532866477966,-1.1008822917938232,0.9620848298072815,0.24094243347644806,0.5099852681159973,0.3548232614994049
5.222127676010132,-0.4981366693973541,-1.1008336544036865,0.9620379209518433,0.24095626175403595,0.5099847316741943,0.3547723889350891
5.242213487625122,-0.4984724819660187,-1.10092031955719,0.9621710777282715,0.24093183875083923,0.5099208950996399,0.3548213243484497
5.262278079986572,-0.4982297718524933,-1.1009372472763062,0.9621172547340393,0.2409258931875229,0.5100615620613098,0.3548205494880676
5.282335042953491,-0.49806275963783264,-1.1006810665130615,0.9622113108634949,0.24049963057041168,0.5109379291534424,0.3549051582813263
5.3024632930755615,-0.49795785546302795,-1.1008981466293335,0.9619623422622681,0.24092455208301544,0.5102322101593018,0.354822039604187
5.322551250457764,-0.49838462471961975,-1.1008460521697998,0.9621421694755554,0.24099183082580566,0.5099445581436157,0.35485172271728516
5.342617034912109,-0.49838247895240784,-1.100908637046814,0.9622341990470886,0.24081270396709442,0.5100311040878296,0.35492274165153503
5.362680435180664,-0.4987051784992218,-1.100994348526001,0.9621988534927368,0.24129371345043182,0.5089518427848816,0.35478150844573975
5.382734537124634,-0.4988098442554474,-1.1009585857391357,0.9623322486877441,0.24110709130764008,0.5088889598846436,0.35480213165283203
5.402822971343994,-0.4978756010532379,-1.1009347438812256,0.9618963003158569,0.2409321516752243,0.5101836323738098,0.3548060357570648
5.4228901863098145,-0.49794039130210876,-1.1009782552719116,0.9618887305259705,0.24089054763317108,0.5102453827857971,0.3545965552330017
5.442942142486572,-0.4984184801578522,-1.1010645627975464,0.9620415568351746,0.24125994741916656,0.509123682975769,0.3547790050506592
5.462999582290649,-0.49833765625953674,-1.100907802581787,0.9621158242225647,0.24094891548156738,0.5100336670875549,0.3548548221588135
5.483067750930786,-0.4982430040836334,-1.1008957624435425,0.9620789289474487,0.24093939363956451,0.510032057762146,0.35482537746429443
5.5031514167785645,-0.49835899472236633,-1.10085129737854,0.9622365236282349,0.24084684252738953,0.5100322365760803,0.3549164831638336
5.5232203006744385,-0.4987141191959381,-1.1011005640029907,0.9621865749359131,0.24122776091098785,0.508988618850708,0.3547958433628082
5.543288946151733,-0.4981295168399811,-1.1008663177490234,0.9619748592376709,0.2408711314201355,0.5098983645439148,0.3544802963733673
5.563350200653076,-0.49800828099250793,-1.1007401943206787,0.9620431661605835,0.24059143662452698,0.510995626449585,0.35481026768684387
5.583556890487671,-0.4987904131412506,-1.1010329723358154,0.9621946811676025,0.24125614762306213,0.5089520215988159,0.35452038049697876
5.603613376617432,-0.49900689721107483,-1.1010503768920898,0.9622353315353394,0.24121713638305664,0.5088127851486206,0.3544952869415283
5.62367582321167,-0.49817755818367004,-1.1009442806243896,0.9620059728622437,0.24087132513523102,0.5101083517074585,0.35482171177864075
5.643735408782959,-0.4986858665943146,-1.1010740995407104,0.9621174931526184,0.24120938777923584,0.5090616941452026,0.35453882813453674
5.663976192474365,-0.4979877769947052,-1.1009293794631958,0.9619526863098145,0.240930438041687,0.5102088451385498,0.35465672612190247
5.684094190597534,-0.49819377064704895,-1.1009513139724731,0.9619929790496826,0.2408834844827652,0.5101475715637207,0.3545646369457245
5.704130411148071,-0.4983516037464142,-1.100902795791626,0.9621548652648926,0.24077454209327698,0.5101205706596375,0.3546440601348877
5.7241950035095215,-0.49781766533851624,-1.1006832122802734,0.9620481729507446,0.2405322939157486,0.5110737085342407,0.3547212779521942
5.744244575500488,-0.4982497990131378,-1.1009488105773926,0.962059736251831,0.24095264077186584,0.5102168917655945,0.35468509793281555
5.764370441436768,-0.49876829981803894,-1.1009835004806519,0.9622859358787537,0.24112363159656525,0.5089830756187439,0.3546292781829834
5.784400701522827,-0.4982950985431671,-1.1008260250091553,0.9620823860168457,0.24096108973026276,0.5099465250968933,0.3546055257320404
5.80446457862854,-0.49807825684547424,-1.1009567975997925,0.9619701504707336,0.2409205138683319,0.5102328658103943,0.3546781837940216
5.824522256851196,-0.4989113509654999,-1.1010308265686035,0.9622530937194824,0.24130597710609436,0.5089060068130493,0.354600727558136
5.844724178314209,-0.49821987748146057,-1.1007975339889526,0.9620257616043091,0.2409450262784958,0.5099517703056335,0.3545587360858917
5.864810466766357,-0.49824538826942444,-1.1008639335632324,0.9621667861938477,0.24086366593837738,0.5100302696228027,0.3546973168849945
5.884875059127808,-0.498229056596756,-1.1008296012878418,0.9620708227157593,0.24098850786685944,0.5100163817405701,0.35463377833366394
5.904950857162476,-0.49822714924812317,-1.1009043455123901,0.9620450139045715,0.24091647565364838,0.5101089477539062,0.3546203374862671
5.924995183944702,-0.49821481108665466,-1.100921630859375,0.9620112180709839,0.24098055064678192,0.5100686550140381,0.3546471893787384
5.945080280303955,-0.49868813157081604,-1.1010065078735352,0.9621580243110657,0.24128496646881104,0.5089913010597229,0.3545815646648407
5.9651618003845215,-0.49834784865379333,-1.1008632183074951,0.9621935486793518,0.24079251289367676,0.5099362134933472,0.3546728491783142
5.9852399826049805,-0.49824193120002747,-1.1009796857833862,0.9620353579521179,0.24089935421943665,0.5100849866867065,0.354629784822464
6.005289554595947,-0.49827614426612854,-1.100844383239746,0.962169885635376,0.24082937836647034,0.5100321769714355,0.3546777069568634
6.025350570678711,-0.4979802668094635,-1.101011872291565,0.961900532245636,0.24089373648166656,0.5102502107620239,0.354646235704422
6.045445680618286,-0.49829843640327454,-1.1008625030517578,0.9620826840400696,0.24093347787857056,0.5099641680717468,0.3546184003353119
6.0655128955841064,-0.49822285771369934,-1.1008601188659668,0.9620234370231628,0.241007000207901,0.5100324749946594,0.3546360433101654
6.085618734359741,-0.4982701241970062,-1.1009000539779663,0.9621363878250122,0.24081790447235107,0.510066032409668,0.35469356179237366
6.105656623840332,-0.4982142150402069,-1.1009243726730347,0.96201491355896,0.24095964431762695,0.5101033449172974,0.35463544726371765
6.126031875610352,-0.49822762608528137,-1.1008503437042236,0.9620572924613953,0.24096475541591644,0.5100554823875427,0.3546201288700104
6.146205425262451,-0.49795791506767273,-1.100584864616394,0.9621214866638184,0.24056336283683777,0.5109216570854187,0.35465744137763977
6.166223049163818,-0.49847570061683655,-1.1008257865905762,0.9622431993484497,0.2408769428730011,0.5099583268165588,0.35468485951423645
6.18626856803894,-0.49824634194374084,-1.100893259048462,0.9620357751846313,0.24094738066196442,0.5100772380828857,0.3546304404735565
6.206331253051758,-0.4982391893863678,-1.1009441614151,0.9620428085327148,0.2409040331840515,0.5100911855697632,0.3546398878097534
6.226418972015381,-0.49866506457328796,-1.100959062576294,0.962250828742981,0.24113261699676514,0.5089299082756042,0.354599267244339
6.246483564376831,-0.4977445900440216,-1.1007251739501953,0.9619268178939819,0.24060815572738647,0.510953426361084,0.3546110987663269
6.266555547714233,-0.49813219904899597,-1.1008681058883667,0.9620981216430664,0.24078118801116943,0.510123074054718,0.35462453961372375
6.286617279052734,-0.4983377754688263,-1.100860834121704,0.9621814489364624,0.24088014662265778,0.5100624561309814,0.3547337055206299
6.306751012802124,-0.49823054671287537,-1.1009514331817627,0.9620254039764404,0.24092714488506317,0.510113000869751,0.35464680194854736
6.326875686645508,-0.49773886799812317,-1.1006531715393066,0.9620436429977417,0.24047711491584778,0.5110507011413574,0.35466358065605164
6.346940517425537,-0.49808111786842346,-1.1009353399276733,0.9619768857955933,0.24090899527072906,0.5101443529129028,0.3545863926410675
6.366986989974976,-0.4976494610309601,-1.1007609367370605,0.961860179901123,0.24062034487724304,0.5111405253410339,0.35462623834609985
6.387048721313477,-0.49827924370765686,-1.1008929014205933,0.9621696472167969,0.24082627892494202,0.5102187991142273,0.35472360253334045
6.407160520553589,-0.4981689155101776,-1.1008892059326172,0.9619935154914856,0.2409154772758484,0.510073184967041,0.35457843542099
6.427260875701904,-0.4987260401248932,-1.1010098457336426,0.9622379541397095,0.24116818606853485,0.5089923143386841,0.3546457886695862
6.447338342666626,-0.4990009367465973,-1.1009238958358765,0.9623051881790161,0.24131952226161957,0.5087499618530273,0.3545707166194916
6.467411756515503,-0.49833884835243225,-1.1008589267730713,0.9620884656906128,0.2409411370754242,0.5098899006843567,0.3546198606491089
6.487599611282349,-0.498281866312027,-1.1008461713790894,0.9621449708938599,0.240840345621109,0.5100302696228027,0.3546774387359619
6.507689476013184,-0.4982089698314667,-1.1009222269058228,0.9620174169540405,0.2409597933292389,0.5101060271263123,0.3546353876590729
6.527756929397583,-0.49813541769981384,-1.1008520126342773,0.9620066285133362,0.24095764756202698,0.5100283026695251,0.3545810878276825
6.547840118408203,-0.49827495217323303,-1.100835919380188,0.9621715545654297,0.24084338545799255,0.5099892020225525,0.3546854257583618
6.567867755889893,-0.498237282037735,-1.100959300994873,0.9620447158813477,0.24090144038200378,0.5100882649421692,0.35463449358940125
6.58798885345459,-0.4987775385379791,-1.1011178493499756,0.962180495262146,0.241252601146698,0.5090727210044861,0.3546545207500458
6.60804295539856,-0.49843165278434753,-1.1008085012435913,0.9622492790222168,0.24087165296077728,0.5099223256111145,0.3547289967536926
6.628097772598267,-0.49875810742378235,-1.1009724140167236,0.9622752666473389,0.24116238951683044,0.508963942527771,0.3546454906463623
6.648151874542236,-0.4978218376636505,-1.1007353067398071,0.9619426131248474,0.2406502515077591,0.5110124349594116,0.35466670989990234
6.668245077133179,-0.4977010190486908,-1.1007243394851685,0.9619189500808716,0.24062319099903107,0.5112521648406982,0.35465720295906067
6.688309192657471,-0.4989610016345978,-1.101027488708496,0.9622687101364136,0.24129289388656616,0.5088675022125244,0.35459044575691223
6.708402872085571,-0.4982856810092926,-1.1007781028747559,0.9621529579162598,0.24081763625144958,0.5098766088485718,0.3546205759048462
6.728468179702759,-0.49801817536354065,-1.1007163524627686,0.9620509147644043,0.24062618613243103,0.5109851956367493,0.3546464443206787
6.748509645462036,-0.49818679690361023,-1.1009219884872437,0.9620023965835571,0.2409459352493286,0.5101799964904785,0.35464027523994446
6.768584966659546,-0.4982443153858185,-1.1008468866348267,0.9620665311813354,0.24096333980560303,0.5100480318069458,0.354618102312088
6.7886528968811035,-0.4977661669254303,-1.1007503271102905,0.9619406461715698,0.24061085283756256,0.5111349821090698,0.3546641767024994
6.808744430541992,-0.4981684982776642,-1.1009175777435303,0.9620242118835449,0.24093572795391083,0.5101817846298218,0.3546426594257355
6.8288798332214355,-0.49827656149864197,-1.100888729095459,0.9620505571365356,0.24101793766021729,0.5101370215415955,0.35467955470085144
6.849037170410156,-0.4982156455516815,-1.1008408069610596,0.9620327949523926,0.24099698662757874,0.510082483291626,0.3546377122402191
6.869089841842651,-0.49822548031806946,-1.100932240486145,0.9620375633239746,0.24093583226203918,0.5100841522216797,0.35462483763694763
6.8891870975494385,-0.49821797013282776,-1.1009763479232788,0.962004542350769,0.2409517467021942,0.5100864171981812,0.3546559810638428
6.90926194190979,-0.4981285631656647,-1.1009061336517334,0.9619739651679993,0.24094995856285095,0.5100681781768799,0.3545968234539032
6.929422855377197,-0.4985378682613373,-1.100895643234253,0.9621796607971191,0.24098965525627136,0.50998854637146,0.35467109084129333
6.949528932571411,-0.49862316250801086,-1.101033329963684,0.9621279239654541,0.24127432703971863,0.5091387033462524,0.35459038615226746
6.969598054885864,-0.49801889061927795,-1.1008802652359009,0.962049663066864,0.24076953530311584,0.5100089907646179,0.35464897751808167
6.989659070968628,-0.4983333647251129,-1.10086989402771,0.962199330329895,0.24084481596946716,0.5100756883621216,0.35471877455711365
7.009738922119141,-0.4982272684574127,-1.1008515357971191,0.9620603322982788,0.24094848334789276,0.5100952386856079,0.35461217164993286
7.029832601547241,-0.49822619557380676,-1.100922703742981,0.9620380997657776,0.24094749987125397,0.5100874304771423,0.3546375632286072
7.049887657165527,-0.4979837238788605,-1.100944995880127,0.9619320034980774,0.24091243743896484,0.5102133750915527,0.35463961958885193
7.06995701789856,-0.49843642115592957,-1.1008837223052979,0.9621409177780151,0.24098002910614014,0.5099716782569885,0.35463228821754456
7.0900232791900635,-0.49860879778862,-1.1008245944976807,0.9622975587844849,0.24089211225509644,0.5099406242370605,0.3547191917896271
7.110074281692505,-0.4977235496044159,-1.1006747484207153,0.9620203971862793,0.24053189158439636,0.5112490653991699,0.354707807302475
7.1301586627960205,-0.4981963336467743,-1.1008741855621338,0.9621235132217407,0.24086584150791168,0.5101348161697388,0.3547048568725586
7.150220155715942,-0.4982042610645294,-1.1009219884872437,0.9620168209075928,0.24096445739269257,0.510112464427948,0.3546397387981415
7.170275926589966,-0.4983347952365875,-1.1008750200271606,0.9621713161468506,0.2408524602651596,0.5101355910301208,0.35472193360328674
7.19043755531311,-0.49813851714134216,-1.1008455753326416,0.9619945287704468,0.24094855785369873,0.5100775361061096,0.3545708954334259
7.210576057434082,-0.4987318217754364,-1.1010185480117798,0.9622169733047485,0.2411131113767624,0.5090112686157227,0.35439854860305786
7.230619668960571,-0.49859699606895447,-1.1007757186889648,0.9623041152954102,0.24082760512828827,0.5097836852073669,0.35463592410087585
7.250696420669556,-0.4978485405445099,-1.1006848812103271,0.9620548486709595,0.24049769341945648,0.5110700726509094,0.354699045419693
7.270800828933716,-0.49856963753700256,-1.1008354425430298,0.9622920155525208,0.24090425670146942,0.5099765658378601,0.3547275960445404
7.2908947467803955,-0.49790993332862854,-1.1006436347961426,0.9621053338050842,0.2405666708946228,0.5111122131347656,0.35475149750709534
7.310945987701416,-0.4982169568538666,-1.100865125656128,0.9621329307556152,0.24084171652793884,0.5101503729820251,0.35469308495521545
7.331012725830078,-0.49836966395378113,-1.1008678674697876,0.9620922803878784,0.24097126722335815,0.5099405646324158,0.3545856177806854
7.351097106933594,-0.4977739155292511,-1.1007112264633179,0.9619415998458862,0.2406391054391861,0.5111051797866821,0.3546508550643921
7.371179580688477,-0.4985075294971466,-1.100816011428833,0.9622783660888672,0.24086259305477142,0.5099060535430908,0.3546748459339142
7.391251802444458,-0.4983120262622833,-1.1008251905441284,0.9621935486793518,0.2408115416765213,0.5100007057189941,0.35466721653938293
7.411384344100952,-0.49827858805656433,-1.1009044647216797,0.9621425867080688,0.24080617725849152,0.5100624561309814,0.35468289256095886
7.431453227996826,-0.4986577332019806,-1.1009711027145386,0.9622247219085693,0.2411474883556366,0.5089482665061951,0.354600191116333
7.451501131057739,-0.49802282452583313,-1.1008310317993164,0.9620462656021118,0.24086853861808777,0.510129988193512,0.3546905815601349
7.471581220626831,-0.4989442527294159,-1.1009397506713867,0.9623949527740479,0.24125494062900543,0.5088673830032349,0.3547111451625824
7.491672515869141,-0.4989102780818939,-1.100977897644043,0.9623606204986572,0.2411677986383438,0.5088756680488586,0.3546766936779022
7.511723279953003,-0.4983622133731842,-1.1008179187774658,0.9622102379798889,0.24081984162330627,0.5099034309387207,0.35465988516807556
7.5317792892456055,-0.49804064631462097,-1.1008837223052979,0.9620407223701477,0.2408055067062378,0.5101656913757324,0.35467907786369324
7.5518639087677,-0.4983285963535309,-1.1008787155151367,0.9621663093566895,0.24081751704216003,0.5099673271179199,0.35468021035194397
7.571928024291992,-0.49851325154304504,-1.1008186340332031,0.9622551798820496,0.24085113406181335,0.5099469423294067,0.3546604514122009
7.5919976234436035,-0.49871233105659485,-1.1010046005249023,0.962142825126648,0.24132131040096283,0.5089580416679382,0.35459601879119873
7.61205530166626,-0.49786999821662903,-1.100662112236023,0.962067723274231,0.2405443638563156,0.510961651802063,0.3547186255455017
7.632230758666992,-0.49813035130500793,-1.1008769273757935,0.9620374441146851,0.2407875806093216,0.5101443529129028,0.3544014096260071
7.652319431304932,-0.498214453458786,-1.1007874011993408,0.9621655941009521,0.24088570475578308,0.5099478363990784,0.3547050654888153
7.672387599945068,-0.4982568323612213,-1.10086989402771,0.9620983600616455,0.2408132702112198,0.5100868940353394,0.3544395864009857
7.692435264587402,-0.49849894642829895,-1.1010531187057495,0.9621262550354004,0.2411389797925949,0.5090867280960083,0.35464417934417725
7.712493181228638,-0.49871644377708435,-1.1010587215423584,0.9621343612670898,0.2412913292646408,0.508951723575592,0.35459479689598083
7.73259162902832,-0.4975537955760956,-1.1007263660430908,0.961955726146698,0.24047331511974335,0.5112317800521851,0.35471776127815247
7.752648115158081,-0.4979300796985626,-1.100852370262146,0.9620152711868286,0.24085181951522827,0.51029372215271,0.35469499230384827
7.772726774215698,-0.4982236921787262,-1.1008602380752563,0.9621363878250122,0.24085849523544312,0.5100886821746826,0.35469111800193787
7.7927844524383545,-0.4982636272907257,-1.1008799076080322,0.9621177315711975,0.24079641699790955,0.5100792646408081,0.3544352650642395
7.812994718551636,-0.49826493859291077,-1.1008564233779907,0.9621590375900269,0.24087375402450562,0.5100522637367249,0.35472339391708374
7.8331074714660645,-0.4983508288860321,-1.1008741855621338,0.962174117565155,0.2408478856086731,0.5100891590118408,0.35471251606941223
7.853222608566284,-0.49827876687049866,-1.1008299589157104,0.9621598720550537,0.24084363877773285,0.5100464224815369,0.35468313097953796
7.873232364654541,-0.497939795255661,-1.1008617877960205,0.9619699120521545,0.24075548350811005,0.5101884603500366,0.3543738126754761
7.893283128738403,-0.4981648027896881,-1.100916862487793,0.9620717167854309,0.24079549312591553,0.5100200772285461,0.35463282465934753
7.91340446472168,-0.4981106221675873,-1.1006920337677002,0.9621750712394714,0.24056927859783173,0.511024534702301,0.35475078225135803
7.933469295501709,-0.4984496533870697,-1.1008944511413574,0.9622255563735962,0.24081960320472717,0.5100753307342529,0.35468143224716187
7.953535556793213,-0.4977668225765228,-1.1007349491119385,0.9619556665420532,0.24067598581314087,0.5111513137817383,0.35472986102104187
7.973597526550293,-0.49836525321006775,-1.100830316543579,0.9621742963790894,0.2407914102077484,0.5100467801094055,0.3543919026851654
7.993653297424316,-0.4982222020626068,-1.1008330583572388,0.9621302485466003,0.2407713383436203,0.509980320930481,0.3546009361743927
8.01375961303711,-0.4981776177883148,-1.1008211374282837,0.9621189832687378,0.2408635914325714,0.509985089302063,0.35466089844703674
8.033891677856445,-0.4983355700969696,-1.1008734703063965,0.9621763229370117,0.24084310233592987,0.5101258754730225,0.3547140657901764
8.053943634033203,-0.4981826841831207,-1.1008585691452026,0.9620599150657654,0.2407747209072113,0.5100968480110168,0.35438528656959534
8.073957443237305,-0.49815037846565247,-1.10091233253479,0.9619872570037842,0.240890234708786,0.5100432634353638,0.3545588552951813
8.094027996063232,-0.4983508884906769,-1.1008220911026,0.9622385501861572,0.2408653199672699,0.5100970268249512,0.3547711670398712
8.114108085632324,-0.49826768040657043,-1.1008703708648682,0.9621257185935974,0.24081790447235107,0.5100967884063721,0.35466018319129944
8.134166240692139,-0.4988090693950653,-1.1010288000106812,0.9622797966003418,0.24116604030132294,0.5090683698654175,0.3546805679798126
8.154247760772705,-0.49858513474464417,-1.100797414779663,0.9622656106948853,0.2408229410648346,0.5098329186439514,0.35441869497299194
8.174283027648926,-0.4978438913822174,-1.1007263660430908,0.9619842767715454,0.2404496818780899,0.5111188888549805,0.3544408977031708
8.19436764717102,-0.49802204966545105,-1.1006250381469727,0.9621978998184204,0.24061226844787598,0.5109925866127014,0.35478535294532776
8.21443510055542,-0.4978002607822418,-1.1007634401321411,0.962007462978363,0.24067698419094086,0.5112597942352295,0.3547841012477875
8.23450231552124,-0.4983868896961212,-1.100888729095459,0.9621150493621826,0.2409818023443222,0.5101238489151001,0.35464397072792053
8.254546880722046,-0.4977782070636749,-1.1007462739944458,0.9619474411010742,0.2406126856803894,0.5111356377601624,0.3546666204929352
8.274644136428833,-0.49851885437965393,-1.1008596420288086,0.9622746706008911,0.24082666635513306,0.5099239349365234,0.3546805679798126
8.294703722000122,-0.49799254536628723,-1.100921392440796,0.961869478225708,0.24091790616512299,0.5102363228797913,0.3543839752674103
8.314815521240234,-0.4981864392757416,-1.10097074508667,0.9619271159172058,0.24093811213970184,0.5101333856582642,0.35439375042915344
8.334933280944824,-0.49787142872810364,-1.1007106304168701,0.9620813131332397,0.24055710434913635,0.5111945271492004,0.354801744222641
8.354971408843994,-0.49838653206825256,-1.100874423980713,0.962087869644165,0.24093258380889893,0.5099664926528931,0.3545582592487335
8.375042200088501,-0.49822643399238586,-1.1009507179260254,0.9619519114494324,0.24089476466178894,0.5101656913757324,0.35437431931495667
8.39510202407837,-0.4982081949710846,-1.1009148359298706,0.9618135094642639,0.24077248573303223,0.5100448727607727,0.3543568253517151
8.415152549743652,-0.4982875883579254,-1.1008920669555664,0.9620740413665771,0.2407626062631607,0.5100618004798889,0.3544127643108368
8.435210704803467,-0.49756601452827454,-1.1008055210113525,0.961883008480072,0.2404499500989914,0.5113000869750977,0.3545284569263458
8.45529580116272,-0.49843737483024597,-1.1008259057998657,0.9621013402938843,0.24096885323524475,0.5098602771759033,0.35438182950019836
8.475367069244385,-0.49870720505714417,-1.1010717153549194,0.9620925188064575,0.2412686049938202,0.5090458393096924,0.35439881682395935
8.495414018630981,-0.4978589117527008,-1.1006803512573242,0.962029218673706,0.24052563309669495,0.5110469460487366,0.35451534390449524
8.51549768447876,-0.4982970058917999,-1.100976586341858,0.9621295928955078,0.24081355333328247,0.510209321975708,0.3547263443470001
8.535543203353882,-0.49786612391471863,-1.100717306137085,0.9620592594146729,0.2405654937028885,0.5112066268920898,0.3545897305011749
8.555631875991821,-0.4983764588832855,-1.1008825302124023,0.9620531797409058,0.24093683063983917,0.510006308555603,0.3543717563152313
8.575661897659302,-0.4982345998287201,-1.1009827852249146,0.9619729518890381,0.240916907787323,0.5101441740989685,0.35444316267967224
8.595703363418579,-0.49868646264076233,-1.1010732650756836,0.962112545967102,0.24126757681369781,0.509060800075531,0.35440754890441895
8.615763187408447,-0.4982048571109772,-1.1008710861206055,0.9620035886764526,0.2409227192401886,0.5099742412567139,0.35438403487205505
8.635832786560059,-0.4981926381587982,-1.1009242534637451,0.9620031118392944,0.2409711331129074,0.5101076364517212,0.3544570505619049
8.655911922454834,-0.498261421918869,-1.1008961200714111,0.9621127843856812,0.24082039296627045,0.5101116895675659,0.3545026481151581
8.676088571548462,-0.4984571635723114,-1.1009018421173096,0.9621170163154602,0.24094948172569275,0.5100292563438416,0.3544202744960785
8.696097373962402,-0.4982890188694,-1.1008492708206177,0.9621230363845825,0.24086056649684906,0.5100380182266235,0.3544955849647522
8.716191291809082,-0.49816372990608215,-1.1007909774780273,0.9620843529701233,0.2408560961484909,0.5100449323654175,0.3544330596923828
8.736271142959595,-0.4982103407382965,-1.1008776426315308,0.9620136022567749,0.24096372723579407,0.5101000070571899,0.3544241189956665
8.756330013275146,-0.4977339804172516,-1.1007235050201416,0.9618800282478333,0.24064715206623077,0.5112242698669434,0.354460209608078
8.776382446289062,-0.4984422028064728,-1.100899338722229,0.9621898531913757,0.2408662736415863,0.5100530385971069,0.3545157015323639
8.7964506149292,-0.4985180199146271,-1.10081946849823,0.9622340202331543,0.24085405468940735,0.5099868774414062,0.3544711768627167
8.816537141799927,-0.4981990158557892,-1.1008819341659546,0.9620963335037231,0.2408483922481537,0.5102080702781677,0.3545040786266327
8.836638927459717,-0.49824705719947815,-1.100791573524475,0.9621282815933228,0.24085953831672668,0.5101219415664673,0.35447457432746887
8.85669207572937,-0.4987284243106842,-1.1010066270828247,0.9622246026992798,0.2411646991968155,0.5090299844741821,0.3544529378414154
8.876770257949829,-0.498325377702713,-1.100903868675232,0.9621284008026123,0.24081569910049438,0.5100067853927612,0.3544841408729553
8.896929502487183,-0.49780210852622986,-1.1007206439971924,0.9620072841644287,0.2405419647693634,0.5111109018325806,0.3545304238796234
8.917012214660645,-0.4980306923389435,-1.1006683111190796,0.9621189832687378,0.2405443787574768,0.5110199451446533,0.354512482881546
8.937090158462524,-0.49807366728782654,-1.100980281829834,0.9620225429534912,0.24081216752529144,0.5103275775909424,0.35456302762031555
8.957153081893921,-0.49822428822517395,-1.1008867025375366,0.9621022939682007,0.2408677190542221,0.5101306438446045,0.35450202226638794
8.977209091186523,-0.4980960190296173,-1.1008968353271484,0.9620494246482849,0.24083837866783142,0.5102671980857849,0.3545443117618561
8.99728775024414,-0.49878886342048645,-1.100992202758789,0.9622423648834229,0.2411491423845291,0.5089608430862427,0.3544312119483948
9.017354249954224,-0.49817702174186707,-1.1008691787719727,0.9620745778083801,0.2408268004655838,0.5101428627967834,0.3545248806476593
9.037420749664307,-0.49800875782966614,-1.1008965969085693,0.9620040059089661,0.24082107841968536,0.5102336406707764,0.35449957847595215
9.057469367980957,-0.4983120262622833,-1.100870966911316,0.9621478915214539,0.24087341129779816,0.5101539492607117,0.35454151034355164
9.077555179595947,-0.49826791882514954,-1.1008630990982056,0.9621138572692871,0.2408207505941391,0.5101193785667419,0.3544735312461853
9.09762716293335,-0.4982813894748688,-1.1009116172790527,0.9620186686515808,0.24100930988788605,0.5101680755615234,0.35447850823402405
9.117724418640137,-0.49772343039512634,-1.1006275415420532,0.9620102643966675,0.24052344262599945,0.5110781788825989,0.35447338223457336
9.137756109237671,-0.49845609068870544,-1.1008883714675903,0.962225079536438,0.2408123016357422,0.5100549459457397,0.3544887900352478
9.15782880783081,-0.49822643399238586,-1.100856900215149,0.9621039628982544,0.24084223806858063,0.5101749897003174,0.3545008599758148
9.177889823913574,-0.49833789467811584,-1.1008740663528442,0.9621543288230896,0.24088749289512634,0.5101020336151123,0.3545476794242859
9.19795560836792,-0.4982159435749054,-1.1009211540222168,0.9619956612586975,0.24096326529979706,0.5101396441459656,0.3544475734233856
9.218010902404785,-0.4987451136112213,-1.1010442972183228,0.9621269702911377,0.24134144186973572,0.5091043710708618,0.3544531762599945
9.238092184066772,-0.49824705719947815,-1.1008048057556152,0.9621103405952454,0.24083630740642548,0.5099482536315918,0.3544420301914215
9.258160829544067,-0.49823394417762756,-1.1008696556091309,0.9621070027351379,0.24087196588516235,0.5100811123847961,0.3545018136501312
9.278233051300049,-0.49826744198799133,-1.1008599996566772,0.9621434211730957,0.24082915484905243,0.5100719332695007,0.3544847369194031
9.298312902450562,-0.4987201988697052,-1.1010321378707886,0.9622130990028381,0.24114957451820374,0.509070634841919,0.3544410765171051
9.31836986541748,-0.4977874457836151,-1.1006991863250732,0.962002158164978,0.24046799540519714,0.5110255479812622,0.354474276304245
9.338458776473999,-0.49855247139930725,-1.1007792949676514,0.9622678756713867,0.2409561574459076,0.5099660158157349,0.3545380234718323
9.358502864837646,-0.4985385239124298,-1.100798487663269,0.9622514247894287,0.2408689707517624,0.5099310874938965,0.35448142886161804
9.378577470779419,-0.49837401509284973,-1.1008670330047607,0.9621627926826477,0.24083057045936584,0.5101392269134521,0.35451480746269226
9.39864182472229,-0.4981936514377594,-1.1008353233337402,0.9620885848999023,0.2408241182565689,0.5100513696670532,0.35444337129592896
9.418750286102295,-0.4982646405696869,-1.1008418798446655,0.962121844291687,0.2408583164215088,0.5100494027137756,0.35449501872062683
9.438842296600342,-0.49779263138771057,-1.1007660627365112,0.961998701095581,0.2404891848564148,0.5111727118492126,0.35452815890312195
9.458925008773804,-0.49795326590538025,-1.1009259223937988,0.9619781374931335,0.24081742763519287,0.5103369951248169,0.35450631380081177
9.47908353805542,-0.49822333455085754,-1.1009273529052734,0.9620962142944336,0.24082915484905243,0.5101498961448669,0.3545065224170685
9.499099254608154,-0.4987182915210724,-1.101015329360962,0.9622206687927246,0.24117574095726013,0.5090396404266357,0.3544577658176422
9.519458293914795,-0.49840202927589417,-1.1008505821228027,0.962178111076355,0.24086666107177734,0.5100255012512207,0.3545239269733429
9.539554119110107,-0.4982282221317291,-1.1008731126785278,0.9621019959449768,0.24083368480205536,0.510154128074646,0.3544832468032837
9.559610605239868,-0.49778619408607483,-1.1007249355316162,0.9620026350021362,0.24052459001541138,0.511165201663971,0.35452327132225037
9.579679489135742,-0.4982062876224518,-1.1008883714675903,0.9621157050132751,0.24082614481449127,0.5101805329322815,0.3544941544532776
9.599745988845825,-0.49871698021888733,-1.101014494895935,0.9622216820716858,0.2411729246377945,0.5090423822402954,0.3544560670852661
9.619907140731812,-0.4982440173625946,-1.1008129119873047,0.9621095061302185,0.24082732200622559,0.5099474191665649,0.3544323742389679
9.63999319076538,-0.498234361410141,-1.1008658409118652,0.9621084928512573,0.24087482690811157,0.5100783705711365,0.35450509190559387
9.660077571868896,-0.49826040863990784,-1.1008530855178833,0.9621223211288452,0.24086955189704895,0.5100550055503845,0.354501873254776
9.680139541625977,-0.49825677275657654,-1.1008000373840332,0.9621275663375854,0.2408783733844757,0.5100705027580261,0.3544820547103882
9.700189113616943,-0.4982621371746063,-1.1007943153381348,0.9621309041976929,0.2408944070339203,0.5100315809249878,0.3544909656047821
9.720267057418823,-0.49833330512046814,-1.1009552478790283,0.9621291756629944,0.2408326119184494,0.510154664516449,0.354537695646286
9.740339994430542,-0.4982675611972809,-1.1009141206741333,0.9621130228042603,0.24082091450691223,0.5101163387298584,0.35450103878974915
9.76040530204773,-0.4980097711086273,-1.1009196043014526,0.9619943499565125,0.240800678730011,0.5102711319923401,0.3544844388961792
9.780467510223389,-0.49776241183280945,-1.1007192134857178,0.9619982242584229,0.24053126573562622,0.51118403673172,0.3545290231704712
9.800566911697388,-0.49818673729896545,-1.1008437871932983,0.9620941877365112,0.24090206623077393,0.5101518034934998,0.35450443625450134
9.82062029838562,-0.498286634683609,-1.1008644104003906,0.9621173143386841,0.2408292591571808,0.510064959526062,0.35447579622268677
9.840742111206055,-0.49772992730140686,-1.1007229089736938,0.9619778990745544,0.24046482145786285,0.5111246109008789,0.3544837534427643
9.860833644866943,-0.49855443835258484,-1.1010160446166992,0.9622230529785156,0.24115145206451416,0.5091053247451782,0.3544037938117981
9.880835056304932,-0.4983800947666168,-1.100860357284546,0.9621732234954834,0.2408674955368042,0.5100429058074951,0.35452035069465637
9.900990009307861,-0.4977705776691437,-1.1007153987884521,0.9619989395141602,0.24050801992416382,0.511205792427063,0.35451778769493103
9.921061992645264,-0.4984326660633087,-1.1008542776107788,0.9621966481208801,0.24085396528244019,0.5101108551025391,0.35448262095451355
9.94115424156189,-0.4987463653087616,-1.1010046005249023,0.9622308015823364,0.2411632239818573,0.50902259349823,0.35445114970207214
9.961173295974731,-0.4984035789966583,-1.1008538007736206,0.9621748924255371,0.24084308743476868,0.5100598335266113,0.3545110523700714
9.981260776519775,-0.49851194024086,-1.1007641553878784,0.9622390270233154,0.24088245630264282,0.5099684596061707,0.3544626235961914
10.001378297805786,-0.4981898367404938,-1.1008435487747192,0.9620968699455261,0.2408837527036667,0.5101926922798157,0.35449668765068054
10.021442413330078,-0.49754104018211365,-1.100743293762207,0.961899995803833,0.24047556519508362,0.5113361477851868,0.35452237725257874
10.041537761688232,-0.4986352026462555,-1.1010324954986572,0.9621914625167847,0.2411750853061676,0.5091633200645447,0.3544715344905853
10.06157922744751,-0.49832674860954285,-1.1009241342544556,0.9618929028511047,0.2408151626586914,0.5100592374801636,0.3544646203517914
10.081657409667969,-0.4977569282054901,-1.100683331489563,0.9620832800865173,0.2405344843864441,0.5111744999885559,0.3545195758342743
10.101712703704834,-0.4986530840396881,-1.101039171218872,0.9622005224227905,0.2411484569311142,0.5091817378997803,0.35445281863212585
10.121796131134033,-0.4979913532733917,-1.1008546352386475,0.9619954228401184,0.24080124497413635,0.5100967288017273,0.3544410169124603
10.141855955123901,-0.4984716475009918,-1.1008388996124268,0.9622081518173218,0.2408561110496521,0.5100111365318298,0.35447028279304504
10.161913633346558,-0.4981968104839325,-1.1007977724075317,0.962087869644165,0.24082951247692108,0.510057806968689,0.35441768169403076
10.182025909423828,-0.4987253248691559,-1.1010160446166992,0.9622269868850708,0.24119757115840912,0.509003221988678,0.35447171330451965
10.202096700668335,-0.4987213909626007,-1.1009379625320435,0.961986780166626,0.2411998212337494,0.5088638067245483,0.3543771803379059
10.222172737121582,-0.4983397424221039,-1.100775122642517,0.9621285796165466,0.24086424708366394,0.5099380016326904,0.3544672429561615
10.242214918136597,-0.4982883036136627,-1.100887656211853,0.9621200561523438,0.24080008268356323,0.5100845098495483,0.3544906675815582
10.262279748916626,-0.49825528264045715,-1.1008471250534058,0.9621226787567139,0.2408503293991089,0.510099470615387,0.3544919788837433
10.282363414764404,-0.49850234389305115,-1.1008930206298828,0.962213933467865,0.24084529280662537,0.5099824666976929,0.3544895648956299
10.30242657661438,-0.4987596571445465,-1.1010591983795166,0.9622251987457275,0.24113059043884277,0.5090285539627075,0.35445624589920044
10.322491884231567,-0.4983268678188324,-1.100835919380188,0.9621411561965942,0.24084602296352386,0.5099849104881287,0.3544764220714569
10.342538356781006,-0.49819377064704895,-1.1009074449539185,0.9620710611343384,0.2407907247543335,0.510061502456665,0.3544461131095886
10.36262583732605,-0.4982662498950958,-1.1008336544036865,0.9621303081512451,0.2408631294965744,0.5100511312484741,0.35450056195259094
10.382694005966187,-0.4985089600086212,-1.1008012294769287,0.9622384309768677,0.24087180197238922,0.5099512338638306,0.35448241233825684
10.402763605117798,-0.4980525076389313,-1.100881814956665,0.9620200395584106,0.2408035695552826,0.5101985335350037,0.35448744893074036
10.422807931900024,-0.49861839413642883,-1.1010189056396484,0.962169885635376,0.24115820229053497,0.5090151429176331,0.35441192984580994
10.44295072555542,-0.4987872540950775,-1.1009700298309326,0.9622515439987183,0.24118763208389282,0.5088849663734436,0.3544522821903229
10.463032007217407,-0.49798819422721863,-1.1009670495986938,0.9619811773300171,0.24079196155071259,0.5102662444114685,0.35450491309165955
10.483097791671753,-0.4977031648159027,-1.1007237434387207,0.9618784189224243,0.24065746366977692,0.5112525224685669,0.35446688532829285
10.503155708312988,-0.49827173352241516,-1.1008859872817993,0.9621263146400452,0.2408677339553833,0.5102452039718628,0.3545514643192291
10.523202657699585,-0.49810293316841125,-1.1008827686309814,0.9620305299758911,0.2409304678440094,0.5101556777954102,0.35438355803489685
10.543400526046753,-0.49829962849617004,-1.1008437871932983,0.9621349573135376,0.24084381759166718,0.5100217461585999,0.35450100898742676
10.56348705291748,-0.49821367859840393,-1.1009291410446167,0.96198570728302,0.24093511700630188,0.510171115398407,0.354430228471756
10.583562135696411,-0.49780961871147156,-1.1007487773895264,0.9620276689529419,0.2404722273349762,0.5111549496650696,0.3545290529727936
10.603618383407593,-0.49806275963783264,-1.1008851528167725,0.9619327187538147,0.2409694492816925,0.5101935863494873,0.35439881682395935
10.623727798461914,-0.4982359707355499,-1.100881814956665,0.9620949029922485,0.2408543974161148,0.5101120471954346,0.35449299216270447
10.643789291381836,-0.4981866180896759,-1.100777506828308,0.9620962142944336,0.24085097014904022,0.5100215673446655,0.3544311225414276
10.663851499557495,-0.4980148375034332,-1.1008983850479126,0.9619994163513184,0.24078676104545593,0.510257363319397,0.35447773337364197
10.683919906616211,-0.49869611859321594,-1.1010245084762573,0.9622077941894531,0.24117650091648102,0.5090574026107788,0.35445883870124817
10.703993320465088,-0.4980297386646271,-1.1009310483932495,0.9619483947753906,0.24096626043319702,0.5101319551467896,0.3546806275844574
10.724234580993652,-0.4982638657093048,-1.1009254455566406,0.9619970321655273,0.2408943772315979,0.5100340843200684,0.35436582565307617
10.744311571121216,-0.4984569847583771,-1.1009010076522827,0.962082028388977,0.24098244309425354,0.5100029110908508,0.35443028807640076
10.764357805252075,-0.4986934959888458,-1.1010342836380005,0.9620934128761292,0.2413131147623062,0.5090442299842834,0.3543996512889862
10.78442096710205,-0.4982893168926239,-1.1009438037872314,0.9620281457901001,0.24088813364505768,0.5100651383399963,0.35442689061164856
10.804483652114868,-0.4982045590877533,-1.1008265018463135,0.9621099233627319,0.24082458019256592,0.5099865198135376,0.3544471263885498
10.8245689868927,-0.49825742840766907,-1.1008343696594238,0.9621633291244507,0.24090099334716797,0.5100173950195312,0.3547421395778656
10.844680786132812,-0.4980141818523407,-1.1008740663528442,0.9620285034179688,0.24083751440048218,0.5102190971374512,0.35451552271842957
10.864706993103027,-0.4981899559497833,-1.100925326347351,0.9620082378387451,0.24092650413513184,0.5101794004440308,0.35443344712257385
10.884767770767212,-0.4986814558506012,-1.1010712385177612,0.9621158242225647,0.24126560986042023,0.5090654492378235,0.3544062077999115
10.904821157455444,-0.4984891712665558,-1.1007858514785767,0.9622337222099304,0.2408217340707779,0.5098345279693604,0.35441264510154724
10.924904346466064,-0.4986399710178375,-1.101036787033081,0.9621906280517578,0.2412048876285553,0.509124219417572,0.3544892370700836
10.944963455200195,-0.49831363558769226,-1.1008493900299072,0.9621103405952454,0.24078501760959625,0.5100385546684265,0.35440975427627563
10.965029954910278,-0.4982803165912628,-1.1008435487747192,0.9621201157569885,0.2408502846956253,0.5100417137145996,0.35448935627937317
10.985095739364624,-0.4979831278324127,-1.100685477256775,0.9619972705841064,0.2406717985868454,0.5110844969749451,0.35445067286491394
11.00528073310852,-0.4984131157398224,-1.100882887840271,0.9620448350906372,0.24096356332302094,0.5100838541984558,0.3543722927570343
11.025359153747559,-0.49817416071891785,-1.1009315252304077,0.9620174169540405,0.24095043540000916,0.5102114081382751,0.3544618785381317
11.04547667503357,-0.4982490837574005,-1.1008920669555664,0.962074339389801,0.24080854654312134,0.5101138353347778,0.3544315993785858
11.065484285354614,-0.4982702434062958,-1.1009036302566528,0.9621089696884155,0.24080641567707062,0.5101093649864197,0.3544918894767761
11.085695505142212,-0.4987544119358063,-1.101030707359314,0.9621385335922241,0.24133221805095673,0.5090978741645813,0.3544473350048065
11.105792760848999,-0.49789562821388245,-1.1009557247161865,0.9618622660636902,0.24086973071098328,0.5102552175521851,0.3543861210346222
11.12581729888916,-0.49822691082954407,-1.1008851528167725,0.962105929851532,0.2408405840396881,0.5100877285003662,0.35467061400413513
11.145877599716187,-0.49766477942466736,-1.1007978916168213,0.9618528485298157,0.2406204491853714,0.5111461281776428,0.3544664680957794
11.165923357009888,-0.4981418550014496,-1.100932240486145,0.9620064496994019,0.24101901054382324,0.5101744532585144,0.3547106087207794
11.186005592346191,-0.49818965792655945,-1.1008318662643433,0.9620605111122131,0.2410573661327362,0.5100931525230408,0.3547075390815735
11.20609712600708,-0.4983690679073334,-1.1008936166763306,0.9621844291687012,0.24081619083881378,0.5100653171539307,0.35469403862953186
11.226151704788208,-0.4981512725353241,-1.1009172201156616,0.9619596004486084,0.24086177349090576,0.5101155042648315,0.35432958602905273
11.246227741241455,-0.49826231598854065,-1.1008785963058472,0.9621121287345886,0.24082359671592712,0.5100607872009277,0.35465875267982483
11.26626968383789,-0.4984577000141144,-1.1008892059326172,0.9621216654777527,0.24098533391952515,0.5099688768386841,0.35462668538093567
11.286376237869263,-0.498628169298172,-1.1010453701019287,0.9620919227600098,0.24125875532627106,0.5089803338050842,0.35455337166786194
11.306484937667847,-0.4980347454547882,-1.1008718013763428,0.9620724320411682,0.24081532657146454,0.5101315975189209,0.3546930253505707
11.326539516448975,-0.49825355410575867,-1.1009035110473633,0.9621615409851074,0.2407786250114441,0.5101025104522705,0.35467609763145447
11.34660029411316,-0.18641501665115356,-0.9507502913475037,0.9640666246414185,0.2808453142642975,0.6527307033538818,0.7697963118553162
11.366688251495361,-0.23339185118675232,-1.0011959075927734,0.9398040771484375,0.25053519010543823,0.5507736206054688,0.6802510619163513
11.387138605117798,-0.23655620217323303,-1.004199504852295,0.9319455027580261,0.24543669819831848,0.541867733001709,0.6667772531509399
11.40723204612732,-0.24049416184425354,-1.007289171218872,0.9291372299194336,0.24918808043003082,0.5283693075180054,0.6618814468383789
11.427297830581665,-0.24241015315055847,-1.0018268823623657,0.9328747391700745,0.25995373725891113,0.49751782417297363,0.658938467502594
11.447349548339844,-0.2379729449748993,-0.9983254671096802,0.9312186241149902,0.2714654505252838,0.47048455476760864,0.6586397290229797
11.467425107955933,-0.2432539463043213,-0.9980945587158203,0.9355955123901367,0.29486986994743347,0.4080866277217865,0.6554252505302429
11.487503290176392,-0.23627394437789917,-0.9913092255592346,0.9328091144561768,0.2987788915634155,0.4021715521812439,0.6597319841384888
11.507617950439453,-0.23378071188926697,-0.9839242100715637,0.9379681348800659,0.32363012433052063,0.34162718057632446,0.6582525372505188
11.527685403823853,-0.23583361506462097,-0.98479825258255,0.9338366985321045,0.3525111675262451,0.2675125002861023,0.6570507884025574
11.547751188278198,-0.2253337800502777,-0.9673335552215576,0.936183512210846,0.3754379153251648,0.224881112575531,0.6632170081138611
11.567806482315063,-0.21021589636802673,-0.9651641249656677,0.9273918271064758,0.39607489109039307,0.18306083977222443,0.6677743792533875
11.587900400161743,-0.2037186324596405,-0.95382159948349,0.9285688400268555,0.4072608947753906,0.16389107704162598,0.6713451743125916
11.6079683303833,-0.19627884030342102,-0.9484843611717224,0.9260956645011902,0.42930030822753906,0.12797388434410095,0.6772738695144653
11.628034114837646,-0.1873994767665863,-0.9449232220649719,0.9202937483787537,0.44198334217071533,0.1235821396112442,0.6841710209846497
11.648122072219849,-0.1793692708015442,-0.9412683844566345,0.9163622856140137,0.4541376233100891,0.1253967583179474,0.6914488673210144
11.668190002441406,-0.16869667172431946,-0.9173497557640076,0.9269757270812988,0.45426130294799805,0.14568114280700684,0.6994813680648804
11.68838620185852,-0.15473991632461548,-0.9016721844673157,0.9349530339241028,0.45514845848083496,0.19253228604793549,0.7083267569541931
11.708393335342407,-0.14217671751976013,-0.8946735262870789,0.936238706111908,0.4525623917579651,0.2441660761833191,0.7185290455818176
11.728439331054688,-0.1268896460533142,-0.8748696446418762,0.9457321166992188,0.44635456800460815,0.29976311326026917,0.7293285131454468
11.748524188995361,-0.14432430267333984,-0.8908367156982422,0.9450485706329346,0.452367901802063,0.271921306848526,0.723833441734314
11.768584728240967,-0.1406841278076172,-0.8879149556159973,0.9469044804573059,0.44781196117401123,0.2962351143360138,0.7281480431556702
11.788649559020996,-0.13176897168159485,-0.884507954120636,0.9452499151229858,0.4422362148761749,0.32054421305656433,0.7330458760261536
11.808706998825073,-0.1239820048213005,-0.8937411904335022,0.9342391490936279,0.43698301911354065,0.3370439112186432,0.7342856526374817
11.82890248298645,-0.1187199279665947,-0.884405255317688,0.9373347759246826,0.4342479705810547,0.3378516137599945,0.7364380359649658
11.849001169204712,-0.12076812237501144,-0.8898422718048096,0.9339779615402222,0.43467235565185547,0.33226826786994934,0.7362808585166931
11.86908745765686,-0.12447058409452438,-0.8923869132995605,0.9320088624954224,0.4344063401222229,0.3267260789871216,0.7347428202629089
11.889138460159302,-0.12070026248693466,-0.899976372718811,0.9223876595497131,0.43513044714927673,0.32392385601997375,0.7372265458106995
11.909186363220215,-0.12326113134622574,-0.9056130647659302,0.9166991710662842,0.4370134472846985,0.31599825620651245,0.7381696105003357
11.92928409576416,-0.12308525294065475,-0.8968910574913025,0.9219133853912354,0.43573957681655884,0.308917760848999,0.7366446852684021
11.949337244033813,-0.12284281104803085,-0.8955434560775757,0.9187141060829163,0.4378872513771057,0.3073008060455322,0.7387926578521729
11.969404935836792,-0.12357770651578903,-0.8967572450637817,0.9156135320663452,0.4393059313297272,0.30518797039985657,0.740330159664154
11.989470958709717,-0.12221326678991318,-0.895677387714386,0.9137006998062134,0.44049134850502014,0.3060634732246399,0.7412808537483215
12.009522676467896,-0.12008432298898697,-0.893619954586029,0.9108204245567322,0.4404152035713196,0.31154197454452515,0.7435904145240784
12.02962875366211,-0.12042316049337387,-0.8940750956535339,0.9094070196151733,0.4393949508666992,0.31130680441856384,0.7430111765861511
12.049689292907715,-0.11630921810865402,-0.8856828212738037,0.9119187593460083,0.43783900141716003,0.31966835260391235,0.7459702491760254
12.069756746292114,-0.11869170516729355,-0.8889864087104797,0.9069037437438965,0.43961119651794434,0.3153047561645508,0.7464659810066223
12.089814901351929,-0.11599811166524887,-0.8814066052436829,0.9089165925979614,0.4378654360771179,0.3174762725830078,0.7482059597969055
12.109863996505737,-0.11506133526563644,-0.8832929134368896,0.9048855304718018,0.43824583292007446,0.3171379268169403,0.7486888766288757
12.12994384765625,-0.113450787961483,-0.8776739835739136,0.9082813858985901,0.43785905838012695,0.3177013397216797,0.7491245865821838
12.150009870529175,-0.11258812993764877,-0.8743736147880554,0.9081391096115112,0.43979305028915405,0.3136540949344635,0.7498164772987366
12.170092105865479,-0.11388840526342392,-0.8809471726417542,0.9015454053878784,0.44073355197906494,0.3125036060810089,0.7520436644554138
12.19015121459961,-0.11242497712373734,-0.8784785270690918,0.8992403745651245,0.4399039149284363,0.31354108452796936,0.753547191619873
12.210215091705322,-0.11160799115896225,-0.8741268515586853,0.9000697135925293,0.43842774629592896,0.31514984369277954,0.7555549144744873
12.230355739593506,-0.11306013911962509,-0.8781177401542664,0.8971606492996216,0.4403528571128845,0.3118140995502472,0.7570894956588745
12.250386953353882,-0.11290117353200912,-0.8760861158370972,0.8953088521957397,0.4399508535861969,0.31019270420074463,0.7584165930747986
12.270464181900024,-0.11129910498857498,-0.8701820373535156,0.8976312875747681,0.43931981921195984,0.3114386200904846,0.7587462067604065
12.290525436401367,-0.10991925746202469,-0.8750401139259338,0.8905752301216125,0.4389715790748596,0.31480973958969116,0.7608636021614075
12.310574293136597,-0.10891357809305191,-0.8790901303291321,0.8844559192657471,0.4385719895362854,0.3145948052406311,0.7641789317131042
12.330693244934082,-0.10678527504205704,-0.8676208257675171,0.8913902044296265,0.43766331672668457,0.31636589765548706,0.7646807432174683
12.350757598876953,-0.10685428231954575,-0.8700560927391052,0.8880429267883301,0.43969982862472534,0.31362512707710266,0.7655406594276428
12.370836734771729,-0.10737492889165878,-0.8741663694381714,0.8833606243133545,0.4402897357940674,0.3061680197715759,0.7675983309745789
12.390894412994385,-0.1049988642334938,-0.8680433034896851,0.882875919342041,0.44026267528533936,0.3096732199192047,0.7715953588485718
12.410960674285889,-0.10397980362176895,-0.8652251362800598,0.8829730749130249,0.4402891993522644,0.30857017636299133,0.7739196419715881
12.431041479110718,-0.10295727103948593,-0.8640077710151672,0.8812738060951233,0.440574049949646,0.3093876838684082,0.7749553322792053
12.451112985610962,-0.1022859737277031,-0.8644635081291199,0.8782529830932617,0.44128838181495667,0.3076605200767517,0.7771497964859009
12.471287727355957,-0.10078538209199905,-0.8687023520469666,0.8696112632751465,0.4411965012550354,0.3097038269042969,0.7800533771514893
12.491261959075928,-0.09947212785482407,-0.8549538850784302,0.8759185075759888,0.440155953168869,0.3073572516441345,0.7801263332366943
12.511321544647217,-0.09940213710069656,-0.866710364818573,0.8645087480545044,0.4398578405380249,0.307487428188324,0.7833845019340515
12.531414985656738,-0.09697943180799484,-0.8601260781288147,0.8669112920761108,0.4393901824951172,0.3082066476345062,0.7864575386047363
12.551507472991943,-0.09467753022909164,-0.8597521781921387,0.8611438274383545,0.4392687678337097,0.31239962577819824,0.7888243794441223
12.571554899215698,-0.09553409367799759,-0.8477666974067688,0.8656258583068848,0.4405635893344879,0.30461740493774414,0.7903032898902893
12.591615676879883,-0.09184880554676056,-0.845893919467926,0.8610051870346069,0.43803632259368896,0.3080703020095825,0.7933517098426819
12.6116943359375,-0.09103196859359741,-0.8472214937210083,0.8541511297225952,0.43829911947250366,0.31081515550613403,0.7960296273231506
12.631796598434448,-0.09057710319757462,-0.8438622355461121,0.854252815246582,0.437790185213089,0.30589559674263,0.7982217669487
12.651885271072388,-0.09173667430877686,-0.8470869064331055,0.8458508849143982,0.439483642578125,0.30129387974739075,0.8014337420463562
12.671914339065552,-0.08858659118413925,-0.8353465795516968,0.8458365201950073,0.4398112893104553,0.3023662269115448,0.8036635518074036
12.691968441009521,-0.08587466925382614,-0.8287702798843384,0.8440191745758057,0.4388434886932373,0.3000250458717346,0.809844434261322
12.712082624435425,-0.08330581337213516,-0.8318012952804565,0.836548924446106,0.43823468685150146,0.3056463301181793,0.811479926109314
12.732146739959717,-0.08224362879991531,-0.8274334073066711,0.831188976764679,0.4367069602012634,0.3044682443141937,0.8169026970863342
12.752240657806396,-0.07683803886175156,-0.82264643907547,0.8255439400672913,0.4346424341201782,0.3073194921016693,0.8218419551849365
12.772303342819214,-0.07897590845823288,-0.818206787109375,0.8238838911056519,0.44011545181274414,0.28554677963256836,0.8228464722633362
12.792362689971924,-0.07866523414850235,-0.8079434633255005,0.8234084844589233,0.4437931478023529,0.27696967124938965,0.8264192938804626
12.812447786331177,-0.07818415015935898,-0.8113516569137573,0.816342830657959,0.4457207918167114,0.26865649223327637,0.8259639143943787
12.832526206970215,-0.07539474219083786,-0.8163233399391174,0.8060998916625977,0.4437568187713623,0.26711541414260864,0.8329762816429138
12.852590322494507,-0.07560764998197556,-0.8025509715080261,0.8104215264320374,0.45061439275741577,0.25437265634536743,0.8351143598556519
12.872637271881104,-0.06908202916383743,-0.7990570068359375,0.8084567785263062,0.45027780532836914,0.24787431955337524,0.8391538858413696
12.892698287963867,-0.06740916520357132,-0.7949795126914978,0.8024077415466309,0.4533194899559021,0.24364960193634033,0.8421133160591125
12.912785053253174,-0.05953584611415863,-0.794765293598175,0.796474814414978,0.4469737410545349,0.2580396234989166,0.8453865647315979
12.93285322189331,-0.056524090468883514,-0.7815345525741577,0.7992475032806396,0.44982099533081055,0.253791481256485,0.8483102917671204
12.952913999557495,-0.05479450523853302,-0.7912169694900513,0.7883751392364502,0.4465513825416565,0.2584993839263916,0.8527613878250122
12.972988367080688,-0.055742256343364716,-0.7758893966674805,0.795875608921051,0.4507853388786316,0.2480354905128479,0.8557420372962952
12.99313497543335,-0.05116812139749527,-0.7769748568534851,0.790288507938385,0.4496288299560547,0.2460460662841797,0.8543508648872375
13.0132155418396,-0.04226712882518768,-0.7656402587890625,0.7910065054893494,0.4445384740829468,0.25645947456359863,0.8597752451896667
13.033277750015259,-0.04582281410694122,-0.7687886953353882,0.7841355204582214,0.45132210850715637,0.23927265405654907,0.8608270287513733
13.053329467773438,-0.04412522166967392,-0.7692988514900208,0.7794238328933716,0.4523009657859802,0.23194044828414917,0.8620061278343201
13.073384046554565,-0.04106425493955612,-0.7657470107078552,0.7786240577697754,0.4545907974243164,0.22332578897476196,0.8634358048439026
13.09346866607666,-0.039106085896492004,-0.7623195648193359,0.7782799005508423,0.4543085992336273,0.2219054102897644,0.8638563752174377
13.113529920578003,-0.0402313694357872,-0.7672187089920044,0.7708137035369873,0.45891493558883667,0.20821136236190796,0.8650276064872742
13.133599758148193,-0.03639212250709534,-0.7510305047035217,0.7748540639877319,0.4588872790336609,0.2077193558216095,0.8660860657691956
13.153661966323853,-0.02942688763141632,-0.7476961016654968,0.7726713418960571,0.45513612031936646,0.21742093563079834,0.8703544735908508
13.173709869384766,-0.02850363403558731,-0.7514863610267639,0.765945315361023,0.45921745896339417,0.20828354358673096,0.8719684481620789
13.193907976150513,-0.021743200719356537,-0.758647084236145,0.7572183609008789,0.45069459080696106,0.22457891702651978,0.8733786940574646
13.213944673538208,-0.026085518300533295,-0.7503728270530701,0.7643156051635742,0.4561924636363983,0.208170548081398,0.8717100024223328
13.233992099761963,-0.023028552532196045,-0.7522174119949341,0.7497276067733765,0.454586386680603,0.21628111600875854,0.8751689791679382
13.254093170166016,-0.01903722435235977,-0.7361472845077515,0.7612862586975098,0.45653992891311646,0.20625920593738556,0.8743533492088318
13.274337530136108,-0.019103817641735077,-0.7410048842430115,0.7526553869247437,0.4559301733970642,0.2055228054523468,0.8745961785316467
13.29447865486145,-0.016760412603616714,-0.7259502410888672,0.7654082775115967,0.4595048725605011,0.1880055069923401,0.8739760518074036
13.314484357833862,-0.013992559164762497,-0.727714478969574,0.7564392685890198,0.45869433879852295,0.18646609783172607,0.875941276550293
13.334556341171265,-0.015474222600460052,-0.7197430729866028,0.7604820728302002,0.4640951156616211,0.17257261276245117,0.8745222091674805
13.35461688041687,-0.011513948440551758,-0.7135679721832275,0.7625114917755127,0.4618943929672241,0.17802344262599945,0.8761030435562134
13.374709367752075,-0.009398877620697021,-0.7354762554168701,0.7397196292877197,0.46098220348358154,0.19065240025520325,0.875910758972168
13.394779920578003,-0.002675943076610565,-0.7356924414634705,0.7333637475967407,0.4567519724369049,0.19923624396324158,0.8793773055076599
13.414902448654175,0.000594649463891983,-0.7228124141693115,0.738795280456543,0.4557318091392517,0.19865359365940094,0.8781316876411438
13.434914112091064,-0.0005681514739990234,-0.7299529910087585,0.7342103123664856,0.45744311809539795,0.19247937202453613,0.8785423040390015
13.455002307891846,-0.0032743290066719055,-0.7078178524971008,0.7521069645881653,0.4630211591720581,0.17054279148578644,0.8771163821220398
13.475069046020508,0.00682087242603302,-0.7005635499954224,0.7475556135177612,0.45575791597366333,0.18464961647987366,0.8805860877037048
13.495214700698853,0.002661772072315216,-0.7052033543586731,0.7427654266357422,0.4620417356491089,0.16907373070716858,0.8775956630706787
13.515244007110596,0.001664232462644577,-0.7061112523078918,0.7426816821098328,0.4642816483974457,0.16078129410743713,0.8767140507698059
13.535499811172485,0.002937646582722664,-0.7026223540306091,0.7405095100402832,0.47039732336997986,0.14719532430171967,0.8736780285835266
13.555638313293457,0.007738973945379257,-0.7100945115089417,0.7283384203910828,0.4654020667076111,0.1661931872367859,0.8761059641838074
13.575801372528076,0.0023174434900283813,-0.7108359336853027,0.7334752082824707,0.47173836827278137,0.14983144402503967,0.8741662502288818
13.595751762390137,0.012481555342674255,-0.7086356282234192,0.7231746912002563,0.4650881290435791,0.1694992482662201,0.877770721912384
13.61580753326416,0.01952466368675232,-0.6998018026351929,0.7284805178642273,0.4599868655204773,0.17847177386283875,0.8788623213768005
13.636030435562134,0.009626775979995728,-0.6981823444366455,0.7330971360206604,0.46683549880981445,0.15880605578422546,0.8765532374382019
13.656118869781494,0.016411473974585533,-0.6900485754013062,0.7330574989318848,0.4630444645881653,0.16261835396289825,0.8778614401817322
13.676178693771362,0.016260452568531036,-0.6841880083084106,0.7346813678741455,0.46556204557418823,0.1550540328025818,0.8768951296806335
13.696227073669434,0.01584237813949585,-0.6832115650177002,0.7355746030807495,0.46836572885513306,0.14869150519371033,0.8755086064338684
13.716283559799194,0.018228884786367416,-0.679330587387085,0.736520528793335,0.4699433445930481,0.1407070904970169,0.8756737112998962
13.736368417739868,0.017969895154237747,-0.7116649746894836,0.7101079225540161,0.47221308946609497,0.14245747029781342,0.8717462420463562
13.756433963775635,0.019632302224636078,-0.7053913474082947,0.7127394080162048,0.4718623161315918,0.14335167407989502,0.8724824786186218
13.77648377418518,0.023663155734539032,-0.7022380232810974,0.7086673378944397,0.47138121724128723,0.1439247578382492,0.8725610375404358
13.796543598175049,0.023036949336528778,-0.7021432518959045,0.7076711654663086,0.4729413092136383,0.14050254225730896,0.8721741437911987
13.816617012023926,0.02757735177874565,-0.6799915432929993,0.722426176071167,0.46708160638809204,0.14886586368083954,0.8762090802192688
13.836697578430176,0.027822304517030716,-0.6693676114082336,0.7255648970603943,0.4709928333759308,0.1415402740240097,0.8735560774803162
13.856756687164307,0.03140835091471672,-0.6584903597831726,0.7354224920272827,0.4653562605381012,0.15257826447486877,0.8771995902061462
13.876823902130127,0.029780086129903793,-0.6719118356704712,0.7216137051582336,0.4671746492385864,0.1503322869539261,0.8757311105728149
13.896902561187744,0.03079083189368248,-0.6610376238822937,0.7305555939674377,0.46899932622909546,0.14021557569503784,0.8751262426376343
13.917089462280273,0.026964906603097916,-0.7061593532562256,0.6989715099334717,0.47439873218536377,0.13623633980751038,0.8695923089981079
13.937109470367432,0.02785695344209671,-0.709209680557251,0.6937658786773682,0.4759562611579895,0.1336337924003601,0.8690995573997498
13.957143545150757,0.030107799917459488,-0.6759591698646545,0.712995171546936,0.47681084275245667,0.12781716883182526,0.8690072298049927
13.97720456123352,0.029978375881910324,-0.6853629350662231,0.7056877613067627,0.4791407585144043,0.12256717681884766,0.8686738610267639
13.997286081314087,0.03804287686944008,-0.670495331287384,0.7133501768112183,0.4746178388595581,0.13517428934574127,0.8705791234970093
14.017358541488647,0.03103753551840782,-0.6690613031387329,0.7171242237091064,0.4793238043785095,0.12000218033790588,0.869715690612793
14.037451267242432,0.03302696719765663,-0.6766560673713684,0.7107218503952026,0.47959834337234497,0.11693891882896423,0.8692075610160828
14.05749797821045,0.03766973316669464,-0.672030508518219,0.7094323039054871,0.4807375371456146,0.1146354079246521,0.8677465915679932
14.077557563781738,0.04295150563120842,-0.6719857454299927,0.7050985097885132,0.4733298420906067,0.13230961561203003,0.8714706301689148
14.09784984588623,0.0380743071436882,-0.6646810173988342,0.714944064617157,0.4776497185230255,0.12232506275177002,0.8699145913124084
14.117914915084839,0.04369617626070976,-0.6592696905136108,0.7121350765228271,0.4738670587539673,0.13198798894882202,0.8715874552726746
14.137961387634277,0.04236739128828049,-0.671705424785614,0.7034772634506226,0.47587764263153076,0.12558390200138092,0.86982262134552
14.158058881759644,0.043636854737997055,-0.656607449054718,0.716347873210907,0.477284699678421,0.11914604902267456,0.8696696162223816
14.178099155426025,0.04452260956168175,-0.6594672203063965,0.7068703174591064,0.477541446685791,0.11717082560062408,0.8684057593345642
14.19818639755249,0.043924883008003235,-0.6758812069892883,0.6978319883346558,0.47907915711402893,0.1174057126045227,0.867300808429718
14.21824860572815,0.044722747057676315,-0.6667155623435974,0.6989519000053406,0.4845116138458252,0.105587899684906,0.8644433617591858
14.238395690917969,0.04959839954972267,-0.6645787358283997,0.6987118721008301,0.48027148842811584,0.11665776371955872,0.8661863207817078
14.25843334197998,0.04906672611832619,-0.657882034778595,0.7049086689949036,0.48003652691841125,0.11666795611381531,0.8669536113739014
14.27852988243103,0.04504061117768288,-0.655555784702301,0.7063357830047607,0.4863020181655884,0.09811697900295258,0.8639765381813049
14.29871916770935,0.05075562745332718,-0.6545160412788391,0.7031928300857544,0.48329925537109375,0.1089639812707901,0.8652983903884888
14.318711757659912,0.047500357031822205,-0.6701678037643433,0.6952997446060181,0.4857028126716614,0.10313984751701355,0.8622771501541138
14.338754653930664,0.049231160432100296,-0.6645582318305969,0.6986369490623474,0.48390793800354004,0.1105128824710846,0.8625622987747192
14.358819484710693,0.05158724635839462,-0.6652602553367615,0.6947612166404724,0.4838816821575165,0.11041352152824402,0.8623696565628052
14.378995895385742,0.051679886877536774,-0.6398154497146606,0.713409423828125,0.48473381996154785,0.1014692634344101,0.8643403649330139
14.399083137512207,0.05256258323788643,-0.644018828868866,0.7076816558837891,0.4845409393310547,0.10268697142601013,0.8635596632957458
14.419166803359985,0.05489476025104523,-0.6479219794273376,0.7043513655662537,0.48125267028808594,0.11045761406421661,0.8643449544906616
14.439224243164062,0.05389600992202759,-0.645261824131012,0.7049165964126587,0.48474830389022827,0.10043925046920776,0.8611106276512146
14.45928955078125,0.057058628648519516,-0.6481677889823914,0.7006863355636597,0.48356056213378906,0.1043841689825058,0.860836386680603
14.479450464248657,0.05518919974565506,-0.6594998836517334,0.6929140686988831,0.4866734743118286,0.09941895306110382,0.8595032095909119
14.499527931213379,0.06048355624079704,-0.6335936188697815,0.7105422616004944,0.48227423429489136,0.10455316305160522,0.862537682056427
14.519571781158447,0.05735621228814125,-0.6350235342979431,0.7069529294967651,0.4873672425746918,0.08869519829750061,0.8604205250740051
14.539610147476196,0.05740121752023697,-0.6400346159934998,0.7026499509811401,0.4853149652481079,0.09343382716178894,0.8613022565841675
14.559706449508667,0.0568753182888031,-0.6565537452697754,0.6909906268119812,0.4893396496772766,0.09314429759979248,0.8564341068267822
14.579768896102905,0.06157373636960983,-0.6523879766464233,0.6888423562049866,0.4867720901966095,0.10239838063716888,0.8582167625427246
14.599834680557251,0.06191140413284302,-0.6438268423080444,0.6971071362495422,0.4850243926048279,0.10620450973510742,0.8589637875556946
14.619901418685913,0.05913601070642471,-0.6496264338493347,0.6936220526695251,0.4875261187553406,0.09783820807933807,0.8571416735649109
14.64000153541565,0.06300198286771774,-0.6399741172790527,0.6989172101020813,0.4844728708267212,0.10163332521915436,0.8576733469963074
14.660104036331177,0.061942294239997864,-0.6507601141929626,0.6900482773780823,0.4863356351852417,0.0982934832572937,0.8561874628067017
14.680146932601929,0.061380911618471146,-0.642616331577301,0.6957994699478149,0.488964706659317,0.0911705493927002,0.8552232980728149
14.700181484222412,0.06102665141224861,-0.6450859308242798,0.6933608651161194,0.4885696768760681,0.0891539454460144,0.855721116065979
