liuyurong129/humanoid-gym/humanoid/data/target_q_20250522-053855.csv
timestamp,joint_1,joint_2,joint_3,joint_4,joint_5,joint_6
0.0001678466796875,0.0,0.0,0.0,0.0,0.0,0.0
0.020237445831298828,0.0,0.0,0.0,0.0,0.0,0.0
0.04032444953918457,0.0,0.0,0.0,0.0,0.0,0.0
0.060418128967285156,0.0,0.0,0.0,0.0,0.0,0.0
0.08048534393310547,0.0,0.0,0.0,0.0,0.0,0.0
0.1005561351776123,0.554014265537262,-0.9984659552574158,0.9019114971160889,0.2602315843105316,0.02277037501335144,-0.3557245135307312
0.12075614929199219,0.5528203845024109,-1.0027233362197876,0.9042375087738037,0.2611020505428314,0.023231808096170425,-0.35550588369369507
0.14083480834960938,0.5503649711608887,-1.0112533569335938,0.9084204435348511,0.2627910375595093,0.023978276178240776,-0.3549802899360657
0.1613140106201172,0.5478969812393188,-1.0197335481643677,0.9121126532554626,0.26438215374946594,0.024510305374860764,-0.35433587431907654
0.18140459060668945,0.5466745495796204,-1.023940086364746,0.9138597249984741,0.26514139771461487,0.024725114926695824,-0.3539786636829376
0.20149636268615723,0.5443005561828613,-1.0322606563568115,0.9173698425292969,0.26663726568222046,0.02509334497153759,-0.3532245457172394
0.2216331958770752,0.541912853717804,-1.0404633283615112,0.9206758737564087,0.26812687516212463,0.025352831929922104,-0.35242342948913574
0.24168086051940918,0.5407106876373291,-1.0444989204406738,0.9221600294113159,0.2688652575016022,0.025447014719247818,-0.3520028293132782
0.2617950439453125,0.538275957107544,-1.0524590015411377,0.9249032735824585,0.27030667662620544,0.0256089735776186,-0.35115209221839905
0.2818632125854492,0.5358405113220215,-1.0602914094924927,0.9275710582733154,0.27167415618896484,0.02579067088663578,-0.35031574964523315
0.30196380615234375,0.5346161723136902,-1.0641902685165405,0.9289842844009399,0.2723342478275299,0.02589220553636551,-0.34991273283958435
0.3220102787017822,0.532181978225708,-1.0719335079193115,0.9319639205932617,0.2736114263534546,0.02611038088798523,-0.3491280972957611
0.3421671390533447,0.529747486114502,-1.0795950889587402,0.9350622296333313,0.2748693525791168,0.026305021718144417,-0.34836268424987793
0.36221861839294434,0.5273334383964539,-1.0871281623840332,0.9381290674209595,0.27610182762145996,0.02647966518998146,-0.34760311245918274
0.38236021995544434,0.5261112451553345,-1.090859293937683,0.9396185278892517,0.2766992747783661,0.02655162289738655,-0.34722238779067993
0.40244126319885254,0.5236692428588867,-1.0982478857040405,0.9425864815711975,0.2778486907482147,0.02669721655547619,-0.3464655876159668
0.42263317108154297,0.5212188363075256,-1.1055498123168945,0.9455661177635193,0.2789461016654968,0.026835793629288673,-0.3457215130329132
0.4427335262298584,0.5200208425521851,-1.1091514825820923,0.9470900297164917,0.27948442101478577,0.026916444301605225,-0.3453582525253296
0.4628586769104004,0.5176827907562256,-1.1162655353546143,0.9502463936805725,0.2805374264717102,0.027096997946500778,-0.34464937448501587
0.4829568862915039,0.5154017210006714,-1.1232789754867554,0.9535576105117798,0.2815515697002411,0.027293357998132706,-0.3439599275588989
0.5030813217163086,0.5131418704986572,-1.1302075386047363,0.9569555521011353,0.2825130820274353,0.02747827209532261,-0.3432762026786804
0.5231311321258545,0.5120327472686768,-1.1336179971694946,0.958604633808136,0.2829711437225342,0.02756534516811371,-0.34292715787887573
0.543255090713501,0.5098495483398438,-1.1403528451919556,0.9619201421737671,0.2838665246963501,0.027726761996746063,-0.34222888946533203
0.5633082389831543,0.5076776742935181,-1.1469833850860596,0.9651859998703003,0.28472453355789185,0.027869097888469696,-0.3415312170982361
0.583528995513916,0.5055307149887085,-1.1535173654556274,0.9685496091842651,0.28554245829582214,0.02803019993007183,-0.340857595205307
0.6036109924316406,0.5044729113578796,-1.156747579574585,0.9703007936477661,0.2859359383583069,0.028127521276474,-0.3405344486236572
0.6238350868225098,0.5023714900016785,-1.163131833076477,0.9737721681594849,0.2867062985897064,0.028312381356954575,-0.3398888111114502
0.6438624858856201,0.5002370476722717,-1.1694532632827759,0.977213978767395,0.28746160864830017,0.028462868183851242,-0.33924880623817444
0.6640138626098633,0.4991390109062195,-1.1725996732711792,0.9789189100265503,0.28783366084098816,0.02851901203393936,-0.3389337658882141
0.6842014789581299,0.4969561696052551,-1.1788241863250732,0.9824467301368713,0.2885562479496002,0.028646929189562798,-0.3383352756500244
0.7041971683502197,0.49483510851860046,-1.1849218606948853,0.986028790473938,0.28925275802612305,0.028786607086658478,-0.3377590477466583
0.7243585586547852,0.49382567405700684,-1.1879161596298218,0.9878867268562317,0.28958970308303833,0.028867803514003754,-0.33747848868370056
0.7444801330566406,0.49186065793037415,-1.193821668624878,0.9915744662284851,0.2902454435825348,0.028999781236052513,-0.33690348267555237
0.7644574642181396,0.48990699648857117,-1.1996581554412842,0.9953635334968567,0.29087430238723755,0.02910626493394375,-0.3363397717475891
0.7845458984375,0.4889128506183624,-1.2025538682937622,0.9972259402275085,0.29117551445961,0.029141077771782875,-0.3360585868358612
0.8047401905059814,0.4869018495082855,-1.2083027362823486,1.0011342763900757,0.29175618290901184,0.029218144714832306,-0.335537314414978
0.8248517513275146,0.4859067499637604,-1.2111436128616333,1.003222107887268,0.29203054308891296,0.029269656166434288,-0.3352997601032257
0.8449249267578125,0.4838648736476898,-1.216801643371582,1.0073668956756592,0.29253607988357544,0.0293111614882946,-0.3348220884799957
0.865013837814331,0.4828239977359772,-1.2196228504180908,1.009445071220398,0.2927749454975128,0.029297908768057823,-0.3345797657966614
0.8850893974304199,0.4808378517627716,-1.2251710891723633,1.0138921737670898,0.2932485342025757,0.02927292138338089,-0.3341115117073059
0.9051806926727295,0.47892773151397705,-1.2306147813796997,1.018489122390747,0.29372814297676086,0.02921539917588234,-0.3336400091648102
0.9252614974975586,0.4780183732509613,-1.2332772016525269,1.0209037065505981,0.2939661741256714,0.02919701859354973,-0.3334154784679413
0.9453411102294922,0.4762333333492279,-1.2385088205337524,1.0257035493850708,0.29443028569221497,0.02914758212864399,-0.33296698331832886
0.9653835296630859,0.4745640158653259,-1.243577003479004,1.0306127071380615,0.29488405585289,0.029106291010975838,-0.3325313925743103
0.9854800701141357,0.4737628102302551,-1.2460676431655884,1.0330106019973755,0.2951047122478485,0.029069311916828156,-0.332302451133728
1.0055468082427979,0.47219642996788025,-1.250969409942627,1.0378236770629883,0.2955170273780823,0.028971916064620018,-0.3318464159965515
1.0256023406982422,0.47063392400741577,-1.2557872533798218,1.0425145626068115,0.2958904504776001,0.028832003474235535,-0.3313862681388855
1.0456807613372803,0.4698692560195923,-1.2581475973129272,1.044904112815857,0.29606765508651733,0.02876831218600273,-0.3311702311038971
1.0658748149871826,0.468351274728775,-1.2627936601638794,1.049561619758606,0.2964029610157013,0.028613390401005745,-0.33073556423187256
1.0858592987060547,0.4668566584587097,-1.2673537731170654,1.0541901588439941,0.29671818017959595,0.028425101190805435,-0.33030539751052856
1.1059367656707764,0.4660862684249878,-1.2696248292922974,1.056409478187561,0.29686567187309265,0.0282965786755085,-0.3300824761390686
1.126028060913086,0.46454304456710815,-1.2741256952285767,1.0609478950500488,0.29715874791145325,0.028010636568069458,-0.3296505808830261
1.1460585594177246,0.4629703760147095,-1.2785711288452148,1.065418004989624,0.2974492311477661,0.02767324633896351,-0.3292243778705597
1.1661720275878906,0.4621950089931488,-1.2807629108428955,1.067690134048462,0.2975904643535614,0.027501754462718964,-0.3290175497531891
1.186218023300171,0.46060651540756226,-1.2851072549819946,1.0719681978225708,0.29787203669548035,0.02710035629570484,-0.328588604927063
1.2062819004058838,0.45905715227127075,-1.289366602897644,1.0762207508087158,0.2981390357017517,0.02667921781539917,-0.3281608521938324
1.2263295650482178,0.45757386088371277,-1.2935346364974976,1.0805495977401733,0.2984074652194977,0.02623838745057583,-0.32773852348327637
1.2464017868041992,0.4568495452404022,-1.2955899238586426,1.0827034711837769,0.2985319197177887,0.026007836684584618,-0.3275253176689148
1.2666325569152832,0.45543238520622253,-1.2996470928192139,1.087136149406433,0.2987595200538635,0.025528719648718834,-0.327108234167099
1.2866060733795166,0.45402991771698,-1.303640365600586,1.0915637016296387,0.2989394962787628,0.025014245882630348,-0.3266906142234802
1.3067121505737305,0.453335702419281,-1.3056120872497559,1.0938246250152588,0.2990202009677887,0.024747584015130997,-0.326486736536026
1.3267698287963867,0.45196783542633057,-1.309484839439392,1.0982269048690796,0.29915037751197815,0.024188797920942307,-0.32607463002204895
1.346832275390625,0.45070984959602356,-1.3132139444351196,1.102606177330017,0.2992681562900543,0.023651566356420517,-0.3256710469722748
1.366929054260254,0.449521005153656,-1.3168344497680664,1.106980323791504,0.29938623309135437,0.023125430569052696,-0.32527947425842285
1.3870604038238525,0.44892972707748413,-1.3186237812042236,1.1091207265853882,0.2994455397129059,0.02285170927643776,-0.3250821828842163
1.4071033000946045,0.4477321207523346,-1.3221784830093384,1.113587737083435,0.299560010433197,0.022293442860245705,-0.32471442222595215
1.4271461963653564,0.44651031494140625,-1.3256969451904297,1.1181844472885132,0.2996573746204376,0.02169964462518692,-0.3243657946586609
1.447232723236084,0.4459006190299988,-1.3274297714233398,1.1205657720565796,0.2997020483016968,0.02139684371650219,-0.32420241832733154
1.4673094749450684,0.4446915090084076,-1.3308403491973877,1.1252192258834839,0.2997845709323883,0.020754626020789146,-0.32387059926986694
1.4873700141906738,0.4434981942176819,-1.3341716527938843,1.129700779914856,0.2998586893081665,0.020072845742106438,-0.32353416085243225
1.5075526237487793,0.44229012727737427,-1.3374531269073486,1.133962631225586,0.29991093277931213,0.01933649741113186,-0.323187917470932
1.527616262435913,0.4416486322879791,-1.3390933275222778,1.1359561681747437,0.2999153435230255,0.01894034817814827,-0.3230094611644745
1.547807216644287,0.44036564230918884,-1.3423348665237427,1.1398710012435913,0.29990354180336,0.018133962526917458,-0.32265758514404297
1.56778883934021,0.43903106451034546,-1.345552921295166,1.1436371803283691,0.29986727237701416,0.017303289845585823,-0.3223138451576233
1.5880541801452637,0.43837594985961914,-1.34713876247406,1.1455228328704834,0.2998516857624054,0.01688796654343605,-0.3221457302570343
1.6081387996673584,0.437057226896286,-1.3502845764160156,1.1492435932159424,0.29983168840408325,0.0160183385014534,-0.321809321641922
1.6281788349151611,0.435761421918869,-1.3533754348754883,1.152949333190918,0.29981452226638794,0.015120643191039562,-0.3214772343635559
1.6483509540557861,0.4351164698600769,-1.3549001216888428,1.1547908782958984,0.29980504512786865,0.014662202447652817,-0.32131555676460266
1.6684231758117676,0.4338338077068329,-1.3579143285751343,1.1584992408752441,0.29976722598075867,0.013746840879321098,-0.32100456953048706
1.688429594039917,0.4325481653213501,-1.3608907461166382,1.162240743637085,0.29968342185020447,0.01282790582627058,-0.3207107186317444
1.7085509300231934,0.43128132820129395,-1.3638033866882324,1.1659921407699585,0.29954418540000916,0.011933031491935253,-0.3204415440559387
1.7286431789398193,0.4306618571281433,-1.365233063697815,1.167868971824646,0.2994738519191742,0.011480744928121567,-0.3203132152557373
1.7487101554870605,0.42950180172920227,-1.3680161237716675,1.1716479063034058,0.2993670701980591,0.010566934011876583,-0.3200599253177643
1.7687902450561523,0.42840591073036194,-1.3707324266433716,1.1754443645477295,0.2992912530899048,0.009625716134905815,-0.3198047876358032
1.7888617515563965,0.4278695583343506,-1.3720676898956299,1.177359938621521,0.29925158619880676,0.009155422449111938,-0.31968259811401367
1.808936595916748,0.4267469048500061,-1.3747260570526123,1.1811500787734985,0.29913848638534546,0.008199061267077923,-0.31945502758026123
1.8290412425994873,0.42559120059013367,-1.3773435354232788,1.1849339008331299,0.29899507761001587,0.007231120020151138,-0.3192569613456726
1.8490889072418213,0.4244544804096222,-1.3798907995224,1.1886718273162842,0.29884082078933716,0.006253792438656092,-0.3190823197364807
1.8691787719726562,0.42390331625938416,-1.3811366558074951,1.1905076503753662,0.2987646758556366,0.0057542347349226475,-0.3189987242221832
1.889284372329712,0.4227685034275055,-1.3836194276809692,1.1941237449645996,0.29861125349998474,0.004717603791505098,-0.31884080171585083
1.9093005657196045,0.42152824997901917,-1.3861396312713623,1.197670817375183,0.2984517514705658,0.00360309099778533,-0.31869009137153625
1.9294157028198242,0.42089056968688965,-1.3873990774154663,1.1994647979736328,0.2983662784099579,0.003037285292521119,-0.318621426820755
1.949514389038086,0.41963785886764526,-1.3898810148239136,1.2030584812164307,0.2981853485107422,0.001889153616502881,-0.3184901773929596
1.9695682525634766,0.41847050189971924,-1.3922721147537231,1.2067134380340576,0.2979995608329773,0.0007345287594944239,-0.31837382912635803
1.9901823997497559,0.4173765480518341,-1.3945930004119873,1.210461139678955,0.2978285551071167,-0.0004640250699594617,-0.3182639479637146
2.0102694034576416,0.4168148636817932,-1.3957551717758179,1.212345004081726,0.2977377474308014,-0.0010968919377774,-0.3182087540626526
2.0303282737731934,0.4157326817512512,-1.3980247974395752,1.2161105871200562,0.29750680923461914,-0.00234485836699605,-0.31810832023620605
2.05041766166687,0.41465646028518677,-1.4002412557601929,1.2198485136032104,0.29722538590431213,-0.003590832930058241,-0.31802794337272644
2.0706627368927,0.41414177417755127,-1.40131676197052,1.2217209339141846,0.29708799719810486,-0.004214092157781124,-0.31799548864364624
2.090630531311035,0.4131464958190918,-1.4034276008605957,1.2254678010940552,0.2968441843986511,-0.005489529576152563,-0.31793397665023804
2.110694646835327,0.41218218207359314,-1.4054838418960571,1.2291511297225952,0.29660195112228394,-0.0067786541767418385,-0.317879855632782
2.1308398246765137,0.4116925597190857,-1.4065015316009521,1.2309588193893433,0.2964640259742737,-0.007429386023432016,-0.3178563117980957
2.1508946418762207,0.4107050895690918,-1.408497929573059,1.2345259189605713,0.2961461544036865,-0.008730539120733738,-0.31782788038253784
2.1709563732147217,0.40972718596458435,-1.4104489088058472,1.2380555868148804,0.2958196699619293,-0.010083542205393314,-0.31781309843063354
2.1910438537597656,0.4092280864715576,-1.4114142656326294,1.2398065328598022,0.2956617772579193,-0.010780686512589455,-0.31781283020973206
2.2111704349517822,0.40822261571884155,-1.4133193492889404,1.2432829141616821,0.2953488826751709,-0.012192990630865097,-0.31782570481300354
2.2312586307525635,0.4071776568889618,-1.4152097702026367,1.2467260360717773,0.29503482580184937,-0.013645248487591743,-0.31785523891448975
2.2513296604156494,0.40613970160484314,-1.4170666933059692,1.2501511573791504,0.2947039008140564,-0.015128608793020248,-0.31789693236351013
2.2714121341705322,0.40565016865730286,-1.4179744720458984,1.2518885135650635,0.29454368352890015,-0.015886399894952774,-0.3179180920124054
2.29158353805542,0.4046696424484253,-1.419756531715393,1.2553731203079224,0.2942100167274475,-0.017434721812605858,-0.31797656416893005
2.3119089603424072,0.4036926031112671,-1.4214961528778076,1.2589372396469116,0.2938585579395294,-0.019053887575864792,-0.3180552124977112
2.3320093154907227,0.40317949652671814,-1.4223514795303345,1.2607685327529907,0.29365426301956177,-0.01988506317138672,-0.31810903549194336
2.352128505706787,0.402153879404068,-1.4240251779556274,1.2645409107208252,0.29322510957717896,-0.021615253761410713,-0.3182274401187897
2.3721461296081543,0.401183158159256,-1.4256147146224976,1.268480658531189,0.29279467463493347,-0.023420004174113274,-0.31835711002349854
2.3922903537750244,0.40071165561676025,-1.426400065422058,1.2704428434371948,0.2925858497619629,-0.02435661293566227,-0.3184184432029724
2.4123895168304443,0.3998047709465027,-1.4279080629348755,1.2744468450546265,0.292157918214798,-0.02627253532409668,-0.3185475468635559
2.4324517250061035,0.39887720346450806,-1.4293787479400635,1.2784255743026733,0.2916660010814667,-0.028252270072698593,-0.3186854124069214
2.452967405319214,0.3984231948852539,-1.430076003074646,1.280423879623413,0.29138606786727905,-0.029243186116218567,-0.31876471638679504
2.4731316566467285,0.39743271470069885,-1.4314935207366943,1.2843228578567505,0.2907703220844269,-0.031308285892009735,-0.3189255893230438
2.493216037750244,0.39640408754348755,-1.4328851699829102,1.2881733179092407,0.2901040315628052,-0.033431269228458405,-0.31909817457199097
2.5132710933685303,0.39533162117004395,-1.4342576265335083,1.2920259237289429,0.2894098460674286,-0.035675764083862305,-0.3192763924598694
2.533356189727783,0.3947628438472748,-1.4349499940872192,1.293954849243164,0.28904834389686584,-0.03686735779047012,-0.31936514377593994
2.5535361766815186,0.3936505615711212,-1.4362536668777466,1.2978620529174805,0.2882997691631317,-0.03932807967066765,-0.3195580542087555
2.573594331741333,0.3924778401851654,-1.4374996423721313,1.301775574684143,0.2874965965747833,-0.0419333279132843,-0.31976550817489624
2.5937798023223877,0.3918781280517578,-1.4380836486816406,1.3037352561950684,0.287066787481308,-0.04327724501490593,-0.3198786675930023
2.6137783527374268,0.39050379395484924,-1.4392814636230469,1.307633399963379,0.2861824929714203,-0.04624089598655701,-0.32008805871009827
2.6339433193206787,0.3889749348163605,-1.440431833267212,1.311524510383606,0.28526684641838074,-0.049531515687704086,-0.32028335332870483
2.6545157432556152,0.38744276762008667,-1.441457986831665,1.3156335353851318,0.2843441963195801,-0.0530998557806015,-0.320453017950058
2.674589157104492,0.3866189420223236,-1.4419550895690918,1.3177450895309448,0.28385740518569946,-0.05501409247517586,-0.3205234706401825
2.694655656814575,0.38502228260040283,-1.4428534507751465,1.322117567062378,0.28282639384269714,-0.058932941406965256,-0.3206551969051361
2.714794874191284,0.3831377625465393,-1.4437711238861084,1.3264654874801636,0.28166401386260986,-0.06323190033435822,-0.32073840498924255
2.734863758087158,0.38215163350105286,-1.4441566467285156,1.3286957740783691,0.2810415029525757,-0.06551151722669601,-0.3207608461380005
2.7549660205841064,0.37966299057006836,-1.4448896646499634,1.3331835269927979,0.27968913316726685,-0.07073135673999786,-0.320680171251297
2.775048017501831,0.3765198588371277,-1.4454830884933472,1.337677240371704,0.2781910002231598,-0.07680434733629227,-0.32040539383888245
2.7951343059539795,0.3745361864566803,-1.4458224773406982,1.339828610420227,0.27741047739982605,-0.08027423918247223,-0.32016706466674805
2.8151912689208984,0.3701499402523041,-1.4463226795196533,1.343974232673645,0.275774210691452,-0.08766163140535355,-0.3195701837539673
2.835271120071411,0.3651391267776489,-1.4464153051376343,1.3478676080703735,0.27406927943229675,-0.09568492323160172,-0.3187607526779175
2.8553669452667236,0.36265799403190613,-1.446122407913208,1.3498061895370483,0.2731580138206482,-0.09974676370620728,-0.31831321120262146
2.875417947769165,0.3579433560371399,-1.4450560808181763,1.3539760112762451,0.2712002098560333,-0.10797684639692307,-0.31743645668029785
2.895462989807129,0.35424792766571045,-1.4436858892440796,1.3589081764221191,0.26899802684783936,-0.11587676405906677,-0.3168982267379761
2.915601968765259,0.35285133123397827,-1.4430352449417114,1.36165452003479,0.2677965760231018,-0.11951053142547607,-0.31684958934783936
2.9357352256774902,0.3509736955165863,-1.4416948556900024,1.3674108982086182,0.26526105403900146,-0.12576228380203247,-0.3171307146549225
2.9557855129241943,0.3503764569759369,-1.4410234689712524,1.3702220916748047,0.26394447684288025,-0.1282901018857956,-0.31742703914642334
2.9758682250976562,0.34949085116386414,-1.4395772218704224,1.3753074407577515,0.26112157106399536,-0.1321057826280594,-0.31824904680252075
2.9959073066711426,0.3485848307609558,-1.4377607107162476,1.3789814710617065,0.2578672468662262,-0.13432012498378754,-0.3193435072898865
3.0160562992095947,0.3476978838443756,-1.4354337453842163,1.3812021017074585,0.2542710304260254,-0.13531188666820526,-0.3206765949726105
3.036200761795044,0.34733179211616516,-1.4341049194335938,1.3819217681884766,0.2524171471595764,-0.1354569047689438,-0.32142525911331177
3.0562686920166016,0.34678974747657776,-1.4312427043914795,1.3830028772354126,0.24873629212379456,-0.13530343770980835,-0.32305920124053955
3.076284646987915,0.3465169072151184,-1.4283078908920288,1.384162425994873,0.24530065059661865,-0.13492438197135925,-0.3248324394226074
3.09637188911438,0.3464568853378296,-1.4268805980682373,1.3849098682403564,0.24373136460781097,-0.13479861617088318,-0.3257576525211334
3.116543769836426,0.3464163541793823,-1.4241596460342407,1.3867284059524536,0.24089981615543365,-0.13484756648540497,-0.3276681900024414
3.13657808303833,0.34638532996177673,-1.421614646911621,1.38880455493927,0.238427996635437,-0.1353387087583542,-0.3296399712562561
3.1567890644073486,0.34628841280937195,-1.4204192161560059,1.3898342847824097,0.23731064796447754,-0.1357857882976532,-0.33063769340515137
3.1769304275512695,0.3458136022090912,-1.418185830116272,1.3915860652923584,0.23528937995433807,-0.1370318979024887,-0.3326449990272522
3.1969401836395264,0.34485945105552673,-1.416134238243103,1.3925726413726807,0.23343665897846222,-0.1386105865240097,-0.3346858620643616
3.2177984714508057,0.34364446997642517,-1.4141654968261719,1.392792820930481,0.2316722869873047,-0.14020012319087982,-0.3367839455604553
3.2380423545837402,0.3430047333240509,-1.4131907224655151,1.3926900625228882,0.230808824300766,-0.14094769954681396,-0.33785688877105713
3.2580320835113525,0.34189432859420776,-1.4112299680709839,1.392382264137268,0.22915449738502502,-0.14224959909915924,-0.3400462865829468
3.278110980987549,0.34114325046539307,-1.409218668937683,1.3921934366226196,0.22757336497306824,-0.14324040710926056,-0.34228283166885376
3.2981679439544678,0.3408488631248474,-1.407083511352539,1.392283320426941,0.2260141223669052,-0.14381259679794312,-0.3445611298084259
3.318249464035034,0.3408929705619812,-1.405921220779419,1.3924241065979004,0.2251977026462555,-0.14385804533958435,-0.3457208275794983
3.338334083557129,0.34126174449920654,-1.4034181833267212,1.3927597999572754,0.22349518537521362,-0.14353542029857635,-0.3480871915817261
3.3583998680114746,0.34176260232925415,-1.4008171558380127,1.3929316997528076,0.22179685533046722,-0.142971932888031,-0.35050687193870544
3.3785452842712402,0.3419453799724579,-1.399558424949646,1.3928799629211426,0.2210100293159485,-0.14277346432209015,-0.3517245054244995
3.3986172676086426,0.3420259654521942,-1.3971878290176392,1.3923863172531128,0.2195623517036438,-0.1426897644996643,-0.35416096448898315
3.4187190532684326,0.3417530357837677,-1.3949787616729736,1.3914262056350708,0.21822664141654968,-0.1429363191127777,-0.3565945029258728
3.4389073848724365,0.34152936935424805,-1.3939197063446045,1.3908275365829468,0.2175866812467575,-0.14313951134681702,-0.35781314969062805
3.4589908123016357,0.34099605679512024,-1.3918907642364502,1.3895374536514282,0.2163940668106079,-0.14368018507957458,-0.3602466881275177
3.4790546894073486,0.34044283628463745,-1.3899648189544678,1.3883326053619385,0.21531814336776733,-0.1443699449300766,-0.3626669645309448
3.4990992546081543,0.3400023579597473,-1.3880664110183716,1.387366533279419,0.21429133415222168,-0.14504732191562653,-0.36507514119148254
3.519184112548828,0.3398371636867523,-1.3871042728424072,1.3869255781173706,0.21377213299274445,-0.14532305300235748,-0.36628127098083496
3.539273738861084,0.33958595991134644,-1.3851314783096313,1.3859528303146362,0.21270033717155457,-0.14567968249320984,-0.3687070310115814
3.5593485832214355,0.33943819999694824,-1.383104681968689,1.3847872018814087,0.2116243541240692,-0.14578719437122345,-0.37114718556404114
3.579401731491089,0.33937445282936096,-1.3810527324676514,1.3834211826324463,0.21058006584644318,-0.14571446180343628,-0.3735947906970978
3.5995500087738037,0.33937641978263855,-1.3800263404846191,1.3826987743377686,0.21007326245307922,-0.1456354558467865,-0.37482041120529175
3.619657278060913,0.33937782049179077,-1.3779891729354858,1.381176233291626,0.20908145606517792,-0.14546507596969604,-0.3772699236869812
3.6396706104278564,0.3393974304199219,-1.3759835958480835,1.3797273635864258,0.2081223726272583,-0.14533716440200806,-0.3797164857387543
3.6597516536712646,0.33941930532455444,-1.3749988079071045,1.379065752029419,0.20766307413578033,-0.14530915021896362,-0.38093623518943787
3.679877281188965,0.33944693207740784,-1.3730734586715698,1.377789855003357,0.20678670704364777,-0.14533361792564392,-0.3833669424057007
3.6999189853668213,0.339412659406662,-1.371190071105957,1.3764195442199707,0.20595915615558624,-0.1454007923603058,-0.3857859671115875
3.7202322483062744,0.3392997086048126,-1.3693293333053589,1.3748133182525635,0.20516742765903473,-0.14543838798999786,-0.388197124004364
3.7403788566589355,0.33923017978668213,-1.3684041500091553,1.3739299774169922,0.20477521419525146,-0.14543259143829346,-0.38940319418907166
3.760418176651001,0.33913689851760864,-1.3665711879730225,1.372132658958435,0.20402130484580994,-0.1453762650489807,-0.3918144106864929
3.7805325984954834,0.33906760811805725,-1.364738941192627,1.3702480792999268,0.20325277745723724,-0.14522722363471985,-0.39422789216041565
3.800668478012085,0.3390454947948456,-1.363828182220459,1.3693079948425293,0.20287004113197327,-0.14513707160949707,-0.3954322934150696
3.8207008838653564,0.3389971852302551,-1.3620223999023438,1.3674302101135254,0.20208822190761566,-0.14494994282722473,-0.397837370634079
3.8409042358398438,0.33898448944091797,-1.3611321449279785,1.3665345907211304,0.20170742273330688,-0.1448671966791153,-0.39903441071510315
3.8609750270843506,0.3389727771282196,-1.3593755960464478,1.364823341369629,0.20099565386772156,-0.14472535252571106,-0.40140971541404724
3.8809893131256104,0.3389691710472107,-1.3576263189315796,1.3631402254104614,0.2003190815448761,-0.14455516636371613,-0.4037666320800781
3.9011905193328857,0.338964581489563,-1.3567700386047363,1.3622833490371704,0.20000673830509186,-0.14448150992393494,-0.4049414098262787
3.9212353229522705,0.33895888924598694,-1.3551026582717896,1.3605064153671265,0.19943292438983917,-0.14435435831546783,-0.40729281306266785
3.9413578510284424,0.3389764130115509,-1.3534793853759766,1.3586424589157104,0.19891273975372314,-0.14421769976615906,-0.4096478819847107
3.9613513946533203,0.3390037715435028,-1.352671504020691,1.3577066659927368,0.1986532062292099,-0.14412656426429749,-0.4108261466026306
3.9814963340759277,0.3391062319278717,-1.351059079170227,1.3558913469314575,0.19812698662281036,-0.14390383660793304,-0.4131796360015869
4.001553535461426,0.33921441435813904,-1.3494539260864258,1.3540724515914917,0.19759106636047363,-0.14364735782146454,-0.41552481055259705
4.021700382232666,0.33926406502723694,-1.3486559391021729,1.353153109550476,0.1973222941160202,-0.14350971579551697,-0.41669413447380066
4.041790962219238,0.3393515348434448,-1.347077488899231,1.3513003587722778,0.19678807258605957,-0.14323465526103973,-0.4190227687358856
4.0619096755981445,0.3394012451171875,-1.3455350399017334,1.3494211435317993,0.1962709277868271,-0.14298728108406067,-0.4213312864303589
4.081937789916992,0.33940359950065613,-1.3440191745758057,1.347475290298462,0.19578421115875244,-0.14274482429027557,-0.42361506819725037
4.102041244506836,0.3393939435482025,-1.3432687520980835,1.3464761972427368,0.1955523043870926,-0.14261600375175476,-0.42475080490112305
4.122230768203735,0.3394075930118561,-1.341795802116394,1.3445059061050415,0.19514718651771545,-0.1423611044883728,-0.4270085096359253
4.142322778701782,0.3394677937030792,-1.340349793434143,1.34259033203125,0.19478361308574677,-0.14209464192390442,-0.4292539656162262
4.162493705749512,0.3395134508609772,-1.3396368026733398,1.34166419506073,0.19461219012737274,-0.14196264743804932,-0.43037253618240356
4.182584285736084,0.3396329879760742,-1.3382208347320557,1.3398973941802979,0.19427545368671417,-0.14169253408908844,-0.4326034188270569
4.202607870101929,0.339780330657959,-1.3368221521377563,1.3382017612457275,0.19395965337753296,-0.14141885936260223,-0.4348200559616089
4.2226502895355225,0.3398660123348236,-1.3361256122589111,1.3373801708221436,0.19381274282932281,-0.14127349853515625,-0.4359191656112671
4.242739200592041,0.340038001537323,-1.3347333669662476,1.3357222080230713,0.19352765381336212,-0.14094780385494232,-0.43809783458709717
4.262798309326172,0.3401638865470886,-1.3333438634872437,1.3339614868164062,0.19324035942554474,-0.14057719707489014,-0.4402577579021454
4.282909870147705,0.3402046859264374,-1.3319631814956665,1.3319944143295288,0.19295987486839294,-0.14017008244991302,-0.44240498542785645
4.302992343902588,0.3401933014392853,-1.3312758207321167,1.3309308290481567,0.19281302392482758,-0.13995178043842316,-0.4434781074523926
4.32306981086731,0.3401717245578766,-1.3299260139465332,1.3287934064865112,0.19252987205982208,-0.13952335715293884,-0.4456197917461395
4.3431315422058105,0.3401855230331421,-1.3286147117614746,1.3267394304275513,0.19225575029850006,-0.13911399245262146,-0.44775959849357605
4.36320948600769,0.3402378261089325,-1.3273388147354126,1.3248021602630615,0.19201281666755676,-0.138729527592659,-0.4498889148235321
4.383368015289307,0.34028246998786926,-1.3267112970352173,1.3238850831985474,0.19190804660320282,-0.13854454457759857,-0.45094767212867737
4.403440237045288,0.34039071202278137,-1.3254694938659668,1.3221426010131836,0.19170939922332764,-0.1381891965866089,-0.45304811000823975
4.423584938049316,0.3404594361782074,-1.3248536586761475,1.321329116821289,0.19162128865718842,-0.13801737129688263,-0.4540878236293793
4.443928480148315,0.3406064808368683,-1.3236273527145386,1.3197535276412964,0.1914549320936203,-0.1376701444387436,-0.45614948868751526
4.463966131210327,0.3407371938228607,-1.322426438331604,1.3181695938110352,0.19133739173412323,-0.1373458057641983,-0.4581909775733948
4.484041690826416,0.3407799303531647,-1.3218402862548828,1.3173373937606812,0.1912977248430252,-0.13719876110553741,-0.45920470356941223
4.504186391830444,0.34081169962882996,-1.3206734657287598,1.3155421018600464,0.19123204052448273,-0.1368783861398697,-0.4612155854701996
4.524365663528442,0.3408128023147583,-1.320090413093567,1.3145965337753296,0.19120381772518158,-0.13669686019420624,-0.46221303939819336
4.544488191604614,0.34083008766174316,-1.3189032077789307,1.312660574913025,0.19113366305828094,-0.13623693585395813,-0.46420466899871826
4.56478476524353,0.34091171622276306,-1.31772780418396,1.3107962608337402,0.19109013676643372,-0.1357414275407791,-0.4661954939365387
4.5849690437316895,0.34096699953079224,-1.3171502351760864,1.3098862171173096,0.1910715103149414,-0.13549619913101196,-0.4671916365623474
4.605117321014404,0.3410904109477997,-1.316023588180542,1.308090329170227,0.19103848934173584,-0.13502876460552216,-0.4691793620586395
4.625221014022827,0.3411456346511841,-1.3154759407043457,1.3071914911270142,0.1910233348608017,-0.13481059670448303,-0.4701703190803528
4.645268201828003,0.3412347137928009,-1.3143938779830933,1.3053622245788574,0.19099029898643494,-0.13436774909496307,-0.47214728593826294
4.665467023849487,0.3412714898586273,-1.3138620853424072,1.304436445236206,0.19098183512687683,-0.13414864242076874,-0.473133385181427
4.685571193695068,0.34135371446609497,-1.3128052949905396,1.302583932876587,0.19097912311553955,-0.1336914747953415,-0.47509899735450745
4.705673694610596,0.34145787358283997,-1.311768651008606,1.3007735013961792,0.1910066157579422,-0.13323915004730225,-0.47704702615737915
4.7257843017578125,0.34151703119277954,-1.3112516403198242,1.2998756170272827,0.19102533161640167,-0.13300059735774994,-0.478013277053833
4.745877265930176,0.34165310859680176,-1.3102188110351562,1.2981332540512085,0.19107016921043396,-0.13250450789928436,-0.47992953658103943
4.76591944694519,0.3418186902999878,-1.3091830015182495,1.2964577674865723,0.19112862646579742,-0.13197150826454163,-0.48182520270347595
4.786017417907715,0.34189799427986145,-1.3086663484573364,1.2956266403198242,0.19116410613059998,-0.13170044124126434,-0.4827645421028137
4.80611515045166,0.34201425313949585,-1.307639479637146,1.2938932180404663,0.19124490022659302,-0.13115233182907104,-0.48462697863578796
4.8261778354644775,0.3420731723308563,-1.306618571281433,1.2920637130737305,0.19132070243358612,-0.13059017062187195,-0.4864747226238251
4.846229314804077,0.34211474657058716,-1.30562424659729,1.2902274131774902,0.1914031207561493,-0.13005287945270538,-0.4883147180080414
4.866318225860596,0.342120885848999,-1.3051371574401855,1.2892993688583374,0.19144338369369507,-0.1297953873872757,-0.4892334043979645
4.886406183242798,0.3421039879322052,-1.3041751384735107,1.2874337434768677,0.1915208101272583,-0.12929648160934448,-0.491067498922348
4.906464576721191,0.3420286774635315,-1.303225040435791,1.285546898841858,0.19158481061458588,-0.12882579863071442,-0.49289029836654663
4.926601886749268,0.3419792950153351,-1.3027536869049072,1.2845944166183472,0.19161456823349,-0.1285930722951889,-0.4937960207462311
4.946688413619995,0.3418808579444885,-1.301841378211975,1.2827192544937134,0.1917043924331665,-0.12816573679447174,-0.4955886900424957
4.966770648956299,0.3418077826499939,-1.3009777069091797,1.2808984518051147,0.19186022877693176,-0.12777657806873322,-0.49735745787620544
4.986816883087158,0.3417492210865021,-1.3001623153686523,1.2791434526443481,0.19207407534122467,-0.12742979824543,-0.49910613894462585
5.006944179534912,0.34173527359962463,-1.2997584342956543,1.2782963514328003,0.19218723475933075,-0.1272425800561905,-0.4999750554561615
5.027003526687622,0.34174636006355286,-1.2989362478256226,1.2766512632369995,0.1924109160900116,-0.12679989635944366,-0.5017024874687195
5.0470757484436035,0.3417995870113373,-1.2980984449386597,1.2750475406646729,0.19262844324111938,-0.1262814849615097,-0.5034149289131165
5.067123174667358,0.34185710549354553,-1.2972667217254639,1.2734277248382568,0.19284889101982117,-0.1257326304912567,-0.5051140189170837
5.087207794189453,0.3418876826763153,-1.296855092048645,1.2726266384124756,0.1929643750190735,-0.12545496225357056,-0.505958080291748
5.107278347015381,0.3419514298439026,-1.2960424423217773,1.2710553407669067,0.19321171939373016,-0.12490399181842804,-0.5076376795768738
5.12733268737793,0.3420008718967438,-1.2952442169189453,1.2694815397262573,0.19347672164440155,-0.12436047941446304,-0.5093106031417847
5.147426605224609,0.34200677275657654,-1.2948498725891113,1.2686686515808105,0.19361171126365662,-0.12409331649541855,-0.510142982006073
5.167525768280029,0.34200921654701233,-1.2940515279769897,1.2670109272003174,0.19387438893318176,-0.12351840734481812,-0.5118012428283691
5.187548398971558,0.3420058786869049,-1.2932575941085815,1.265350341796875,0.19413809478282928,-0.12293268740177155,-0.5134518146514893
5.207638263702393,0.3420103192329407,-1.292866826057434,1.2645227909088135,0.19427648186683655,-0.12263776361942291,-0.5142784714698792
5.2277069091796875,0.34202492237091064,-1.2921005487442017,1.2628931999206543,0.1945692002773285,-0.12206481397151947,-0.5159281492233276
5.24776029586792,0.34208187460899353,-1.2913269996643066,1.2613584995269775,0.19488230347633362,-0.12146257609128952,-0.5175608992576599
5.267866849899292,0.34212222695350647,-1.2909340858459473,1.2606297731399536,0.19503900408744812,-0.12114904820919037,-0.5183665156364441
5.287967920303345,0.3422144651412964,-1.2901480197906494,1.2592169046401978,0.19535581767559052,-0.12050854414701462,-0.5199605822563171
5.30821681022644,0.3423103094100952,-1.2893810272216797,1.2578201293945312,0.19568473100662231,-0.11987338960170746,-0.5215415358543396
5.3283491134643555,0.3423568606376648,-1.2890100479125977,1.2571210861206055,0.19585826992988586,-0.11956587433815002,-0.5223305821418762
5.348391056060791,0.34242263436317444,-1.2882864475250244,1.2556562423706055,0.19620805978775024,-0.11895748227834702,-0.5239050388336182
5.368593454360962,0.34243249893188477,-1.2879308462142944,1.2548786401748657,0.19638024270534515,-0.11865405738353729,-0.5246880054473877
5.388603687286377,0.3424171209335327,-1.2872140407562256,1.2532626390457153,0.19671310484409332,-0.11801924556493759,-0.5262357592582703
5.408925294876099,0.3423957824707031,-1.2868552207946777,1.2524399757385254,0.19688288867473602,-0.11769549548625946,-0.5269994139671326
5.429170846939087,0.34234410524368286,-1.286147952079773,1.2508069276809692,0.1972392350435257,-0.11705619841814041,-0.528512179851532
5.449258089065552,0.34228992462158203,-1.2854766845703125,1.2492163181304932,0.19762857258319855,-0.11646299064159393,-0.5300139784812927
5.469388961791992,0.342267781496048,-1.285154938697815,1.2484484910964966,0.1978350579738617,-0.1161823645234108,-0.5307624936103821
5.489425897598267,0.34221822023391724,-1.2845358848571777,1.246960163116455,0.19827081263065338,-0.11565528064966202,-0.5322532057762146
5.509603500366211,0.34213191270828247,-1.2839339971542358,1.2454496622085571,0.19872123003005981,-0.11514284461736679,-0.5337373614311218
5.529779434204102,0.3420799672603607,-1.2836345434188843,1.2446839809417725,0.19894200563430786,-0.11487951129674911,-0.5344778299331665
5.549846172332764,0.34197530150413513,-1.2830318212509155,1.2431305646896362,0.1993742436170578,-0.11431663483381271,-0.5359540581703186
5.5699379444122314,0.3418623208999634,-1.2824283838272095,1.2415547370910645,0.19979143142700195,-0.1137203723192215,-0.5374180674552917
5.58997654914856,0.3418165147304535,-1.2821259498596191,1.2407835721969604,0.20000234246253967,-0.1134086549282074,-0.538144052028656
5.610119342803955,0.34174907207489014,-1.2815349102020264,1.239315390586853,0.2004476934671402,-0.11279726773500443,-0.5395838618278503
5.630119323730469,0.34172487258911133,-1.280967354774475,1.2379776239395142,0.20093458890914917,-0.11221446096897125,-0.5410134196281433
5.650376081466675,0.34171152114868164,-1.2806864976882935,1.2373301982879639,0.20117896795272827,-0.11192580312490463,-0.5417255759239197
5.670338869094849,0.34167808294296265,-1.2801181077957153,1.2360388040542603,0.20165130496025085,-0.11132252961397171,-0.5431435704231262
5.690959215164185,0.34162941575050354,-1.2795463800430298,1.2347362041473389,0.20209941267967224,-0.11069170385599136,-0.5445521473884583
5.711090087890625,0.34160134196281433,-1.2792675495147705,1.2340748310089111,0.20233166217803955,-0.11037743091583252,-0.545253574848175
5.731229305267334,0.3415360450744629,-1.2787386178970337,1.232779860496521,0.2028348743915558,-0.10979757457971573,-0.54664546251297
5.7513298988342285,0.34144163131713867,-1.2782272100448608,1.2314717769622803,0.20336614549160004,-0.10923657566308975,-0.5480210185050964
5.771385669708252,0.34138748049736023,-1.2779697179794312,1.2308088541030884,0.20363260805606842,-0.10894428938627243,-0.5487027168273926
5.7914721965789795,0.34127277135849,-1.277449369430542,1.2294714450836182,0.20415134727954865,-0.1083289086818695,-0.5500567555427551
5.811567783355713,0.34118548035621643,-1.2769286632537842,1.22818922996521,0.20467615127563477,-0.10768657177686691,-0.5513997077941895
5.831654787063599,0.34110692143440247,-1.27640962600708,1.2269381284713745,0.20520992577075958,-0.10702788829803467,-0.5527331829071045
5.851725339889526,0.34106478095054626,-1.2761427164077759,1.2263060808181763,0.20546112954616547,-0.10667183250188828,-0.5534045100212097
5.871864080429077,0.34097227454185486,-1.2756084203720093,1.2250280380249023,0.20594918727874756,-0.10594811290502548,-0.5547511577606201
5.891953229904175,0.3408711850643158,-1.275085210800171,1.22373628616333,0.2064286321401596,-0.10522836446762085,-0.5560973882675171
5.9121928215026855,0.34082502126693726,-1.2748279571533203,1.22309148311615,0.20668238401412964,-0.10487097501754761,-0.5567613840103149
5.932328939437866,0.3407328426837921,-1.2743207216262817,1.2218034267425537,0.20720882713794708,-0.1041521206498146,-0.5580720901489258
5.952446937561035,0.34064438939094543,-1.2738254070281982,1.2205760478973389,0.20774883031845093,-0.10344254225492477,-0.5593641996383667
5.972451448440552,0.3405645191669464,-1.273353934288025,1.2194594144821167,0.20830005407333374,-0.10277406871318817,-0.560642421245575
5.992513179779053,0.3405277132987976,-1.2731289863586426,1.2189384698867798,0.20858630537986755,-0.10245887190103531,-0.5612742900848389
6.0126729011535645,0.3404283821582794,-1.2726954221725464,1.2178694009780884,0.2091694176197052,-0.10184022039175034,-0.5625244975090027
6.032700300216675,0.3402929902076721,-1.2722660303115845,1.2167367935180664,0.20973710715770721,-0.10118701308965683,-0.563771665096283
6.0528223514556885,0.3402019143104553,-1.2720566987991333,1.2161201238632202,0.21002152562141418,-0.10085596144199371,-0.5643948912620544
6.072884559631348,0.34000301361083984,-1.2716516256332397,1.2148466110229492,0.21060660481452942,-0.10019618272781372,-0.565636396408081
6.092981576919556,0.339781254529953,-1.2712620496749878,1.2134668827056885,0.21123400330543518,-0.09952504932880402,-0.5668600797653198
6.113048553466797,0.3396926820278168,-1.2710597515106201,1.2127968072891235,0.21155598759651184,-0.09915882349014282,-0.5674653053283691
6.133069753646851,0.33956560492515564,-1.2706423997879028,1.2115126848220825,0.21221813559532166,-0.09837410598993301,-0.5686655044555664
6.153131484985352,0.33950889110565186,-1.2702221870422363,1.21035897731781,0.21289624273777008,-0.09755990654230118,-0.569856584072113
6.173202037811279,0.3394971787929535,-1.2700153589248657,1.2098177671432495,0.2132357954978943,-0.09715214371681213,-0.5704501271247864
6.193289041519165,0.3394867777824402,-1.2696192264556885,1.208816409111023,0.21392524242401123,-0.09637642651796341,-0.5716255903244019
6.213354110717773,0.33947890996932983,-1.269234538078308,1.2078733444213867,0.21462492644786835,-0.0956277847290039,-0.5727807283401489
6.233409643173218,0.33944079279899597,-1.2688679695129395,1.2069379091262817,0.21533644199371338,-0.09491975605487823,-0.5739137530326843
6.253489971160889,0.3393939435482025,-1.2686882019042969,1.2064361572265625,0.2156832367181778,-0.09456732869148254,-0.57447749376297
6.2736828327178955,0.3392523527145386,-1.2683418989181519,1.205417275428772,0.21635407209396362,-0.09388801455497742,-0.5756056904792786
6.293708324432373,0.33906155824661255,-1.2680085897445679,1.204372763633728,0.21700318157672882,-0.09322679787874222,-0.5767374634742737
6.3137829303741455,0.3389647603034973,-1.2678418159484863,1.203849196434021,0.21732817590236664,-0.09289003908634186,-0.5773015022277832
6.333871841430664,0.33878093957901,-1.26749849319458,1.202781081199646,0.2179880440235138,-0.09217644482851028,-0.5784206986427307
6.353902339935303,0.33862560987472534,-1.2671394348144531,1.2016985416412354,0.21867305040359497,-0.09140001982450485,-0.5795297026634216
6.373971939086914,0.33855748176574707,-1.266964316368103,1.2011734247207642,0.21902579069137573,-0.09101314842700958,-0.580083429813385
6.394063949584961,0.33843791484832764,-1.266621708869934,1.2001761198043823,0.21973317861557007,-0.09024319052696228,-0.5811941623687744
6.414178848266602,0.33834806084632874,-1.2662770748138428,1.1992974281311035,0.22042179107666016,-0.08946828544139862,-0.5823021531105042
6.434438705444336,0.3382652997970581,-1.2659155130386353,1.1984667778015137,0.22108927369117737,-0.0886528342962265,-0.5833984613418579
6.454657554626465,0.3382217288017273,-1.2657344341278076,1.1980410814285278,0.22142565250396729,-0.08823437243700027,-0.5839456915855408
6.474774122238159,0.33811110258102417,-1.2653887271881104,1.1971639394760132,0.22211988270282745,-0.08741895109415054,-0.5850368738174438
6.494772911071777,0.3379893898963928,-1.2650578022003174,1.1962616443634033,0.2228533774614334,-0.08661380410194397,-0.5861245393753052
6.5148606300354,0.3379207253456116,-1.2648937702178955,1.1958000659942627,0.22323188185691833,-0.08621436357498169,-0.586663007736206
6.534956455230713,0.3377503752708435,-1.2645686864852905,1.1948089599609375,0.2239902913570404,-0.08541230112314224,-0.5877370238304138
6.554990768432617,0.3375650942325592,-1.2642470598220825,1.1938111782073975,0.22474347054958344,-0.08461572974920273,-0.5888082385063171
6.575102806091309,0.337477445602417,-1.2640891075134277,1.193329930305481,0.22512370347976685,-0.08422323316335678,-0.5893411040306091
6.595234394073486,0.33729708194732666,-1.2637823820114136,1.1923866271972656,0.2258843332529068,-0.08345547318458557,-0.5903978943824768
6.615275859832764,0.3371104598045349,-1.2634878158569336,1.1914663314819336,0.22663894295692444,-0.08270306140184402,-0.5914409160614014
6.635325908660889,0.3370058834552765,-1.2633492946624756,1.1910072565078735,0.22700762748718262,-0.08233807981014252,-0.5919585227966309
6.6554951667785645,0.3367916941642761,-1.263085126876831,1.1901122331619263,0.22773076593875885,-0.08161287754774094,-0.5929903388023376
6.675548791885376,0.3365585207939148,-1.2628467082977295,1.1892091035842896,0.22846072912216187,-0.08091376721858978,-0.5940124988555908
6.695570945739746,0.33631816506385803,-1.262621521949768,1.1882861852645874,0.22921264171600342,-0.08021321147680283,-0.5950181484222412
6.715661525726318,0.33620530366897583,-1.2625075578689575,1.1878372430801392,0.22959262132644653,-0.07985058426856995,-0.5955139398574829
6.735747575759888,0.3359874486923218,-1.2622696161270142,1.186964750289917,0.2303393930196762,-0.07908538728952408,-0.596501886844635
6.7558674812316895,0.3358040452003479,-1.2620140314102173,1.1861536502838135,0.23107968270778656,-0.07826682925224304,-0.5974876284599304
6.775960445404053,0.33571648597717285,-1.2618827819824219,1.185747742652893,0.23145584762096405,-0.07784650474786758,-0.5979777574539185
6.796055555343628,0.3355472981929779,-1.261610984802246,1.1849256753921509,0.23222433030605316,-0.07698382437229156,-0.5989460349082947
6.8161540031433105,0.3353523015975952,-1.2613352537155151,1.1840355396270752,0.23299358785152435,-0.07610258460044861,-0.5999053716659546
6.836233854293823,0.335128515958786,-1.2610840797424316,1.1831207275390625,0.23376718163490295,-0.07526300102472305,-0.6008614301681519
6.856299638748169,0.3350176215171814,-1.2609710693359375,1.182668924331665,0.23415885865688324,-0.07485942542552948,-0.6013385057449341
6.876411199569702,0.33480486273765564,-1.2607767581939697,1.1818182468414307,0.23497161269187927,-0.074098601937294,-0.6022804975509644
6.896440029144287,0.3347007632255554,-1.260685920715332,1.181404709815979,0.2353857457637787,-0.07371709495782852,-0.6027448177337646
6.916520357131958,0.33450064063072205,-1.2604910135269165,1.1806011199951172,0.23620428144931793,-0.07290352135896683,-0.6036642789840698
6.936583042144775,0.33431074023246765,-1.2602665424346924,1.1798124313354492,0.23700515925884247,-0.07201486080884933,-0.6045808792114258
6.956664800643921,0.3342125117778778,-1.2601468563079834,1.1794099807739258,0.23739907145500183,-0.07155495136976242,-0.6050413250923157
6.97674560546875,0.3339877128601074,-1.2599128484725952,1.178572177886963,0.23818457126617432,-0.07065315544605255,-0.6059677004814148
6.996812105178833,0.3337332010269165,-1.2596880197525024,1.1777052879333496,0.23895904421806335,-0.06977802515029907,-0.6068968176841736
7.016901731491089,0.3335112929344177,-1.2594579458236694,1.1769304275512695,0.23972314596176147,-0.06890331208705902,-0.6078182458877563
7.036985874176025,0.3334200978279114,-1.2593404054641724,1.1765846014022827,0.24010896682739258,-0.06846235692501068,-0.6082733869552612
7.057050466537476,0.3332507312297821,-1.2591074705123901,1.1759283542633057,0.24089324474334717,-0.06758306920528412,-0.6091746091842651
7.077232599258423,0.333080917596817,-1.2588777542114258,1.1752506494522095,0.2417004406452179,-0.06669769436120987,-0.6100682616233826
7.097222566604614,0.3329927325248718,-1.2587628364562988,1.1749005317687988,0.24210354685783386,-0.0662509873509407,-0.6105142831802368
7.117445945739746,0.3328166604042053,-1.2585344314575195,1.1742140054702759,0.24290448427200317,-0.06535988301038742,-0.6114014983177185
7.137409925460815,0.33262351155281067,-1.2583013772964478,1.173535943031311,0.24366271495819092,-0.06445787101984024,-0.6122839450836182
7.1574859619140625,0.33251845836639404,-1.2581864595413208,1.1731919050216675,0.24404007196426392,-0.06400895118713379,-0.6127208471298218
7.177720546722412,0.33228862285614014,-1.2579671144485474,1.1724821329116821,0.24481959640979767,-0.06312758475542068,-0.6135892271995544
7.197649002075195,0.3320557177066803,-1.2577688694000244,1.1717582941055298,0.24567531049251556,-0.06228484958410263,-0.6144506931304932
7.217702865600586,0.33193886280059814,-1.257672905921936,1.1713937520980835,0.24611534178256989,-0.06186753883957863,-0.614880383014679
7.237899541854858,0.331723153591156,-1.257476568222046,1.1706840991973877,0.24699343740940094,-0.06101284548640251,-0.6157359480857849
7.257873773574829,0.3315058946609497,-1.257290244102478,1.1700042486190796,0.24785232543945312,-0.06016523018479347,-0.6165854334831238
7.2779295444488525,0.331288605928421,-1.2571128606796265,1.169379472732544,0.2486804574728012,-0.05932087078690529,-0.6174333095550537
7.298009395599365,0.3311750888824463,-1.25702702999115,1.169082760810852,0.24908462166786194,-0.058902282267808914,-0.617855966091156
7.318089485168457,0.33094945549964905,-1.2568531036376953,1.168519377708435,0.2498960942029953,-0.05806077644228935,-0.6186923384666443
7.338126182556152,0.33070245385169983,-1.2566978931427002,1.1679847240447998,0.2507505714893341,-0.05727766081690788,-0.6195067763328552
7.358251333236694,0.33057576417922974,-1.2566251754760742,1.1677230596542358,0.25118789076805115,-0.05689673870801926,-0.619907796382904
7.3783791065216064,0.33033379912376404,-1.2564772367477417,1.1672087907791138,0.25205036997795105,-0.05610907822847366,-0.6207083463668823
7.398374795913696,0.33012399077415466,-1.2563105821609497,1.1666995286941528,0.2528863549232483,-0.05523882061243057,-0.6215129494667053
7.418535232543945,0.3300272524356842,-1.256218671798706,1.1664130687713623,0.2533024549484253,-0.0547645203769207,-0.6219177842140198
7.43864369392395,0.32980141043663025,-1.2560343742370605,1.1657049655914307,0.2541429102420807,-0.0537814237177372,-0.6227275729179382
7.458625078201294,0.32954731583595276,-1.255852222442627,1.1648143529891968,0.25499624013900757,-0.0527493953704834,-0.6235376000404358
7.478803634643555,0.32941392064094543,-1.2557704448699951,1.1643648147583008,0.25542446970939636,-0.0522456020116806,-0.6239408254623413
7.498814821243286,0.32917818427085876,-1.2556182146072388,1.1635493040084839,0.2562885880470276,-0.051247064024209976,-0.6247435212135315
7.5189149379730225,0.3289753794670105,-1.2554807662963867,1.1629481315612793,0.25714725255966187,-0.050302304327487946,-0.6255323886871338
7.538950443267822,0.3288832902908325,-1.2554123401641846,1.1627150774002075,0.25757482647895813,-0.04984123632311821,-0.6259189248085022
7.5590550899505615,0.32870158553123474,-1.2552789449691772,1.1623607873916626,0.2584366500377655,-0.048958223313093185,-0.6266753673553467
7.57909893989563,0.328489750623703,-1.2551616430282593,1.1620509624481201,0.25931042432785034,-0.04812852293252945,-0.627418041229248
7.599210977554321,0.3283618986606598,-1.2551116943359375,1.1618719100952148,0.25975292921066284,-0.04772971570491791,-0.6277879476547241
7.6192710399627686,0.3280627727508545,-1.2550257444381714,1.1614344120025635,0.26063498854637146,-0.04694192484021187,-0.62852942943573
7.639322280883789,0.32772186398506165,-1.2549471855163574,1.160873532295227,0.26152554154396057,-0.04613395780324936,-0.6292728185653687
7.6594462394714355,0.32754912972450256,-1.2548999786376953,1.1605583429336548,0.26196587085723877,-0.04569962993264198,-0.6296457052230835
7.679553508758545,0.3271934390068054,-1.254796028137207,1.159900426864624,0.26282718777656555,-0.044804785400629044,-0.6303911209106445
7.699576377868652,0.3268369436264038,-1.2546899318695068,1.1592645645141602,0.26365768909454346,-0.04390450567007065,-0.6311336159706116
7.719656467437744,0.3264763653278351,-1.2546038627624512,1.1586759090423584,0.26448649168014526,-0.043044622987508774,-0.6318695545196533
7.739819049835205,0.3262907862663269,-1.2545682191848755,1.1583824157714844,0.26490816473960876,-0.042626239359378815,-0.632235050201416
7.7598350048065186,0.3259091079235077,-1.2545007467269897,1.157769799232483,0.26576754450798035,-0.04178745672106743,-0.6329625248908997
7.779935598373413,0.32551345229148865,-1.2544316053390503,1.157143235206604,0.2666265666484833,-0.04094202443957329,-0.6336860656738281
7.800102949142456,0.3253183960914612,-1.25439453125,1.1568405628204346,0.2670508325099945,-0.04051217436790466,-0.6340470314025879
7.8201072216033936,0.32494789361953735,-1.254310131072998,1.1562609672546387,0.2678970396518707,-0.03962366282939911,-0.6347689628601074
7.840216159820557,0.32460761070251465,-1.2542130947113037,1.1556973457336426,0.26877066493034363,-0.038700852543115616,-0.6354910135269165
7.860232830047607,0.3242906928062439,-1.2541069984436035,1.1551332473754883,0.26967141032218933,-0.03776170313358307,-0.6362127065658569
7.8803558349609375,0.3241316080093384,-1.2540569305419922,1.1548525094985962,0.2701222002506256,-0.037302132695913315,-0.6365727186203003
7.9004716873168945,0.3238106369972229,-1.2539629936218262,1.1542903184890747,0.27101993560791016,-0.03639799356460571,-0.6372884511947632
7.920558452606201,0.3234999477863312,-1.2538673877716064,1.1537485122680664,0.27191242575645447,-0.035489555448293686,-0.6379945874214172
7.94063663482666,0.32335734367370605,-1.2538173198699951,1.153493046760559,0.27236056327819824,-0.035026323050260544,-0.6383435726165771
7.96079683303833,0.32310548424720764,-1.253706693649292,1.1530157327651978,0.27324575185775757,-0.034058209508657455,-0.6390385031700134
7.980870246887207,0.3228796422481537,-1.2535938024520874,1.1526001691818237,0.27411654591560364,-0.033072203397750854,-0.6397296190261841
8.000925779342651,0.32266202569007874,-1.2534815073013306,1.1522389650344849,0.2749844789505005,-0.032092105597257614,-0.640411376953125
8.021035194396973,0.32254940271377563,-1.2534300088882446,1.1520720720291138,0.27542397379875183,-0.03161773458123207,-0.6407467126846313
8.04106330871582,0.32231053709983826,-1.253340482711792,1.1517088413238525,0.27631959319114685,-0.030685769394040108,-0.6414104104042053
8.061113119125366,0.3220486342906952,-1.253273367881775,1.1513184309005737,0.277222603559494,-0.02977847494184971,-0.6420685648918152
8.081243515014648,0.32190075516700745,-1.2532525062561035,1.151117205619812,0.2776760458946228,-0.029345516115427017,-0.6423940658569336
8.10136342048645,0.3215875029563904,-1.2532129287719727,1.1507004499435425,0.2785761058330536,-0.028468254953622818,-0.6430386900901794
8.121389150619507,0.3212536871433258,-1.2531706094741821,1.1502485275268555,0.2794698476791382,-0.027565039694309235,-0.6436732411384583
8.141456127166748,0.3210820257663727,-1.2531450986862183,1.1500214338302612,0.2799043357372284,-0.02709868736565113,-0.6439885497093201
8.161615133285522,0.32072991132736206,-1.2531014680862427,1.1495838165283203,0.2807687222957611,-0.02617581933736801,-0.644615113735199
8.181649446487427,0.3203549385070801,-1.2530797719955444,1.149166226387024,0.28164592385292053,-0.025296691805124283,-0.6452381014823914
8.20171070098877,0.31999561190605164,-1.2530767917633057,1.1487547159194946,0.2825671434402466,-0.024430489167571068,-0.6458571553230286
8.221864938735962,0.3198109567165375,-1.253082036972046,1.148550271987915,0.28303319215774536,-0.024005521088838577,-0.6461660861968994
8.241925716400146,0.31944891810417175,-1.25308358669281,1.1481413841247559,0.2839622497558594,-0.02312324568629265,-0.6467846632003784
8.261994361877441,0.31906938552856445,-1.2530747652053833,1.1477406024932861,0.2848799228668213,-0.022233227267861366,-0.6474021077156067
8.28208875656128,0.3188942074775696,-1.2530593872070312,1.1475443840026855,0.2853420674800873,-0.021764550358057022,-0.6477090120315552
8.30215859413147,0.31855839490890503,-1.2530231475830078,1.1471706628799438,0.28626394271850586,-0.020816368982195854,-0.6483194231987
8.322219848632812,0.3182397186756134,-1.2529754638671875,1.1468360424041748,0.28715312480926514,-0.019841251894831657,-0.6489285230636597
8.342466354370117,0.3180745244026184,-1.2529518604278564,1.1466740369796753,0.2875855267047882,-0.019355276599526405,-0.6492329239845276
8.362709522247314,0.3177168369293213,-1.2529183626174927,1.1463398933410645,0.2884500026702881,-0.01841585896909237,-0.6498374342918396
8.382660627365112,0.317293256521225,-1.252913236618042,1.145939588546753,0.2893185019493103,-0.01753002218902111,-0.6504361629486084
8.402863264083862,0.3168278634548187,-1.2529188394546509,1.1454955339431763,0.29018595814704895,-0.01665680855512619,-0.6510254740715027
8.422947406768799,0.3165980577468872,-1.2529176473617554,1.1452680826187134,0.2906205952167511,-0.01620429754257202,-0.6513180732727051
8.443045854568481,0.31618183851242065,-1.2529113292694092,1.144837737083435,0.29152441024780273,-0.015272763557732105,-0.6518983840942383
8.463130235671997,0.3158325254917145,-1.2528976202011108,1.1444584131240845,0.29245877265930176,-0.014295535162091255,-0.6524826884269714
8.483196496963501,0.315674751996994,-1.2528876066207886,1.1442811489105225,0.29293400049209595,-0.013792533427476883,-0.6527777314186096
8.50326919555664,0.31538742780685425,-1.252846360206604,1.1439125537872314,0.29388564825057983,-0.012726890854537487,-0.6533743739128113
8.523374319076538,0.31515705585479736,-1.2527821063995361,1.1434962749481201,0.29486823081970215,-0.011578144505620003,-0.6539741158485413
8.544069528579712,0.31505781412124634,-1.2527495622634888,1.143284797668457,0.29537269473075867,-0.010994653217494488,-0.6542711853981018
8.564201593399048,0.31489014625549316,-1.2526803016662598,1.1428838968276978,0.29639455676078796,-0.009805381298065186,-0.6548592448234558
8.58423137664795,0.31470295786857605,-1.2526133060455322,1.1425457000732422,0.2973933517932892,-0.008645830675959587,-0.6554397940635681
8.604309558868408,0.3146030604839325,-1.252577781677246,1.1423921585083008,0.29787904024124146,-0.008067749440670013,-0.6557295322418213
8.62437129020691,0.31436285376548767,-1.2525185346603394,1.1421345472335815,0.2988159954547882,-0.006968025118112564,-0.6563048958778381
8.644474506378174,0.31404909491539,-1.2524909973144531,1.1418861150741577,0.2997284233570099,-0.005959543399512768,-0.6568732261657715
8.664545774459839,0.3136724829673767,-1.2524938583374023,1.1416252851486206,0.30064651370048523,-0.005031747277826071,-0.6574322581291199
8.68464732170105,0.3134711682796478,-1.252502679824829,1.1414786577224731,0.3011140823364258,-0.004580926150083542,-0.6577097177505493
8.704732179641724,0.3130685091018677,-1.2525231838226318,1.1411867141723633,0.3020494878292084,-0.003677911125123501,-0.658261775970459
8.724976539611816,0.31266433000564575,-1.2525391578674316,1.140900731086731,0.3029574155807495,-0.0027513362001627684,-0.6588143110275269
8.745142936706543,0.31246891617774963,-1.2525420188903809,1.1407722234725952,0.3034033477306366,-0.0022752939257770777,-0.6590892672538757
8.765187978744507,0.3120690584182739,-1.2525489330291748,1.140525221824646,0.3042927384376526,-0.0013255071826279163,-0.6596350073814392
8.78522539138794,0.31166401505470276,-1.2525569200515747,1.1402946710586548,0.30518481135368347,-0.00037913236883468926,-0.6601768136024475
8.805302858352661,0.31145957112312317,-1.2525625228881836,1.1401796340942383,0.30563613772392273,9.054428664967418e-05,-0.6604459285736084
8.825366735458374,0.3110479414463043,-1.2525811195373535,1.1399478912353516,0.3065493702888489,0.001015681540593505,-0.660980761051178
8.84551215171814,0.31062063574790955,-1.2526217699050903,1.1397223472595215,0.3074837028980255,0.0018922160379588604,-0.6615025997161865
8.865559339523315,0.31039389967918396,-1.25265371799469,1.1396152973175049,0.30795446038246155,0.002305719768628478,-0.661757230758667
8.885697364807129,0.30993661284446716,-1.2527226209640503,1.1394282579421997,0.30889198184013367,0.003129510208964348,-0.662256121635437
8.90581226348877,0.30947718024253845,-1.252785086631775,1.1392403841018677,0.30981579422950745,0.003988491836935282,-0.6627503037452698
8.92593765258789,0.3092546761035919,-1.2528066635131836,1.13913094997406,0.3102765679359436,0.004449717700481415,-0.6629985570907593
8.946057796478271,0.30882659554481506,-1.2528308629989624,1.138878345489502,0.3111970126628876,0.005429384298622608,-0.6634986400604248
8.966222047805786,0.3084302544593811,-1.2528432607650757,1.1386150121688843,0.31211891770362854,0.006457700859755278,-0.6639991998672485
8.986319541931152,0.3082420229911804,-1.2528514862060547,1.1384878158569336,0.3125785291194916,0.00697892252355814,-0.66424959897995
9.006454706192017,0.30789297819137573,-1.252867341041565,1.138248085975647,0.31350603699684143,0.008043719455599785,-0.6647470593452454
9.026415586471558,0.3075583279132843,-1.2528743743896484,1.138002872467041,0.3144438862800598,0.00913557130843401,-0.6652413010597229
9.046497106552124,0.30739453434944153,-1.2528715133666992,1.1378859281539917,0.3149096369743347,0.009691105224192142,-0.6654880046844482
9.0665864944458,0.3070516586303711,-1.2528653144836426,1.1376543045043945,0.31582972407341003,0.010791429318487644,-0.6659814119338989
9.086673259735107,0.3066995441913605,-1.2528668642044067,1.1374167203903198,0.31675755977630615,0.011872383765876293,-0.6664713025093079
9.10678482055664,0.3065134882926941,-1.2528773546218872,1.1372867822647095,0.31723108887672424,0.012393292970955372,-0.6667136549949646
9.12696361541748,0.30611908435821533,-1.2529164552688599,1.137017846107483,0.3181888461112976,0.013394908979535103,-0.6671923398971558
9.147031545639038,0.3057076632976532,-1.252964973449707,1.136757493019104,0.31914108991622925,0.014377668499946594,-0.6676658391952515
9.167155742645264,0.3055078983306885,-1.2529860734939575,1.1366324424743652,0.31961655616760254,0.014880124479532242,-0.6679009795188904
9.187273025512695,0.30513814091682434,-1.2530184984207153,1.1363823413848877,0.32057860493659973,0.015926694497466087,-0.6683698296546936
9.207306623458862,0.30477145314216614,-1.2530553340911865,1.1361256837844849,0.321551650762558,0.01697811484336853,-0.6688383221626282
9.227396726608276,0.3045867383480072,-1.2530710697174072,1.1359941959381104,0.322035014629364,0.01751135103404522,-0.6690741181373596
9.24746322631836,0.30420050024986267,-1.2531026601791382,1.1357463598251343,0.3229827284812927,0.018565714359283447,-0.669547975063324
9.267656326293945,0.30382001399993896,-1.253124713897705,1.135550618171692,0.3239087164402008,0.01961909979581833,-0.6700195670127869
9.287746667861938,0.30362221598625183,-1.2531403303146362,1.1354639530181885,0.3243722915649414,0.02012650854885578,-0.67025226354599
9.307814121246338,0.30321699380874634,-1.253186583518982,1.1353237628936768,0.32531386613845825,0.021091468632221222,-0.6707082986831665
9.327862739562988,0.30280131101608276,-1.2532466650009155,1.1351945400238037,0.326277494430542,0.0220202449709177,-0.6711528301239014
9.34797215461731,0.302589476108551,-1.25327730178833,1.1351314783096313,0.3267567455768585,0.02248448319733143,-0.6713734865188599
9.368108749389648,0.3021661341190338,-1.2533234357833862,1.1349725723266602,0.32769909501075745,0.023461487144231796,-0.671818733215332
9.388107299804688,0.3017459213733673,-1.2533597946166992,1.1347687244415283,0.32862335443496704,0.024485401809215546,-0.6722725033760071
9.408183336257935,0.30154141783714294,-1.2533818483352661,1.1346551179885864,0.3290926218032837,0.025000136345624924,-0.6724995374679565
9.428300142288208,0.3011351227760315,-1.2534490823745728,1.1344259977340698,0.33004534244537354,0.026004284620285034,-0.6729500889778137
9.44835376739502,0.30073368549346924,-1.2535406351089478,1.13420832157135,0.3310248553752899,0.026985207572579384,-0.673391580581665
9.468532085418701,0.30053427815437317,-1.2535854578018188,1.1341149806976318,0.3315129280090332,0.02748010866343975,-0.6736090779304504
9.488613843917847,0.3001420497894287,-1.2536554336547852,1.1339524984359741,0.33248040080070496,0.02850291132926941,-0.6740385293960571
9.508635759353638,0.2997550070285797,-1.2537028789520264,1.1338410377502441,0.33342254161834717,0.029548782855272293,-0.6744650602340698
9.528735160827637,0.29936015605926514,-1.2537487745285034,1.1337549686431885,0.33434927463531494,0.03058449923992157,-0.6748918890953064
9.548824787139893,0.29915669560432434,-1.2537760734558105,1.1337063312530518,0.33481621742248535,0.03109404444694519,-0.6751050353050232
9.568881750106812,0.2987150549888611,-1.2538453340530396,1.1335575580596924,0.3357679545879364,0.032081782817840576,-0.6755306124687195
9.589002132415771,0.29848530888557434,-1.2538836002349854,1.1334635019302368,0.33624958992004395,0.03256954997777939,-0.6757434606552124
9.60908317565918,0.2980280816555023,-1.2539572715759277,1.1332581043243408,0.3372074365615845,0.03356202319264412,-0.6761718392372131
9.62916898727417,0.29759499430656433,-1.2540291547775269,1.133062481880188,0.3381686210632324,0.03457473963499069,-0.6765983700752258
9.649241924285889,0.29739734530448914,-1.2540581226348877,1.1329747438430786,0.33865469694137573,0.03510436788201332,-0.6768100261688232
9.669373273849487,0.2970212996006012,-1.2540982961654663,1.1328179836273193,0.3396338224411011,0.03619741275906563,-0.6772312521934509
9.689428329467773,0.29666703939437866,-1.254103660583496,1.1326910257339478,0.340590238571167,0.037348099052906036,-0.6776560544967651
9.709660291671753,0.2964915931224823,-1.2541006803512573,1.1326262950897217,0.3410615622997284,0.037931740283966064,-0.6778704524040222
9.729811429977417,0.2961324453353882,-1.2541000843048096,1.1324774026870728,0.34200918674468994,0.03908246383070946,-0.6782986521720886
9.749786138534546,0.2957583963871002,-1.2541073560714722,1.132297396659851,0.34296736121177673,0.04021160677075386,-0.678724467754364
9.769903898239136,0.2955615818500519,-1.2541134357452393,1.1322015523910522,0.3434455990791321,0.04076354205608368,-0.6789361834526062
9.789986371994019,0.2951751947402954,-1.254123568534851,1.1320401430130005,0.3443942368030548,0.04185879975557327,-0.6793575286865234
9.81004023551941,0.2948392629623413,-1.2541276216506958,1.1320008039474487,0.34534332156181335,0.04294121637940407,-0.6797720789909363
9.830129146575928,0.294691264629364,-1.2541263103485107,1.1320326328277588,0.3458147346973419,0.04348011314868927,-0.6799759864807129
9.85027527809143,0.29441115260124207,-1.2541183233261108,1.1321243047714233,0.3467535376548767,0.044567301869392395,-0.6803781986236572
9.870305299758911,0.2941029369831085,-1.2541202306747437,1.132145643234253,0.34769633412361145,0.04564928635954857,-0.6807771921157837
9.890397071838379,0.29393091797828674,-1.254130482673645,1.132112979888916,0.3481763005256653,0.04617951065301895,-0.680976152420044
9.910560846328735,0.2935488522052765,-1.254172682762146,1.1319862604141235,0.34913432598114014,0.0472138449549675,-0.6813743114471436
9.930558204650879,0.293122261762619,-1.2542333602905273,1.1317850351333618,0.3500816822052002,0.04823949933052063,-0.6817706227302551
9.950638055801392,0.2928983271121979,-1.2542672157287598,1.1316717863082886,0.35055387020111084,0.048750922083854675,-0.6819673180580139
9.970701694488525,0.2924477159976959,-1.254333257675171,1.1314539909362793,0.35151126980781555,0.04977226257324219,-0.6823563575744629
9.99083137512207,0.29200008511543274,-1.2543953657150269,1.1312661170959473,0.3524804711341858,0.050783105194568634,-0.6827434301376343
10.011070966720581,0.29177314043045044,-1.2544314861297607,1.1311780214309692,0.352967232465744,0.051274966448545456,-0.6829363703727722
10.031097650527954,0.2913028597831726,-1.2545195817947388,1.1310069561004639,0.3539316654205322,0.052226126194000244,-0.6833216547966003
10.051388502120972,0.2910618185997009,-1.2545710802078247,1.1309292316436768,0.3544014096260071,0.05269274860620499,-0.6835142970085144
10.071535110473633,0.2905738651752472,-1.2546836137771606,1.1307930946350098,0.35531914234161377,0.05362401530146599,-0.68389892578125
10.091562747955322,0.2900993525981903,-1.2547838687896729,1.1306815147399902,0.356212854385376,0.054604195058345795,-0.6842827796936035
10.11166000366211,0.2898712158203125,-1.2548264265060425,1.1306241750717163,0.3566664457321167,0.0551149807870388,-0.6844727396965027
10.131775617599487,0.289433091878891,-1.254889726638794,1.1304987668991089,0.35759133100509644,0.05618084967136383,-0.684848964214325
10.151806116104126,0.2890111804008484,-1.2549479007720947,1.1303379535675049,0.3585638999938965,0.05726316571235657,-0.6852224469184875
10.17190670967102,0.2887937128543854,-1.2549872398376465,1.130245327949524,0.3590640425682068,0.05778529867529869,-0.6854090690612793
10.19198727607727,0.2883361577987671,-1.2550866603851318,1.1300568580627441,0.3600612282752991,0.05878898501396179,-0.6857842803001404
10.212037324905396,0.28786465525627136,-1.2551887035369873,1.1298938989639282,0.36101582646369934,0.05979062616825104,-0.6861631870269775
10.232321500778198,0.28763729333877563,-1.2552297115325928,1.1298226118087769,0.3614793121814728,0.0603150874376297,-0.686353325843811
10.252506494522095,0.28719815611839294,-1.2553006410598755,1.1296802759170532,0.36240696907043457,0.06139468774199486,-0.6867318749427795
10.272525548934937,0.2867621183395386,-1.2553784847259521,1.1295192241668701,0.3633612394332886,0.06246541440486908,-0.6871049404144287
10.292625665664673,0.28653621673583984,-1.2554268836975098,1.1294375658035278,0.36384209990501404,0.0629824697971344,-0.6872897744178772
10.312730073928833,0.2860824167728424,-1.255526065826416,1.1292827129364014,0.3647962510585785,0.06401731073856354,-0.6876581311225891
10.33279824256897,0.285629540681839,-1.2556185722351074,1.1291358470916748,0.36574116349220276,0.0650702491402626,-0.688024640083313
10.352970361709595,0.2851994037628174,-1.255692958831787,1.1289767026901245,0.3667004406452179,0.06616859138011932,-0.6883885860443115
10.373087644577026,0.28499743342399597,-1.255727767944336,1.1288938522338867,0.3671927750110626,0.06672808527946472,-0.6885697841644287
10.393264770507812,0.28461670875549316,-1.2557910680770874,1.1287468671798706,0.36818191409111023,0.06786195933818817,-0.688931405544281
10.413285970687866,0.28425323963165283,-1.2558432817459106,1.1286731958389282,0.36914047598838806,0.06900036334991455,-0.689291775226593
10.433388471603394,0.2840765118598938,-1.2558627128601074,1.128649353981018,0.36960741877555847,0.06958182901144028,-0.6894720196723938
10.453481197357178,0.28374093770980835,-1.2558985948562622,1.1286256313323975,0.3705451786518097,0.07075416296720505,-0.689831018447876
10.473510026931763,0.28341472148895264,-1.255953073501587,1.1286208629608154,0.3715039789676666,0.07189959287643433,-0.6901887059211731
10.493692636489868,0.28323858976364136,-1.2559924125671387,1.1286308765411377,0.37198445200920105,0.07244013994932175,-0.6903653740882874
10.513872623443604,0.2828519642353058,-1.256083369255066,1.1286258697509766,0.3729431927204132,0.07349137216806412,-0.6907142400741577
10.533862352371216,0.2824231684207916,-1.2561854124069214,1.128557562828064,0.37390804290771484,0.07452218979597092,-0.6910549402236938
10.55397629737854,0.2819640338420868,-1.2562979459762573,1.1284589767456055,0.37487030029296875,0.07553291320800781,-0.691389262676239
10.574130058288574,0.2817242443561554,-1.2563583850860596,1.1284157037734985,0.3753412961959839,0.07602708786725998,-0.6915551424026489
10.594301462173462,0.28124111890792847,-1.2564736604690552,1.1283401250839233,0.3762674331665039,0.07702336460351944,-0.6918855905532837
10.614429235458374,0.281003475189209,-1.2565263509750366,1.1283023357391357,0.3767293691635132,0.07753218710422516,-0.692050039768219
10.634421348571777,0.280531108379364,-1.2566298246383667,1.1282151937484741,0.37766626477241516,0.07855348289012909,-0.6923754215240479
10.654464483261108,0.28005486726760864,-1.2567442655563354,1.1281213760375977,0.37861335277557373,0.07955840975046158,-0.6926963329315186
10.674554109573364,0.27981314063072205,-1.256811261177063,1.1280766725540161,0.3790874183177948,0.08004745095968246,-0.6928551197052002
10.694626808166504,0.2793346643447876,-1.2569586038589478,1.1279841661453247,0.38004642724990845,0.08102120459079742,-0.6931684613227844
10.714681625366211,0.2788746953010559,-1.2571049928665161,1.1278797388076782,0.3810281455516815,0.08202323317527771,-0.6934769153594971
10.734815835952759,0.27866414189338684,-1.257168173789978,1.1278364658355713,0.3815261423587799,0.08255066722631454,-0.6936310529708862
10.75491189956665,0.2782817482948303,-1.2572723627090454,1.1277884244918823,0.3825267553329468,0.08365017920732498,-0.6939429640769958
10.775010108947754,0.2779487669467926,-1.257348656654358,1.127783179283142,0.3835209310054779,0.08481048792600632,-0.6942604780197144
10.795224666595459,0.2777917683124542,-1.2573802471160889,1.127792477607727,0.38401326537132263,0.08540239930152893,-0.6944193243980408
10.81534743309021,0.27748408913612366,-1.257436752319336,1.1278131008148193,0.38499143719673157,0.0865984782576561,-0.6947346925735474
10.83549952507019,0.2771553099155426,-1.2574985027313232,1.1278448104858398,0.3859671652317047,0.08776053786277771,-0.695044994354248
10.855507612228394,0.2767791748046875,-1.2575695514678955,1.1278445720672607,0.38692906498908997,0.08889027684926987,-0.6953582167625427
10.87558102607727,0.2765737473964691,-1.25760817527771,1.12783682346344,0.3874031901359558,0.0894433930516243,-0.6955170631408691
10.895823001861572,0.2761232554912567,-1.2577037811279297,1.1278082132339478,0.3883496820926666,0.09049706161022186,-0.6958381533622742
10.915785074234009,0.2756429612636566,-1.2578239440917969,1.1277852058410645,0.38931089639663696,0.09148016571998596,-0.6961563229560852
10.93584942817688,0.27539342641830444,-1.2578959465026855,1.1277788877487183,0.3897930979728699,0.0919443666934967,-0.696313202381134
10.955944538116455,0.2748892903327942,-1.2580475807189941,1.1277803182601929,0.39074355363845825,0.09286253154277802,-0.6966243386268616
10.975997924804688,0.27438467741012573,-1.258198857307434,1.1277856826782227,0.3916824460029602,0.09379138052463531,-0.6969320774078369
10.996061563491821,0.274139940738678,-1.2582656145095825,1.1277797222137451,0.3921504318714142,0.09428053349256516,-0.6970849633216858
11.016212224960327,0.27366122603416443,-1.25838303565979,1.127746343612671,0.3930853009223938,0.09530039876699448,-0.6973885893821716
11.036328792572021,0.27318310737609863,-1.2584939002990723,1.1276878118515015,0.3940151333808899,0.09634498506784439,-0.6976900100708008
11.056488275527954,0.2727072834968567,-1.25861394405365,1.1276159286499023,0.394957959651947,0.09738495200872421,-0.6979864835739136
11.076553106307983,0.2724677622318268,-1.2586798667907715,1.1275756359100342,0.3954360783100128,0.09789629280567169,-0.6981322169303894
11.09660029411316,0.2720061242580414,-1.2588154077529907,1.127488374710083,0.3964104652404785,0.0989290252327919,-0.698418915271759
11.116682529449463,0.2717859745025635,-1.2588802576065063,1.1274439096450806,0.39690032601356506,0.09946054220199585,-0.6985610723495483
11.136801958084106,0.27138179540634155,-1.2589930295944214,1.12734854221344,0.3978864848613739,0.10058249533176422,-0.6988447308540344
11.156859636306763,0.2710166275501251,-1.259078025817871,1.127262830734253,0.3988630175590515,0.10177721828222275,-0.6991308927536011
11.17689847946167,0.2706935703754425,-1.2591440677642822,1.1272268295288086,0.3998342752456665,0.10301058739423752,-0.6994215846061707
11.196982860565186,0.2705408036708832,-1.2591781616210938,1.127238392829895,0.4003196954727173,0.10361846536397934,-0.699567973613739
11.217060089111328,0.2702350914478302,-1.2592560052871704,1.1272971630096436,0.401299387216568,0.10479855537414551,-0.6998594999313354
11.237112283706665,0.26986828446388245,-1.2593574523925781,1.1273531913757324,0.40226730704307556,0.10589581727981567,-0.7001465559005737
11.257241249084473,0.26965460181236267,-1.2594162225723267,1.12736976146698,0.40274518728256226,0.10641377419233322,-0.7002883553504944
11.277283191680908,0.26917198300361633,-1.2595595121383667,1.1273809671401978,0.4036996364593506,0.10737758874893188,-0.7005675435066223
11.297342300415039,0.2686314284801483,-1.2597373723983765,1.127355933189392,0.40467312932014465,0.10825565457344055,-0.700838565826416
11.317451000213623,0.26834794878959656,-1.2598336935043335,1.127332329750061,0.40516039729118347,0.10868019610643387,-0.7009714841842651
11.337515592575073,0.26779410243034363,-1.260013461112976,1.1272844076156616,0.4061240255832672,0.10956734418869019,-0.7012366056442261
11.357643127441406,0.26728305220603943,-1.2601604461669922,1.1272612810134888,0.4070635437965393,0.11053558439016342,-0.701504647731781
11.377677917480469,0.2670426368713379,-1.260223150253296,1.1272552013397217,0.4075246751308441,0.11104921996593475,-0.7016405463218689
11.397749900817871,0.26656898856163025,-1.2603411674499512,1.1272244453430176,0.40844830870628357,0.11210062354803085,-0.7019141316413879
11.417791366577148,0.266103059053421,-1.260450839996338,1.1271709203720093,0.40936627984046936,0.11318556219339371,-0.7021936178207397
11.437896251678467,0.26587867736816406,-1.260501742362976,1.1271412372589111,0.40982428193092346,0.11374276876449585,-0.7023357152938843
11.458073377609253,0.2654416859149933,-1.2606004476547241,1.1270809173583984,0.4107417166233063,0.11486930400133133,-0.7026223540306091
11.478055715560913,0.26501113176345825,-1.2606927156448364,1.1270151138305664,0.41166964173316956,0.11600099503993988,-0.7029072642326355
11.498672246932983,0.2647901773452759,-1.2607382535934448,1.126976490020752,0.4121411144733429,0.11655744910240173,-0.7030476927757263
11.518730640411377,0.26434582471847534,-1.2608267068862915,1.1269006729125977,0.4130799472332001,0.11766543984413147,-0.7033274173736572
11.538856506347656,0.2638814449310303,-1.2609379291534424,1.126834511756897,0.41400957107543945,0.11872238665819168,-0.7036054730415344
11.558974981307983,0.26364174485206604,-1.261002540588379,1.1268079280853271,0.4144679307937622,0.11923399567604065,-0.7037439346313477
11.579139471054077,0.2631593942642212,-1.2611358165740967,1.1267571449279785,0.41538456082344055,0.1202533096075058,-0.7040182948112488
11.599196672439575,0.26270246505737305,-1.2612642049789429,1.1267049312591553,0.41630983352661133,0.12131042033433914,-0.7042908668518066
11.619232177734375,0.26249176263809204,-1.261328935623169,1.1267000436782837,0.41678059101104736,0.12184588611125946,-0.7044265866279602
11.639348030090332,0.2620862126350403,-1.261460304260254,1.1267224550247192,0.41773295402526855,0.12291602045297623,-0.7046953439712524
11.659381866455078,0.2617027163505554,-1.2615740299224854,1.1267553567886353,0.41869840025901794,0.12401817739009857,-0.7049601078033447
11.679518222808838,0.2615048289299011,-1.2616221904754639,1.1267540454864502,0.4191756546497345,0.12458273768424988,-0.7050914168357849
11.69968318939209,0.2610889673233032,-1.2617164850234985,1.1267379522323608,0.4201076626777649,0.12570753693580627,-0.7053539752960205
11.719688653945923,0.26061373949050903,-1.2618404626846313,1.1267231702804565,0.42102327942848206,0.1267426609992981,-0.7056119441986084
11.73977279663086,0.2603594958782196,-1.2619152069091797,1.1267142295837402,0.42148372530937195,0.12722817063331604,-0.705737829208374
11.759795427322388,0.2598342001438141,-1.262080430984497,1.1266828775405884,0.4224211275577545,0.1281636506319046,-0.7059818506240845
11.779853820800781,0.25931599736213684,-1.26224684715271,1.1266441345214844,0.4233682453632355,0.12910600006580353,-0.7062197327613831
11.799962520599365,0.25906825065612793,-1.262330412864685,1.1266343593597412,0.4238432049751282,0.12958486378192902,-0.7063379287719727
11.820094585418701,0.2586003839969635,-1.262495756149292,1.126648187637329,0.4247930645942688,0.1305602788925171,-0.706574022769928
11.840336799621582,0.2581741213798523,-1.2626473903656006,1.1266764402389526,0.42575541138648987,0.13158577680587769,-0.7068080306053162
11.860455989837646,0.25797444581985474,-1.262713074684143,1.1266798973083496,0.4262436628341675,0.1321256160736084,-0.7069236636161804
11.880496501922607,0.25760534405708313,-1.2628231048583984,1.1266535520553589,0.4272359609603882,0.13326573371887207,-0.7071533203125
11.900612592697144,0.25724169611930847,-1.262923240661621,1.1266067028045654,0.4282252788543701,0.13442684710025787,-0.7073826193809509
11.920757532119751,0.2570573091506958,-1.2629718780517578,1.126583456993103,0.4287114441394806,0.13500761985778809,-0.70749831199646
11.940910816192627,0.25667357444763184,-1.263070821762085,1.1265387535095215,0.42966219782829285,0.13615746796131134,-0.7077328562736511
11.960896492004395,0.25628119707107544,-1.2631691694259644,1.1265076398849487,0.4305869936943054,0.13730178773403168,-0.7079732418060303
11.981006145477295,0.25607529282569885,-1.2632209062576294,1.1264950037002563,0.43104416131973267,0.13786101341247559,-0.7080948948860168
12.001240968704224,0.25565004348754883,-1.2633249759674072,1.126481056213379,0.43195849657058716,0.13895364105701447,-0.7083389163017273
12.021234512329102,0.2552143931388855,-1.2634443044662476,1.126522421836853,0.4328728914260864,0.13998374342918396,-0.7085844278335571
12.04130744934082,0.24312584102153778,-1.2618883848190308,1.1257636547088623,0.4292278289794922,0.13689622282981873,-0.7081203460693359
12.061366319656372,0.21917438507080078,-1.2587937116622925,1.1242531538009644,0.4220454692840576,0.13078239560127258,-0.7072117924690247
12.081474542617798,0.19560950994491577,-1.2557495832443237,1.122634768486023,0.41507771611213684,0.12482322752475739,-0.7063283324241638
12.101660251617432,0.18403871357440948,-1.254256248474121,1.1217477321624756,0.4116872251033783,0.12196552008390427,-0.7059016823768616
12.121718406677246,0.16142749786376953,-1.2513502836227417,1.1197375059127808,0.40509599447250366,0.11659035086631775,-0.705096960067749
12.141775846481323,0.13976329565048218,-1.2485905885696411,1.1173114776611328,0.3987630009651184,0.11188735067844391,-0.7043842077255249
12.16193962097168,0.12935884296894073,-1.2472800016403198,1.1159110069274902,0.3956955373287201,0.10985221713781357,-0.7040697336196899
12.182038307189941,0.10948881506919861,-1.2448228597640991,1.1127604246139526,0.38976365327835083,0.10643069446086884,-0.7035275101661682
12.202040672302246,0.09087933599948883,-1.2425984144210815,1.1092337369918823,0.38409075140953064,0.10379917919635773,-0.7031047344207764
12.222148418426514,0.08205369859933853,-1.241579294204712,1.1073421239852905,0.3813540041446686,0.10275416821241379,-0.702938437461853
12.242201328277588,0.06528352200984955,-1.2397065162658691,1.10336172580719,0.37607696652412415,0.10112883895635605,-0.7026882171630859
12.262330770492554,0.04954855144023895,-1.2380216121673584,1.0991233587265015,0.37103819847106934,0.10004373639822006,-0.7025381326675415
12.282409906387329,0.041989363729953766,-1.2372301816940308,1.096930742263794,0.36858880519866943,0.09965132176876068,-0.7024967074394226
12.302554368972778,0.027334075421094894,-1.2357174158096313,1.0924588441848755,0.36380577087402344,0.09902504831552505,-0.7024774551391602
12.322611570358276,0.012942451052367687,-1.2342082262039185,1.0880839824676514,0.3591497838497162,0.0983007624745369,-0.7025293111801147
12.342796802520752,0.005757416598498821,-1.2334338426589966,1.0860315561294556,0.3568682074546814,0.09779688715934753,-0.702578604221344
12.362932443618774,-0.008530008606612682,-1.2318648099899292,1.082149624824524,0.3524148762226105,0.09657195210456848,-0.702712893486023
12.382970333099365,-0.022608235478401184,-1.2303216457366943,1.078485369682312,0.3481854498386383,0.09509344398975372,-0.7028729319572449
12.403384923934937,-0.03643754497170448,-1.2288607358932495,1.074931025505066,0.3442866802215576,0.09334120899438858,-0.7030317187309265
12.423465013504028,-0.043234650045633316,-1.2281725406646729,1.0731687545776367,0.3424493372440338,0.09239576011896133,-0.7031106948852539
12.44355320930481,-0.05644416809082031,-1.226913332939148,1.0696923732757568,0.33889612555503845,0.09053599089384079,-0.7032935619354248
12.463638544082642,-0.06893943250179291,-1.2258456945419312,1.0661413669586182,0.33538559079170227,0.08904600143432617,-0.7035338282585144
12.483705520629883,-0.07491476088762283,-1.2253830432891846,1.0643175840377808,0.3336317241191864,0.08846980333328247,-0.7036759853363037
12.503838300704956,-0.08627255260944366,-1.2246127128601074,1.0604933500289917,0.33015426993370056,0.0876878947019577,-0.7040005922317505
12.523913145065308,-0.09687969088554382,-1.22401762008667,1.0564870834350586,0.32669955492019653,0.08737476915121078,-0.7043784260749817
12.54398775100708,-0.10188012570142746,-1.223773717880249,1.0544803142547607,0.32496124505996704,0.08741752058267593,-0.7045901417732239
12.564252376556396,-0.11152930557727814,-1.2233079671859741,1.050656795501709,0.32145899534225464,0.08765985816717148,-0.7050571441650391
12.584472179412842,-0.12090503424406052,-1.222812533378601,1.0472086668014526,0.3179578483104706,0.0878438726067543,-0.705579936504364
12.604909181594849,-0.12558229267597198,-1.2225323915481567,1.0456396341323853,0.31622669100761414,0.08781039714813232,-0.7058560848236084
12.62489938735962,-0.1348564624786377,-1.2219504117965698,1.0426615476608276,0.31285279989242554,0.08754083514213562,-0.7064272165298462
12.645047664642334,-0.14407344162464142,-1.2213648557662964,1.039756417274475,0.3096488118171692,0.08700445294380188,-0.7070048451423645
12.665131092071533,-0.1486642062664032,-1.2210922241210938,1.0382907390594482,0.3081350326538086,0.0866202637553215,-0.7072930932044983
12.685286283493042,-0.157803013920784,-1.2206007242202759,1.03531014919281,0.30525580048561096,0.08566749840974808,-0.7078637480735779
12.705351829528809,-0.1666901558637619,-1.220228910446167,1.0323187112808228,0.30248793959617615,0.08464284241199493,-0.708438515663147
12.725404024124146,-0.17097623646259308,-1.2200993299484253,1.0308036804199219,0.3011091649532318,0.08419295400381088,-0.7087324857711792
12.745458841323853,-0.17914319038391113,-1.2199516296386719,1.0277897119522095,0.29833707213401794,0.08352316170930862,-0.7093362808227539
12.765564203262329,-0.18670226633548737,-1.2199312448501587,1.0247983932495117,0.2955312728881836,0.08329968899488449,-0.7099635601043701
12.78564977645874,-0.19023874402046204,-1.2199615240097046,1.0233181715011597,0.2941238284111023,0.08337396383285522,-0.710285484790802
12.805711269378662,-0.1968504637479782,-1.2200719118118286,1.02041757106781,0.29127755761146545,0.08389046043157578,-0.7109481692314148
12.825750589370728,-0.2030455619096756,-1.2202061414718628,1.0176244974136353,0.28843024373054504,0.08464746922254562,-0.7116410732269287
12.845965385437012,-0.20906755328178406,-1.220314383506775,1.015007734298706,0.2856023907661438,0.08531724661588669,-0.7123671174049377
12.8660888671875,-0.21205514669418335,-1.2203654050827026,1.0137327909469604,0.2842250168323517,0.08555445820093155,-0.7127386927604675
12.886138200759888,-0.21800607442855835,-1.220474362373352,1.0112509727478027,0.2815881073474884,0.08578751236200333,-0.7134870290756226
12.906322717666626,-0.22392114996910095,-1.2206019163131714,1.0088192224502563,0.2790820002555847,0.08578462153673172,-0.7142339944839478
12.926397323608398,-0.2268628478050232,-1.220674753189087,1.0076329708099365,0.27785801887512207,0.08571255952119827,-0.7146096229553223
12.946467638015747,-0.2326498031616211,-1.220855712890625,1.005289077758789,0.27545928955078125,0.08552119880914688,-0.7153615951538086
12.966810464859009,-0.23821882903575897,-1.2211049795150757,1.0029652118682861,0.2731187045574188,0.08536146581172943,-0.7161113023757935
12.98689889907837,-0.24087612330913544,-1.221255898475647,1.001807451248169,0.27196502685546875,0.08536569774150848,-0.7164830565452576
13.006970167160034,-0.24588419497013092,-1.2216084003448486,0.9995075464248657,0.26964664459228516,0.08560923486948013,-0.717233419418335
13.027023792266846,-0.2504349648952484,-1.2220087051391602,0.9972942471504211,0.26729145646095276,0.08620429784059525,-0.7180002927780151
13.047112226486206,-0.2525627017021179,-1.222220778465271,0.9962217807769775,0.26610276103019714,0.08659402281045914,-0.7183924317359924
13.067185163497925,-0.25667092204093933,-1.22264564037323,0.9941725730895996,0.2637651562690735,0.08736447989940643,-0.719184160232544
13.0872323513031,-0.26071685552597046,-1.2230727672576904,0.9921983480453491,0.2615409791469574,0.0879785567522049,-0.7199804186820984
13.107325792312622,-0.2627454996109009,-1.223284125328064,0.9912613034248352,0.26046884059906006,0.08818093687295914,-0.7203772664070129
13.127393007278442,-0.26674121618270874,-1.223713994026184,0.9894704818725586,0.25836068391799927,0.08849188685417175,-0.7211664915084839
13.147524118423462,-0.2706725299358368,-1.2241586446762085,0.987762987613678,0.2563323378562927,0.08868423104286194,-0.7219440340995789
13.167571306228638,-0.27258744835853577,-1.2243937253952026,0.9869109392166138,0.2553531527519226,0.08878685534000397,-0.7223291397094727
13.187630414962769,-0.2763237953186035,-1.2248879671096802,0.9851698279380798,0.2534388303756714,0.0890374481678009,-0.7231011390686035
13.207693576812744,-0.27982962131500244,-1.225416898727417,0.9834116697311401,0.2514938712120056,0.08946392685174942,-0.7238883972167969
13.22805905342102,-0.2814912497997284,-1.2256906032562256,0.9825405478477478,0.2504993677139282,0.08974157273769379,-0.7242875099182129
13.248139142990112,-0.2845521867275238,-1.2262648344039917,0.9808700084686279,0.24848662316799164,0.09044516086578369,-0.7250905632972717
13.268247127532959,-0.28731033205986023,-1.2268648147583008,0.9793824553489685,0.24650706350803375,0.0912228524684906,-0.7258918285369873
13.288336515426636,-0.28987082839012146,-1.2274634838104248,0.9781475067138672,0.24462181329727173,0.09198375046253204,-0.7266866564750671
13.308643817901611,-0.291125625371933,-1.2277541160583496,0.9776065349578857,0.24372361600399017,0.0923372358083725,-0.727082371711731
13.328561544418335,-0.29360637068748474,-1.2283077239990234,0.9766538143157959,0.2420049011707306,0.09300294518470764,-0.7278710007667542
13.348604679107666,-0.2960536777973175,-1.2288440465927124,0.9757404327392578,0.24031712114810944,0.09362427145242691,-0.7286652326583862
13.368703126907349,-0.29727455973625183,-1.2291157245635986,0.9752610325813293,0.23948153853416443,0.09390286356210709,-0.7290633320808411
13.388866662979126,-0.29977843165397644,-1.2296737432479858,0.9741547107696533,0.2377852201461792,0.09437955170869827,-0.7298634648323059
13.408895492553711,-0.3023045063018799,-1.2302546501159668,0.9728952050209045,0.2360529750585556,0.0948357805609703,-0.7306668758392334
13.429043292999268,-0.3035271167755127,-1.230552077293396,0.9722549319267273,0.23516669869422913,0.09509622305631638,-0.7310693264007568
13.449153423309326,-0.3057740330696106,-1.2311662435531616,0.9710314869880676,0.23342131078243256,0.09577330946922302,-0.7318680882453918
13.469216585159302,-0.3077516555786133,-1.231795072555542,0.9700186252593994,0.2317836433649063,0.09656978398561478,-0.732657790184021
13.489366054534912,-0.309562087059021,-1.2324119806289673,0.9692091941833496,0.23024030029773712,0.09740054607391357,-0.7334408760070801
13.509453535079956,-0.31041574478149414,-1.2327173948287964,0.9688462018966675,0.22948695719242096,0.09782546758651733,-0.7338317632675171
13.529523611068726,-0.31212133169174194,-1.2333132028579712,0.9681056141853333,0.22797396779060364,0.09865009784698486,-0.7346150875091553
13.549927711486816,-0.31387728452682495,-1.2338837385177612,0.9672718048095703,0.22642484307289124,0.09945473819971085,-0.735407292842865
13.570054531097412,-0.3147934675216675,-1.2341618537902832,0.9668200016021729,0.22564035654067993,0.09981638938188553,-0.7358087301254272
13.590102434158325,-0.3166469633579254,-1.2347373962402344,0.9658392667770386,0.22408166527748108,0.10045041888952255,-0.7366166114807129
13.610188245773315,-0.31756654381752014,-1.2350376844406128,0.9653292894363403,0.22331532835960388,0.10073575377464294,-0.7370184063911438
13.630267143249512,-0.31938132643699646,-1.2356464862823486,0.9642942547798157,0.22178635001182556,0.10132197290658951,-0.7378126978874207
13.650355100631714,-0.3210860788822174,-1.2362408638000488,0.9633333086967468,0.22025761008262634,0.10204491019248962,-0.7385976314544678
13.67080020904541,-0.32260197401046753,-1.2368319034576416,0.9624965190887451,0.21876385807991028,0.10289189964532852,-0.7393779754638672
13.690885543823242,-0.3233148455619812,-1.2371262311935425,0.9621360301971436,0.21804161369800568,0.10330617427825928,-0.7397655248641968
13.711016416549683,-0.3247152864933014,-1.2377039194107056,0.9614588618278503,0.21659740805625916,0.10412190854549408,-0.7405393719673157
13.731512308120728,-0.3261391222476959,-1.2382690906524658,0.9607824683189392,0.215158149600029,0.10487227886915207,-0.7413081526756287
13.751593589782715,-0.32683905959129333,-1.238552212715149,0.9604307413101196,0.21444663405418396,0.10524220019578934,-0.7416887879371643
13.771721839904785,-0.3282169997692108,-1.2391339540481567,0.9596763253211975,0.21310389041900635,0.10594310611486435,-0.7424387335777283
13.791724681854248,-0.3295362591743469,-1.23972749710083,0.9589478969573975,0.21183842420578003,0.10661687701940536,-0.7431842684745789
13.811832189559937,-0.33018583059310913,-1.2400227785110474,0.9585959315299988,0.21121005713939667,0.10695314407348633,-0.7435590624809265
13.83199667930603,-0.3314327597618103,-1.2405998706817627,0.957933247089386,0.2099107801914215,0.10768747329711914,-0.7443125247955322
13.852020978927612,-0.332587331533432,-1.2411614656448364,0.9573428630828857,0.20858453214168549,0.10849065333604813,-0.7450620532035828
13.872098445892334,-0.3331488072872162,-1.2414345741271973,0.9570635557174683,0.2079029530286789,0.10890039056539536,-0.7454341650009155
13.892234325408936,-0.3342694938182831,-1.2419713735580444,0.956496000289917,0.2065202295780182,0.10971353203058243,-0.7461736798286438
13.912271738052368,-0.33543261885643005,-1.2424910068511963,0.9559047222137451,0.2051052749156952,0.11047904193401337,-0.7469066381454468
13.932358503341675,-0.33601176738739014,-1.242749810218811,0.9556096196174622,0.20440427958965302,0.11084790527820587,-0.7472694516181946
13.952607870101929,-0.3371630311012268,-1.2432703971862793,0.9550392627716064,0.20303453505039215,0.11154048889875412,-0.7479860186576843
13.972586870193481,-0.3382609486579895,-1.243808627128601,0.954484224319458,0.20174922049045563,0.11223185062408447,-0.7486904859542847
13.9926598072052,-0.3387678265571594,-1.2440853118896484,0.9542263746261597,0.2011411190032959,0.11259359121322632,-0.7490373849868774
14.01276159286499,-0.33970239758491516,-1.2446444034576416,0.9537484645843506,0.19996370375156403,0.11337020993232727,-0.7497256994247437
14.032950162887573,-0.3405671715736389,-1.2451956272125244,0.9533133506774902,0.1988067626953125,0.11420124769210815,-0.7504146099090576
14.052985668182373,-0.3413518965244293,-1.245721697807312,0.9529638886451721,0.19762679934501648,0.11509962379932404,-0.751110315322876
14.07305908203125,-0.3417370617389679,-1.245977520942688,0.952803373336792,0.19703462719917297,0.11553885042667389,-0.7514585852622986
14.093135833740234,-0.3425005078315735,-1.2464778423309326,0.9524463415145874,0.19583196938037872,0.11643074452877045,-0.7521531581878662
14.113820314407349,-0.34290817379951477,-1.246731162071228,0.9522106647491455,0.19524553418159485,0.11685098707675934,-0.7524983286857605
14.13398814201355,-0.3437967002391815,-1.2472305297851562,0.951704204082489,0.1940937489271164,0.11760371178388596,-0.7531839609146118
14.153985500335693,-0.3447432816028595,-1.2477259635925293,0.9511806964874268,0.1929427534341812,0.1182669848203659,-0.753862202167511
14.174041271209717,-0.3452247083187103,-1.2479708194732666,0.9509151577949524,0.19235526025295258,0.11859098076820374,-0.7541977167129517
14.19412350654602,-0.346151202917099,-1.2484632730484009,0.9503872394561768,0.19119314849376678,0.11926474422216415,-0.7548570036888123
14.21426010131836,-0.3469833731651306,-1.2489662170410156,0.9499364495277405,0.1901061087846756,0.11995739489793777,-0.7554985880851746
14.23429799079895,-0.3477306067943573,-1.2494726181030273,0.9495907425880432,0.18907952308654785,0.12065831571817398,-0.75612872838974
14.254458904266357,-0.3480687439441681,-1.2497249841690063,0.9494666457176208,0.18858012557029724,0.1210179403424263,-0.7564414739608765
14.274877786636353,-0.3486897945404053,-1.2502330541610718,0.9492473006248474,0.1875971257686615,0.12176735699176788,-0.7570632696151733
14.294786930084229,-0.3489622473716736,-1.250490665435791,0.9491643905639648,0.1871211677789688,0.12214836478233337,-0.7573704123497009
14.314937353134155,-0.3494686782360077,-1.2510157823562622,0.9489802122116089,0.1862117052078247,0.12292207777500153,-0.757976770401001
14.334939956665039,-0.3499695360660553,-1.251532793045044,0.9487865567207336,0.18530471622943878,0.12370745837688446,-0.7585844993591309
14.354998350143433,-0.3502309322357178,-1.2517820596694946,0.948682427406311,0.18483898043632507,0.12411028146743774,-0.758892834186554
14.375065326690674,-0.350808709859848,-1.2522602081298828,0.9484321475028992,0.1838711053133011,0.12490343302488327,-0.759515106678009
14.395115852355957,-0.35143211483955383,-1.2527155876159668,0.9481537342071533,0.1828790158033371,0.12566892802715302,-0.7601355314254761
14.415226936340332,-0.35176292061805725,-1.2529377937316895,0.9480114579200745,0.18237672746181488,0.12602265179157257,-0.7604423761367798
14.435277700424194,-0.35241857171058655,-1.2533724308013916,0.9477742314338684,0.18136507272720337,0.12669435143470764,-0.7610470056533813
14.455321550369263,-0.3530791103839874,-1.2538082599639893,0.9476075768470764,0.18038338422775269,0.12726853787899017,-0.7616385221481323
14.475414276123047,-0.3534119129180908,-1.2540301084518433,0.9475338459014893,0.1799164116382599,0.12753137946128845,-0.7619287967681885
14.49547815322876,-0.3540533483028412,-1.2544915676116943,0.9473810791969299,0.17904499173164368,0.1280563920736313,-0.7625042796134949
14.5155611038208,-0.35435569286346436,-1.2547308206558228,0.9472812414169312,0.1786242127418518,0.12834300100803375,-0.7627899646759033
14.535648822784424,-0.35486531257629395,-1.2552220821380615,0.9470608234405518,0.17779266834259033,0.12903234362602234,-0.7633594870567322
14.555752038955688,-0.35529232025146484,-1.2557125091552734,0.9468255043029785,0.17693617939949036,0.12983116507530212,-0.7639228105545044
14.575908422470093,-0.35548147559165955,-1.2559480667114258,0.9467223286628723,0.17648838460445404,0.1302674561738968,-0.7642015218734741
14.595953226089478,-0.3557863235473633,-1.256404161453247,0.9465810656547546,0.17558260262012482,0.13119745254516602,-0.7647520303726196
14.61596155166626,-0.35605868697166443,-1.2568435668945312,0.9465105533599854,0.1746758669614792,0.1321091651916504,-0.7652974128723145
14.63603687286377,-0.35620734095573425,-1.25705885887146,0.9464716911315918,0.17423374950885773,0.1325473040342331,-0.7655696272850037
