liuyurong129/humanoid-gym/humanoid/data/target_q_20250522-034230.csv
timestamp,joint_1,joint_2,joint_3,joint_4,joint_5,joint_6
5.4836273193359375e-05,0.0,0.0,0.0,0.0,0.0,0.0
0.020328283309936523,0.0,0.0,0.0,0.0,0.0,0.0
0.04040646553039551,0.0,0.0,0.0,0.0,0.0,0.0
0.06048846244812012,0.0,0.0,0.0,0.0,0.0,0.0
0.0805671215057373,0.0,0.0,0.0,0.0,0.0,0.0
0.10063529014587402,-1.4014487266540527,-0.9504497051239014,0.9888007640838623,-0.5742346048355103,-0.11559680104255676,0.25267815589904785
0.12076187133789062,-1.447997808456421,-0.9387607574462891,0.9998145699501038,-0.5685310959815979,-0.1120745986700058,0.2574900686740875
0.1414165496826172,-1.4963047504425049,-0.927825927734375,1.0029621124267578,-0.5651648044586182,-0.10919545590877533,0.2612815499305725
0.16157317161560059,-1.5207109451293945,-0.922958254814148,1.002030611038208,-0.5643144845962524,-0.10789970308542252,0.26282304525375366
0.18161487579345703,-1.5696643590927124,-0.9142245650291443,0.9983764886856079,-0.5633605122566223,-0.10545648634433746,0.26547300815582275
0.2017042636871338,-1.5941418409347534,-0.9097265005111694,0.9968173503875732,-0.5629208087921143,-0.10427279770374298,0.2667368948459625
0.22177720069885254,-1.6428967714309692,-0.899524986743927,0.9946358799934387,-0.5619083046913147,-0.10181723535060883,0.2693592607975006
0.2421705722808838,-1.6911920309066772,-0.8880065083503723,0.9908806085586548,-0.5614554286003113,-0.09845311939716339,0.27222976088523865
0.26223134994506836,-1.7151166200637817,-0.8819522261619568,0.987821102142334,-0.5616012215614319,-0.09636878222227097,0.27372488379478455
0.2823026180267334,-1.7586443424224854,-0.8701059818267822,0.9810442328453064,-0.5623207688331604,-0.09211864322423935,0.27655673027038574
0.30239152908325195,-1.7778347730636597,-0.8644087314605713,0.978126585483551,-0.562704861164093,-0.09024006128311157,0.27783629298210144
0.32245826721191406,-1.810706377029419,-0.8535928130149841,0.9742080569267273,-0.5632137060165405,-0.08696439117193222,0.2801060080528259
0.3427128791809082,-1.8367466926574707,-0.8436806201934814,0.9718284606933594,-0.5635406374931335,-0.0839536190032959,0.28208333253860474
0.3628108501434326,-1.8478498458862305,-0.8390846848487854,0.9707739353179932,-0.5637018084526062,-0.08248516172170639,0.2830101549625397
0.38288021087646484,-1.867114782333374,-0.8306705355644226,0.9687713980674744,-0.5640867352485657,-0.0797235295176506,0.28471240401268005
0.40299201011657715,-1.87568998336792,-0.82684725522995,0.9677988290786743,-0.5642949342727661,-0.07849396020174026,0.2854878902435303
0.4230983257293701,-1.8905104398727417,-0.8199625015258789,0.9662907123565674,-0.5646992921829224,-0.07629745453596115,0.2868482768535614
0.4433104991912842,-1.902655005455017,-0.8139318227767944,0.9655318260192871,-0.564905047416687,-0.0744677484035492,0.2880239486694336
0.46338820457458496,-1.9080326557159424,-0.8111539483070374,0.965470016002655,-0.5649172067642212,-0.07375384867191315,0.2885710597038269
0.4834611415863037,-1.9181066751480103,-0.8060405254364014,0.9650965929031372,-0.5649400949478149,-0.07256437093019485,0.28964078426361084
0.5035853385925293,-1.922796607017517,-0.8037263751029968,0.9648504853248596,-0.564987301826477,-0.07207807898521423,0.29014351963996887
0.5236234664916992,-1.9311517477035522,-0.7996204495429993,0.9641160368919373,-0.5651935338973999,-0.07111749798059464,0.2910673916339874
0.5439214706420898,-1.936833143234253,-0.7961753010749817,0.9637526869773865,-0.5654074549674988,-0.06997561454772949,0.29183584451675415
0.5639963150024414,-1.938873529434204,-0.7946356534957886,0.9637438058853149,-0.5654414296150208,-0.06937845796346664,0.292186439037323
0.584144115447998,-1.9420582056045532,-0.7919371128082275,0.9638471007347107,-0.5655201077461243,-0.06824891269207001,0.2928028702735901
0.6044692993164062,-1.9435789585113525,-0.790754497051239,0.9639276266098022,-0.5655330419540405,-0.06779365241527557,0.29307129979133606
0.6245551109313965,-1.9461920261383057,-0.7887933850288391,0.9638381004333496,-0.5656645894050598,-0.0668632984161377,0.29351693391799927
0.6446347236633301,-1.9479265213012695,-0.7871745228767395,0.9641386866569519,-0.5656300187110901,-0.0660552978515625,0.29386526346206665
0.6647202968597412,-1.9485082626342773,-0.786470353603363,0.9643366932868958,-0.565567135810852,-0.06563761085271835,0.29402896761894226
0.6848001480102539,-1.9496328830718994,-0.7852470874786377,0.9647775292396545,-0.5653848648071289,-0.06491927057504654,0.2943241000175476
0.7048938274383545,-1.9503021240234375,-0.7847315073013306,0.9648796916007996,-0.5653350353240967,-0.06460274755954742,0.2944578528404236
0.7250232696533203,-1.9511767625808716,-0.7838864922523499,0.9644604921340942,-0.5654272437095642,-0.06380312144756317,0.2946951687335968
0.7450485229492188,-1.951065182685852,-0.7831379771232605,0.963964581489563,-0.5655316710472107,-0.06284211575984955,0.29492485523223877
0.7652137279510498,-1.9508633613586426,-0.7827997207641602,0.9637606143951416,-0.5655689835548401,-0.06237560138106346,0.2950344383716583
0.7852976322174072,-1.9508682489395142,-0.7821928858757019,0.9635549187660217,-0.5656092762947083,-0.06168575584888458,0.2952171862125397
0.8053488731384277,-1.9512797594070435,-0.7817410230636597,0.9635451436042786,-0.5655763745307922,-0.06124838441610336,0.2953346371650696
0.8254437446594238,-1.9511504173278809,-0.78155517578125,0.9636144638061523,-0.5655099153518677,-0.06098680943250656,0.2953811287879944
0.8455498218536377,-1.9504722356796265,-0.7813026905059814,0.9639402031898499,-0.5652511119842529,-0.06040532886981964,0.2954452335834503
0.8656258583068848,-1.9501051902770996,-0.7812311053276062,0.9640871286392212,-0.5651391744613647,-0.06010853871703148,0.2954699695110321
0.8857417106628418,-1.949676752090454,-0.7812118530273438,0.9642521142959595,-0.5650330185890198,-0.059602223336696625,0.2954687476158142
0.9058248996734619,-1.9494093656539917,-0.7812438607215881,0.9642756581306458,-0.5650144219398499,-0.059324923902750015,0.29545700550079346
0.925978422164917,-1.9479328393936157,-0.7813950777053833,0.9642362594604492,-0.5649475455284119,-0.05852732062339783,0.2953965961933136
0.946058988571167,-1.9459892511367798,-0.7815406322479248,0.964344322681427,-0.5647327303886414,-0.05767021328210831,0.29534322023391724
0.9660995006561279,-1.9450130462646484,-0.7815981507301331,0.9643385410308838,-0.5646071434020996,-0.057260602712631226,0.2953280806541443
0.9864621162414551,-1.9434469938278198,-0.7817181944847107,0.964307963848114,-0.5643869042396545,-0.05658571422100067,0.29529452323913574
1.0064811706542969,-1.9425065517425537,-0.7818157076835632,0.9643599987030029,-0.564280092716217,-0.05622648820281029,0.2952651083469391
1.0265707969665527,-1.9407256841659546,-0.7821012139320374,0.9647729992866516,-0.5640963315963745,-0.05563269183039665,0.29516223073005676
1.046633243560791,-1.9402261972427368,-0.782260537147522,0.9650039672851562,-0.5640433430671692,-0.05543989688158035,0.2951053977012634
1.0667319297790527,-1.939694881439209,-0.7825800180435181,0.9653083086013794,-0.5639626979827881,-0.055119242519140244,0.2950010299682617
1.087346076965332,-1.9395806789398193,-0.7827372550964355,0.9652038812637329,-0.563962996006012,-0.05491969734430313,0.2949594259262085
1.1074247360229492,-1.9384384155273438,-0.7830768823623657,0.9647895097732544,-0.5639047026634216,-0.05418699234724045,0.29487162828445435
1.127589225769043,-1.9367419481277466,-0.7833686470985413,0.9646254777908325,-0.5637518167495728,-0.05339593440294266,0.29479098320007324
1.1476914882659912,-1.9358254671096802,-0.7834744453430176,0.9646915793418884,-0.5636241436004639,-0.053028203547000885,0.2947694957256317
1.1677556037902832,-1.933848261833191,-0.7836880683898926,0.9652454257011414,-0.5632307529449463,-0.05236458778381348,0.2947242856025696
1.1878023147583008,-1.932655930519104,-0.7838388681411743,0.9656912684440613,-0.5630015730857849,-0.05202997103333473,0.29468804597854614
1.2079112529754639,-1.9301058053970337,-0.7843175530433655,0.9663035869598389,-0.5626593828201294,-0.05119689553976059,0.2945684790611267
1.2279510498046875,-1.9280459880828857,-0.7849252820014954,0.9666823148727417,-0.5624529123306274,-0.05044145882129669,0.2944043278694153
1.2480430603027344,-1.9273720979690552,-0.7852224111557007,0.9667950868606567,-0.5623484253883362,-0.05011632293462753,0.2943311333656311
1.2681312561035156,-1.9261029958724976,-0.7857739329338074,0.9669337272644043,-0.5620663166046143,-0.049441806972026825,0.29421982169151306
1.2882616519927979,-1.9245808124542236,-0.7862915396690369,0.9670085906982422,-0.5617231726646423,-0.04870318993926048,0.2941322326660156
1.3083484172821045,-1.9238026142120361,-0.7865207195281982,0.967136025428772,-0.5615273714065552,-0.04839472472667694,0.2940908372402191
1.3284096717834473,-1.9226683378219604,-0.7869656682014465,0.967494547367096,-0.5612483024597168,-0.047982752323150635,0.2939991354942322
1.3485054969787598,-1.9224766492843628,-0.7871798276901245,0.967756986618042,-0.5611531734466553,-0.04792351275682449,0.2939421832561493
1.3685808181762695,-1.9220598936080933,-0.7876406311988831,0.9681796431541443,-0.5610923767089844,-0.047758594155311584,0.29382601380348206
1.3888001441955566,-1.920504093170166,-0.7880715727806091,0.9684191942214966,-0.560948371887207,-0.047230713069438934,0.293737530708313
1.4088826179504395,-1.9194539785385132,-0.7882930040359497,0.9683881998062134,-0.5608773827552795,-0.04684411734342575,0.29370200634002686
1.4289579391479492,-1.9174660444259644,-0.7887330055236816,0.9681035280227661,-0.5607879161834717,-0.04603493958711624,0.2936287224292755
1.4490728378295898,-1.9165360927581787,-0.7889876961708069,0.967776894569397,-0.5608450174331665,-0.04559307172894478,0.2935735881328583
1.469240665435791,-1.9145197868347168,-0.7895074486732483,0.9675065279006958,-0.5609147548675537,-0.04476908966898918,0.2934158742427826
1.489245891571045,-1.911866545677185,-0.7900394201278687,0.9675710201263428,-0.5608264207839966,-0.04386557266116142,0.29322460293769836
1.5093388557434082,-1.9106919765472412,-0.7902910709381104,0.9676573872566223,-0.5607261657714844,-0.04346243664622307,0.29312989115715027
1.5294361114501953,-1.9091404676437378,-0.790756106376648,0.9676654934883118,-0.5605588555335999,-0.042840782552957535,0.2929438352584839
1.5497791767120361,-1.9079082012176514,-0.7912085056304932,0.9673929214477539,-0.5604948997497559,-0.04220747575163841,0.29277223348617554
1.5698766708374023,-1.9070699214935303,-0.7914369702339172,0.967275083065033,-0.5604698061943054,-0.041841525584459305,0.2926828861236572
1.589937448501587,-1.905418872833252,-0.7918041348457336,0.9671967625617981,-0.5603514909744263,-0.04119106009602547,0.29254409670829773
1.610095500946045,-1.9048948287963867,-0.7919362783432007,0.9673272371292114,-0.5602298974990845,-0.04100871458649635,0.2924802303314209
1.6301977634429932,-1.904085636138916,-0.7921101450920105,0.9680340886116028,-0.5598723292350769,-0.0408344566822052,0.2923868000507355
1.6502561569213867,-1.9038362503051758,-0.7922122478485107,0.9682618379592896,-0.5597106218338013,-0.04075057432055473,0.292338490486145
1.670335054397583,-1.9024457931518555,-0.7925933599472046,0.9684021472930908,-0.5594973564147949,-0.04020776227116585,0.2921893894672394
1.6903977394104004,-1.9005351066589355,-0.7931572198867798,0.968126654624939,-0.5593773722648621,-0.03935305029153824,0.29198095202445984
1.710489273071289,-1.8995524644851685,-0.7934620380401611,0.9681183099746704,-0.5593042373657227,-0.038944557309150696,0.29185566306114197
1.730628490447998,-1.8976614475250244,-0.7940410375595093,0.9683664441108704,-0.5591000318527222,-0.03819002956151962,0.29162469506263733
1.7507057189941406,-1.8950610160827637,-0.7945817708969116,0.9691512584686279,-0.5586839318275452,-0.037371933460235596,0.2914115786552429
1.7708003520965576,-1.8936612606048584,-0.7948628664016724,0.9694716334342957,-0.558500349521637,-0.036902643740177155,0.2913186848163605
1.7908620834350586,-1.8914238214492798,-0.7954139113426208,0.9696516394615173,-0.558253824710846,-0.03604915738105774,0.2911455035209656
1.811126708984375,-1.8908661603927612,-0.7956737279891968,0.9694607853889465,-0.5582541227340698,-0.035722747445106506,0.2910673916339874
1.831249475479126,-1.890122413635254,-0.7961052656173706,0.9690366387367249,-0.5582507252693176,-0.035220563411712646,0.29093116521835327
1.8512978553771973,-1.888828992843628,-0.7964599132537842,0.9689502120018005,-0.5579689741134644,-0.03462745621800423,0.2908236086368561
1.8714544773101807,-1.8881137371063232,-0.7966567873954773,0.9691154360771179,-0.5576959848403931,-0.03435583412647247,0.29075637459754944
1.8915235996246338,-1.8868787288665771,-0.7971258163452148,0.9696904420852661,-0.5571686625480652,-0.033866435289382935,0.29060786962509155
1.9119057655334473,-1.8863468170166016,-0.7976332902908325,0.9706538915634155,-0.5567489862442017,-0.033731117844581604,0.29041585326194763
1.9320683479309082,-1.886080265045166,-0.7978844046592712,0.9711587429046631,-0.5566173195838928,-0.03368447348475456,0.29033163189888
1.9520866870880127,-1.8851523399353027,-0.7984226942062378,0.9717686176300049,-0.5564996600151062,-0.03340106084942818,0.29015836119651794
1.9722025394439697,-1.8844355344772339,-0.7987130284309387,0.9719356298446655,-0.5564505457878113,-0.03315082564949989,0.2900668978691101
1.9923169612884521,-1.882702112197876,-0.799293041229248,0.9717493057250977,-0.556443452835083,-0.032402727752923965,0.28989604115486145
2.012430429458618,-1.8799231052398682,-0.7997560501098633,0.9715844392776489,-0.5562825202941895,-0.031356148421764374,0.28977659344673157
2.032521963119507,-1.87843918800354,-0.7999646067619324,0.9714516997337341,-0.5561827421188354,-0.030772903934121132,0.2897341847419739
2.052600383758545,-1.8754862546920776,-0.8003979325294495,0.9710378646850586,-0.5560216307640076,-0.02949327789247036,0.2896602153778076
2.072718381881714,-1.8743112087249756,-0.8006494045257568,0.9708755016326904,-0.5559569597244263,-0.028951680287718773,0.28959348797798157
2.092802047729492,-1.8720723390579224,-0.8012046217918396,0.970920979976654,-0.5557940602302551,-0.028034647926688194,0.28939923644065857
2.113856792449951,-1.8694696426391602,-0.8018627762794495,0.9713113903999329,-0.5555358529090881,-0.027112988755106926,0.28913846611976624
2.1339614391326904,-1.8684337139129639,-0.8021950125694275,0.9714683294296265,-0.5554196238517761,-0.0267091803252697,0.28900742530822754
2.1540379524230957,-1.8675572872161865,-0.8027914762496948,0.9716706275939941,-0.5552288889884949,-0.026242926716804504,0.28875744342803955
2.174151659011841,-1.8676626682281494,-0.8030378222465515,0.9717734456062317,-0.5551596879959106,-0.02618207409977913,0.2886451780796051
2.1941895484924316,-1.8676117658615112,-0.803424060344696,0.9724613428115845,-0.5548750758171082,-0.026153499260544777,0.2884514033794403
2.214712619781494,-1.8660577535629272,-0.8037789463996887,0.9732510447502136,-0.5544880032539368,-0.025740621611475945,0.28830111026763916
2.234880208969116,-1.8648430109024048,-0.8039600253105164,0.9736546277999878,-0.5542418360710144,-0.025378050282597542,0.28825539350509644
2.254931926727295,-1.862319827079773,-0.8044294714927673,0.9737881422042847,-0.5538731217384338,-0.024353552609682083,0.2881840169429779
2.275009870529175,-1.8612124919891357,-0.8046820163726807,0.9735997915267944,-0.5537313222885132,-0.023759691044688225,0.2881711721420288
2.295095682144165,-1.8591669797897339,-0.8052802681922913,0.9726943969726562,-0.553655207157135,-0.02249019965529442,0.28810688853263855
2.3151774406433105,-1.8571174144744873,-0.8058536052703857,0.9719495177268982,-0.5536168217658997,-0.021393291652202606,0.2879835069179535
2.3352670669555664,-1.856256127357483,-0.8061074018478394,0.9719265103340149,-0.5535558462142944,-0.021062469109892845,0.2878890633583069
2.3553781509399414,-1.8545467853546143,-0.8065956234931946,0.9724401235580444,-0.553354799747467,-0.020553942769765854,0.28767839074134827
2.3754427433013916,-1.8537073135375977,-0.8068526387214661,0.9727004766464233,-0.553268313407898,-0.02032245695590973,0.2875616252422333
2.395630359649658,-1.8520822525024414,-0.8073847889900208,0.9728777408599854,-0.5531561374664307,-0.01974247395992279,0.287339985370636
2.415618658065796,-1.8506407737731934,-0.8077964782714844,0.9727616906166077,-0.5530521869659424,-0.019131844863295555,0.2871885299682617
2.435697317123413,-1.8501452207565308,-0.8079770803451538,0.9726521968841553,-0.5530394315719604,-0.018855957314372063,0.2871301472187042
2.455824613571167,-1.8487532138824463,-0.808346688747406,0.9724408984184265,-0.5530278086662292,-0.018171563744544983,0.2870103716850281
2.4759132862091064,-1.846767544746399,-0.8088253140449524,0.9723638296127319,-0.5529967546463013,-0.01738579384982586,0.28680479526519775
2.4960694313049316,-1.8455709218978882,-0.8090689182281494,0.9725005626678467,-0.5529126524925232,-0.016994711011648178,0.2866882383823395
2.516112804412842,-1.8430989980697632,-0.8095563054084778,0.9729171991348267,-0.5526774525642395,-0.016244644299149513,0.28644534945487976
2.5361897945404053,-1.8418704271316528,-0.809810221195221,0.9730674028396606,-0.5525748133659363,-0.01583835855126381,0.2863292396068573
2.556281089782715,-1.8397833108901978,-0.8103251457214355,0.973105788230896,-0.5524707436561584,-0.014951950870454311,0.28612980246543884
2.5764732360839844,-1.837781548500061,-0.8107568621635437,0.9731417298316956,-0.5522997975349426,-0.01405342761427164,0.2859775722026825
2.596571207046509,-1.8365470170974731,-0.8109521865844727,0.9732875227928162,-0.5521543025970459,-0.013572492636740208,0.2859151065349579
2.6166226863861084,-1.8338062763214111,-0.8113808035850525,0.9737895727157593,-0.5517244338989258,-0.012675398029386997,0.28575730323791504
2.636714220046997,-1.8323246240615845,-0.8116306066513062,0.9741206765174866,-0.5515103340148926,-0.01222930196672678,0.2856614887714386
2.6568117141723633,-1.830246090888977,-0.8121854662895203,0.9746214747428894,-0.5512377023696899,-0.011519545689225197,0.2854461073875427
2.6769495010375977,-1.8293870687484741,-0.8127191662788391,0.9749557375907898,-0.5510880947113037,-0.011076663620769978,0.2852226495742798
2.697040319442749,-1.829230546951294,-0.812976598739624,0.9750114679336548,-0.551026463508606,-0.010904003866016865,0.2851114869117737
2.7171683311462402,-1.8286974430084229,-0.8135030269622803,0.9750081300735474,-0.5508565306663513,-0.010511456057429314,0.2848580479621887
2.7371981143951416,-1.8281593322753906,-0.8137597441673279,0.9749781489372253,-0.5507790446281433,-0.010230052284896374,0.28473496437072754
2.7572760581970215,-1.8264058828353882,-0.8142157196998596,0.9752908945083618,-0.550445020198822,-0.009585822001099586,0.2845218777656555
2.7775373458862305,-1.825254201889038,-0.814420759677887,0.9754664897918701,-0.5502852201461792,-0.009169853292405605,0.28444764018058777
2.7976417541503906,-1.8219536542892456,-0.8148761987686157,0.976212203502655,-0.5497802495956421,-0.008117865771055222,0.2843169569969177
2.817714214324951,-1.8190126419067383,-0.8154723644256592,0.9765695333480835,-0.5494016408920288,-0.007021048106253147,0.284157395362854
2.837806224822998,-1.8178430795669556,-0.8158048987388611,0.9766309261322021,-0.5492626428604126,-0.006514661945402622,0.2840634286403656
2.857900619506836,-1.816269040107727,-0.8165014386177063,0.9763432145118713,-0.5491825342178345,-0.005663787946105003,0.283838152885437
2.8779430389404297,-1.8143552541732788,-0.8171585202217102,0.9762989282608032,-0.54908287525177,-0.004853047430515289,0.2835848331451416
2.8980400562286377,-1.813403606414795,-0.8174415826797485,0.9763863682746887,-0.5489869713783264,-0.004506795667111874,0.28347086906433105
2.918119430541992,-1.8121716976165771,-0.8179295659065247,0.9766318798065186,-0.5488086342811584,-0.0040064482018351555,0.283275306224823
2.938281774520874,-1.812069296836853,-0.8183156847953796,0.9766449332237244,-0.5487120747566223,-0.0037465854547917843,0.28313931822776794
2.95837664604187,-1.8118003606796265,-0.818494975566864,0.9766725301742554,-0.5486581325531006,-0.003561460180208087,0.2830705940723419
2.978518486022949,-1.810713768005371,-0.8188316822052002,0.9765387177467346,-0.548474907875061,-0.003026144579052925,0.2829567790031433
2.9985549449920654,-1.8098946809768677,-0.8190178871154785,0.9764330387115479,-0.548373818397522,-0.0026744988281279802,0.2828903794288635
3.018617630004883,-1.8081611394882202,-0.81943279504776,0.9760748147964478,-0.5482515692710876,-0.0018819160759449005,0.28273463249206543
3.038736581802368,-1.8067867755889893,-0.8196660876274109,0.9759554266929626,-0.54820716381073,-0.0013288214104250073,0.28264281153678894
3.05888032913208,-1.803823709487915,-0.8201493620872498,0.9758267998695374,-0.5481038093566895,-0.00017641973681747913,0.2824295163154602
3.0789296627044678,-1.8023021221160889,-0.820407509803772,0.9758464694023132,-0.5480152368545532,0.0004035223973914981,0.2823110818862915
3.0989911556243896,-1.799310564994812,-0.8209641575813293,0.976233184337616,-0.5477211475372314,0.0014337438624352217,0.2820310890674591
3.11934494972229,-1.797096848487854,-0.8214826583862305,0.9768210649490356,-0.5472779273986816,0.002158159390091896,0.28176695108413696
3.1394217014312744,-1.7958883047103882,-0.8217266798019409,0.9770991802215576,-0.5470340847969055,0.0025423881597816944,0.2816532254219055
3.159475326538086,-1.7937989234924316,-0.8222121596336365,0.9772080779075623,-0.5466824769973755,0.003369106911122799,0.2814737558364868
3.1795754432678223,-1.792988657951355,-0.8224872946739197,0.9770222306251526,-0.5465943217277527,0.003797055222094059,0.2813762128353119
3.199699878692627,-1.7912248373031616,-0.8231374025344849,0.9767401814460754,-0.5464654564857483,0.004743571393191814,0.2811352610588074
3.2197682857513428,-1.7904919385910034,-0.8234776258468628,0.9766669869422913,-0.5463975071907043,0.005162019282579422,0.28099536895751953
3.239847421646118,-1.7886452674865723,-0.8241237998008728,0.9771950840950012,-0.5461033582687378,0.005913919303566217,0.2807128131389618
3.260002851486206,-1.7871261835098267,-0.8244516253471375,0.977685272693634,-0.5458808541297913,0.006395308300852776,0.28057825565338135
3.2801218032836914,-1.7834357023239136,-0.825080394744873,0.9788821339607239,-0.5452234745025635,0.007484198547899723,0.2803756296634674
3.300184488296509,-1.7798857688903809,-0.8258063197135925,0.9795124530792236,-0.5446237921714783,0.008763975463807583,0.28021228313446045
3.320467472076416,-1.7785381078720093,-0.8261982202529907,0.9794999361038208,-0.5444234609603882,0.009381769225001335,0.28012537956237793
3.340343952178955,-1.7768423557281494,-0.8269679546356201,0.9793487787246704,-0.5441633462905884,0.010331825353205204,0.27993205189704895
3.3604519367218018,-1.7760549783706665,-0.8273323774337769,0.9795365929603577,-0.5440194010734558,0.010683705098927021,0.2798140048980713
3.3805220127105713,-1.774310827255249,-0.8280340433120728,0.9802556037902832,-0.5437338352203369,0.01131062489002943,0.2795642018318176
3.400639295578003,-1.7730326652526855,-0.8284056186676025,0.9808595776557922,-0.5435504913330078,0.011672834865748882,0.27942609786987305
3.4207370281219482,-1.7702176570892334,-0.8292262554168701,0.9817341566085815,-0.5432400107383728,0.012544270604848862,0.2791323959827423
3.4415805339813232,-1.7671653032302856,-0.8300402164459229,0.9816091656684875,-0.5430776476860046,0.013787510804831982,0.27890169620513916
3.461716651916504,-1.7657623291015625,-0.8304167985916138,0.9813384413719177,-0.543038010597229,0.01443684846162796,0.27879682183265686
3.4817802906036377,-1.7630770206451416,-0.8310716152191162,0.9805853366851807,-0.5430327653884888,0.015792641788721085,0.2786121368408203
3.5018723011016846,-1.7618110179901123,-0.8313572406768799,0.9804104566574097,-0.5430143475532532,0.016397982835769653,0.27851197123527527
3.522003173828125,-1.7597600221633911,-0.8319309949874878,0.9804747700691223,-0.5429480671882629,0.017319001257419586,0.27825966477394104
3.5422983169555664,-1.7576253414154053,-0.8325233459472656,0.9811006784439087,-0.5426712036132812,0.018128830939531326,0.27798566222190857
3.5624468326568604,-1.7565728425979614,-0.8328354358673096,0.9814735054969788,-0.5424724817276001,0.01851040869951248,0.2778569459915161
3.5825064182281494,-1.7553023099899292,-0.833345890045166,0.9815294742584229,-0.5421320199966431,0.01919976994395256,0.27770543098449707
3.602590799331665,-1.754779577255249,-0.8335559368133545,0.9813267588615417,-0.5420030355453491,0.019550437107682228,0.2776622474193573
3.6226894855499268,-1.7534855604171753,-0.8339913487434387,0.9807648658752441,-0.5418055653572083,0.020326636731624603,0.2775444984436035
3.6427788734436035,-1.7525657415390015,-0.8342437744140625,0.9806307554244995,-0.5416954755783081,0.020752307027578354,0.27745023369789124
3.6628689765930176,-1.7503055334091187,-0.834848165512085,0.980858325958252,-0.5414513945579529,0.02164064161479473,0.27719277143478394
3.6831698417663574,-1.748043179512024,-0.8354881405830383,0.9810469746589661,-0.5411812663078308,0.022627446800470352,0.2769472002983093
3.7032651901245117,-1.7468434572219849,-0.8357686400413513,0.9813284873962402,-0.5409536361694336,0.02309299074113369,0.2768458127975464
3.723451852798462,-1.7445024251937866,-0.8363025188446045,0.9819844365119934,-0.5404117107391357,0.0239720419049263,0.276674747467041
3.7435462474823,-1.743324875831604,-0.8365727066993713,0.9822437167167664,-0.5401623249053955,0.02443091757595539,0.27660468220710754
3.7635796070098877,-1.7410751581192017,-0.8371344208717346,0.9827188849449158,-0.5397083163261414,0.025221141055226326,0.27644285559654236
3.7837603092193604,-1.7396010160446167,-0.837742269039154,0.982853353023529,-0.5394610166549683,0.02585016004741192,0.2762560248374939
3.803774356842041,-1.7394182682037354,-0.8380358219146729,0.9829046726226807,-0.5393906235694885,0.026015140116214752,0.2761557698249817
3.8238699436187744,-1.7393455505371094,-0.8385931849479675,0.983055830001831,-0.539360523223877,0.026293955743312836,0.2759483754634857
3.8439078330993652,-1.7383360862731934,-0.8391170501708984,0.9832939505577087,-0.5393229722976685,0.026738053187727928,0.2757185101509094
3.8640527725219727,-1.7374076843261719,-0.8393915295600891,0.9833612442016602,-0.539276123046875,0.027071354910731316,0.27559685707092285
3.884110689163208,-1.735453486442566,-0.8399350047111511,0.9834443926811218,-0.5391520857810974,0.027816466987133026,0.27537184953689575
3.90484356880188,-1.733628511428833,-0.8404313921928406,0.9835824966430664,-0.5389800071716309,0.02858864516019821,0.27518728375434875
3.9250407218933105,-1.7324968576431274,-0.8406506180763245,0.9834641814231873,-0.5388877391815186,0.02912079356610775,0.27512696385383606
3.945110559463501,-1.7299048900604248,-0.8410858511924744,0.9832689762115479,-0.5386427044868469,0.030241671949625015,0.2750004529953003
3.9651618003845215,-1.7284263372421265,-0.8413388729095459,0.983149528503418,-0.5385059118270874,0.030851587653160095,0.27491968870162964
3.985245704650879,-1.7253713607788086,-0.8419197201728821,0.9829061031341553,-0.5382542014122009,0.03212592378258705,0.2747144401073456
4.005335330963135,-1.7225977182388306,-0.8425654172897339,0.9828166365623474,-0.5380390286445618,0.03326927870512009,0.2744411826133728
4.025430679321289,-1.7214044332504272,-0.8428436517715454,0.9829978942871094,-0.5378923416137695,0.03372902795672417,0.27431240677833557
4.0455162525177,-1.7202752828598022,-0.8433331251144409,0.9836469292640686,-0.537571132183075,0.0341557078063488,0.27406421303749084
4.065611839294434,-1.720193862915039,-0.8435478806495667,0.9839791059494019,-0.5374197959899902,0.034220583736896515,0.2739604711532593
4.085691213607788,-1.7203171253204346,-0.8439779877662659,0.9842886924743652,-0.53718101978302,0.03432828560471535,0.2737577259540558
4.10575532913208,-1.7193561792373657,-0.8444626927375793,0.9841489195823669,-0.5369558930397034,0.034907594323158264,0.27355247735977173
4.12584114074707,-1.7186375856399536,-0.8447046875953674,0.9839755296707153,-0.5368754863739014,0.03533201664686203,0.2734559178352356
4.145895481109619,-1.7168463468551636,-0.8452025055885315,0.9835349917411804,-0.5368065237998962,0.03633818030357361,0.27326351404190063
4.1659626960754395,-1.714554786682129,-0.8457275032997131,0.9833511710166931,-0.5367371439933777,0.037462472915649414,0.2730403542518616
4.1860785484313965,-1.712982416152954,-0.846007227897644,0.9836847186088562,-0.5365695357322693,0.038030438125133514,0.2729142904281616
4.206158638000488,-1.709934949874878,-0.8466221690177917,0.9846946597099304,-0.5360687375068665,0.03901858627796173,0.27264735102653503
4.22668719291687,-1.708850383758545,-0.8469184637069702,0.9853649139404297,-0.5357558131217957,0.03929906710982323,0.27252328395843506
4.246801137924194,-1.706926941871643,-0.8475620746612549,0.985981822013855,-0.5353209972381592,0.03997799754142761,0.27230536937713623
4.2669103145599365,-1.705841302871704,-0.8481773138046265,0.9857922196388245,-0.5350850820541382,0.040607355535030365,0.2721242308616638
4.28704309463501,-1.7055323123931885,-0.8484504818916321,0.9853911399841309,-0.5350418090820312,0.04096042364835739,0.2720567584037781
4.307182550430298,-1.705247163772583,-0.8488804697990417,0.9850922226905823,-0.5349159836769104,0.04142014682292938,0.2719224989414215
4.327204942703247,-1.7043015956878662,-0.849283754825592,0.9857298731803894,-0.5346284508705139,0.04181832820177078,0.27175503969192505
4.347306489944458,-1.7030901908874512,-0.8495621681213379,0.9863107800483704,-0.5344328880310059,0.04216456413269043,0.2716327905654907
4.367395401000977,-1.700242519378662,-0.8502448201179504,0.9875545501708984,-0.5339789390563965,0.04292028397321701,0.27134969830513
4.387436389923096,-1.6987459659576416,-0.8506249189376831,0.98780357837677,-0.5338318347930908,0.04343904182314873,0.2712174654006958
4.407521486282349,-1.6959033012390137,-0.8513636589050293,0.9876203536987305,-0.5336971879005432,0.04462398588657379,0.2709871530532837
4.427599906921387,-1.6929495334625244,-0.8520238995552063,0.9870717525482178,-0.5335907936096191,0.045993734151124954,0.27079689502716064
4.447675466537476,-1.6916794776916504,-0.8523392677307129,0.9869067072868347,-0.5334758162498474,0.04659578204154968,0.27069318294525146
4.467756748199463,-1.6895216703414917,-0.8529819846153259,0.9871980547904968,-0.5331758856773376,0.04752657189965248,0.2704336941242218
4.487836122512817,-1.6885625123977661,-0.8533256649971008,0.9875341653823853,-0.533026397228241,0.04789635166525841,0.27027690410614014
4.508005619049072,-1.6860383749008179,-0.8540515303611755,0.9888293147087097,-0.5325974225997925,0.0485878512263298,0.2699284255504608
4.528016567230225,-1.6839425563812256,-0.8547583818435669,0.9897592663764954,-0.5322669148445129,0.04922597110271454,0.2696295380592346
4.548108100891113,-1.6832733154296875,-0.8550667762756348,0.9898999333381653,-0.5321575403213501,0.049518369138240814,0.26952263712882996
4.568199634552002,-1.6820569038391113,-0.8556370139122009,0.9897549152374268,-0.5320144295692444,0.050227146595716476,0.2693460285663605
4.588350057601929,-1.680232048034668,-0.8562260866165161,0.989281177520752,-0.531864583492279,0.05125565826892853,0.2691624164581299
4.608453035354614,-1.6789478063583374,-0.8565630316734314,0.9892531037330627,-0.5317326188087463,0.051852285861968994,0.26903945207595825
4.628528833389282,-1.6764116287231445,-0.8572838306427002,0.9892787933349609,-0.5313944220542908,0.05307340994477272,0.2687762975692749
4.648624420166016,-1.6748911142349243,-0.8576507568359375,0.9896082878112793,-0.5311213135719299,0.0536799356341362,0.2686358392238617
4.668701171875,-1.6719255447387695,-0.858321487903595,0.9904308915138245,-0.5304659605026245,0.054782893508672714,0.2684054672718048
4.6887829303741455,-1.66847562789917,-0.858991801738739,0.9908776879310608,-0.529877245426178,0.056037530303001404,0.26822251081466675
4.708887577056885,-1.666974663734436,-0.8593475222587585,0.990910530090332,-0.5297157168388367,0.05663033947348595,0.2681218683719635
4.728978633880615,-1.6649361848831177,-0.8600533604621887,0.9907010197639465,-0.5295498967170715,0.057580795139074326,0.2679116129875183
4.74906849861145,-1.6643520593643188,-0.8603857755661011,0.9907564520835876,-0.5294899940490723,0.057888709008693695,0.2677915692329407
4.769166469573975,-1.6635262966156006,-0.8609909415245056,0.9909923076629639,-0.5293004512786865,0.05834997445344925,0.26756614446640015
4.789235353469849,-1.6617449522018433,-0.8616417646408081,0.9915345907211304,-0.529029369354248,0.05899864062666893,0.2672956883907318
4.809315919876099,-1.6602534055709839,-0.8620114326477051,0.9919112920761108,-0.5288897752761841,0.05948677659034729,0.2671424150466919
4.8293821811676025,-1.657004714012146,-0.8627858757972717,0.992215096950531,-0.5286898612976074,0.0607033371925354,0.26684847474098206
4.849607467651367,-1.6552172899246216,-0.8631734251976013,0.9922952651977539,-0.5286199450492859,0.061410244554281235,0.2667057514190674
4.869616270065308,-1.6520596742630005,-0.863914430141449,0.9922889471054077,-0.5284870862960815,0.06276726722717285,0.26641950011253357
4.88970160484314,-1.6506458520889282,-0.8642783164978027,0.9921777844429016,-0.5284521579742432,0.06344147026538849,0.26627081632614136
4.909770250320435,-1.647615909576416,-0.8650185465812683,0.9925544261932373,-0.5281651616096497,0.06464983522891998,0.2659304738044739
4.930291652679443,-1.6463249921798706,-0.8653744459152222,0.9927736520767212,-0.5279678702354431,0.06517118215560913,0.2657748758792877
4.950423002243042,-1.6438905000686646,-0.8660663962364197,0.9932632446289062,-0.5275019407272339,0.0661277249455452,0.26548829674720764
4.970503807067871,-1.6417821645736694,-0.8667430281639099,0.9931961894035339,-0.5270814895629883,0.0671830028295517,0.26526501774787903
4.9905829429626465,-1.6405432224273682,-0.8671126961708069,0.9929559230804443,-0.5269194841384888,0.06787029653787613,0.26515525579452515
5.01076865196228,-1.6379462480545044,-0.8678907155990601,0.992169201374054,-0.5266512632369995,0.0694144144654274,0.2649277150630951
5.030758857727051,-1.6349800825119019,-0.8686464428901672,0.991838812828064,-0.5264688730239868,0.07086344808340073,0.2646348774433136
5.050852298736572,-1.633622169494629,-0.8689815402030945,0.9919604659080505,-0.5263484716415405,0.07140713185071945,0.2644794285297394
5.0709288120269775,-1.6312247514724731,-0.869610607624054,0.9926788210868835,-0.5261162519454956,0.07221079617738724,0.2641526162624359
5.091135501861572,-1.6287063360214233,-0.8702555894851685,0.9935128092765808,-0.5257241129875183,0.07301357388496399,0.2638641595840454
5.111252307891846,-1.6276226043701172,-0.8705888986587524,0.9935842156410217,-0.52558833360672,0.07346534729003906,0.26373451948165894
5.131523609161377,-1.6259207725524902,-0.8712502717971802,0.993334949016571,-0.5253821611404419,0.07432081550359726,0.26347583532333374
5.15164852142334,-1.6250226497650146,-0.871566891670227,0.9931528568267822,-0.5252911448478699,0.07479371130466461,0.26334431767463684
5.171817302703857,-1.6228718757629395,-0.8722196221351624,0.9932630658149719,-0.5249875783920288,0.07575272768735886,0.2630347013473511
5.191949367523193,-1.6211497783660889,-0.8725473880767822,0.9935798048973083,-0.5247383117675781,0.07636888325214386,0.26288190484046936
5.212065696716309,-1.6174187660217285,-0.8732749819755554,0.994274914264679,-0.5242757201194763,0.07769372314214706,0.26255548000335693
5.2321460247039795,-1.6157023906707764,-0.8736647963523865,0.9944811463356018,-0.5241023302078247,0.07834038883447647,0.26238322257995605
5.252209901809692,-1.6130447387695312,-0.8744432926177979,0.9944937825202942,-0.5239025950431824,0.07948129624128342,0.2620294392108917
5.272271394729614,-1.6104907989501953,-0.8751805424690247,0.9944818019866943,-0.5236542224884033,0.08059342950582504,0.26168292760849
5.2923760414123535,-1.6093220710754395,-0.8755298256874084,0.9945608973503113,-0.5234913229942322,0.08108457922935486,0.26151371002197266
5.312608003616333,-1.6072477102279663,-0.8761793971061707,0.9952223896980286,-0.5230672955513,0.08188336342573166,0.2611985206604004
5.332787990570068,-1.6058059930801392,-0.8768249154090881,0.9958716034889221,-0.5226863622665405,0.08246968686580658,0.26089033484458923
5.352888584136963,-1.6048336029052734,-0.8771300315856934,0.996288001537323,-0.5224541425704956,0.08282651007175446,0.2607566714286804
5.3729870319366455,-1.602773666381836,-0.8777986764907837,0.9962093234062195,-0.5221942067146301,0.08381988108158112,0.2604999542236328
5.393118858337402,-1.6017119884490967,-0.8781557083129883,0.9960259199142456,-0.5220759510993958,0.0843983143568039,0.2603692412376404
5.413250207901001,-1.5996707677841187,-0.8789366483688354,0.9954840540885925,-0.5219079852104187,0.08565565943717957,0.2600755989551544
5.433277130126953,-1.5969276428222656,-0.8796939253807068,0.9955285787582397,-0.5215081572532654,0.08699804544448853,0.2597804665565491
5.453397035598755,-1.5948617458343506,-0.8800538778305054,0.9960872530937195,-0.5211428999900818,0.08771079778671265,0.25964367389678955
5.473469257354736,-1.5906301736831665,-0.8808396458625793,0.997258722782135,-0.5204347372055054,0.08911356329917908,0.25937092304229736
5.4935901165008545,-1.5892086029052734,-0.8812429308891296,0.997606635093689,-0.5202047228813171,0.08965756744146347,0.25923049449920654
5.51365852355957,-1.5878318548202515,-0.8820501565933228,0.9977068901062012,-0.5200098752975464,0.09041543304920197,0.2589303255081177
5.533731460571289,-1.5872119665145874,-0.8827745914459229,0.9974691271781921,-0.519923746585846,0.09100862592458725,0.2586345374584198
5.553820610046387,-1.5862983465194702,-0.8831090331077576,0.9975029230117798,-0.519831657409668,0.09142294526100159,0.2584918737411499
5.573940992355347,-1.5829542875289917,-0.8837922215461731,0.998394787311554,-0.5195187926292419,0.09248467534780502,0.2581830322742462
5.594017267227173,-1.5790348052978516,-0.8845816850662231,0.9990814328193665,-0.5192776322364807,0.09385829418897629,0.25786808133125305
5.61415433883667,-1.5770516395568848,-0.8849935531616211,0.9992935061454773,-0.5191662907600403,0.09463478624820709,0.2577158510684967
5.634278059005737,-1.5735130310058594,-0.8858162760734558,0.9993484020233154,-0.5189146995544434,0.0961684137582779,0.257426917552948
5.654778003692627,-1.5718802213668823,-0.8861855864524841,0.9990891814231873,-0.5187931060791016,0.09693017601966858,0.25730711221694946
5.6748950481414795,-1.5693435668945312,-0.8868348002433777,0.9991952180862427,-0.5183378458023071,0.09801634401082993,0.2570658028125763
5.694976329803467,-1.5684722661972046,-0.8874578475952148,0.9992058277130127,-0.517894983291626,0.09861566871404648,0.2568153440952301
5.715088605880737,-1.568475365638733,-0.8877853155136108,0.9994088411331177,-0.5176773071289062,0.09875640273094177,0.25666844844818115
5.735344171524048,-1.5677818059921265,-0.8884880542755127,0.9999263286590576,-0.5171790719032288,0.0992562547326088,0.25637558102607727
5.755542516708374,-1.5657861232757568,-0.8892662525177002,1.0003913640975952,-0.5166904330253601,0.10023282468318939,0.25609833002090454
5.775636434555054,-1.5645250082015991,-0.8896645307540894,1.000539779663086,-0.5164434909820557,0.10082699358463287,0.25597327947616577
5.7957048416137695,-1.5615698099136353,-0.8904522061347961,1.0007392168045044,-0.5160753726959229,0.10220552235841751,0.25574567914009094
5.815799236297607,-1.5601166486740112,-0.8908215761184692,1.0008721351623535,-0.5159243941307068,0.10289014130830765,0.2556370496749878
5.8358845710754395,-1.557503581047058,-0.89151930809021,1.0014742612838745,-0.5156631469726562,0.10397838056087494,0.2553848922252655
5.856018781661987,-1.555519938468933,-0.8922795057296753,1.0016932487487793,-0.5155736804008484,0.10493721812963486,0.25507789850234985
5.876198053359985,-1.5548651218414307,-0.8926700353622437,1.0015830993652344,-0.5155840516090393,0.10533762723207474,0.2549048662185669
5.896334886550903,-1.5541995763778687,-0.893376350402832,1.0011014938354492,-0.5156281590461731,0.10603544861078262,0.25457963347435
5.916416168212891,-1.5536174774169922,-0.8936532735824585,1.0008573532104492,-0.5156020522117615,0.10645246505737305,0.2544468641281128
5.93648624420166,-1.5509741306304932,-0.8941240310668945,1.000690221786499,-0.5153589844703674,0.10761020332574844,0.2542301118373871
5.956565856933594,-1.5489023923873901,-0.8944187760353088,1.0006353855133057,-0.5152033567428589,0.10843789577484131,0.2541128098964691
5.976701259613037,-1.544193983078003,-0.8951461315155029,1.0006412267684937,-0.51496422290802,0.11036963015794754,0.2538166046142578
5.996803045272827,-1.5420693159103394,-0.8955339193344116,1.0008735656738281,-0.514822781085968,0.11121335625648499,0.25363191962242126
6.016919136047363,-1.5376156568527222,-0.8963193297386169,1.001515507698059,-0.5144717693328857,0.1128651574254036,0.2532457411289215
6.036964654922485,-1.5332627296447754,-0.897038459777832,1.0024689435958862,-0.5138822793960571,0.11423518508672714,0.2529021203517914
6.057058811187744,-1.5312328338623047,-0.8974229693412781,1.0029610395431519,-0.5135574340820312,0.11485975980758667,0.25273171067237854
6.07714056968689,-1.52781343460083,-0.8982998132705688,1.0038045644760132,-0.5129949450492859,0.11605715751647949,0.2523546516895294
6.097200155258179,-1.5260764360427856,-0.8987982273101807,1.0040950775146484,-0.5127763748168945,0.11677704006433487,0.2521481215953827
6.1172966957092285,-1.5228393077850342,-0.8997811675071716,1.0044245719909668,-0.5123916864395142,0.1182067021727562,0.2517625093460083
6.137398719787598,-1.5190645456314087,-0.900662899017334,1.0049285888671875,-0.5119002461433411,0.1197209358215332,0.25145089626312256
6.1574718952178955,-1.5172420740127563,-0.9010577201843262,1.0053125619888306,-0.5116118788719177,0.12038704752922058,0.2513203024864197
6.177553653717041,-1.5135668516159058,-0.9019538164138794,1.0059210062026978,-0.5110631585121155,0.12183577567338943,0.25104275345802307
6.19760274887085,-1.5108495950698853,-0.9028666019439697,1.0061951875686646,-0.5105748772621155,0.123074971139431,0.25074660778045654
6.217693567276001,-1.5098109245300293,-0.9033249020576477,1.0063339471817017,-0.5102894306182861,0.12360413372516632,0.2506013810634613
6.237770080566406,-1.5073447227478027,-0.9041803479194641,1.0070456266403198,-0.5096111297607422,0.12463141977787018,0.25033140182495117
6.2580578327178955,-1.5060698986053467,-0.9046323895454407,1.007615327835083,-0.5092622637748718,0.12510554492473602,0.25018608570098877
6.2781431674957275,-1.5031195878982544,-0.9056255221366882,1.0080314874649048,-0.5087810754776001,0.12641550600528717,0.2498936802148819
6.298192739486694,-1.499340534210205,-0.9066759347915649,1.0085110664367676,-0.5084366798400879,0.12795843183994293,0.24956801533699036
6.318304061889648,-1.4967206716537476,-0.907203733921051,1.0091230869293213,-0.5081640481948853,0.12884236872196198,0.2494041919708252
6.3383753299713135,-1.4917263984680176,-0.9082714319229126,1.0105139017105103,-0.5076761245727539,0.13049250841140747,0.24904321134090424
6.358466863632202,-1.4898507595062256,-0.9087854027748108,1.0112504959106445,-0.5074464082717896,0.13114075362682343,0.24884942173957825
6.378564119338989,-1.4879957437515259,-0.9097462296485901,1.0119493007659912,-0.5072211027145386,0.13206934928894043,0.24846339225769043
6.3986170291900635,-1.4869937896728516,-0.9106788039207458,1.0116870403289795,-0.5071563124656677,0.1329498589038849,0.248072549700737
6.418713569641113,-1.485949158668518,-0.9111536145210266,1.011657476425171,-0.5070414543151855,0.13350480794906616,0.24787278473377228
6.438771963119507,-1.4827158451080322,-0.912125289440155,1.011887788772583,-0.5065745115280151,0.13483169674873352,0.24749451875686646
6.459073305130005,-1.4805861711502075,-0.9126367568969727,1.0123995542526245,-0.5062257051467896,0.13558867573738098,0.2473086714744568
6.479173421859741,-1.4766734838485718,-0.9136679768562317,1.0131762027740479,-0.5055455565452576,0.13720032572746277,0.24700072407722473
6.499185800552368,-1.4730193614959717,-0.9146607518196106,1.0136102437973022,-0.5052001476287842,0.1388757824897766,0.24669143557548523
6.519284009933472,-1.471642255783081,-0.9151110649108887,1.0137349367141724,-0.5050962567329407,0.1395585536956787,0.24653391540050507
6.539383172988892,-1.4686776399612427,-0.9159246683120728,1.0142630338668823,-0.5048208832740784,0.14072860777378082,0.24622511863708496
6.559513330459595,-1.466210126876831,-0.9167920351028442,1.0144129991531372,-0.5045347213745117,0.14176322519779205,0.24588575959205627
6.57960057258606,-1.4648224115371704,-0.9172159433364868,1.0142508745193481,-0.504348874092102,0.14238344132900238,0.24575485289096832
6.599661350250244,-1.461756706237793,-0.9180943369865417,1.0135986804962158,-0.5041161179542542,0.14385998249053955,0.24549084901809692
6.619754076004028,-1.4596598148345947,-0.9185194969177246,1.013607382774353,-0.5039143562316895,0.14471431076526642,0.24537970125675201
6.639896392822266,-1.4550998210906982,-0.9194245338439941,1.0138124227523804,-0.5035205483436584,0.14654123783111572,0.24513950943946838
6.66037392616272,-1.4529180526733398,-0.9198747873306274,1.0141867399215698,-0.5033187866210938,0.14737151563167572,0.2449996918439865
6.680503606796265,-1.4481000900268555,-0.9208119511604309,1.0148884057998657,-0.5028649568557739,0.14917778968811035,0.24472518265247345
6.70058536529541,-1.445603847503662,-0.9212772250175476,1.0154114961624146,-0.502564549446106,0.15004056692123413,0.24458710849285126
6.720669269561768,-1.4401224851608276,-0.9223083257675171,1.0164270401000977,-0.5017154216766357,0.1518765389919281,0.24432846903800964
6.740771532058716,-1.4354252815246582,-0.9233664870262146,1.0171865224838257,-0.500830888748169,0.15359649062156677,0.2440735399723053
6.7609052658081055,-1.4335016012191772,-0.9238874316215515,1.0173366069793701,-0.5004810690879822,0.1544114500284195,0.24394211173057556
6.780951738357544,-1.430212378501892,-0.9248260855674744,1.0173169374465942,-0.5000614523887634,0.15603387355804443,0.2436811327934265
6.801054954528809,-1.4285999536514282,-0.9252656102180481,1.0172348022460938,-0.49985748529434204,0.1568468064069748,0.2435583472251892
6.821155548095703,-1.4256945848464966,-0.9261229038238525,1.0168919563293457,-0.49949610233306885,0.15838854014873505,0.24329642951488495
6.841256618499756,-1.422629952430725,-0.9270445704460144,1.0168612003326416,-0.49891984462738037,0.159824937582016,0.24300605058670044
6.861419439315796,-1.4210011959075928,-0.9275401830673218,1.016883373260498,-0.49864688515663147,0.16057127714157104,0.2428465187549591
6.88146185874939,-1.4171699285507202,-0.9285951256752014,1.0177044868469238,-0.49804049730300903,0.16207976639270782,0.2424725592136383
6.901933670043945,-1.4131696224212646,-0.929652750492096,1.019147515296936,-0.4975593090057373,0.16355763375759125,0.24204987287521362
6.922044992446899,-1.410834789276123,-0.9301977157592773,1.0203971862792969,-0.49725523591041565,0.16426944732666016,0.24181777238845825
6.9421422481536865,-1.4067955017089844,-0.9312914609909058,1.0219746828079224,-0.49677902460098267,0.1657177209854126,0.24140098690986633
6.962524652481079,-1.4031178951263428,-0.9324091076850891,1.0229649543762207,-0.4962955117225647,0.16715824604034424,0.241009920835495
6.982648134231567,-1.4016456604003906,-0.9329684376716614,1.022872805595398,-0.49614736437797546,0.1679234802722931,0.24082523584365845
7.0027148723602295,-1.398586630821228,-0.93406081199646,1.0232923030853271,-0.49570322036743164,0.16931991279125214,0.24042952060699463
7.022819757461548,-1.3971072435379028,-0.9345947504043579,1.0233486890792847,-0.49550989270210266,0.17007207870483398,0.24023310840129852
7.042901992797852,-1.3939911127090454,-0.9355896711349487,1.0239225625991821,-0.49497488141059875,0.1715831756591797,0.23985016345977783
7.0630738735198975,-1.3923463821411133,-0.9360834956169128,1.0242655277252197,-0.49468135833740234,0.1723477989435196,0.23965102434158325
7.083183765411377,-1.3886258602142334,-0.9370214939117432,1.0253102779388428,-0.49388939142227173,0.17390644550323486,0.23930838704109192
7.103309154510498,-1.3848859071731567,-0.9379799962043762,1.025923252105713,-0.4929189085960388,0.17545342445373535,0.23906590044498444
7.123416423797607,-1.3826754093170166,-0.9384766221046448,1.026234745979309,-0.49239253997802734,0.1763157844543457,0.23898103833198547
7.143441915512085,-1.37764573097229,-0.9395898580551147,1.026847004890442,-0.4914625585079193,0.178239107131958,0.238780677318573
7.163658142089844,-1.3751381635665894,-0.9401857852935791,1.0272079706192017,-0.4911392629146576,0.17921096086502075,0.23863962292671204
7.18375301361084,-1.370540976524353,-0.941371500492096,1.027834415435791,-0.49070510268211365,0.1810518056154251,0.2382824420928955
7.2038257122039795,-1.3671616315841675,-0.9424061179161072,1.0280297994613647,-0.4904700219631195,0.18263469636440277,0.23790520429611206
7.223922252655029,-1.365507960319519,-0.9428778886795044,1.0282080173492432,-0.4903215169906616,0.1833663433790207,0.2377203404903412
7.244003057479858,-1.3617973327636719,-0.9438205361366272,1.0283918380737305,-0.4900049567222595,0.1849486529827118,0.23737943172454834
7.264421463012695,-1.3593944311141968,-0.9443315267562866,1.0286189317703247,-0.4897814393043518,0.18585504591464996,0.23721569776535034
7.2845213413238525,-1.3548710346221924,-0.9454242587089539,1.0286768674850464,-0.48934054374694824,0.18767422437667847,0.2369009256362915
7.304579257965088,-1.3501663208007812,-0.9465175867080688,1.0285868644714355,-0.4888007640838623,0.18965259194374084,0.23664045333862305
7.324679136276245,-1.348082184791565,-0.9469882845878601,1.0286225080490112,-0.48849961161613464,0.1905892789363861,0.23654034733772278
7.34478759765625,-1.3433998823165894,-0.9478235840797424,1.028970718383789,-0.4878605008125305,0.19257433712482452,0.23639753460884094
7.3649983406066895,-1.3379043340682983,-0.9486842751502991,1.0302687883377075,-0.48706358671188354,0.19446584582328796,0.23622503876686096
7.385126113891602,-1.334741473197937,-0.9491913318634033,1.0310912132263184,-0.486526221036911,0.195406973361969,0.23614108562469482
7.4051899909973145,-1.3279484510421753,-0.9504446387290955,1.03285813331604,-0.4852983057498932,0.19745248556137085,0.23592396080493927
7.425272464752197,-1.3250823020935059,-0.9511213898658752,1.0336436033248901,-0.484730064868927,0.19841508567333221,0.2357894629240036
7.445437431335449,-1.3203500509262085,-0.9524688124656677,1.0348039865493774,-0.4839555323123932,0.20039568841457367,0.23546241223812103
7.4658873081207275,-1.3181592226028442,-0.9531276822090149,1.0353597402572632,-0.48369622230529785,0.2014017254114151,0.23526710271835327
7.486045837402344,-1.3140544891357422,-0.95450758934021,1.0360691547393799,-0.48322582244873047,0.20332592725753784,0.23480644822120667
7.506321430206299,-1.3092784881591797,-0.9558825492858887,1.036829948425293,-0.48249945044517517,0.2052752822637558,0.23435628414154053
7.5264105796813965,-1.3068660497665405,-0.9565362930297852,1.0373969078063965,-0.4820331633090973,0.20619310438632965,0.2341444194316864
7.546475648880005,-1.302441120147705,-0.9577664732933044,1.0388637781143188,-0.4810420870780945,0.20791086554527283,0.2337389886379242
7.566559076309204,-1.2999091148376465,-0.9583660960197449,1.0399582386016846,-0.48042383790016174,0.20879235863685608,0.23356667160987854
7.586842775344849,-1.2947161197662354,-0.9596859812736511,1.0415923595428467,-0.4793689250946045,0.21079526841640472,0.23321808874607086
7.607107877731323,-1.2881553173065186,-0.9611721634864807,1.043071985244751,-0.47833767533302307,0.21315303444862366,0.23288066685199738
7.627199649810791,-1.285027027130127,-0.9619207382202148,1.043555736541748,-0.47791123390197754,0.21431393921375275,0.23271022737026215
7.64726185798645,-1.2782273292541504,-0.9633700847625732,1.0447183847427368,-0.47707146406173706,0.21681195497512817,0.23236685991287231
7.667380094528198,-1.2751158475875854,-0.9640548229217529,1.0449541807174683,-0.47673672437667847,0.2180752456188202,0.2322036325931549
7.687427520751953,-1.2687420845031738,-0.9654291272163391,1.0460208654403687,-0.4758947491645813,0.22051960229873657,0.23183634877204895
7.707526445388794,-1.2651464939117432,-0.9661514759063721,1.0467915534973145,-0.4753967523574829,0.22178441286087036,0.23163563013076782
7.72760796546936,-1.2593052387237549,-0.9676225185394287,1.0480395555496216,-0.4744419753551483,0.22399915754795074,0.23116974532604218
7.747702598571777,-1.256960153579712,-0.9683500528335571,1.048407793045044,-0.47405511140823364,0.2250019609928131,0.23091766238212585
7.767807245254517,-1.251414179801941,-0.9697664976119995,1.0496641397476196,-0.47309252619743347,0.22718128561973572,0.23047825694084167
7.787884473800659,-1.244530200958252,-0.9712266325950623,1.0512917041778564,-0.47185787558555603,0.2296554148197174,0.23010696470737457
7.80795955657959,-1.2405171394348145,-0.9719931483268738,1.0523778200149536,-0.4711773097515106,0.23105169832706451,0.2299204021692276
7.828032970428467,-1.233541488647461,-0.9734802842140198,1.0539228916168213,-0.47011804580688477,0.23376373946666718,0.22952505946159363
7.848237037658691,-1.2279057502746582,-0.9748809933662415,1.054188847541809,-0.46953678131103516,0.23645424842834473,0.22911405563354492
7.868345737457275,-1.2252624034881592,-0.9755858778953552,1.0540536642074585,-0.4693322777748108,0.23777103424072266,0.22888457775115967
7.888402938842773,-1.219690203666687,-0.9770064353942871,1.054030179977417,-0.4687252938747406,0.24026890099048615,0.22839578986167908
7.908486843109131,-1.2166075706481934,-0.977699875831604,1.0546085834503174,-0.4682084023952484,0.24136804044246674,0.2281522899866104
7.928566217422485,-1.2104179859161377,-0.9791197776794434,1.0558462142944336,-0.4670374095439911,0.24364341795444489,0.22767400741577148
7.9486165046691895,-1.2043650150299072,-0.9804624915122986,1.0575542449951172,-0.465848833322525,0.24595342576503754,0.2272280752658844
7.96871280670166,-1.201028823852539,-0.9811429381370544,1.0584876537322998,-0.4652467966079712,0.2472512274980545,0.22702091932296753
7.9887871742248535,-1.1937421560287476,-0.9825002551078796,1.0605783462524414,-0.4637496769428253,0.24988070130348206,0.22670264542102814
8.009540557861328,-1.1896083354949951,-0.983217179775238,1.061562418937683,-0.4627572298049927,0.25127974152565,0.22662565112113953
8.029726266860962,-1.1815810203552246,-0.9847683906555176,1.0629496574401855,-0.46087130904197693,0.25414547324180603,0.22643470764160156
8.049763202667236,-1.1735938787460327,-0.9864347577095032,1.0640432834625244,-0.45930302143096924,0.25711971521377563,0.22612884640693665
8.06983757019043,-1.169255018234253,-0.9872899055480957,1.0647777318954468,-0.4586552679538727,0.25870281457901,0.22592204809188843
8.08994436264038,-1.1612145900726318,-0.9889575839042664,1.0667598247528076,-0.4575037956237793,0.2616831362247467,0.225432351231575
8.110070705413818,-1.1531959772109985,-0.9905988574028015,1.0690898895263672,-0.456294447183609,0.2646464705467224,0.22495631873607635
8.130155801773071,-1.1495689153671265,-0.9914419651031494,1.0701041221618652,-0.4556933045387268,0.2660292088985443,0.22470232844352722
8.15030026435852,-1.1408003568649292,-0.993256688117981,1.072668433189392,-0.45384588837623596,0.2689702808856964,0.22431817650794983
8.170444965362549,-1.1355020999908447,-0.994246244430542,1.0745190382003784,-0.4525219202041626,0.27053022384643555,0.22420400381088257
8.190544605255127,-1.1261731386184692,-0.9963451027870178,1.0769416093826294,-0.45006224513053894,0.2734956741333008,0.223960280418396
8.210635423660278,-1.1159576177597046,-0.9986239671707153,1.0789839029312134,-0.4475483000278473,0.27674421668052673,0.22375011444091797
8.23073434829712,-1.1110725402832031,-0.9997843503952026,1.0794106721878052,-0.4464769661426544,0.27846020460128784,0.22361594438552856
8.250816822052002,-1.0994621515274048,-1.0022131204605103,1.0815763473510742,-0.4439772665500641,0.28234153985977173,0.22336748242378235
8.270891189575195,-1.0927395820617676,-1.003472089767456,1.083579182624817,-0.4425079822540283,0.284478098154068,0.2232586294412613
8.290973663330078,-1.0811024904251099,-1.005949854850769,1.086361050605774,-0.4398839771747589,0.28867483139038086,0.22295263409614563
8.311389684677124,-1.0696909427642822,-1.0085654258728027,1.089131236076355,-0.4370596408843994,0.29282861948013306,0.2225700169801712
8.33152723312378,-1.0651572942733765,-1.0098389387130737,1.0899463891983032,-0.43594643473625183,0.2947489321231842,0.22230280935764313
8.351661205291748,-1.055015206336975,-1.012474775314331,1.0925297737121582,-0.4335387051105499,0.29863372445106506,0.22183844447135925
8.37169361114502,-1.0495476722717285,-1.013811707496643,1.0945854187011719,-0.43230003118515015,0.3005658984184265,0.22159823775291443
8.391820430755615,-1.0398107767105103,-1.0164958238601685,1.0979763269424438,-0.43006542325019836,0.30423402786254883,0.2209925502538681
8.41190481185913,-1.035593867301941,-1.0178638696670532,1.0994057655334473,-0.42904677987098694,0.305939644575119,0.2205866277217865
8.432001829147339,-1.0248602628707886,-1.0208284854888916,1.1045855283737183,-0.4262653887271881,0.3097292482852936,0.2198108732700348
8.452604055404663,-1.0116164684295654,-1.0240767002105713,1.1108213663101196,-0.4227384626865387,0.31418678164482117,0.21926002204418182
8.472809314727783,-1.0025901794433594,-1.0259171724319458,1.114966869354248,-0.4203188419342041,0.31685811281204224,0.21917252242565155
8.492940902709961,-0.9845914244651794,-1.0298088788986206,1.1224689483642578,-0.41544681787490845,0.32226502895355225,0.21898871660232544
8.513050556182861,-0.9761106371879578,-1.031820297241211,1.12548828125,-0.4131936728954315,0.32500308752059937,0.2188521921634674
8.533100366592407,-0.9558659791946411,-1.0363271236419678,1.1335761547088623,-0.40749844908714294,0.3311533033847809,0.21875208616256714
8.553190231323242,-0.9436976313591003,-1.0388239622116089,1.1386311054229736,-0.40402135252952576,0.33467474579811096,0.21885594725608826
8.573280811309814,-0.9214196801185608,-1.043862223625183,1.1464526653289795,-0.39766719937324524,0.3416849672794342,0.21891117095947266
8.593338251113892,-0.9117627143859863,-1.0463484525680542,1.1485142707824707,-0.3949989676475525,0.3451932370662689,0.21887776255607605
8.613458395004272,-0.8885553479194641,-1.0517534017562866,1.1569157838821411,-0.388447642326355,0.3523491322994232,0.21889975666999817
8.633506774902344,-0.863673985004425,-1.0576598644256592,1.1650445461273193,-0.3810330629348755,0.35978198051452637,0.2189725786447525
8.653621196746826,-0.8483625054359436,-1.0609512329101562,1.1708647012710571,-0.37619757652282715,0.363715797662735,0.21914801001548767
8.673750162124634,-0.8194094300270081,-1.0680023431777954,1.1792138814926147,-0.36666619777679443,0.37159350514411926,0.21928523480892181
8.693889617919922,-0.8052582740783691,-1.0717710256576538,1.1817001104354858,-0.3618672490119934,0.37562742829322815,0.21934863924980164
8.713979482650757,-0.7711196541786194,-1.079982876777649,1.1889582872390747,-0.35051628947257996,0.3845043182373047,0.21969112753868103
8.734039306640625,-0.7367319464683533,-1.088881254196167,1.1930211782455444,-0.33891725540161133,0.3940523862838745,0.22000963985919952
8.754166603088379,-0.7179792523384094,-1.0933417081832886,1.196033000946045,-0.33277201652526855,0.39907699823379517,0.2202025055885315
8.774307012557983,-0.6860443353652954,-1.1028926372528076,1.196571946144104,-0.321496844291687,0.40835827589035034,0.22012877464294434
8.794320583343506,-0.6565004587173462,-1.1130646467208862,1.194824457168579,-0.31015902757644653,0.4171508252620697,0.21971961855888367
8.814412117004395,-0.645216166973114,-1.1190232038497925,1.1899442672729492,-0.3046253025531769,0.4210662543773651,0.21922248601913452
8.834512710571289,-0.6233128309249878,-1.1311289072036743,1.179796576499939,-0.2933735251426697,0.42895445227622986,0.21794959902763367
8.85504937171936,-0.6050266027450562,-1.1442358493804932,1.1662178039550781,-0.2818436026573181,0.43605053424835205,0.21616822481155396
8.875237464904785,-0.594965398311615,-1.1505593061447144,1.1614145040512085,-0.27586841583251953,0.4397118389606476,0.21526914834976196
8.895311117172241,-0.5771342515945435,-1.163968801498413,1.1505675315856934,-0.26376980543136597,0.4462157189846039,0.2134205400943756
8.915385961532593,-0.56917804479599,-1.1708831787109375,1.14516282081604,-0.2578008472919464,0.44913047552108765,0.2124776393175125
8.935422420501709,-0.5485302209854126,-1.1844453811645508,1.141291618347168,-0.2447381466627121,0.45552802085876465,0.21108442544937134
8.955598831176758,-0.5271262526512146,-1.1972734928131104,1.1421289443969727,-0.23177772760391235,0.4618295431137085,0.20977824926376343
8.97568655014038,-0.515891969203949,-1.2031655311584473,1.1444374322891235,-0.22543641924858093,0.46507903933525085,0.20911461114883423
8.995755910873413,-0.4989050328731537,-1.2147648334503174,1.1455202102661133,-0.21417300403118134,0.4710981249809265,0.20713196694850922
9.015871047973633,-0.49253565073013306,-1.219927430152893,1.1458975076675415,-0.20933260023593903,0.47383859753608704,0.20586273074150085
9.03595519065857,-0.48122140765190125,-1.2287951707839966,1.1489322185516357,-0.20061223208904266,0.4791622757911682,0.2030285894870758
9.056068181991577,-0.4760666489601135,-1.23216712474823,1.1526367664337158,-0.19690550863742828,0.48164671659469604,0.20159682631492615
9.076124906539917,-0.47001945972442627,-1.2388324737548828,1.1580418348312378,-0.19078733026981354,0.48630857467651367,0.19842390716075897
9.096409320831299,-0.4656063914299011,-1.2437613010406494,1.1668365001678467,-0.18645353615283966,0.49111393094062805,0.19517122209072113
9.116499662399292,-0.4642972946166992,-1.2460659742355347,1.1717208623886108,-0.1847013533115387,0.4937175214290619,0.19341185688972473
9.136568069458008,-0.46007317304611206,-1.2491462230682373,1.1879647970199585,-0.1817493885755539,0.4991091787815094,0.1898588240146637
9.156663656234741,-0.45751285552978516,-1.250313401222229,1.198606252670288,-0.18050776422023773,0.5020194053649902,0.18799570202827454
9.17676067352295,-0.4538034200668335,-1.253244161605835,1.2216366529464722,-0.17887970805168152,0.5085068941116333,0.1838713139295578
9.197134256362915,-0.452184796333313,-1.2549418210983276,1.2338300943374634,-0.17841719090938568,0.5121942758560181,0.18173521757125854
9.217294216156006,-0.4483746588230133,-1.2585538625717163,1.2597249746322632,-0.17787200212478638,0.5200924277305603,0.17750787734985352
9.237322807312012,-0.4451715350151062,-1.2629426717758179,1.2842442989349365,-0.17723187804222107,0.5282891392707825,0.17349953949451447
9.25741457939148,-0.4435264766216278,-1.2652866840362549,1.2966238260269165,-0.1767081916332245,0.5322791934013367,0.17158243060112
9.277480840682983,-0.4404076933860779,-1.2702521085739136,1.320451259613037,-0.17528504133224487,0.5396937727928162,0.16801610589027405
9.297912359237671,-0.43708691000938416,-1.2754013538360596,1.343393325805664,-0.17369697988033295,0.546425998210907,0.1647569239139557
9.318002462387085,-0.43574628233909607,-1.2780823707580566,1.353786826133728,-0.1730097085237503,0.5497074127197266,0.16319674253463745
9.338046312332153,-0.43449464440345764,-1.2836589813232422,1.371185302734375,-0.17170123755931854,0.5561569929122925,0.16016826033592224
9.35814118385315,-0.4346991777420044,-1.2864850759506226,1.3778704404830933,-0.171111598610878,0.5593024492263794,0.15873847901821136
9.37822437286377,-0.4362427294254303,-1.2921336889266968,1.3876723051071167,-0.16992834210395813,0.5651925802230835,0.15616290271282196
9.398486852645874,-0.4386367201805115,-1.2975001335144043,1.3944085836410522,-0.16899344325065613,0.5707210302352905,0.153948113322258
9.418569087982178,-0.4402589201927185,-1.2999608516693115,1.3966902494430542,-0.16869902610778809,0.5733963251113892,0.15289421379566193
9.438653469085693,-0.4437558054924011,-1.3045570850372314,1.4001134634017944,-0.16827969253063202,0.5783684253692627,0.15091723203659058
9.458841800689697,-0.4456656575202942,-1.3067171573638916,1.4011775255203247,-0.16811084747314453,0.5806269645690918,0.14998295903205872
9.478869199752808,-0.4499436914920807,-1.310646653175354,1.4023220539093018,-0.16786549985408783,0.5847634077072144,0.14815901219844818
9.499128818511963,-0.455291748046875,-1.3141895532608032,1.4021437168121338,-0.16769744455814362,0.5880770683288574,0.14633817970752716
9.519224882125854,-0.45842239260673523,-1.3158066272735596,1.4014743566513062,-0.16771374642848969,0.5895291566848755,0.1454613357782364
9.539295434951782,-0.46459758281707764,-1.3190544843673706,1.3996930122375488,-0.16753701865673065,0.5918048024177551,0.14387087523937225
9.5594003200531,-0.46748870611190796,-1.3207169771194458,1.3986661434173584,-0.16727644205093384,0.5926535129547119,0.14317788183689117
9.579453468322754,-0.47277453541755676,-1.3241074085235596,1.396470069885254,-0.16629928350448608,0.5937628746032715,0.14197640120983124
9.59956955909729,-0.47746825218200684,-1.3275880813598633,1.394203543663025,-0.16463834047317505,0.5941174030303955,0.14099471271038055
9.619651317596436,-0.4794852137565613,-1.329217791557312,1.3934011459350586,-0.16378290951251984,0.5943166017532349,0.14055602252483368
9.639721393585205,-0.4823981523513794,-1.3325579166412354,1.3923579454421997,-0.16199861466884613,0.5947085618972778,0.13985352218151093
9.660816431045532,-0.4840565621852875,-1.336057186126709,1.3922960758209229,-0.16017158329486847,0.5949055552482605,0.13929511606693268
9.68090271949768,-0.4843437671661377,-1.3377277851104736,1.3929129838943481,-0.1592806875705719,0.5951244235038757,0.13906000554561615
9.70096755027771,-0.48426443338394165,-1.3408931493759155,1.395013451576233,-0.157316192984581,0.5956860184669495,0.13866974413394928
9.72115683555603,-0.4838344156742096,-1.3424066305160522,1.3965498208999634,-0.15622808039188385,0.596031129360199,0.1385200470685959
9.741195678710938,-0.48281824588775635,-1.345531702041626,1.3993656635284424,-0.1538407802581787,0.5966004133224487,0.13833464682102203
9.76156997680664,-0.4819459617137909,-1.3490339517593384,1.4013293981552124,-0.15123555064201355,0.5966359376907349,0.13827304542064667
9.78172516822815,-0.4814784526824951,-1.3508572578430176,1.4017903804779053,-0.15005049109458923,0.5967097878456116,0.13829487562179565
9.801787614822388,-0.48014935851097107,-1.3546216487884521,1.4019749164581299,-0.14776886999607086,0.5968628525733948,0.1384371817111969
9.821946144104004,-0.4795584976673126,-1.3564555644989014,1.4019628763198853,-0.14675450325012207,0.5969353914260864,0.1384531557559967
9.842036008834839,-0.4785868525505066,-1.3597460985183716,1.403071641921997,-0.14488589763641357,0.597222626209259,0.1382436901330948
9.862153053283691,-0.47720345854759216,-1.362633228302002,1.406540036201477,-0.1431037038564682,0.597733736038208,0.13781137764453888
9.8822762966156,-0.4763652980327606,-1.3639800548553467,1.4089281558990479,-0.14221340417861938,0.598118245601654,0.137560173869133
9.90232539176941,-0.4743232727050781,-1.367017149925232,1.4135977029800415,-0.14007984101772308,0.598490834236145,0.1372215300798416
9.922608375549316,-0.4735291600227356,-1.3686022758483887,1.415649652481079,-0.13897937536239624,0.5986184477806091,0.1370588093996048
9.942869424819946,-0.4717736840248108,-1.3718878030776978,1.4195207357406616,-0.13657933473587036,0.5987603664398193,0.1368439793586731
9.962844610214233,-0.47015827894210815,-1.375123143196106,1.4227607250213623,-0.13426226377487183,0.599124550819397,0.1366710513830185
9.9829683303833,-0.4694938063621521,-1.3766541481018066,1.4244394302368164,-0.133279487490654,0.5994230508804321,0.13651634752750397
10.003038167953491,-0.468586266040802,-1.3794087171554565,1.4280320405960083,-0.13151639699935913,0.6003690361976624,0.13602951169013977
10.023618459701538,-0.4679773449897766,-1.3804830312728882,1.430590033531189,-0.13084885478019714,0.6012365221977234,0.13567379117012024
10.043796062469482,-0.4662918448448181,-1.3824151754379272,1.436440348625183,-0.12956559658050537,0.603341817855835,0.1349370777606964
10.06381607055664,-0.4640657901763916,-1.3843169212341309,1.442577838897705,-0.12838289141654968,0.6055961847305298,0.1342477947473526
10.08400583267212,-0.4631286859512329,-1.3853565454483032,1.4452317953109741,-0.1278269737958908,0.6066574454307556,0.1339331418275833
10.10402774810791,-0.4617381989955902,-1.387634515762329,1.449756383895874,-0.12677498161792755,0.6084414720535278,0.1332911252975464
10.124114274978638,-0.4620233476161957,-1.3901269435882568,1.4534177780151367,-0.12563486397266388,0.6095060706138611,0.13249602913856506
10.144263505935669,-0.46248945593833923,-1.3914494514465332,1.4551440477371216,-0.12504015862941742,0.6097943782806396,0.13206620514392853
10.164319276809692,-0.4646812379360199,-1.3942996263504028,1.4572330713272095,-0.12391651421785355,0.6099691390991211,0.13119016587734222
10.184559345245361,-0.4662444591522217,-1.3958098888397217,1.4575378894805908,-0.123418428003788,0.6099288463592529,0.1307753622531891
10.20464825630188,-0.4701664447784424,-1.3988149166107178,1.4565376043319702,-0.12249740213155746,0.609893798828125,0.13004888594150543
10.224759578704834,-0.47437959909439087,-1.4017088413238525,1.4544084072113037,-0.12149569392204285,0.6098770499229431,0.12946930527687073
10.244851112365723,-0.4765414893627167,-1.403079628944397,1.4531736373901367,-0.12096071988344193,0.6098460555076599,0.12919889390468597
10.26495623588562,-0.4800581932067871,-1.4058198928833008,1.4511799812316895,-0.12001270055770874,0.6098046898841858,0.12869317829608917
10.28507137298584,-0.4839000105857849,-1.4085098505020142,1.4486979246139526,-0.11937753111124039,0.6096311807632446,0.1281512975692749
10.30525279045105,-0.4853397607803345,-1.4097793102264404,1.4478615522384644,-0.1190447062253952,0.6096433997154236,0.12789969146251678
10.32572317123413,-0.48774412274360657,-1.4123655557632446,1.4462461471557617,-0.11798618733882904,0.6094748973846436,0.12748640775680542
10.345854997634888,-0.4886370897293091,-1.4137024879455566,1.4457404613494873,-0.11718135327100754,0.6092361211776733,0.1273200660943985
10.366070032119751,-0.49038374423980713,-1.4165887832641602,1.4447368383407593,-0.11513329297304153,0.608314573764801,0.1270417720079422
10.386143684387207,-0.4913640320301056,-1.4181747436523438,1.4440712928771973,-0.11404509097337723,0.6076458692550659,0.12690681219100952
10.406309604644775,-0.49322521686553955,-1.4214754104614258,1.4425681829452515,-0.11185190081596375,0.606235921382904,0.126663938164711
10.42635464668274,-0.4937859773635864,-1.423278570175171,1.4417282342910767,-0.11068102717399597,0.6054298281669617,0.12658753991127014
10.446590185165405,-0.49425533413887024,-1.4269293546676636,1.4408862590789795,-0.108449287712574,0.603817343711853,0.12643441557884216
10.46708345413208,-0.49362507462501526,-1.4307390451431274,1.4405840635299683,-0.1062096580862999,0.6022412180900574,0.12640082836151123
10.487260103225708,-0.4928356409072876,-1.432665228843689,1.4411312341690063,-0.10503187030553818,0.6013453006744385,0.1263994574546814
10.507280826568604,-0.49005183577537537,-1.436363697052002,1.4438973665237427,-0.10268664360046387,0.5996474027633667,0.12642554938793182
10.527382373809814,-0.48822417855262756,-1.4381128549575806,1.4459435939788818,-0.10154851526021957,0.598909854888916,0.12644319236278534
10.547427415847778,-0.48392942547798157,-1.4413939714431763,1.4510602951049805,-0.09934266656637192,0.5977108478546143,0.12647439539432526
10.567477703094482,-0.47866204380989075,-1.4442156553268433,1.4574476480484009,-0.09765436500310898,0.5973163843154907,0.12643805146217346
10.58757758140564,-0.4755619466304779,-1.4454063177108765,1.4614403247833252,-0.09696090221405029,0.597388505935669,0.12637272477149963
10.607775926589966,-0.46910226345062256,-1.447539210319519,1.4704679250717163,-0.09567290544509888,0.598027765750885,0.1261066198348999
10.627848148345947,-0.4657912850379944,-1.4484784603118896,1.475680947303772,-0.09482425451278687,0.5986185669898987,0.1258959025144577
10.64795446395874,-0.4592619836330414,-1.4503480195999146,1.4869211912155151,-0.09269390255212784,0.599940836429596,0.12538322806358337
10.668025732040405,-0.4532819986343384,-1.452219009399414,1.4992642402648926,-0.09032949060201645,0.6017031073570251,0.12464172393083572
10.68814730644226,-0.45064929127693176,-1.4532067775726318,1.5054781436920166,-0.08933907002210617,0.6028011441230774,0.1241917833685875
10.708186864852905,-0.4463618993759155,-1.4553196430206299,1.5171483755111694,-0.08759497851133347,0.6054930090904236,0.12323110550642014
10.728270530700684,-0.44505923986434937,-1.4565554857254028,1.5222357511520386,-0.08684520423412323,0.6068463325500488,0.12271524220705032
10.748401880264282,-0.4449186623096466,-1.4595822095870972,1.5296926498413086,-0.08531251549720764,0.6091327667236328,0.12169363349676132
10.768471240997314,-0.44851765036582947,-1.4631311893463135,1.5330712795257568,-0.08385589718818665,0.6107797026634216,0.12066692858934402
10.788725137710571,-0.45147404074668884,-1.4649605751037598,1.5331262350082397,-0.08334004133939743,0.6114303469657898,0.120169997215271
10.808816909790039,-0.4590010344982147,-1.4684207439422607,1.5309648513793945,-0.08279159665107727,0.6124398708343506,0.11919064819812775
10.828874826431274,-0.4676106870174408,-1.4715731143951416,1.5265512466430664,-0.08276927471160889,0.6130121946334839,0.11827347427606583
10.848970651626587,-0.4720306694507599,-1.4729969501495361,1.523949384689331,-0.0826791301369667,0.6130651831626892,0.11786036938428879
10.869035005569458,-0.4799681007862091,-1.4754563570022583,1.5190073251724243,-0.08249028027057648,0.6133029460906982,0.11714287847280502
10.889242172241211,-0.48331019282341003,-1.4765610694885254,1.5167371034622192,-0.08231984823942184,0.613460123538971,0.1168418824672699
10.90932822227478,-0.4889225363731384,-1.4785490036010742,1.513131022453308,-0.08167638629674911,0.6136881709098816,0.11632290482521057
10.929378747940063,-0.49360957741737366,-1.480698585510254,1.510062336921692,-0.0806746706366539,0.6132580041885376,0.11588863283395767
10.949476957321167,-0.49569907784461975,-1.481877088546753,1.5088435411453247,-0.08007883280515671,0.6127256155014038,0.11568281054496765
10.96961259841919,-0.49910756945610046,-1.4844199419021606,1.5067235231399536,-0.07889684289693832,0.611373245716095,0.11531966179609299
10.989680528640747,-0.5006078481674194,-1.4857233762741089,1.5056616067886353,-0.07835279405117035,0.6106331944465637,0.11515256017446518
11.009783744812012,-0.5033127665519714,-1.488508939743042,1.503123164176941,-0.07714040577411652,0.6088581085205078,0.11489401012659073
11.029856204986572,-0.5067110061645508,-1.4915335178375244,1.4994717836380005,-0.07547672837972641,0.6063419580459595,0.11474441736936569
11.049935579299927,-0.5083760619163513,-1.4931492805480957,1.4972056150436401,-0.07442556321620941,0.6049141883850098,0.11475276947021484
11.070013523101807,-0.5106507539749146,-1.4963960647583008,1.4939932823181152,-0.07228483259677887,0.6020665764808655,0.11478615552186966
11.09013319015503,-0.5108129382133484,-1.4980350732803345,1.4930907487869263,-0.07133963704109192,0.6008689403533936,0.1148407906293869
11.11021876335144,-0.5090033411979675,-1.501179814338684,1.4932172298431396,-0.06951404362916946,0.5988737344741821,0.11503057926893234
11.130379915237427,-0.505931556224823,-1.5040487051010132,1.4961488246917725,-0.06741258502006531,0.5968297719955444,0.11516701430082321
11.150398254394531,-0.5041212439537048,-1.5053280591964722,1.4988539218902588,-0.06640250235795975,0.59589022397995,0.11514034867286682
11.170475006103516,-0.49930495023727417,-1.5077123641967773,1.5068027973175049,-0.06428764015436172,0.594058096408844,0.11496856063604355
11.190671682357788,-0.4930128753185272,-1.5098694562911987,1.5177255868911743,-0.06254809349775314,0.592664897441864,0.11464270204305649
11.210782289505005,-0.48961278796195984,-1.5109171867370605,1.5239224433898926,-0.061717357486486435,0.5921646356582642,0.11444730311632156
11.230814933776855,-0.48256465792655945,-1.5129793882369995,1.5371716022491455,-0.06012376397848129,0.5917176008224487,0.11402532458305359
11.250903367996216,-0.4791298806667328,-1.5140252113342285,1.5440362691879272,-0.05929269269108772,0.5918634533882141,0.1137833520770073
11.270960807800293,-0.473906010389328,-1.5165867805480957,1.556481957435608,-0.057228606194257736,0.5920253992080688,0.11323677003383636
11.291256666183472,-0.4713675081729889,-1.5198594331741333,1.5663341283798218,-0.05455980822443962,0.5916022062301636,0.11267062276601791
11.311343669891357,-0.4708899259567261,-1.521688461303711,1.5701020956039429,-0.05320677533745766,0.5913196206092834,0.11240199953317642
11.331435918807983,-0.47161006927490234,-1.5256739854812622,1.5749928951263428,-0.05103660374879837,0.5907654166221619,0.11184360086917877
11.351586103439331,-0.47296416759490967,-1.5277283191680908,1.5759340524673462,-0.050283074378967285,0.5906835198402405,0.11156121641397476
11.371827363967896,-0.4782785177230835,-1.5319429636001587,1.5737760066986084,-0.049263812601566315,0.5903105735778809,0.11101670563220978
11.391883611679077,-0.48243656754493713,-1.5340176820755005,1.5708599090576172,-0.04867243021726608,0.5896667838096619,0.1107734814286232
11.412009954452515,-0.4926121234893799,-1.5379242897033691,1.5623031854629517,-0.047306932508945465,0.5874926447868347,0.11036593466997147
11.432072162628174,-0.4982023537158966,-1.5396990776062012,1.557563304901123,-0.04646877944469452,0.5859308242797852,0.11019757390022278
11.45218300819397,-0.509697437286377,-1.5428898334503174,1.5471746921539307,-0.04462793841958046,0.5822475552558899,0.10997495800256729
11.47225308418274,-0.5151139497756958,-1.5443384647369385,1.5423974990844727,-0.04380902275443077,0.5802752375602722,0.1098736971616745
11.492396831512451,-0.5239942669868469,-1.5468418598175049,1.5347341299057007,-0.042639411985874176,0.5770326852798462,0.1096670925617218
11.512650966644287,-0.5319101810455322,-1.5491774082183838,1.5312994718551636,-0.041441116482019424,0.5730340480804443,0.10934637486934662
11.532747030258179,-0.5354002714157104,-1.550335168838501,1.5313395261764526,-0.04079519212245941,0.5708152055740356,0.10915432125329971
11.552825450897217,-0.5414943695068359,-1.5526494979858398,1.535207748413086,-0.0384642519056797,0.5653892755508423,0.10877780616283417
11.572951316833496,-0.5425748229026794,-1.553743839263916,1.5391435623168945,-0.036983881145715714,0.5629199743270874,0.10855668783187866
11.593033790588379,-0.540248453617096,-1.5559961795806885,1.550233244895935,-0.033102020621299744,0.5580881237983704,0.10791441798210144
11.613396406173706,-0.5343304872512817,-1.5587952136993408,1.5629613399505615,-0.02823624201118946,0.5523614287376404,0.10688120126724243
11.63351035118103,-0.5309298038482666,-1.5605542659759521,1.569063663482666,-0.025585589930415154,0.5492759943008423,0.10627537220716476
11.65361762046814,-0.5238838195800781,-1.5647854804992676,1.578603744506836,-0.020533258095383644,0.5440093874931335,0.10505881160497665
11.673638820648193,-0.5196138024330139,-1.5670875310897827,1.5815786123275757,-0.01863321103155613,0.5426944494247437,0.10445994138717651
11.69374704360962,-0.5111460089683533,-1.5720082521438599,1.5833195447921753,-0.016560189425945282,0.5425721406936646,0.10331720858812332
11.7138512134552,-0.504981279373169,-1.5769736766815186,1.579729676246643,-0.016951479017734528,0.5444307923316956,0.10205534100532532
11.733900785446167,-0.5038671493530273,-1.579399585723877,1.5769319534301758,-0.017607590183615685,0.5453212261199951,0.10136667639017105
11.753984212875366,-0.5057321786880493,-1.5840554237365723,1.5717825889587402,-0.02009296976029873,0.5463299751281738,0.09973473846912384
11.77411437034607,-0.5126239657402039,-1.5883272886276245,1.5712106227874756,-0.021795056760311127,0.5454117655754089,0.09808740019798279
11.794242143630981,-0.5167321562767029,-1.5903263092041016,1.5736095905303955,-0.022066336125135422,0.5443198680877686,0.09732279181480408
11.814292430877686,-0.5258059501647949,-1.5941922664642334,1.5831459760665894,-0.020121639594435692,0.5401990413665771,0.09617558121681213
11.834373474121094,-0.5311496257781982,-1.596239447593689,1.589754581451416,-0.01813965104520321,0.5370253324508667,0.09580397605895996
11.854447841644287,-0.5423473715782166,-1.6004295349121094,1.6036803722381592,-0.012370508164167404,0.5294145941734314,0.09561353921890259
11.874647855758667,-0.5469931364059448,-1.6024556159973145,1.6102793216705322,-0.009196294471621513,0.5258561968803406,0.09572575241327286
11.894665479660034,-0.5520581007003784,-1.6061015129089355,1.619998812675476,-0.003371314611285925,0.5207010507583618,0.09607986360788345
11.914719581604004,-0.5457795262336731,-1.607985019683838,1.620443344116211,-0.00017937272787094116,0.5217384696006775,0.09589871764183044
11.934808492660522,-0.540582001209259,-1.6083769798278809,1.6171962022781372,0.00027618074091151357,0.5239407420158386,0.09544359147548676
11.954925775527954,-0.5276316404342651,-1.6079986095428467,1.6058642864227295,-0.0009335487266071141,0.5312603712081909,0.09363466501235962
11.975012302398682,-0.5210093259811401,-1.6074846982955933,1.6000748872756958,-0.002089477377012372,0.535598874092102,0.0923677459359169
11.995139360427856,-0.5083341002464294,-1.6060352325439453,1.5923943519592285,-0.004412606358528137,0.5450852513313293,0.08948008716106415
12.01517915725708,-0.5005277991294861,-1.6045966148376465,1.5919349193572998,-0.004256111569702625,0.5522377490997314,0.08678384870290756
12.035341739654541,-0.49951818585395813,-1.604127049446106,1.5948307514190674,-0.0029093632474541664,0.5541873574256897,0.08568969368934631
12.05549430847168,-0.5051373243331909,-1.6043506860733032,1.6050282716751099,0.0018561177421361208,0.5535901784896851,0.08417732268571854
12.07595157623291,-0.5185850262641907,-1.606301188468933,1.6179434061050415,0.007713845930993557,0.5477484464645386,0.08341988176107407
12.09605884552002,-0.5282338857650757,-1.6077399253845215,1.623068928718567,0.010721403174102306,0.5430010557174683,0.08332984894514084
12.116113901138306,-0.5504164695739746,-1.6108225584030151,1.6280688047409058,0.016421737149357796,0.5308945775032043,0.08352134376764297
12.136428594589233,-0.5658274292945862,-1.612566590309143,1.6249828338623047,0.020274009555578232,0.5211030840873718,0.08364791423082352
12.15652084350586,-0.5677807331085205,-1.6126545667648315,1.6212280988693237,0.020968912169337273,0.5188022255897522,0.08335421234369278
12.176708698272705,-0.5618144273757935,-1.61137056350708,1.6128184795379639,0.020451897755265236,0.5193870663642883,0.08184564858675003
12.196815967559814,-0.5549866557121277,-1.6100969314575195,1.6089097261428833,0.019523313269019127,0.5221764445304871,0.08064652979373932
12.216875791549683,-0.536208987236023,-1.6064581871032715,1.604135274887085,0.017631832510232925,0.5316306948661804,0.0776316374540329
12.236990213394165,-0.5243866443634033,-1.6040966510772705,1.6039613485336304,0.01706979237496853,0.5380462408065796,0.07594142854213715
12.257111549377441,-0.4990874230861664,-1.598840594291687,1.6076180934906006,0.017100153490900993,0.5525398254394531,0.0725756287574768
12.277151584625244,-0.4888821244239807,-1.5966705083847046,1.6112725734710693,0.017649110406637192,0.5590382814407349,0.07108508050441742
12.297248601913452,-0.47881898283958435,-1.5943917036056519,1.619797706604004,0.019237400963902473,0.5680310726165771,0.06862770766019821
12.317473411560059,-0.4856280982494354,-1.5953714847564697,1.626657485961914,0.020712243393063545,0.5703098773956299,0.0669647604227066
12.33758807182312,-0.4946392774581909,-1.596756100654602,1.6288131475448608,0.02152303047478199,0.5687514543533325,0.06645384430885315
12.357694864273071,-0.5233568549156189,-1.6007014513015747,1.630286455154419,0.023499293252825737,0.5596448183059692,0.0661127120256424
12.377760410308838,-0.5413658618927002,-1.6027796268463135,1.629188060760498,0.02485460229218006,0.5522920489311218,0.06627056002616882
12.397826433181763,-0.5743417143821716,-1.6057665348052979,1.6240110397338867,0.027986954897642136,0.5359781980514526,0.06679870188236237
12.41787075996399,-0.5911111831665039,-1.60591721534729,1.6163822412490845,0.031940530985593796,0.5221254229545593,0.06681687384843826
12.437968015670776,-0.5911288261413574,-1.6049778461456299,1.6126114130020142,0.0336858332157135,0.5178189277648926,0.06634114682674408
12.458042860031128,-0.5778573155403137,-1.6019396781921387,1.6065142154693604,0.03651236742734909,0.5147403478622437,0.06431330740451813
12.478144407272339,-0.5653353333473206,-1.600075602531433,1.6045697927474976,0.03718851879239082,0.5165749788284302,0.06275053322315216
12.498231887817383,-0.5345574617385864,-1.5960825681686401,1.6036871671676636,0.03662518411874771,0.5267086625099182,0.05897607281804085
12.518286228179932,-0.5033141374588013,-1.5915805101394653,1.6064770221710205,0.03448203206062317,0.542549729347229,0.05502251163125038
12.538366079330444,-0.49005386233329773,-1.589040994644165,1.60859215259552,0.033144380897283554,0.5515280365943909,0.05329272150993347
12.55844497680664,-0.4731902480125427,-1.5845556259155273,1.6133352518081665,0.0307993795722723,0.5676497220993042,0.05057952553033829
12.578735589981079,-0.4721758961677551,-1.583052635192871,1.6168980598449707,0.029347488656640053,0.5774340629577637,0.04882863536477089
12.59882640838623,-0.4787105917930603,-1.5840212106704712,1.6179701089859009,0.028944000601768494,0.5786591172218323,0.048280276358127594
12.618879556655884,-0.5070320963859558,-1.5888057947158813,1.6184099912643433,0.029272597283124924,0.5717812776565552,0.047864336520433426
12.638962745666504,-0.5290837287902832,-1.592003583908081,1.6177254915237427,0.029957102611660957,0.563624382019043,0.04807742312550545
12.659068584442139,-0.574398398399353,-1.597377896308899,1.6152690649032593,0.03232723847031593,0.5435253381729126,0.04911808297038078
12.679148435592651,-0.5338304042816162,-1.5868656635284424,1.5921412706375122,0.04535148665308952,0.5387798547744751,0.04504159092903137
12.69923710823059,-0.5133830308914185,-1.5817521810531616,1.5808097124099731,0.05183042213320732,0.5362738370895386,0.043017420917749405
12.719293594360352,-0.4723224341869354,-1.5716943740844727,1.5581761598587036,0.06445015221834183,0.5313421487808228,0.03889842331409454
12.73939561843872,-0.45177316665649414,-1.5666025876998901,1.546678900718689,0.07040728628635406,0.5291814208030701,0.036786895245313644
12.75947904586792,-0.4108767509460449,-1.5557584762573242,1.5229734182357788,0.08121015131473541,0.5257771015167236,0.032396819442510605
12.779497385025024,-0.3702174127101898,-1.5438203811645508,1.498741626739502,0.09079592674970627,0.5235661268234253,0.027905989438295364
12.79962158203125,-0.34989234805107117,-1.5375171899795532,1.4866621494293213,0.09532233327627182,0.5227712988853455,0.025641541928052902
12.819673538208008,-0.30907219648361206,-1.5246752500534058,1.462944746017456,0.10446144640445709,0.5213480591773987,0.021091558039188385
12.839767217636108,-0.2886243164539337,-1.5182421207427979,1.4512279033660889,0.10918070375919342,0.520575225353241,0.018779579550027847
12.859926462173462,-0.24768322706222534,-1.5057328939437866,1.4280478954315186,0.1192881315946579,0.5183320641517639,0.014021582901477814
12.879972696304321,-0.2070714235305786,-1.494181513786316,1.404714584350586,0.13066378235816956,0.514244556427002,0.00894075445830822
12.900164365768433,-0.1869782656431198,-1.4887795448303223,1.3929007053375244,0.13679136335849762,0.5113793015480042,0.006340685300529003
12.920165777206421,-0.1478603184223175,-1.4789494276046753,1.3680919408798218,0.14971087872982025,0.5035257339477539,0.0009655514732003212
12.941187381744385,-0.11023151874542236,-1.4701119661331177,1.3416885137557983,0.16304630041122437,0.4934067726135254,-0.004375669173896313
12.961351156234741,-0.09236179292201996,-1.4662154912948608,1.3276327848434448,0.16986390948295593,0.48714008927345276,-0.007054176647216082
12.981396675109863,-0.0567246749997139,-1.458781361579895,1.2994277477264404,0.1832284927368164,0.47400760650634766,-0.012143945321440697
13.00147533416748,-0.038693707436323166,-1.4552162885665894,1.2855397462844849,0.18971501290798187,0.46719682216644287,-0.014559988863766193
13.021552801132202,-0.0034240633249282837,-1.448663592338562,1.2571468353271484,0.20246276259422302,0.4523484706878662,-0.019223706796765327
13.041639566421509,0.03202999755740166,-1.4425687789916992,1.2289701700210571,0.21445785462856293,0.4366435408592224,-0.023649169132113457
13.061721324920654,0.04941631108522415,-1.4398211240768433,1.2147352695465088,0.22022414207458496,0.4280052185058594,-0.02580888383090496
13.081828117370605,0.08556800335645676,-1.4343715906143188,1.1876634359359741,0.2309550791978836,0.4107850193977356,-0.029808927327394485
13.102654695510864,0.12232072651386261,-1.4291279315948486,1.1617865562438965,0.2410488724708557,0.39255163073539734,-0.03342200815677643
13.12279748916626,0.14130786061286926,-1.4265035390853882,1.1496129035949707,0.24582211673259735,0.38338759541511536,-0.035047076642513275
13.142882108688354,0.17786721885204315,-1.4220746755599976,1.1253173351287842,0.2552984952926636,0.36216235160827637,-0.03814709931612015
13.163005590438843,0.19461575150489807,-1.420490026473999,1.1132174730300903,0.26026809215545654,0.34917396306991577,-0.03962130844593048
13.183140277862549,0.22786028683185577,-1.4177333116531372,1.090256690979004,0.27042198181152344,0.32217761874198914,-0.04204315319657326
13.203150272369385,0.2566112279891968,-1.4159337282180786,1.067955732345581,0.28114053606987,0.2902067303657532,-0.04385003075003624
13.223247051239014,0.27129828929901123,-1.4151809215545654,1.0572789907455444,0.2862427532672882,0.27382710576057434,-0.04448758810758591
13.243312358856201,0.2933446168899536,-1.414323091506958,1.0365451574325562,0.29663050174713135,0.235656276345253,-0.045058511197566986
13.263380527496338,0.311749666929245,-1.4141184091567993,1.0182913541793823,0.3068012297153473,0.19440937042236328,-0.04444187507033348
13.283419132232666,0.3162108063697815,-1.414265751838684,1.010721206665039,0.31187039613723755,0.17157681286334991,-0.04357806593179703
13.303489685058594,0.33105459809303284,-1.4144344329833984,0.9972989559173584,0.3205716907978058,0.13060584664344788,-0.04109245911240578
13.32365608215332,0.344679594039917,-1.4145045280456543,0.9881168603897095,0.3277917206287384,0.09450149536132812,-0.03760598227381706
13.343750476837158,0.3546280264854431,-1.4143459796905518,0.9839258790016174,0.3305785059928894,0.07940692454576492,-0.03559231385588646
13.363812923431396,0.36672845482826233,-1.4141873121261597,0.9784695506095886,0.3349131643772125,0.049517951905727386,-0.031111007556319237
13.384056568145752,0.3682102560997009,-1.4140785932540894,0.9768157005310059,0.3364165425300598,0.034502942115068436,-0.028753381222486496
13.404247760772705,0.3751644492149353,-1.4135112762451172,0.9741931557655334,0.33817294239997864,0.007995136082172394,-0.02373398095369339
13.42452096939087,0.37713417410850525,-1.412825107574463,0.9741653203964233,0.33920595049858093,-0.018291432410478592,-0.018222320824861526
13.444645404815674,0.3785194158554077,-1.4125020503997803,0.9749022722244263,0.33928707242012024,-0.031077364459633827,-0.015265305526554585
13.464677095413208,0.37491536140441895,-1.411705732345581,0.9782690405845642,0.3393738567829132,-0.058038514107465744,-0.009000440128147602
13.48476791381836,0.37092337012290955,-1.411171555519104,0.981192946434021,0.33944669365882874,-0.07188611477613449,-0.005725656636059284
13.50489068031311,0.36654168367385864,-1.4099482297897339,0.9875295758247375,0.3397095203399658,-0.0974382609128952,0.0011527764145284891
13.524909019470215,0.3658156991004944,-1.4092202186584473,0.9911563992500305,0.33981019258499146,-0.10897209495306015,0.0046747345477342606
13.54502272605896,0.36272597312927246,-1.4076542854309082,0.9975922703742981,0.3398033678531647,-0.1310303509235382,0.011697260662913322
13.565133333206177,0.3627201020717621,-1.405806064605713,1.0032215118408203,0.33935967087745667,-0.14935463666915894,0.018632005900144577
13.58522081375122,0.36183688044548035,-1.4047759771347046,1.0058879852294922,0.33927178382873535,-0.15795820951461792,0.022052031010389328
13.605376243591309,0.36361590027809143,-1.4022865295410156,1.011111855506897,0.33852899074554443,-0.17204712331295013,0.02871927060186863
13.625598669052124,0.36409270763397217,-1.3992642164230347,1.017577052116394,0.3369934558868408,-0.18485374748706818,0.03496618568897247
13.64572024345398,0.3650340139865875,-1.3976426124572754,1.0204503536224365,0.3356803357601166,-0.19041657447814941,0.03795093297958374
13.665781497955322,0.3595269024372101,-1.3941305875778198,1.0275969505310059,0.3326829969882965,-0.2033618986606598,0.04351413995027542
13.685929298400879,0.35305631160736084,-1.3923556804656982,1.0310767889022827,0.3313571512699127,-0.21081025898456573,0.04622724652290344
13.706077337265015,0.34174656867980957,-1.3886995315551758,1.0374971628189087,0.3282667398452759,-0.22520098090171814,0.05177495256066322
13.726107120513916,0.3271413743495941,-1.384897232055664,1.0439519882202148,0.3258306384086609,-0.2406122088432312,0.05757220461964607
13.746233224868774,0.3201809823513031,-1.3829457759857178,1.0471632480621338,0.324698805809021,-0.2482072114944458,0.060575950890779495
13.7662935256958,0.29920637607574463,-1.3787201642990112,1.0542865991592407,0.323055624961853,-0.26538071036338806,0.06663645803928375
13.786438703536987,0.2775580883026123,-1.374205231666565,1.0603420734405518,0.3216906487941742,-0.28251832723617554,0.07294491678476334
13.806556940078735,0.2663038372993469,-1.3718571662902832,1.0628457069396973,0.32137078046798706,-0.29108935594558716,0.07621832937002182
13.8266122341156,0.25287237763404846,-1.3674187660217285,1.0647276639938354,0.3202691972255707,-0.30495572090148926,0.08301877230405807
13.84669542312622,0.2504013180732727,-1.3654050827026367,1.0638811588287354,0.3195033073425293,-0.31022265553474426,0.08652310818433762
13.866773128509521,0.25072354078292847,-1.361838698387146,1.0591099262237549,0.3175283670425415,-0.31840980052948,0.09353841096162796
13.886851787567139,0.254457950592041,-1.36029052734375,1.0557174682617188,0.31612446904182434,-0.32095491886138916,0.09694226086139679
13.90702748298645,0.2681276500225067,-1.3577508926391602,1.0473666191101074,0.31267625093460083,-0.3230125904083252,0.10342997312545776
13.927379846572876,0.28676533699035645,-1.3557640314102173,1.0380619764328003,0.30827048420906067,-0.3215961158275604,0.10910975188016891
13.947438955307007,0.2970341742038727,-1.3549225330352783,1.0330934524536133,0.30563125014305115,-0.31981292366981506,0.11157429963350296
13.967526912689209,0.31741830706596375,-1.3532921075820923,1.0240888595581055,0.3000712990760803,-0.31514811515808105,0.11575479060411453
13.987648963928223,0.3271772861480713,-1.352491021156311,1.0203479528427124,0.29730942845344543,-0.3125838339328766,0.11752147227525711
14.007700681686401,0.34504228830337524,-1.3509607315063477,1.0148524045944214,0.29179468750953674,-0.30765628814697266,0.12041863054037094
14.027933835983276,0.3581801652908325,-1.3495639562606812,1.0116792917251587,0.2871815860271454,-0.3041344881057739,0.1226104274392128
14.048020362854004,0.362248033285141,-1.3488597869873047,1.0110245943069458,0.2851499319076538,-0.30318933725357056,0.12341352552175522
14.06807804107666,0.3658957779407501,-1.3474786281585693,1.0104329586029053,0.28153714537620544,-0.30263057351112366,0.12460625171661377
14.088171005249023,0.3660765290260315,-1.3467843532562256,1.0105476379394531,0.27988654375076294,-0.3028440475463867,0.12506245076656342
14.108253955841064,0.3630891740322113,-1.345242977142334,1.0120224952697754,0.2766779959201813,-0.3045501112937927,0.12573452293872833
14.1282958984375,0.3583867847919464,-1.3435099124908447,1.0147018432617188,0.2738076448440552,-0.30687254667282104,0.1263255774974823
14.14841604232788,0.35496875643730164,-1.342543125152588,1.016628384590149,0.27274924516677856,-0.3084981441497803,0.1266384720802307
14.168566226959229,0.3486579954624176,-1.3405580520629883,1.020349383354187,0.2709769308567047,-0.3113846480846405,0.12739606201648712
14.188615322113037,0.34583285450935364,-1.3395678997039795,1.02191162109375,0.27015262842178345,-0.31260427832603455,0.1278407871723175
14.208789825439453,0.3383331298828125,-1.337411642074585,1.0247902870178223,0.2682022154331207,-0.3156311810016632,0.12868155539035797
14.228777170181274,0.3349042236804962,-1.3362805843353271,1.0255563259124756,0.2669166624546051,-0.31692489981651306,0.12912175059318542
14.248878717422485,0.33018457889556885,-1.3337936401367188,1.0262612104415894,0.2641775906085968,-0.3188861608505249,0.1301889717578888
14.268948554992676,0.32744190096855164,-1.3310368061065674,1.0262144804000854,0.2615584135055542,-0.3206864297389984,0.13153156638145447
14.28903079032898,0.3268777132034302,-1.3296523094177246,1.0260353088378906,0.260392963886261,-0.3213413953781128,0.13227203488349915
14.309106826782227,0.32531633973121643,-1.3269366025924683,1.0257859230041504,0.2582853138446808,-0.32271677255630493,0.13368484377861023
14.329167127609253,0.32456403970718384,-1.3257033824920654,1.0252794027328491,0.25748056173324585,-0.3230648636817932,0.13438135385513306
14.349253177642822,0.3245873749256134,-1.323391079902649,1.0241011381149292,0.25569379329681396,-0.322765052318573,0.13570120930671692
14.369293451309204,0.3254889249801636,-1.3212659358978271,1.0220191478729248,0.2534898519515991,-0.3217514753341675,0.13695049285888672
14.38939356803894,0.3265085220336914,-1.320258378982544,1.020804762840271,0.2520239055156708,-0.3209853768348694,0.13752171397209167
14.409454107284546,0.3268708288669586,-1.3184057474136353,1.0184130668640137,0.24938277900218964,-0.3202071785926819,0.13863645493984222
14.429542064666748,0.3266487121582031,-1.3175370693206787,1.017445683479309,0.2481011152267456,-0.3200802803039551,0.13917596638202667
14.449705362319946,0.3261924386024475,-1.3158067464828491,1.0163476467132568,0.24596178531646729,-0.3199477791786194,0.14026446640491486
14.469847679138184,0.3259642422199249,-1.3140649795532227,1.0161164999008179,0.24384775757789612,-0.3196423053741455,0.14121542870998383
14.489941596984863,0.3261823058128357,-1.313164472579956,1.0162771940231323,0.24290990829467773,-0.3192189931869507,0.14164476096630096
14.510069847106934,0.32766592502593994,-1.3113532066345215,1.0165586471557617,0.2410895824432373,-0.31787416338920593,0.14246919751167297
14.53010892868042,0.328322172164917,-1.3104422092437744,1.0169020891189575,0.2403697371482849,-0.3172145485877991,0.14285701513290405
14.550246238708496,0.33060821890830994,-1.3086086511611938,1.0177428722381592,0.23868536949157715,-0.31538763642311096,0.14354391396045685
14.570466756820679,0.3323628306388855,-1.3068702220916748,1.0186060667037964,0.23681524395942688,-0.31345170736312866,0.14405140280723572
14.5905601978302,0.3333791196346283,-1.3060179948806763,1.0187575817108154,0.23567837476730347,-0.3123663663864136,0.14426696300506592
14.610668420791626,0.3353063762187958,-1.3044134378433228,1.0184308290481567,0.23323814570903778,-0.3101268708705902,0.14467433094978333
14.630739450454712,0.33523792028427124,-1.303665041923523,1.0182243585586548,0.23215611279010773,-0.3094366788864136,0.14485302567481995
