liuyurong129/humanoid-gym/humanoid/data/target_q_20250523-020542.csv
timestamp,joint_1,joint_2,joint_3,joint_4,joint_5,joint_6
0.00017881393432617188,0.0,0.0,0.0,0.0,0.0,0.0
0.020252227783203125,0.0,0.0,0.0,0.0,0.0,0.0
0.040338993072509766,0.0,0.0,0.0,0.0,0.0,0.0
0.060405731201171875,0.0,0.0,0.0,0.0,0.0,0.0
0.08048415184020996,0.12231895327568054,-0.7939725518226624,0.48071151971817017,0.16135677695274353,-0.10916449129581451,0.10222036391496658
0.1005239486694336,0.14606328308582306,-1.3082549571990967,0.577883780002594,0.14524531364440918,-0.09231240302324295,0.1361020803451538
0.12064003944396973,0.14865638315677643,-1.4617520570755005,0.6224128603935242,0.14457166194915771,-0.08654841035604477,0.15267473459243774
0.14071273803710938,0.1654043346643448,-1.6744204759597778,0.6362869739532471,0.1439235508441925,-0.04100653529167175,0.15014004707336426
0.16081023216247559,0.17187806963920593,-1.8074601888656616,0.6543837785720825,0.14350901544094086,-0.004439219832420349,0.14624878764152527
0.1808490753173828,0.17707866430282593,-1.8818837404251099,0.6703346371650696,0.14299197494983673,0.008411422371864319,0.1426807940006256
0.20105981826782227,0.21352170407772064,-1.9045943021774292,0.6292272806167603,0.1549423635005951,0.03310550004243851,0.15663203597068787
0.22107982635498047,0.21384453773498535,-1.9401071071624756,0.6344174742698669,0.15594862401485443,0.039314448833465576,0.1561756730079651
0.24111008644104004,0.21538186073303223,-1.9674571752548218,0.6398777365684509,0.15581798553466797,0.03938356786966324,0.15464749932289124
0.2611656188964844,0.2177194207906723,-2.0011179447174072,0.6397050619125366,0.15570905804634094,0.035538360476493835,0.15371888875961304
0.28125810623168945,0.21872438490390778,-2.014388084411621,0.6433945298194885,0.15371619164943695,0.03800170123577118,0.15110918879508972
0.3013784885406494,0.2185710370540619,-2.0216012001037598,0.6550614237785339,0.15326885879039764,0.04235120862722397,0.1509602963924408
0.32140231132507324,0.21753323078155518,-2.033353328704834,0.6592154502868652,0.15313678979873657,0.037579476833343506,0.14983350038528442
0.3416557312011719,0.21974150836467743,-2.0291779041290283,0.6537221074104309,0.15483614802360535,0.044737547636032104,0.15388479828834534
0.3616921901702881,0.21465329825878143,-2.0187478065490723,0.6652079224586487,0.1529604196548462,0.04279135912656784,0.15103444457054138
0.3817265033721924,0.20916865766048431,-2.016028642654419,0.6702715158462524,0.15217715501785278,0.038681067526340485,0.14902406930923462
0.40178990364074707,0.20993171632289886,-2.0141794681549072,0.6666705012321472,0.1528279185295105,0.04101106524467468,0.14875200390815735
0.42186951637268066,0.22226114571094513,-2.0143377780914307,0.6478037238121033,0.15793462097644806,0.05292171239852905,0.15448680520057678
0.4420351982116699,0.21815787255764008,-2.016601085662842,0.6520674824714661,0.1574190855026245,0.05109751224517822,0.15392538905143738
0.46210169792175293,0.20984703302383423,-2.0168416500091553,0.6641969680786133,0.15484432876110077,0.03993847221136093,0.15142247080802917
0.48214173316955566,0.21479812264442444,-2.0154166221618652,0.6640010476112366,0.15417557954788208,0.044999681413173676,0.1498836874961853
0.5022766590118408,0.22042883932590485,-2.0128633975982666,0.6562691330909729,0.1574838012456894,0.049174003303050995,0.1525574028491974
0.5223300457000732,0.2189624160528183,-2.015108346939087,0.6584975123405457,0.15733438730239868,0.045989297330379486,0.15264016389846802
0.5424330234527588,0.20166745781898499,-2.0064988136291504,0.6837894320487976,0.15225866436958313,0.039593808352947235,0.14930003881454468
0.5625033378601074,0.21865321695804596,-1.99966561794281,0.654162585735321,0.15959124267101288,0.05779234319925308,0.1558859646320343
0.582648515701294,0.2203071266412735,-1.997131109237671,0.6491369009017944,0.16036522388458252,0.05887540429830551,0.15631023049354553
0.6026713848114014,0.21989628672599792,-1.9878051280975342,0.6539316773414612,0.1604534387588501,0.056765444576740265,0.1561242640018463
0.6228113174438477,0.20008955895900726,-1.9831644296646118,0.6822224855422974,0.1529010832309723,0.04076779633760452,0.14782339334487915
0.6429333686828613,0.19876478612422943,-1.9783514738082886,0.685193657875061,0.15390685200691223,0.034989483654499054,0.14764270186424255
0.6629879474639893,0.1968516856431961,-1.9607115983963013,0.6862014532089233,0.15262064337730408,0.03577009588479996,0.14786851406097412
0.683086633682251,0.20214982330799103,-1.956190586090088,0.6745421290397644,0.1558511108160019,0.03870665282011032,0.15000519156455994
0.7032098770141602,0.2083851844072342,-1.9553537368774414,0.6691750884056091,0.15798306465148926,0.04788544028997421,0.15416169166564941
0.7232711315155029,0.2087920755147934,-1.9593937397003174,0.6671193838119507,0.16036687791347504,0.050525546073913574,0.15345695614814758
0.7434802055358887,0.21148794889450073,-1.9597915410995483,0.6617292165756226,0.16122525930404663,0.05725545436143875,0.15380820631980896
0.7636640071868896,0.19485802948474884,-1.955240249633789,0.6879435777664185,0.15528224408626556,0.0446648895740509,0.15003401041030884
0.783724308013916,0.19520775973796844,-1.9473637342453003,0.6896140575408936,0.15516310930252075,0.04138975590467453,0.14950722455978394
0.8038055896759033,0.18632085621356964,-1.9377636909484863,0.699984073638916,0.15352267026901245,0.04020232707262039,0.1479714810848236
0.8238892555236816,0.20901501178741455,-1.9329721927642822,0.6669664978981018,0.16218772530555725,0.058464474976062775,0.15643036365509033
0.8439645767211914,0.20969520509243011,-1.93208646774292,0.6638980507850647,0.1626531332731247,0.05890203267335892,0.15653958916664124
0.8640804290771484,0.20762193202972412,-1.914049506187439,0.6690348386764526,0.1628434658050537,0.057997532188892365,0.15823617577552795
0.8841216564178467,0.20006029307842255,-1.9009249210357666,0.6765305995941162,0.1619994193315506,0.05072265863418579,0.1577887237071991
0.9042108058929443,0.17899663746356964,-1.8919596672058105,0.7066611051559448,0.15299373865127563,0.03090886026620865,0.14698854088783264
0.9243206977844238,0.17991437017917633,-1.8891873359680176,0.7090489268302917,0.1529262363910675,0.030995994806289673,0.1464456021785736
0.9443924427032471,0.18082593381404877,-1.8871744871139526,0.7042150497436523,0.15487982332706451,0.03783824294805527,0.14697444438934326
0.9644579887390137,0.19756506383419037,-1.8841378688812256,0.6823123693466187,0.1622542440891266,0.05287880450487137,0.15740665793418884
0.984670877456665,0.19057542085647583,-1.873521327972412,0.6910887360572815,0.16031146049499512,0.05215255916118622,0.1559717059135437
1.0046029090881348,0.18841105699539185,-1.8763443231582642,0.6948422789573669,0.16005565226078033,0.048463597893714905,0.15350818634033203
1.0246634483337402,0.18561223149299622,-1.871252417564392,0.7004621624946594,0.15943966805934906,0.04660063236951828,0.15211859345436096
1.044783353805542,0.1997213065624237,-1.8800216913223267,0.6771848201751709,0.1650466024875641,0.057085417211055756,0.15396592020988464
1.0648794174194336,0.199379101395607,-1.866908311843872,0.679146945476532,0.16574256122112274,0.06159073859453201,0.1566910445690155
1.0849337577819824,0.19833503663539886,-1.8569447994232178,0.6798492074012756,0.16667771339416504,0.062111563980579376,0.15780913829803467
1.1052958965301514,0.16361255943775177,-1.84352707862854,0.7309005260467529,0.15233288705348969,0.03130919486284256,0.14513534307479858
1.1253950595855713,0.16633808612823486,-1.8335444927215576,0.7250465154647827,0.1540166139602661,0.03206925839185715,0.1451369822025299
1.145592212677002,0.1704838126897812,-1.8295634984970093,0.7166399359703064,0.1569787561893463,0.03839578479528427,0.14737477898597717
1.1656055450439453,0.16609905660152435,-1.8150253295898438,0.7238922715187073,0.15651577711105347,0.0287398099899292,0.14918890595436096
1.1856575012207031,0.1873360276222229,-1.8149930238723755,0.6901228427886963,0.16655027866363525,0.054568447172641754,0.15724653005599976
1.2057182788848877,0.18563811480998993,-1.8137469291687012,0.6984666585922241,0.16577459871768951,0.05524284392595291,0.15675470232963562
1.225834608078003,0.18643693625926971,-1.8168368339538574,0.693093478679657,0.16790905594825745,0.06097503751516342,0.15697121620178223
1.2458784580230713,0.19034121930599213,-1.8113830089569092,0.6880385279655457,0.1703641414642334,0.06561828404664993,0.1572108268737793
1.2659690380096436,0.15411175787448883,-1.7998939752578735,0.742249608039856,0.15465867519378662,0.033638253808021545,0.1469215750694275
1.2860779762268066,0.15017099678516388,-1.7803325653076172,0.7474786043167114,0.1537521779537201,0.028468169271945953,0.14479196071624756
1.3061249256134033,0.13828624784946442,-1.7585902214050293,0.7581292390823364,0.15045686066150665,0.02335727959871292,0.1431896984577179
1.3262708187103271,0.18407873809337616,-1.7486683130264282,0.6973825693130493,0.17227479815483093,0.058913059532642365,0.16155946254730225
1.346449375152588,0.17662858963012695,-1.7368059158325195,0.7048768997192383,0.16984015703201294,0.05739784985780716,0.16105344891548157
1.366513967514038,0.1753547042608261,-1.7023755311965942,0.7004773020744324,0.17269067466259003,0.06051955372095108,0.16227659583091736
1.3865232467651367,0.17581810057163239,-1.6889207363128662,0.7018371224403381,0.1741366684436798,0.058467261493206024,0.16261008381843567
1.406611442565918,0.1166137158870697,-1.66517972946167,0.7811837196350098,0.14503052830696106,-0.0002538636326789856,0.1408749222755432
1.426698923110962,0.09828141331672668,-1.6293325424194336,0.7939167022705078,0.1409202218055725,-0.006900198757648468,0.13732591271400452
1.4467742443084717,0.09775790572166443,-1.6016143560409546,0.7885407209396362,0.1441393792629242,-0.0036700740456581116,0.13693854212760925
1.4668998718261719,0.15460343658924103,-1.5845450162887573,0.719792366027832,0.17469903826713562,0.040092386305332184,0.16707122325897217
1.4871275424957275,0.15725404024124146,-1.5470805168151855,0.7171403765678406,0.1776895821094513,0.053055427968502045,0.16631177067756653
1.5073494911193848,0.1587086319923401,-1.5068442821502686,0.7124670147895813,0.18178752064704895,0.049622997641563416,0.16904160380363464
1.5272822380065918,0.15630194544792175,-1.4864177703857422,0.7124285697937012,0.18571293354034424,0.04716023802757263,0.1697942614555359
1.5474224090576172,0.05069353058934212,-1.4575260877609253,0.8252341747283936,0.12957683205604553,-0.040563665330410004,0.1370411515235901
1.5674405097961426,0.03379599377512932,-1.400102972984314,0.8393974304199219,0.1205492839217186,-0.06272111088037491,0.1357126235961914
1.5874974727630615,0.02227288857102394,-1.3430486917495728,0.8509138822555542,0.11760299652814865,-0.06930337101221085,0.13546818494796753
1.6077618598937988,0.14022164046764374,-1.3350199460983276,0.7365933656692505,0.1960204541683197,0.022570200264453888,0.17754316329956055
1.6278817653656006,0.13620327413082123,-1.319947600364685,0.7461135387420654,0.19743873178958893,0.022861972451210022,0.17517980933189392
1.6479296684265137,0.13200832903385162,-1.343127727508545,0.762047529220581,0.19443848729133606,0.014278896152973175,0.1720292866230011
1.6680335998535156,0.1344623863697052,-1.3627017736434937,0.763171374797821,0.20010490715503693,0.023849107325077057,0.16784727573394775
1.688094139099121,0.05460859462618828,-1.3539479970932007,0.8514957427978516,0.1499178111553192,-0.06354700773954391,0.15695849061012268
1.7081804275512695,0.0640053004026413,-1.3673679828643799,0.8569755554199219,0.1547272801399231,-0.06023780256509781,0.16164973378181458
1.728264331817627,0.07644665241241455,-1.38621985912323,0.8595699667930603,0.1637338101863861,-0.05654986947774887,0.16519668698310852
1.7483062744140625,0.062137406319379807,-1.3847850561141968,0.876372218132019,0.1605699360370636,-0.04583912342786789,0.1671915352344513
1.7684826850891113,0.1430360972881317,-1.3904529809951782,0.8096845149993896,0.2093244194984436,0.012610234320163727,0.1660798192024231
1.7886486053466797,0.13443447649478912,-1.3878167867660522,0.8240272402763367,0.2100638449192047,0.00990893691778183,0.16831788420677185
1.808685302734375,0.13495774567127228,-1.390923261642456,0.8333331942558289,0.2151069939136505,0.010362885892391205,0.1677490472793579
1.8287632465362549,0.12873508036136627,-1.3762482404708862,0.8511436581611633,0.21521461009979248,0.0035166218876838684,0.16992145776748657
1.8488588333129883,0.08020521700382233,-1.3672047853469849,0.9010325074195862,0.18510285019874573,-0.03794146329164505,0.1744418740272522
1.8689420223236084,0.08290915191173553,-1.3674439191818237,0.9065799117088318,0.19436536729335785,-0.03821774572134018,0.1763972043991089
1.8890256881713867,0.08227154612541199,-1.362128734588623,0.9136334657669067,0.19918981194496155,-0.025026358664035797,0.17853882908821106
1.9090561866760254,0.08895319700241089,-1.3655892610549927,0.9192813634872437,0.20534050464630127,-0.030482135713100433,0.17841702699661255
1.929152488708496,0.10158172249794006,-1.3578226566314697,0.9060264825820923,0.22286498546600342,0.02102608233690262,0.17818793654441833
1.9492347240447998,0.09886397421360016,-1.3315666913986206,0.9104923009872437,0.23007842898368835,0.023102059960365295,0.1788761019706726
1.9692883491516113,0.0947713851928711,-1.334268569946289,0.9153326749801636,0.23570516705513,0.029156409204006195,0.18121600151062012
1.9893510341644287,0.09424184262752533,-1.3013436794281006,0.9287451505661011,0.2381611466407776,0.030700229108333588,0.18101909756660461
2.0094289779663086,0.04719748720526695,-1.2783252000808716,0.9684260487556458,0.20944541692733765,-0.013026945292949677,0.18595463037490845
2.029496669769287,0.048636045306921005,-1.2495540380477905,0.9757417440414429,0.21752944588661194,-0.010147817432880402,0.18684658408164978
2.0495500564575195,0.050676342099905014,-1.2466994524002075,0.9803738594055176,0.22725248336791992,-0.004612050950527191,0.1896994709968567
2.0697367191314697,0.06522752344608307,-1.2429279088974,0.9776366353034973,0.24179944396018982,-0.008490078151226044,0.18915706872940063
2.089823007583618,0.07199573516845703,-1.2462297677993774,0.9742708206176758,0.25216642022132874,0.005551420152187347,0.1860116422176361
2.1099190711975098,0.06439933180809021,-1.2459416389465332,0.9879194498062134,0.2582777440547943,-0.0181853249669075,0.1855531632900238
2.1299870014190674,0.05307250842452049,-1.2371892929077148,1.0065557956695557,0.25524482131004333,-0.018126927316188812,0.1888810694217682
2.1500494480133057,0.07522918283939362,-1.247017741203308,0.9937069416046143,0.27414441108703613,0.002547137439250946,0.1914544403553009
2.1701412200927734,0.057771872729063034,-1.2178162336349487,1.013837456703186,0.26808005571365356,0.013508476316928864,0.1928432285785675
2.1902387142181396,0.046905506402254105,-1.21392822265625,1.0206236839294434,0.2759404182434082,0.015957728028297424,0.1927700936794281
2.2103021144866943,0.033164139837026596,-1.1869572401046753,1.0393010377883911,0.27125614881515503,0.018577225506305695,0.19764554500579834
2.2306969165802,0.04095926508307457,-1.1789088249206543,1.0339053869247437,0.282466858625412,0.028355948626995087,0.19937345385551453
2.2508046627044678,0.03104102984070778,-1.1649304628372192,1.0412400960922241,0.287808895111084,0.03840986639261246,0.19808998703956604
2.270897626876831,0.03100677952170372,-1.1791325807571411,1.048435091972351,0.29444384574890137,0.04802723973989487,0.20083165168762207
2.2909440994262695,0.037005577236413956,-1.2108262777328491,1.0520802736282349,0.3021904528141022,0.05538705736398697,0.20199859142303467
2.311030626296997,0.038339149206876755,-1.2372488975524902,1.055254340171814,0.30518510937690735,0.05734197050333023,0.20101866126060486
2.3310952186584473,0.04299208149313927,-1.2843986749649048,1.0614995956420898,0.3102475702762604,0.06165791302919388,0.20281803607940674
2.3511757850646973,0.04280423745512962,-1.3157459497451782,1.0752509832382202,0.31052201986312866,0.06193090230226517,0.2055567502975464
2.371222972869873,0.03856794163584709,-1.3263987302780151,1.082572102546692,0.313287615776062,0.0645541325211525,0.20701009035110474
2.39131236076355,0.025245677679777145,-1.31612229347229,1.0995171070098877,0.3056362271308899,0.06885186582803726,0.21646064519882202
2.4114365577697754,0.013567660003900528,-1.2863116264343262,1.1067887544631958,0.30636268854141235,0.07639428228139877,0.2149818241596222
2.4314937591552734,0.0041615404188632965,-1.2435990571975708,1.1125032901763916,0.3101596236228943,0.09349910169839859,0.21971794962882996
2.451584577560425,-0.002712000161409378,-1.1885967254638672,1.1154838800430298,0.3163878917694092,0.08774594217538834,0.21910366415977478
2.4717702865600586,-0.02425174042582512,-1.1569498777389526,1.1244598627090454,0.31114113330841064,0.08538240939378738,0.2190069556236267
2.4919016361236572,-0.022018853574991226,-1.106573462486267,1.123356580734253,0.32012882828712463,0.09894856065511703,0.21846574544906616
2.511867046356201,-0.025645863264799118,-1.0822707414627075,1.1154887676239014,0.3271777033805847,0.12526154518127441,0.2207021415233612
2.531967878341675,-0.031141027808189392,-1.0774275064468384,1.111654281616211,0.32997721433639526,0.13671481609344482,0.22511062026023865
2.55202579498291,-0.03546881303191185,-1.0811039209365845,1.103569507598877,0.33621713519096375,0.149515300989151,0.22284463047981262
2.5720932483673096,-0.04248597100377083,-1.0815013647079468,1.1042323112487793,0.3348051905632019,0.16649988293647766,0.2248654067516327
2.5921666622161865,-0.04798918589949608,-1.077759861946106,1.108870506286621,0.32806849479675293,0.17208653688430786,0.2311023473739624
2.6123294830322266,-0.046449217945337296,-1.0766457319259644,1.1056838035583496,0.3329029083251953,0.17101755738258362,0.2294071614742279
2.6324431896209717,-0.04888032749295235,-1.0565767288208008,1.1153714656829834,0.32583439350128174,0.16867604851722717,0.2346881926059723
2.652449131011963,-0.05288125202059746,-1.009643316268921,1.1168638467788696,0.32090240716934204,0.175826758146286,0.2386573851108551
2.6724934577941895,-0.05470113083720207,-0.9856862425804138,1.1100891828536987,0.32246536016464233,0.184864342212677,0.24011269211769104
2.692643880844116,-0.06367820501327515,-0.9345102310180664,1.1087301969528198,0.32216164469718933,0.17815864086151123,0.24074438214302063
2.7126753330230713,-0.06854048371315002,-0.8747771382331848,1.1056649684906006,0.3220248818397522,0.1745184361934662,0.2401277720928192
2.732743740081787,-0.0712280422449112,-0.8077519536018372,1.096785306930542,0.32367491722106934,0.17544078826904297,0.2383137047290802
2.7528674602508545,-0.06812271475791931,-0.7717026472091675,1.0969974994659424,0.3324030339717865,0.16903147101402283,0.23546192049980164
2.772913932800293,-0.07667908072471619,-0.698504626750946,1.087469220161438,0.334184467792511,0.16448456048965454,0.23564091324806213
2.7930784225463867,-0.08215740323066711,-0.6133258938789368,1.0806530714035034,0.34017547965049744,0.1605459451675415,0.23353198170661926
2.813161849975586,-0.08045871555805206,-0.5595019459724426,1.0802905559539795,0.3461223840713501,0.15601065754890442,0.23278379440307617
2.8331878185272217,-0.08640183508396149,-0.4299226701259613,1.0738164186477661,0.356052428483963,0.14392879605293274,0.22754064202308655
2.853250026702881,-0.09935358166694641,-0.26381751894950867,1.0648936033248901,0.3666878044605255,0.13356924057006836,0.2220170795917511
2.873478889465332,-0.1029110699892044,-0.16785725951194763,1.064019799232483,0.3776652216911316,0.12767621874809265,0.21871164441108704
2.89349627494812,-0.10483443737030029,0.009292848408222198,1.0653263330459595,0.40250974893569946,0.12437204271554947,0.20778638124465942
2.9136013984680176,-0.10164998471736908,0.13007763028144836,1.069265604019165,0.42302000522613525,0.12682610750198364,0.1985103189945221
2.9336469173431396,-0.0937139093875885,0.17,1.0769366025924683,0.43803125619888306,0.12474621087312698,0.1917629837989807
2.9537222385406494,-0.09362658858299255,0.17,1.074521541595459,0.4388771057128906,0.1264224648475647,0.19289186596870422
2.9737930297851562,-0.09206092357635498,0.17,1.076959490776062,0.44396525621414185,0.126630038022995,0.18987876176834106
2.993915557861328,-0.09172739088535309,0.17,1.07624089717865,0.44390445947647095,0.12762314081192017,0.18945685029029846
3.013979196548462,-0.0915660560131073,0.17,1.0764552354812622,0.4444175958633423,0.12769815325737,0.18904563784599304
3.034080982208252,-0.09202073514461517,0.17,1.075169563293457,0.44399726390838623,0.12821921706199646,0.19012290239334106
3.0541841983795166,-0.09242458641529083,0.17,1.0748493671417236,0.4444456100463867,0.12902578711509705,0.1901056170463562
3.0742740631103516,-0.09096452593803406,0.17,1.0755661725997925,0.4452751874923706,0.12965047359466553,0.1894969344139099
3.0943493843078613,-0.08940914273262024,0.17,1.0779404640197754,0.446181058883667,0.12734639644622803,0.18773064017295837
3.1145095825195312,-0.08979181945323944,0.17,1.0753915309906006,0.4462205469608307,0.1355273723602295,0.18783357739448547
3.1345741748809814,-0.08920013904571533,0.17,1.074771523475647,0.4465826153755188,0.12551742792129517,0.19065997004508972
3.1547346115112305,-0.08979335427284241,0.17,1.0748416185379028,0.446027547121048,0.127751886844635,0.18903622031211853
3.174827814102173,-0.09203848242759705,0.17,1.072167158126831,0.4434998035430908,0.13020583987236023,0.1898159384727478
3.194934844970703,-0.09161961078643799,0.17,1.0734150409698486,0.4441678524017334,0.12765365839004517,0.1895027756690979
3.2149698734283447,-0.09219202399253845,0.17,1.0721304416656494,0.4436880946159363,0.12772709131240845,0.18996194005012512
3.2350707054138184,-0.09014543890953064,0.17,1.0749962329864502,0.4459070563316345,0.12544339895248413,0.18857645988464355
3.2551262378692627,-0.09026479721069336,0.17,1.0735293626785278,0.4452040195465088,0.12499412149190903,0.18938547372817993
3.275191307067871,-0.0915658175945282,0.17,1.0724111795425415,0.4447779655456543,0.12733393907546997,0.189515620470047
3.2952511310577393,-0.09091810882091522,0.17,1.071081519126892,0.4438035190105438,0.12717348337173462,0.19064414501190186
3.315384864807129,-0.09088444709777832,0.17,1.072642207145691,0.44433605670928955,0.1261378526687622,0.1886748969554901
3.3354218006134033,-0.09020859003067017,0.17,1.0728994607925415,0.4438208341598511,0.12361190468072891,0.18897584080696106
3.3554999828338623,-0.09216755628585815,0.17,1.0699517726898193,0.4428529143333435,0.12759792804718018,0.18997377157211304
3.3756184577941895,-0.08809345960617065,0.17,1.07441246509552,0.4467886984348297,0.1264936327934265,0.18748688697814941
3.395695209503174,-0.08987201750278473,0.17,1.0705792903900146,0.44559246301651,0.12989851832389832,0.1890869140625
3.415825605392456,-0.09257219731807709,0.17,1.067594289779663,0.4411740303039551,0.1273137927055359,0.190729558467865
3.4358503818511963,-0.09570752084255219,0.17,1.065780758857727,0.43901634216308594,0.13036680221557617,0.19089201092720032
3.4559357166290283,-0.09173430502414703,0.17,1.0706182718276978,0.4438725709915161,0.12544813752174377,0.1888931393623352
3.4761998653411865,-0.09105890989303589,0.17,1.0696552991867065,0.4434100091457367,0.12521693110466003,0.18921178579330444
3.496154546737671,-0.09284025430679321,0.17,1.0674723386764526,0.4423176646232605,0.12668496370315552,0.19019243121147156
3.516235828399658,-0.0919899046421051,0.17,1.0681928396224976,0.44363123178482056,0.12521836161613464,0.1908428966999054
3.536341428756714,-0.09076598286628723,0.17,1.0694677829742432,0.4430704116821289,0.12318139523267746,0.18942078948020935
3.556445837020874,-0.09330596029758453,0.17,1.0662885904312134,0.44127213954925537,0.1261555552482605,0.19035834074020386
3.5765411853790283,-0.09267733991146088,0.17,1.0667918920516968,0.4420490562915802,0.12582886219024658,0.19030997157096863
3.5967018604278564,-0.09209434688091278,0.17,1.066178321838379,0.4410931468009949,0.1257680058479309,0.19049417972564697
3.6167147159576416,-0.09281040728092194,0.17,1.0659528970718384,0.44169071316719055,0.12593835592269897,0.19061467051506042
3.6368298530578613,-0.09163965284824371,0.17,1.0662381649017334,0.4418560266494751,0.12453392893075943,0.19069552421569824
3.6569137573242188,-0.0936831533908844,0.17,1.0637229681015015,0.4398536682128906,0.1285509169101715,0.19046956300735474
3.677096128463745,-0.09009359776973724,0.17,1.0668864250183105,0.4447328448295593,0.12707015872001648,0.19031789898872375
3.697089672088623,-0.0909235030412674,0.17,1.0667411088943481,0.44262558221817017,0.12281196564435959,0.18940004706382751
3.7176432609558105,-0.09328266978263855,0.17,1.0634651184082031,0.43981754779815674,0.12647336721420288,0.19054466485977173
3.737766981124878,-0.09284065663814545,0.17,1.0641210079193115,0.4408174753189087,0.12539434432983398,0.190540611743927
3.7578580379486084,-0.09179419279098511,0.17,1.0645582675933838,0.44154122471809387,0.1244530901312828,0.19050565361976624
3.7778995037078857,-0.09254248440265656,0.17,1.0633760690689087,0.44051146507263184,0.12454476207494736,0.19093969464302063
3.7979629039764404,-0.09353077411651611,0.17,1.0626014471054077,0.44014936685562134,0.12533047795295715,0.1912158727645874
3.81815505027771,-0.09288401901721954,0.17,1.063753366470337,0.44124847650527954,0.12385857850313187,0.19055649638175964
3.838200330734253,-0.08983790874481201,0.17,1.065719485282898,0.4441905617713928,0.12218735367059708,0.19011372327804565
3.8582358360290527,-0.09249860048294067,0.17,1.0618196725845337,0.4403633773326874,0.12532776594161987,0.19132262468338013
3.878359317779541,-0.09088730812072754,0.17,1.0639708042144775,0.4426785409450531,0.12375334650278091,0.19061025977134705
3.898470878601074,-0.09113122522830963,0.17,1.0634396076202393,0.4411076307296753,0.12279779464006424,0.1905668079853058
3.918543815612793,-0.09194210171699524,0.17,1.06211519241333,0.44093531370162964,0.12583550810813904,0.1906437873840332
3.9386394023895264,-0.09018972516059875,0.17,1.0625710487365723,0.44234079122543335,0.12714925408363342,0.19106540083885193
3.9587063789367676,-0.08982901275157928,0.17,1.0641850233078003,0.4428735375404358,0.1228627935051918,0.1902523636817932
3.9788005352020264,-0.09294648468494415,0.17,1.0600268840789795,0.43827852606773376,0.12313967198133469,0.1915985643863678
3.9988670349121094,-0.09246455132961273,0.17,1.0612460374832153,0.44021329283714294,0.12489808350801468,0.19067040085792542
4.0189292430877686,-0.09258434176445007,0.17,1.0597116947174072,0.43902111053466797,0.12443576008081436,0.19127029180526733
4.038984298706055,-0.09147030115127563,0.17,1.0618257522583008,0.4399995803833008,0.12240790575742722,0.18973582983016968
4.059086799621582,-0.09056457877159119,0.17,1.0610425472259521,0.441257119178772,0.12231547385454178,0.19105082750320435
4.079159259796143,-0.09002399444580078,0.17,1.061609148979187,0.44221413135528564,0.12094167619943619,0.1908884346485138
4.099205255508423,-0.09220670163631439,0.17,1.0591423511505127,0.43962377309799194,0.12261126190423965,0.19087064266204834
4.119292259216309,-0.09342272579669952,0.17,1.0588418245315552,0.4374561905860901,0.12233761698007584,0.19065725803375244
4.139441251754761,-0.09253638982772827,0.17,1.0595059394836426,0.43943119049072266,0.1229613795876503,0.19071361422538757
4.159523248672485,-0.09247922897338867,0.17,1.0590264797210693,0.43941476941108704,0.12266213446855545,0.19070923328399658
4.1795525550842285,-0.08951549232006073,0.17,1.0614194869995117,0.44172537326812744,0.12070385366678238,0.1895054578781128
4.199639558792114,-0.09174351394176483,0.17,1.057332158088684,0.43824562430381775,0.12258883565664291,0.19235125184059143
4.219694137573242,-0.09210041165351868,0.17,1.0579088926315308,0.43881165981292725,0.12162107974290848,0.19144409894943237
4.239778995513916,-0.09108515083789825,0.17,1.0576684474945068,0.4395885169506073,0.12096134573221207,0.19188463687896729
4.259872913360596,-0.09058612585067749,0.17,1.0578060150146484,0.4398635923862457,0.12031752616167068,0.19138368964195251
4.27995753288269,-0.0927564799785614,0.17,1.0555857419967651,0.43778032064437866,0.12129241973161697,0.19202205538749695
4.300029993057251,-0.09209898114204407,0.17,1.056739091873169,0.4378044009208679,0.12057628482580185,0.19086205959320068
4.320183038711548,-0.09269681572914124,0.17,1.0548394918441772,0.43791109323501587,0.1233721449971199,0.19179832935333252
4.340678691864014,-0.0933106392621994,0.17,1.0548237562179565,0.43784546852111816,0.12473074346780777,0.19117572903633118
4.360860824584961,-0.09258416295051575,0.17,1.0564769506454468,0.43746131658554077,0.12352634221315384,0.18999695777893066
4.380893707275391,-0.0926169604063034,0.17,1.0529327392578125,0.43697041273117065,0.12172559648752213,0.19264385104179382
4.4009315967559814,-0.09277810156345367,0.17,1.0543391704559326,0.43730467557907104,0.12139920145273209,0.19184494018554688
4.421403884887695,-0.09339810907840729,0.17,1.0530626773834229,0.43697381019592285,0.12138175219297409,0.19191956520080566
4.441601276397705,-0.09482932090759277,0.17,1.0519570112228394,0.4348071217536926,0.12276167422533035,0.19205114245414734
4.461616516113281,-0.08845874667167664,0.17,1.0571622848510742,0.44145962595939636,0.11792486160993576,0.19095110893249512
4.481670379638672,-0.09345510601997375,0.17,1.0518029928207397,0.43524762988090515,0.11985782533884048,0.1916395127773285
4.501747369766235,-0.09267450869083405,0.17,1.0532664060592651,0.4378237724304199,0.11957543343305588,0.19188007712364197
4.521838903427124,-0.09329427778720856,0.17,1.052571177482605,0.4363926947116852,0.12041155248880386,0.19123566150665283
4.54198956489563,-0.09343963861465454,0.17,1.0515671968460083,0.4360373020172119,0.12176395207643509,0.19195282459259033
4.5619728565216064,-0.09357523918151855,0.17,1.0521643161773682,0.43582046031951904,0.11930067092180252,0.19189929962158203
4.582149982452393,-0.09399965405464172,0.17,1.049967885017395,0.436229944229126,0.12332919985055923,0.19271695613861084
4.602200031280518,-0.09018002450466156,0.17,1.053932785987854,0.4397904872894287,0.12483596056699753,0.1905413269996643
4.622260808944702,-0.09431725740432739,0.17,1.0491631031036377,0.4352933466434479,0.12254487723112106,0.19231241941452026
4.642325401306152,-0.09321126341819763,0.17,1.050621509552002,0.43662217259407043,0.12110748142004013,0.19231131672859192
4.6624181270599365,-0.09292411804199219,0.17,1.0505647659301758,0.43549707531929016,0.12110418826341629,0.19176751375198364
4.682569742202759,-0.09354451298713684,0.17,1.04917311668396,0.43502992391586304,0.12135700136423111,0.19262954592704773
4.702611207962036,-0.09180665016174316,0.17,1.050553560256958,0.4365864098072052,0.11885262280702591,0.19168508052825928
4.7232794761657715,-0.09523427486419678,0.17,1.0466469526290894,0.4328151345252991,0.12099523097276688,0.19243893027305603
4.743471145629883,-0.09247758984565735,0.17,1.0506000518798828,0.43720579147338867,0.11866242438554764,0.19115939736366272
4.763660192489624,-0.09295220673084259,0.17,1.0483829975128174,0.4356221556663513,0.12064636498689651,0.1916535496711731
4.783854246139526,-0.09258197247982025,0.17,1.0485578775405884,0.43551623821258545,0.11877057701349258,0.1917508840560913
4.803967714309692,-0.09186339378356934,0.17,1.0491975545883179,0.43573594093322754,0.11816183477640152,0.19128966331481934
4.824077844619751,-0.09235592186450958,0.17,1.0478006601333618,0.43591684103012085,0.11912631243467331,0.1922140121459961
4.8441736698150635,-0.09210927784442902,0.17,1.0478280782699585,0.4353758692741394,0.11821643263101578,0.1918170154094696
4.864238977432251,-0.09332537651062012,0.17,1.0456058979034424,0.4342465400695801,0.12214731425046921,0.1927688717842102
4.884294033050537,-0.09154736995697021,0.17,1.0475150346755981,0.43590325117111206,0.12421206384897232,0.19235563278198242
4.904374837875366,-0.09424586594104767,0.17,1.0450068712234497,0.43220239877700806,0.12091415375471115,0.19275784492492676
4.924451112747192,-0.09361819922924042,0.17,1.045828938484192,0.4333702325820923,0.12245462089776993,0.19216883182525635
4.944528818130493,-0.09208309650421143,0.17,1.0475332736968994,0.433596134185791,0.11715459078550339,0.19209221005439758
4.96474814414978,-0.09315438568592072,0.17,1.0458189249038696,0.43397092819213867,0.11860183626413345,0.19188356399536133
4.984760284423828,-0.09283529222011566,0.17,1.0452955961227417,0.4338344931602478,0.11805736273527145,0.1921205222606659
5.005099534988403,-0.09189066290855408,0.17,1.0448123216629028,0.4350828528404236,0.11766345053911209,0.19296041131019592
5.025178670883179,-0.09127022325992584,0.17,1.0463345050811768,0.4350440204143524,0.11561242491006851,0.19155606627464294
5.045283794403076,-0.09154054522514343,0.17,1.0435539484024048,0.43521299958229065,0.11714541167020798,0.19380241632461548
5.065321445465088,-0.09163627028465271,0.17,1.044075846672058,0.433876097202301,0.11612848192453384,0.19283822178840637
5.085399389266968,-0.09200844168663025,0.17,1.043276071548462,0.43446749448776245,0.11671555787324905,0.1922847032546997
5.105467796325684,-0.09207597374916077,0.17,1.0412631034851074,0.43361276388168335,0.11625080555677414,0.19450703263282776
5.125535488128662,-0.09253257513046265,0.17,1.0416802167892456,0.4331621527671814,0.11840363591909409,0.19293853640556335
5.145649194717407,-0.09418807923793793,0.17,1.0414677858352661,0.4316386580467224,0.11474408954381943,0.19283661246299744
5.165696144104004,-0.09412935376167297,0.17,1.0393109321594238,0.4330427348613739,0.12216607481241226,0.19334635138511658
5.1857590675354,-0.0921948254108429,0.17,1.0435453653335571,0.43337422609329224,0.11430064588785172,0.1918507218360901
5.205822706222534,-0.09312616288661957,0.17,1.0401755571365356,0.43277186155319214,0.118251271545887,0.19261673092842102
5.225909471511841,-0.09353460371494293,0.17,1.0405092239379883,0.43207401037216187,0.11730145663022995,0.19241344928741455
5.246047258377075,-0.0924590528011322,0.17,1.0403647422790527,0.43305104970932007,0.11646895855665207,0.193039208650589
5.266089200973511,-0.0945536196231842,0.17,1.038689374923706,0.43031060695648193,0.11670885235071182,0.1929207146167755
5.2861528396606445,-0.09228482842445374,0.17,1.0403176546096802,0.4328420162200928,0.11479321867227554,0.19277438521385193
5.306230306625366,-0.09300968050956726,0.17,1.038712978363037,0.43229037523269653,0.1173686757683754,0.1931937038898468
5.326336622238159,-0.09441053867340088,0.17,1.0376931428909302,0.43002116680145264,0.11620698124170303,0.19337889552116394
5.346391201019287,-0.09473158419132233,0.17,1.0384236574172974,0.4301244020462036,0.11527834087610245,0.19293749332427979
5.366503953933716,-0.09165111184120178,0.17,1.039817214012146,0.4335916340351105,0.11401189118623734,0.19248971343040466
5.386570692062378,-0.09284786880016327,0.17,1.037755012512207,0.4321662187576294,0.11548391729593277,0.1936996579170227
5.406644105911255,-0.0933636873960495,0.17,1.0379376411437988,0.43157365918159485,0.11559327691793442,0.19267365336418152
5.42671799659729,-0.09306037425994873,0.17,1.0374821424484253,0.43123847246170044,0.11397189646959305,0.19321760535240173
5.447297096252441,-0.09621508419513702,0.17,1.0341299772262573,0.4280308187007904,0.11752619594335556,0.1939356029033661
5.467526912689209,-0.0952344685792923,0.17,1.0358504056930542,0.429557740688324,0.11654631048440933,0.19345605373382568
5.487574577331543,-0.09286369383335114,0.17,1.0367792844772339,0.43127262592315674,0.11581061035394669,0.19328239560127258
5.5076985359191895,-0.09308576583862305,0.17,1.036169409751892,0.4305248558521271,0.11961907893419266,0.1921709179878235
5.527822494506836,-0.0922885537147522,0.17,1.0376242399215698,0.43096715211868286,0.11324358731508255,0.19205668568611145
5.547999858856201,-0.09588971734046936,0.17,1.0330528020858765,0.4277901351451874,0.11841083317995071,0.19295600056648254
5.568021059036255,-0.09220078587532043,0.17,1.0365808010101318,0.4314039349555969,0.11340158432722092,0.19252938032150269
5.588067054748535,-0.09486123919487,0.17,1.0327907800674438,0.428406685590744,0.11627200990915298,0.1931420862674713
5.608175992965698,-0.09434805810451508,0.17,1.033427119255066,0.42867064476013184,0.1162455603480339,0.19320514798164368
5.62828254699707,-0.09371675550937653,0.17,1.0327235460281372,0.4290253221988678,0.1143656000494957,0.19430693984031677
5.648423194885254,-0.09320341050624847,0.17,1.0338776111602783,0.42983168363571167,0.11283180862665176,0.19335690140724182
5.668459415435791,-0.08948108553886414,0.17,1.0362658500671387,0.4335189461708069,0.11009346693754196,0.19286304712295532
5.688572406768799,-0.0920124351978302,0.17,1.0323569774627686,0.43059074878692627,0.11328911036252975,0.1946485936641693
5.708611011505127,-0.09365113079547882,0.17,1.0324589014053345,0.42942774295806885,0.11433800309896469,0.19371986389160156
5.728663206100464,-0.0915079414844513,0.17,1.0325175523757935,0.43086370825767517,0.11473957449197769,0.19354715943336487
5.7487571239471436,-0.0926133245229721,0.17,1.0318816900253296,0.42916545271873474,0.11419219523668289,0.19347673654556274
5.768830299377441,-0.09172333776950836,0.17,1.0317645072937012,0.43081316351890564,0.1194940134882927,0.19277676939964294
5.788904428482056,-0.09261646866798401,0.17,1.030771255493164,0.4286963641643524,0.11164412647485733,0.19414573907852173
5.8089518547058105,-0.0909704715013504,0.17,1.0323206186294556,0.4301215708255768,0.11154479533433914,0.19274276494979858
5.829185962677002,-0.09323050081729889,0.17,1.0286312103271484,0.42793941497802734,0.11529747396707535,0.19462060928344727
5.849200963973999,-0.09224043786525726,0.17,1.0297656059265137,0.4295722246170044,0.1131567433476448,0.19459494948387146
5.869274616241455,-0.09229561686515808,0.17,1.0300357341766357,0.42826366424560547,0.11041239649057388,0.19361746311187744
5.889303684234619,-0.09238281846046448,0.17,1.0287851095199585,0.4280255436897278,0.1115383431315422,0.1943729817867279
5.9093945026397705,-0.09331808984279633,0.17,1.0277577638626099,0.42731964588165283,0.11205773800611496,0.19425132870674133
5.929463624954224,-0.09546387195587158,0.17,1.0257774591445923,0.4250377416610718,0.11260155588388443,0.19512125849723816
5.949528932571411,-0.09438014030456543,0.17,1.026812195777893,0.4272419810295105,0.11184408515691757,0.1949096918106079
5.9696056842803955,-0.09541714191436768,0.17,1.0250922441482544,0.4263388514518738,0.11481770128011703,0.19523689150810242
5.989672660827637,-0.09214231371879578,0.17,1.0282984972000122,0.4285288155078888,0.1142730787396431,0.19423946738243103
6.009738922119141,-0.09247425198554993,0.17,1.025193691253662,0.4285120964050293,0.12345979362726212,0.193872332572937
6.029785394668579,-0.09349888563156128,0.17,1.0253427028656006,0.42658740282058716,0.11010167747735977,0.1953330636024475
6.049870729446411,-0.09305766224861145,0.17,1.0266250371932983,0.42728695273399353,0.11166820675134659,0.19358736276626587
6.069988012313843,-0.09312054514884949,0.17,1.0273157358169556,0.4272765517234802,0.11204198747873306,0.19238701462745667
6.090035915374756,-0.09512434899806976,0.17,1.0230804681777954,0.42400383949279785,0.11309889703989029,0.19487503170967102
6.110130310058594,-0.09613952040672302,0.17,1.0230826139450073,0.4234296679496765,0.11230091005563736,0.19491276144981384
6.130322456359863,-0.09316836297512054,0.17,1.0256643295288086,0.42703977227211,0.10919014364480972,0.194254070520401
6.150381326675415,-0.09439608454704285,0.17,1.0237421989440918,0.4245995879173279,0.11187180131673813,0.19531217217445374
6.1705543994903564,-0.09468597173690796,0.17,1.0231976509094238,0.42520201206207275,0.11191324144601822,0.19482091069221497
6.190635681152344,-0.09170423448085785,0.17,1.024897575378418,0.42890942096710205,0.10968922823667526,0.19451728463172913
6.210775852203369,-0.09443356096744537,0.17,1.0214625597000122,0.42468392848968506,0.11226043850183487,0.19535911083221436
6.230827808380127,-0.0957292765378952,0.17,1.020188570022583,0.4225841164588928,0.11213823407888412,0.19636332988739014
6.251015901565552,-0.09412088990211487,0.17,1.023082971572876,0.4251936674118042,0.10969281941652298,0.19411641359329224
6.271139621734619,-0.09399949014186859,0.17,1.0217818021774292,0.4250384569168091,0.11053701490163803,0.19449052214622498
6.2911529541015625,-0.09335747361183167,0.17,1.0215452909469604,0.4239569902420044,0.11013511568307877,0.19587919116020203
6.311201095581055,-0.09391966462135315,0.17,1.021681308746338,0.42246827483177185,0.11028184741735458,0.19621151685714722
6.331294775009155,-0.09447281062602997,0.17,1.020434856414795,0.423218309879303,0.11109595745801926,0.1953294575214386
6.3513593673706055,-0.0946313738822937,0.17,1.0203418731689453,0.4238252341747284,0.11026269942522049,0.19517886638641357
6.371412754058838,-0.0950549989938736,0.17,1.0192562341690063,0.4229934811592102,0.11445169895887375,0.19495704770088196
6.391714572906494,-0.09337665140628815,0.17,1.0209438800811768,0.4256204664707184,0.1118013933300972,0.19526496529579163
6.411839485168457,-0.0918455421924591,0.17,1.0211596488952637,0.42640799283981323,0.10943270474672318,0.19504597783088684
6.431964874267578,-0.09430272877216339,0.17,1.0191173553466797,0.42256736755371094,0.11111078411340714,0.19443991780281067
6.4520423412323,-0.09352661669254303,0.17,1.0187252759933472,0.4243088662624359,0.1099744364619255,0.19549185037612915
6.4722068309783936,-0.09401527047157288,0.17,1.0187255144119263,0.422946572303772,0.10935283452272415,0.19560351967811584
6.49236536026001,-0.09370340406894684,0.17,1.0194568634033203,0.4224129915237427,0.10734834522008896,0.19489464163780212
6.512942790985107,-0.09213048219680786,0.17,1.0193804502487183,0.42479968070983887,0.1069255843758583,0.19511380791664124
6.533035755157471,-0.09292227029800415,0.17,1.0179742574691772,0.4239529073238373,0.10834626108407974,0.19553476572036743
6.553220510482788,-0.0918613076210022,0.17,1.018149971961975,0.4246921241283417,0.10648495703935623,0.19605228304862976
6.573214530944824,-0.09125736355781555,0.17,1.0186359882354736,0.42556634545326233,0.10860452800989151,0.19446593523025513
6.5933310985565186,-0.093592569231987,0.17,1.0161000490188599,0.4214105010032654,0.10855457931756973,0.19589868187904358
6.6133763790130615,-0.09588085114955902,0.17,1.0126075744628906,0.4197195768356323,0.1118144765496254,0.19720938801765442
6.6334686279296875,-0.09340637922286987,0.17,1.0151007175445557,0.4231806695461273,0.11665820330381393,0.19567477703094482
6.653536319732666,-0.0955764502286911,0.17,1.014090895652771,0.4196978211402893,0.11159584671258926,0.19633418321609497
6.673681974411011,-0.0949690192937851,0.17,1.0139412879943848,0.4212740659713745,0.11159596592187881,0.1955592930316925
6.6937949657440186,-0.0961180031299591,0.17,1.013107180595398,0.418570876121521,0.10928729921579361,0.1956842839717865
6.7138447761535645,-0.09403447806835175,0.17,1.0141932964324951,0.42041903734207153,0.10750759392976761,0.19543665647506714
6.733932018280029,-0.09482362866401672,0.17,1.0123155117034912,0.42067772150039673,0.10837908834218979,0.1969454288482666
6.754047155380249,-0.09153318405151367,0.17,1.0155953168869019,0.42363667488098145,0.10669254511594772,0.1946505904197693
6.774177551269531,-0.09534528851509094,0.17,1.011531114578247,0.41895920038223267,0.1072162315249443,0.19572997093200684
6.794177293777466,-0.09507200121879578,0.17,1.0116888284683228,0.4198530316352844,0.10773720592260361,0.19626083970069885
6.814286231994629,-0.09403593838214874,0.17,1.0125190019607544,0.4206327795982361,0.10574714094400406,0.1956639289855957
6.834413528442383,-0.09725241363048553,0.17,1.0087636709213257,0.41747888922691345,0.1095067635178566,0.1967068910598755
6.854425668716431,-0.09204450249671936,0.17,1.0129671096801758,0.42258405685424805,0.1075218990445137,0.19557157158851624
6.87458348274231,-0.09328867495059967,0.17,1.0104954242706299,0.4204719364643097,0.10919872671365738,0.19683140516281128
6.894643068313599,-0.09408926963806152,0.16975083947181702,1.010352373123169,0.4196662902832031,0.10700298100709915,0.19614830613136292
6.91470193862915,-0.09743759036064148,0.16775724291801453,1.0073069334030151,0.41629481315612793,0.10890085250139236,0.1967080533504486
6.934741258621216,-0.09563930332660675,0.1672755479812622,1.009202241897583,0.41900843381881714,0.10796911269426346,0.19641289114952087
6.954828500747681,-0.09429222345352173,0.16710135340690613,1.0099116563796997,0.4184792935848236,0.10676906257867813,0.1961824595928192
6.974917650222778,-0.0961727648973465,0.16546064615249634,1.0074259042739868,0.41754674911499023,0.10752511769533157,0.19660934805870056
6.994962453842163,-0.09538255631923676,0.16594207286834717,1.007500171661377,0.4188656210899353,0.10737138241529465,0.1974967122077942
7.015080690383911,-0.09531019628047943,0.16528812050819397,1.0079765319824219,0.4180377721786499,0.10654621571302414,0.1965104341506958
7.035125970840454,-0.0955023467540741,0.1658342480659485,1.0075464248657227,0.41674497723579407,0.1056947186589241,0.19659462571144104
7.055220603942871,-0.0955335944890976,0.1639309525489807,1.0076656341552734,0.4174242317676544,0.10641366988420486,0.1965549886226654
7.075257301330566,-0.09385423362255096,0.16246771812438965,1.0075913667678833,0.4185096323490143,0.10631749778985977,0.19636833667755127
7.0953452587127686,-0.09439706802368164,0.16159296035766602,1.0070325136184692,0.4171315133571625,0.1071062758564949,0.19764599204063416
7.115405797958374,-0.09282912313938141,0.1606445014476776,1.00706148147583,0.4186210632324219,0.10586727410554886,0.1973229944705963
7.135453701019287,-0.09381884336471558,0.1614077389240265,1.006629467010498,0.418613463640213,0.10442135483026505,0.1973765790462494
7.1555562019348145,-0.09488485753536224,0.16169077157974243,1.0057692527770996,0.41650229692459106,0.10484860092401505,0.19670653343200684
7.175626277923584,-0.09391361474990845,0.16235142946243286,1.0057892799377441,0.417174369096756,0.10417661815881729,0.19694402813911438
7.19568943977356,-0.09281718730926514,0.1612338423728943,1.0054816007614136,0.419019877910614,0.10451459139585495,0.19698494672775269
7.215786695480347,-0.09292192757129669,0.16084828972816467,1.005328893661499,0.4187808930873871,0.10438735038042068,0.19723907113075256
7.235943078994751,-0.09418913722038269,0.16019698977470398,1.0047284364700317,0.4165593981742859,0.1041252389550209,0.19717681407928467
7.256023406982422,-0.09404759109020233,0.16019368171691895,1.0041887760162354,0.417018324136734,0.10620752722024918,0.19689857959747314
7.276041746139526,-0.09153209626674652,0.15998661518096924,1.0061601400375366,0.41862136125564575,0.10504617542028427,0.19635626673698425
7.296082973480225,-0.09379404783248901,0.15785998106002808,1.0039747953414917,0.4167591333389282,0.10426092892885208,0.1965806782245636
7.316189765930176,-0.09292683005332947,0.1575690507888794,1.0039358139038086,0.4177619218826294,0.10383198410272598,0.19711720943450928
7.336309194564819,-0.09367810189723969,0.15627345442771912,1.0031530857086182,0.41656428575515747,0.10369313508272171,0.19697067141532898
7.356341361999512,-0.09186093509197235,0.15572819113731384,1.003501296043396,0.4178789258003235,0.10237155109643936,0.19679957628250122
7.376399755477905,-0.09299486875534058,0.15567538142204285,1.0014657974243164,0.41603440046310425,0.10238528996706009,0.19806647300720215
7.3964924812316895,-0.0934290736913681,0.1551724076271057,1.0019793510437012,0.4161911606788635,0.10149810463190079,0.19722533226013184
7.416591167449951,-0.09460949897766113,0.1540829837322235,1.001255989074707,0.4154088795185089,0.10211638361215591,0.19712087512016296
7.436641693115234,-0.09433318674564362,0.1549569070339203,0.9994747638702393,0.4141678214073181,0.1017579510807991,0.19881990551948547
7.4566967487335205,-0.09450508654117584,0.15353548526763916,1.0001325607299805,0.4151429533958435,0.10282645374536514,0.1972396969795227
7.476756572723389,-0.09468403458595276,0.1513998806476593,0.9995530843734741,0.41457444429397583,0.10264713317155838,0.19753161072731018
7.4968225955963135,-0.09612886607646942,0.14977619051933289,0.99822998046875,0.4127061367034912,0.10306460410356522,0.19842329621315002
7.51690673828125,-0.09465320408344269,0.14983651041984558,0.9996123313903809,0.4140111207962036,0.10113015025854111,0.19728341698646545
7.537123680114746,-0.09252575039863586,0.14960452914237976,0.9995183944702148,0.4167621433734894,0.10218926519155502,0.1981678605079651
7.557180166244507,-0.09397652745246887,0.14938697218894958,0.9990873336791992,0.4130058288574219,0.10253793746232986,0.1980569064617157
7.577288389205933,-0.09270374476909637,0.14920982718467712,0.9989302754402161,0.41579771041870117,0.10225001722574234,0.19794103503227234
7.597514867782593,-0.0970815122127533,0.1467718482017517,0.9949977397918701,0.41133826971054077,0.104344941675663,0.19904571771621704
7.617626428604126,-0.09660215675830841,0.14596015214920044,0.9962623119354248,0.4114871323108673,0.10292520374059677,0.19851267337799072
7.637686252593994,-0.093796506524086,0.1455068290233612,0.997889518737793,0.41277414560317993,0.101725734770298,0.19881975650787354
7.6578733921051025,-0.09444038569927216,0.14153596758842468,0.9972708225250244,0.40994828939437866,0.10341858118772507,0.19915398955345154
7.677858829498291,-0.09481963515281677,0.14108484983444214,0.9945183396339417,0.41175803542137146,0.10331349819898605,0.19843080639839172
7.697991132736206,-0.09642191231250763,0.14185044169425964,0.993589460849762,0.41123610734939575,0.10275880247354507,0.19982370734214783
7.718008279800415,-0.09634506702423096,0.14191961288452148,0.9945117235183716,0.41015905141830444,0.10181742161512375,0.19874420762062073
7.738357782363892,-0.09266281127929688,0.1427329182624817,0.9970145225524902,0.414604127407074,0.09989190846681595,0.19745275378227234
7.758475065231323,-0.0960058718919754,0.14210736751556396,0.9935935735702515,0.4102720022201538,0.1010584905743599,0.1979561150074005
7.778653144836426,-0.09581449627876282,0.14185795187950134,0.9920449256896973,0.41001084446907043,0.10189350694417953,0.19928407669067383
7.798658847808838,-0.09680506587028503,0.1406359076499939,0.992221474647522,0.40930140018463135,0.10104633122682571,0.1988430917263031
7.818936824798584,-0.09630762040615082,0.14019769430160522,0.9922624230384827,0.40998613834381104,0.10119069367647171,0.19869747757911682
7.839026927947998,-0.09647926688194275,0.1404133141040802,0.9918661713600159,0.4085182547569275,0.10019030421972275,0.19851943850517273
7.859130859375,-0.09566628932952881,0.13834145665168762,0.9916864037513733,0.4104846715927124,0.10103017836809158,0.19874060153961182
7.879147529602051,-0.09402170777320862,0.13757148385047913,0.9925813674926758,0.4116875231266022,0.09903601557016373,0.19835034012794495
7.899232864379883,-0.09460802376270294,0.13703498244285583,0.9914563894271851,0.41077399253845215,0.10006176680326462,0.19932052493095398
7.9193501472473145,-0.09209463000297546,0.13661235570907593,0.9918930530548096,0.41360124945640564,0.1045527532696724,0.19849905371665955
7.939388275146484,-0.09417325258255005,0.1358030140399933,0.9905375838279724,0.41007915139198303,0.10060004144906998,0.19892850518226624
7.959473609924316,-0.0926632285118103,0.1343194544315338,0.990458607673645,0.41283926367759705,0.10185322910547256,0.19885891675949097
7.9795613288879395,-0.09682618081569672,0.13137009739875793,0.987313985824585,0.4064050316810608,0.10199833661317825,0.19990336894989014
7.99962854385376,-0.09638157486915588,0.12940233945846558,0.98746657371521,0.40753111243247986,0.10349632054567337,0.20014795660972595
8.019674062728882,-0.09181587398052216,0.13076266646385193,0.9887882471084595,0.4121604561805725,0.10900140553712845,0.19880548119544983
8.03994369506836,-0.09308882057666779,0.12784242630004883,0.9895617961883545,0.4093281328678131,0.09834509342908859,0.19926276803016663
8.060028791427612,-0.09279163181781769,0.12872549891471863,0.9897496700286865,0.4090728163719177,0.09741044789552689,0.1990547478199005
8.080098152160645,-0.09485167264938354,0.1276766061782837,0.9873906970024109,0.4082450568675995,0.09907782822847366,0.1995774805545807
8.100157499313354,-0.09302689135074615,0.12752962112426758,0.9877462387084961,0.40978187322616577,0.09724324196577072,0.20055297017097473
8.120225429534912,-0.09667491912841797,0.12611162662506104,0.9847585558891296,0.4045618772506714,0.09943831712007523,0.19995489716529846
8.14039921760559,-0.09416660666465759,0.12462455779314041,0.9865219593048096,0.4080117642879486,0.09810364991426468,0.1999521553516388
8.160449028015137,-0.09542302787303925,0.12173936516046524,0.9849473237991333,0.40701213479042053,0.10075423866510391,0.20046135783195496
8.180497169494629,-0.09476540982723236,0.12022746354341507,0.9849915504455566,0.40564408898353577,0.09832916408777237,0.2011079490184784
8.200608730316162,-0.09734554588794708,0.11903735250234604,0.9825844168663025,0.40354910492897034,0.09975016862154007,0.200890451669693
8.22074294090271,-0.09569090604782104,0.11981918662786484,0.983171284198761,0.4060172438621521,0.09803459793329239,0.20137694478034973
8.241145372390747,-0.09450022876262665,0.11942917853593826,0.9842097759246826,0.4072101414203644,0.09758146852254868,0.19935524463653564
8.261224031448364,-0.09636610746383667,0.11871751397848129,0.9822098612785339,0.4037105441093445,0.09833353012800217,0.2012365758419037
8.281351804733276,-0.09696277976036072,0.11842948943376541,0.9824844598770142,0.4026597738265991,0.0958973839879036,0.20031961798667908
8.3013596534729,-0.09564027190208435,0.11883590370416641,0.9823207259178162,0.4049510955810547,0.09708834439516068,0.2003118097782135
8.321445226669312,-0.09579487144947052,0.11779705435037613,0.9816148281097412,0.40494590997695923,0.09743700176477432,0.20090946555137634
8.34151840209961,-0.09605926275253296,0.11636114865541458,0.9812238812446594,0.40481728315353394,0.09769979864358902,0.2007143795490265
8.361631155014038,-0.09454208612442017,0.11456919461488724,0.9817593097686768,0.4059445261955261,0.09698968380689621,0.20099318027496338
8.381672382354736,-0.09507030248641968,0.11317161470651627,0.9807537794113159,0.40453988313674927,0.09641588479280472,0.20091208815574646
8.401762008666992,-0.09416976571083069,0.11263108998537064,0.9806203842163086,0.40555959939956665,0.09799889475107193,0.2005946934223175
8.421863555908203,-0.0949133038520813,0.11238836497068405,0.9789426326751709,0.4040008783340454,0.10288908332586288,0.2009265124797821
8.441889524459839,-0.09392181038856506,0.11029838770627975,0.9804897308349609,0.405352920293808,0.09641414135694504,0.20049124956130981
8.461990118026733,-0.09586751461029053,0.10885902494192123,0.9783247709274292,0.4026032090187073,0.09739849716424942,0.20193108916282654
8.482066631317139,-0.0953485518693924,0.10643023997545242,0.9783775806427002,0.40275901556015015,0.09620457142591476,0.2015327513217926
8.502196550369263,-0.09712935984134674,0.10616672784090042,0.9767374992370605,0.40024852752685547,0.09559903293848038,0.20134079456329346
8.522327899932861,-0.09405244886875153,0.10589314252138138,0.9778251647949219,0.4030960202217102,0.0948498323559761,0.20216810703277588
8.542418479919434,-0.09428799152374268,0.10493587702512741,0.9775220155715942,0.402987539768219,0.09495065361261368,0.2008192539215088
8.562494277954102,-0.09618997573852539,0.10379574447870255,0.9758156538009644,0.4001544117927551,0.09455738216638565,0.2017917037010193
8.582582473754883,-0.09673482179641724,0.10349970310926437,0.975681483745575,0.40034881234169006,0.09527239948511124,0.20170184969902039
8.602644205093384,-0.09681607782840729,0.10308533161878586,0.9755087494850159,0.4005274474620819,0.09551065415143967,0.20169192552566528
8.622735261917114,-0.09508341550827026,0.10227776318788528,0.9754699468612671,0.4012996256351471,0.09861645847558975,0.20161324739456177
8.642812252044678,-0.09602491557598114,0.09900232404470444,0.9745821952819824,0.40027469396591187,0.09727995842695236,0.20108968019485474
8.66286587715149,-0.09445858001708984,0.09881559759378433,0.9751710295677185,0.4013337790966034,0.09457582980394363,0.20098760724067688
8.683008193969727,-0.09533287584781647,0.09758130460977554,0.9738458395004272,0.40045350790023804,0.09602785855531693,0.2022988498210907
8.703057289123535,-0.09065452218055725,0.09568042308092117,0.9767988920211792,0.40579283237457275,0.09404128044843674,0.20013579726219177
8.72318410873413,-0.09354327619075775,0.09405113011598587,0.9728270769119263,0.40136516094207764,0.09356678277254105,0.2021111249923706
8.743427276611328,-0.09403838217258453,0.09348685294389725,0.9730534553527832,0.3997563123703003,0.09150437265634537,0.2018861472606659
8.76359510421753,-0.09393061697483063,0.09344261139631271,0.9723052978515625,0.40036070346832275,0.09140747040510178,0.2019207775592804
8.783639192581177,-0.09590373933315277,0.09152654558420181,0.9699357151985168,0.3969409167766571,0.09204257279634476,0.20356431603431702
8.803730726242065,-0.09631060063838959,0.0887196883559227,0.9700682163238525,0.3981373906135559,0.0934414342045784,0.20225131511688232
8.82378602027893,-0.09348228573799133,0.08770237118005753,0.9714387655258179,0.4008943438529968,0.09300882369279861,0.20235595107078552
8.84385085105896,-0.09630011022090912,0.08402182906866074,0.9693892002105713,0.3933420479297638,0.09449253231287003,0.20326057076454163
8.863937854766846,-0.09654901921749115,0.08151412755250931,0.9688006639480591,0.3961987793445587,0.09346369653940201,0.202876478433609
8.884101867675781,-0.09620261192321777,0.08113769441843033,0.968690037727356,0.3959677219390869,0.09287596493959427,0.20357540249824524
8.904142618179321,-0.09325997531414032,0.08179891854524612,0.9690242409706116,0.39868199825286865,0.09665528684854507,0.2030816376209259
8.924192905426025,-0.09430764615535736,0.08154145628213882,0.9674208760261536,0.39626267552375793,0.09111122041940689,0.20502221584320068
8.944272756576538,-0.0930536687374115,0.08017099648714066,0.968804121017456,0.39847058057785034,0.0913424864411354,0.20121708512306213
8.964484214782715,-0.09342150390148163,0.07712506502866745,0.9685331583023071,0.39753854274749756,0.09135700017213821,0.2014085352420807
8.984503746032715,-0.09642648696899414,0.0744732990860939,0.9652575254440308,0.39288488030433655,0.09074962884187698,0.20344778895378113
9.004546880722046,-0.09408389031887054,0.0730137750506401,0.9661396741867065,0.39614689350128174,0.0914209708571434,0.20393040776252747
9.024694919586182,-0.09559305012226105,0.07258748263120651,0.9652876853942871,0.3936472535133362,0.08925662189722061,0.2038763165473938
9.044767141342163,-0.09518763422966003,0.07156429439783096,0.966254711151123,0.3930395245552063,0.09086313098669052,0.20420199632644653
9.06482219696045,-0.09342469274997711,0.07091858237981796,0.965237021446228,0.39501968026161194,0.0908825621008873,0.20425531268119812
9.085367441177368,-0.09303222596645355,0.06883078068494797,0.96605384349823,0.3956546187400818,0.08870900422334671,0.20278888940811157
9.105466604232788,-0.0947594940662384,0.06800224632024765,0.9631344079971313,0.3929874897003174,0.08971811085939407,0.2056654393672943
9.12553334236145,-0.09255276620388031,0.06595096737146378,0.964484691619873,0.3961651921272278,0.09008241444826126,0.20335474610328674
9.145689487457275,-0.09187258780002594,0.06493700295686722,0.9618505239486694,0.3951728641986847,0.09634488075971603,0.20394960045814514
9.16596007347107,-0.09716537594795227,0.059650667011737823,0.959320068359375,0.388924241065979,0.09282558411359787,0.2056676745414734
9.186140298843384,-0.09563545882701874,0.05899099260568619,0.9616953134536743,0.3914320468902588,0.08907490223646164,0.2044912874698639
9.206162691116333,-0.09490205347537994,0.055491141974925995,0.9600759148597717,0.39149296283721924,0.09094437211751938,0.20567038655281067
9.226223230361938,-0.09380318224430084,0.05349277704954147,0.9608781933784485,0.39189255237579346,0.08790034800767899,0.2049504518508911
9.2463059425354,-0.09340041875839233,0.05401354283094406,0.9611208438873291,0.3913535475730896,0.08718559890985489,0.20527565479278564
9.266403436660767,-0.09237395226955414,0.05262491852045059,0.960743248462677,0.3926921486854553,0.08831129223108292,0.2042883038520813
9.28649640083313,-0.09254637360572815,0.05205335468053818,0.9598309993743896,0.39133143424987793,0.0872490331530571,0.2044399380683899
9.306537866592407,-0.08956274390220642,0.049970485270023346,0.9616953730583191,0.395473450422287,0.08616528660058975,0.20236051082611084
9.326729774475098,-0.09458330273628235,0.04840748757123947,0.955796480178833,0.38757050037384033,0.08829192072153091,0.20835959911346436
9.346747636795044,-0.0940919816493988,0.04565431922674179,0.9564652442932129,0.3890911936759949,0.09052789956331253,0.2057476043701172
9.367227792739868,-0.09856744110584259,0.039719052612781525,0.9546731114387512,0.3834085762500763,0.0883500799536705,0.2064020037651062
9.387289047241211,-0.09510844945907593,0.03949473053216934,0.9556562900543213,0.3883587121963501,0.08876938372850418,0.20612362027168274
9.407356262207031,-0.09549124538898468,0.03730414807796478,0.9544202089309692,0.3852063715457916,0.08658844977617264,0.20714738965034485
9.427446126937866,-0.09697353839874268,0.034933216869831085,0.9524658918380737,0.38299405574798584,0.08769126981496811,0.20786163210868835
9.447648763656616,-0.09694279730319977,0.03265135735273361,0.9528356790542603,0.3839850127696991,0.08747190982103348,0.20697030425071716
9.467708826065063,-0.09236454963684082,0.03453228622674942,0.9552156925201416,0.3878648281097412,0.08441811054944992,0.20543253421783447
9.487816095352173,-0.09362074732780457,0.031897254288196564,0.9530601501464844,0.38685983419418335,0.0860924944281578,0.20591771602630615
9.507883310317993,-0.09658096730709076,0.027263082563877106,0.9516155123710632,0.38191288709640503,0.08666736632585526,0.20801272988319397
9.52803087234497,-0.09909431636333466,0.026018314063549042,0.9507376551628113,0.3772350549697876,0.0865243449807167,0.2087501585483551
9.548112869262695,-0.09467026591300964,0.02361675351858139,0.9508899450302124,0.3835154175758362,0.08837039023637772,0.207880437374115
9.568175554275513,-0.09568241238594055,0.017116770148277283,0.9485782384872437,0.38228851556777954,0.09071683138608932,0.20795831084251404
9.588423728942871,-0.09491905570030212,0.0143447145819664,0.9481291770935059,0.3812788128852844,0.09197070449590683,0.2085786759853363
9.608539342880249,-0.09490741789340973,0.014322757720947266,0.9505971670150757,0.38112640380859375,0.0850721225142479,0.2075197696685791
9.628726720809937,-0.09444096684455872,0.011883817613124847,0.9489814043045044,0.38152405619621277,0.08538005501031876,0.20888230204582214
9.648732662200928,-0.0943564772605896,0.006992846727371216,0.9489221572875977,0.3805009722709656,0.08355589956045151,0.20886361598968506
9.668882846832275,-0.09415626525878906,0.005692832171916962,0.9473788738250732,0.3806686997413635,0.08483109623193741,0.20920276641845703
9.688920736312866,-0.09418271481990814,0.005490757524967194,0.9470568895339966,0.3793673515319824,0.08252210170030594,0.2099083662033081
9.708989143371582,-0.09432905912399292,0.0037109553813934326,0.9463984966278076,0.3783402442932129,0.08350663632154465,0.21005728840827942
9.72903561592102,-0.09307335317134857,-0.000756390392780304,0.947568953037262,0.380733847618103,0.08355274051427841,0.20930203795433044
9.749117851257324,-0.09338279068470001,-0.0030989870429039,0.94516521692276,0.37914764881134033,0.08510566502809525,0.21036666631698608
9.769189357757568,-0.09133462607860565,-0.006459437310695648,0.9455459117889404,0.38173097372055054,0.08607678860425949,0.20984071493148804
9.789239645004272,-0.09291613101959229,-0.011833332479000092,0.9434816837310791,0.37759214639663696,0.08916772156953812,0.20951902866363525
9.809296369552612,-0.09525944292545319,-0.01771407574415207,0.9421370625495911,0.37507665157318115,0.08527686446905136,0.2112744152545929
9.829384565353394,-0.09344272315502167,-0.018676646053791046,0.9431689381599426,0.37625688314437866,0.08345860987901688,0.21109214425086975
9.849449396133423,-0.09463118016719818,-0.025853730738162994,0.9421519041061401,0.37434470653533936,0.08389627188444138,0.21083837747573853
9.869534492492676,-0.09571677446365356,-0.030180148780345917,0.941015362739563,0.3696080148220062,0.08236267417669296,0.21253269910812378
9.889573335647583,-0.09237684309482574,-0.029386021196842194,0.9432938694953918,0.37180376052856445,0.08276308327913284,0.21258583664894104
9.909662246704102,-0.09491561353206635,-0.03398696333169937,0.9401905536651611,0.37066394090652466,0.08076705783605576,0.21249249577522278
9.929839134216309,-0.08921416103839874,-0.035081855952739716,0.9428202509880066,0.3772844076156616,0.07944890111684799,0.2109469175338745
9.949857711791992,-0.09300626814365387,-0.039709560573101044,0.9386195540428162,0.3710419535636902,0.08048424869775772,0.21296784281730652
9.96993613243103,-0.09249261021614075,-0.04368514567613602,0.9376401901245117,0.37290436029434204,0.08304087072610855,0.21297714114189148
9.989991188049316,-0.09446616470813751,-0.05195612460374832,0.9356721639633179,0.36733654141426086,0.08225450664758682,0.21496838331222534
10.010135650634766,-0.09398695826530457,-0.059997253119945526,0.9349552392959595,0.36651819944381714,0.08225346356630325,0.21517589688301086
10.03023886680603,-0.09279817342758179,-0.06385653465986252,0.9354033470153809,0.3673538565635681,0.08107120543718338,0.21406033635139465
10.050391674041748,-0.09716923534870148,-0.07545017451047897,0.9311952590942383,0.36102625727653503,0.08326459676027298,0.2166641652584076
10.070432186126709,-0.09420886635780334,-0.08113444596529007,0.9326256513595581,0.3620357811450958,0.0804370865225792,0.21635708212852478
10.090636253356934,-0.09323517978191376,-0.08349267393350601,0.9336212873458862,0.36200031638145447,0.07881543785333633,0.21491029858589172
10.11062216758728,-0.09230133891105652,-0.08929804712533951,0.9323928952217102,0.3622807264328003,0.07823965698480606,0.2162204384803772
10.130743026733398,-0.08897414803504944,-0.09789588302373886,0.9328692555427551,0.3650784194469452,0.0783424898982048,0.21600651741027832
10.150754928588867,-0.09094588458538055,-0.10765060037374496,0.9310355186462402,0.35963907837867737,0.07738501578569412,0.21631518006324768
10.170848608016968,-0.09211094677448273,-0.11468547582626343,0.9292019605636597,0.3582099378108978,0.07923712581396103,0.2184678614139557
10.190912961959839,-0.09159635007381439,-0.13035479187965393,0.9284558296203613,0.3569888770580292,0.08172518759965897,0.2183263599872589
10.210973024368286,-0.08889412879943848,-0.14712344110012054,0.9292281270027161,0.35514289140701294,0.08357077091932297,0.21796533465385437
10.231017112731934,-0.09010735154151917,-0.16802524030208588,0.9268478155136108,0.3504059314727783,0.08364226669073105,0.21898114681243896
10.251118659973145,-0.0925573855638504,-0.18103620409965515,0.9249135851860046,0.3450029790401459,0.08324400335550308,0.22369065880775452
10.271188259124756,-0.0861591249704361,-0.2061677873134613,0.92545485496521,0.3457484543323517,0.08709944039583206,0.22348353266716003
10.291279077529907,-0.08491349220275879,-0.23707279562950134,0.925525963306427,0.3447451591491699,0.08112899214029312,0.22339573502540588
10.31135630607605,-0.08555515110492706,-0.25759148597717285,0.9253638982772827,0.3394186496734619,0.08170615881681442,0.2249414026737213
10.331432580947876,-0.08261401951313019,-0.30430689454078674,0.9266584515571594,0.33445021510124207,0.08274879306554794,0.22633647918701172
10.35147738456726,-0.07927992939949036,-0.3683800995349884,0.9281861782073975,0.3284318745136261,0.08629516512155533,0.22995463013648987
10.371587753295898,-0.07295256853103638,-0.4583604037761688,0.9322893023490906,0.32299214601516724,0.09277888387441635,0.23199519515037537
10.391782522201538,-0.06982295215129852,-0.5135906934738159,0.9378033876419067,0.3178589642047882,0.09308261424303055,0.23340603709220886
10.411869764328003,-0.0594671256840229,-0.6517093181610107,0.946971595287323,0.312305748462677,0.10380705446004868,0.2371405065059662
10.43191909790039,-0.04810051992535591,-0.8292652368545532,0.9608495831489563,0.30401158332824707,0.11669731885194778,0.24039897322654724
10.451994895935059,-0.040598347783088684,-0.926998496055603,0.9693392515182495,0.30161163210868835,0.12672343850135803,0.24413475394248962
10.47205638885498,-0.02630453184247017,-1.1298927068710327,0.9944179058074951,0.29643648862838745,0.13672539591789246,0.24544116854667664
10.49210524559021,-0.015409883111715317,-1.2986373901367188,1.0241749286651611,0.29384398460388184,0.14588767290115356,0.2484944462776184
10.512462854385376,-0.017526868730783463,-1.41167151927948,1.0507876873016357,0.28558775782585144,0.14970460534095764,0.251252144575119
10.532611608505249,-0.016369197517633438,-1.4425041675567627,1.065003514289856,0.29038357734680176,0.1512773334980011,0.2528825104236603
10.552727460861206,-0.009114164859056473,-1.4894546270370483,1.0700492858886719,0.29255959391593933,0.15852832794189453,0.25444015860557556
10.572747230529785,-0.009207863360643387,-1.5087461471557617,1.0803781747817993,0.2924095392227173,0.15977737307548523,0.2548467516899109
10.592800617218018,-0.008735794574022293,-1.5156770944595337,1.0817153453826904,0.2930392324924469,0.16191351413726807,0.25445544719696045
10.612908601760864,-0.0047245509922504425,-1.5247033834457397,1.0828863382339478,0.2942778766155243,0.16511768102645874,0.2542373239994049
10.633010149002075,-0.0066588930785655975,-1.5313256978988647,1.087052822113037,0.2949724793434143,0.1670897901058197,0.25421661138534546
10.653041362762451,-0.014177624136209488,-1.5369017124176025,1.0951803922653198,0.29273173213005066,0.1658753752708435,0.25421378016471863
10.673155546188354,-0.0007872618734836578,-1.540517807006836,1.0814217329025269,0.2998894155025482,0.1807108223438263,0.25380459427833557
10.69322395324707,-0.003504011780023575,-1.533137321472168,1.0875478982925415,0.2995057702064514,0.17705592513084412,0.2533866763114929
10.713290214538574,-0.012327577918767929,-1.5305315256118774,1.0955861806869507,0.29693740606307983,0.17507821321487427,0.2536086142063141
10.733407735824585,-0.016429226845502853,-1.524454951286316,1.0977528095245361,0.29699718952178955,0.1784750521183014,0.2541637122631073
10.753522157669067,-0.007605645805597305,-1.5209717750549316,1.0911647081375122,0.30122748017311096,0.18538141250610352,0.2538212835788727
10.773637056350708,-0.012197468429803848,-1.5020164251327515,1.0992861986160278,0.2982952296733856,0.17737093567848206,0.254448801279068
10.793737173080444,-0.01061360165476799,-1.4854605197906494,1.0903663635253906,0.30359065532684326,0.1875287890434265,0.2541254162788391
10.813794612884521,-0.025621216744184494,-1.4658679962158203,1.115105152130127,0.29376235604286194,0.16458317637443542,0.2542068064212799
10.833933591842651,-0.025572385638952255,-1.4254848957061768,1.1112868785858154,0.2951905429363251,0.16616570949554443,0.25275537371635437
10.853938817977905,-0.04527131840586662,-1.3673983812332153,1.1228833198547363,0.2841845750808716,0.15407851338386536,0.25384604930877686
10.874128580093384,-0.04904266819357872,-1.294051170349121,1.122257947921753,0.2870986759662628,0.15225297212600708,0.2534010410308838
10.89433479309082,-0.05901849642395973,-1.2455559968948364,1.127238392829895,0.28297680616378784,0.14929425716400146,0.25539615750312805
10.91435980796814,-0.07303912937641144,-1.1327723264694214,1.1344993114471436,0.28036296367645264,0.1269594430923462,0.2522525191307068
10.934380769729614,-0.0752919465303421,-1.0101776123046875,1.1193381547927856,0.2896411120891571,0.144250750541687,0.2527241110801697
10.954464673995972,-0.08713047206401825,-0.9616605043411255,1.1179481744766235,0.29548048973083496,0.13733330368995667,0.25155577063560486
10.974534511566162,-0.09400279819965363,-0.8941292762756348,1.100501537322998,0.2975718379020691,0.1665736436843872,0.2531137764453888
10.994619369506836,-0.08203782141208649,-0.8637256026268005,1.069111943244934,0.31721124053001404,0.1957170069217682,0.25113052129745483
11.014718055725098,-0.06904743611812592,-0.8549102544784546,1.0610847473144531,0.3331340551376343,0.19555813074111938,0.24884673953056335
11.034895896911621,-0.06604714691638947,-0.8590494394302368,1.056144118309021,0.3366473615169525,0.19542086124420166,0.24712586402893066
11.054995775222778,-0.05969354882836342,-0.8697001338005066,1.0553300380706787,0.34327051043510437,0.18718695640563965,0.24695485830307007
11.075126886367798,-0.059071753174066544,-0.8964747190475464,1.0597944259643555,0.3417767882347107,0.1832168996334076,0.25102633237838745
11.095289707183838,-0.057060543447732925,-0.9051247239112854,1.0622671842575073,0.34036585688591003,0.1831236183643341,0.25179481506347656
11.115401983261108,-0.061110418289899826,-0.9288092851638794,1.0628145933151245,0.3341200053691864,0.18700090050697327,0.25519680976867676
11.13549017906189,-0.06399121880531311,-0.9495682716369629,1.061255931854248,0.33026018738746643,0.19544446468353271,0.25535598397254944
11.155559539794922,-0.060553889721632004,-0.9654723405838013,1.0670907497406006,0.3301602900028229,0.19249173998832703,0.254603773355484
11.17566704750061,-0.06411917507648468,-0.9753717184066772,1.0661426782608032,0.3250996470451355,0.19322741031646729,0.25600239634513855
11.195712804794312,-0.06317442655563354,-0.998955249786377,1.0605504512786865,0.32713571190834045,0.20649421215057373,0.2569117248058319
11.215849161148071,-0.062303874641656876,-1.0282946825027466,1.0647482872009277,0.32530179619789124,0.20080918073654175,0.2551366686820984
11.235960006713867,-0.05714860185980797,-1.0437475442886353,1.0646789073944092,0.32967108488082886,0.20698431134223938,0.25725123286247253
11.256054639816284,-0.05515432730317116,-1.0817511081695557,1.063690423965454,0.3280629515647888,0.21511614322662354,0.25867125391960144
11.276076316833496,-0.05599898472428322,-1.115176796913147,1.0714250802993774,0.3251972198486328,0.21301892399787903,0.2613566815853119
11.296124696731567,-0.05150860175490379,-1.1437478065490723,1.0791821479797363,0.32728680968284607,0.2077651023864746,0.2604270279407501
11.316209077835083,-0.04965923726558685,-1.1526983976364136,1.084411382675171,0.32650262117385864,0.20411181449890137,0.2616558074951172
11.336284399032593,-0.054618243128061295,-1.1749497652053833,1.086142897605896,0.32509440183639526,0.2047882080078125,0.2620426118373871
11.356462478637695,-0.04868285730481148,-1.190307855606079,1.092895269393921,0.32697176933288574,0.1988798975944519,0.2646484971046448
11.376492023468018,-0.04487138241529465,-1.190210223197937,1.098972201347351,0.3265749216079712,0.1917409598827362,0.2644587457180023
11.39664912223816,-0.04330253228545189,-1.1958835124969482,1.099290370941162,0.32961559295654297,0.19725459814071655,0.2643894553184509
11.416631698608398,-0.04409084469079971,-1.1930347681045532,1.1054948568344116,0.32907938957214355,0.19559895992279053,0.2684800922870636
11.436678171157837,-0.05060960352420807,-1.1864763498306274,1.1082112789154053,0.3320039212703705,0.1904619336128235,0.2717803418636322
11.456767559051514,-0.05254880711436272,-1.180526614189148,1.1072282791137695,0.33229565620422363,0.19224035739898682,0.26993221044540405
11.476826906204224,-0.05518754944205284,-1.167158842086792,1.104526400566101,0.3375973701477051,0.19975939393043518,0.27123796939849854
11.49689245223999,-0.062114324420690536,-1.153124213218689,1.1035230159759521,0.3358888030052185,0.20720970630645752,0.2727509140968323
11.516937732696533,-0.06165337190032005,-1.1236408948898315,1.1015568971633911,0.33933642506599426,0.21027034521102905,0.27281469106674194
11.537025690078735,-0.05990323796868324,-1.1161847114562988,1.0907855033874512,0.3418912887573242,0.23105913400650024,0.27646735310554504
11.557184934616089,-0.06105219945311546,-1.1104365587234497,1.0802407264709473,0.34494009613990784,0.24750298261642456,0.2752244770526886
11.577214479446411,-0.06635299324989319,-1.1055340766906738,1.0802556276321411,0.34507322311401367,0.24810779094696045,0.27591636776924133
11.597277164459229,-0.06917324662208557,-1.0993101596832275,1.081680417060852,0.34314078092575073,0.24246051907539368,0.2775401175022125
11.617371797561646,-0.07151295244693756,-1.097468614578247,1.0892130136489868,0.34585994482040405,0.23352530598640442,0.2758972942829132
11.637446641921997,-0.06842514872550964,-1.0993095636367798,1.0859661102294922,0.3488895893096924,0.23268944025039673,0.2751180827617645
11.657473087310791,-0.06672732532024384,-1.0960851907730103,1.0903599262237549,0.3482776880264282,0.22846999764442444,0.2775091826915741
11.677591562271118,-0.06812682747840881,-1.0895072221755981,1.0916056632995605,0.34863513708114624,0.22615739703178406,0.2798186242580414
11.697689771652222,-0.06155715510249138,-1.0834269523620605,1.082996129989624,0.3522779941558838,0.23987987637519836,0.2832540273666382
11.717800617218018,-0.05950548127293587,-1.064799427986145,1.0927029848098755,0.354378879070282,0.22483164072036743,0.28454136848449707
11.737879514694214,0.3513430655002594,-1.0188603401184082,1.2123394012451172,0.5229972004890442,0.4197682738304138,0.5250002145767212
11.758014440536499,0.352981299161911,-1.2137333154678345,1.1796108484268188,0.45879876613616943,0.3573390543460846,0.39659273624420166
11.77807068824768,0.3789326250553131,-1.5248528718948364,1.189182162284851,0.444824755191803,0.37006551027297974,0.43246546387672424
11.798303842544556,0.40043243765830994,-1.7659763097763062,1.2083775997161865,0.43824440240859985,0.391851544380188,0.44244059920310974
11.818445205688477,0.40773046016693115,-1.855718970298767,1.2138277292251587,0.4374777376651764,0.4012516438961029,0.44854608178138733
11.83850646018982,0.41552799940109253,-1.9878426790237427,1.2259601354599,0.43339797854423523,0.42228543758392334,0.44799667596817017
11.85853910446167,0.42218491435050964,-2.0644614696502686,1.2357946634292603,0.43155553936958313,0.4319932460784912,0.44775471091270447
11.878638505935669,0.4247540235519409,-2.092902421951294,1.2346948385238647,0.43222272396087646,0.4381105899810791,0.4476180374622345
11.89870834350586,0.42664965987205505,-2.1262929439544678,1.2401763200759888,0.43120646476745605,0.44358450174331665,0.4476940333843231
11.918795585632324,0.4261713922023773,-2.143517255783081,1.2471545934677124,0.42823612689971924,0.4406502842903137,0.44970205426216125
11.938835144042969,0.43077096343040466,-2.1555469036102295,1.247037649154663,0.4306732416152954,0.44470417499542236,0.44921162724494934
11.958919048309326,0.4284507930278778,-2.159724473953247,1.248607873916626,0.43136054277420044,0.4422035813331604,0.45045214891433716
11.978984355926514,0.43160390853881836,-2.165921688079834,1.2478513717651367,0.4317125082015991,0.4456700086593628,0.44918397068977356
11.999035120010376,0.4311058223247528,-2.1698076725006104,1.2497014999389648,0.43109166622161865,0.4462409019470215,0.4494364857673645
12.019123077392578,0.43076714873313904,-2.167539596557617,1.2520701885223389,0.43020564317703247,0.44415801763534546,0.45036813616752625
12.039188861846924,0.43134549260139465,-2.1664772033691406,1.2514718770980835,0.43078815937042236,0.4449160099029541,0.44972291588783264
12.059260129928589,0.42719566822052,-2.161924123764038,1.249704360961914,0.4309747517108917,0.44558602571487427,0.45022961497306824
12.079356908798218,0.42239949107170105,-2.1584012508392334,1.253320574760437,0.430124968290329,0.440820574760437,0.4518425464630127
12.099514484405518,0.42797115445137024,-2.1555771827697754,1.2497583627700806,0.431185245513916,0.4457409381866455,0.4503951966762543
12.11951231956482,0.42910394072532654,-2.1542303562164307,1.2495590448379517,0.4314092993736267,0.44654732942581177,0.4495912492275238
12.139569520950317,0.42618528008461,-2.1527929306030273,1.2511892318725586,0.43087542057037354,0.4441211223602295,0.45101121068000793
12.15962839126587,0.4287223517894745,-2.151503562927246,1.2531604766845703,0.43063288927078247,0.4429616928100586,0.45061519742012024
12.179726123809814,0.42956170439720154,-2.1513819694519043,1.2511142492294312,0.43231552839279175,0.44637489318847656,0.44942745566368103
12.19982123374939,0.4268951416015625,-2.1509013175964355,1.252232551574707,0.4324023127555847,0.44558823108673096,0.4504093527793884
12.219866037368774,0.42613500356674194,-2.15042781829834,1.2510952949523926,0.43303942680358887,0.4472551941871643,0.45020800828933716
12.239934206008911,0.42623212933540344,-2.1491518020629883,1.25140380859375,0.43332570791244507,0.4477749466896057,0.4499082863330841
12.260024785995483,0.4292827546596527,-2.1503844261169434,1.2521082162857056,0.4340866208076477,0.4487471580505371,0.44960132241249084
12.280093669891357,0.42824915051460266,-2.1469733715057373,1.251499056816101,0.43359339237213135,0.44917792081832886,0.44886913895606995
12.300141096115112,0.42798277735710144,-2.148886203765869,1.2512377500534058,0.4341740608215332,0.44879084825515747,0.4497056305408478
12.320228099822998,0.42698654532432556,-2.1484813690185547,1.2529627084732056,0.43430736660957336,0.4480783939361572,0.4500221908092499
12.340301036834717,0.42390134930610657,-2.149707317352295,1.2585374116897583,0.43314266204833984,0.44253063201904297,0.4509252905845642
12.360378503799438,0.42801961302757263,-2.1428089141845703,1.2546992301940918,0.4335140585899353,0.4469746947288513,0.4494211971759796
12.380432605743408,0.42327389121055603,-2.142116069793701,1.2575325965881348,0.4332554340362549,0.44382673501968384,0.45079395174980164
12.40051555633545,0.425188809633255,-2.1415913105010986,1.2597541809082031,0.43390190601348877,0.44230878353118896,0.451121985912323
12.420597791671753,0.42581507563591003,-2.1372740268707275,1.2552580833435059,0.4346745014190674,0.4446660876274109,0.449991911649704
12.440658330917358,0.42389264702796936,-2.1398918628692627,1.2621335983276367,0.43437883257865906,0.43943679332733154,0.4517172574996948
12.460707187652588,0.42725956439971924,-2.1391265392303467,1.2552722692489624,0.43539223074913025,0.44930171966552734,0.4495757520198822
12.480838298797607,0.4263205826282501,-2.1382007598876953,1.2536792755126953,0.4355829358100891,0.4494270086288452,0.4501799941062927
12.50095248222351,0.42828279733657837,-2.136702537536621,1.2545918226242065,0.4359222948551178,0.44960319995880127,0.44973868131637573
12.52096176147461,0.425167053937912,-2.136322259902954,1.2531658411026,0.43595802783966064,0.4504839777946472,0.4501637816429138
12.541232347488403,0.4238661229610443,-2.13460111618042,1.256436824798584,0.43539878726005554,0.44781017303466797,0.4506898820400238
12.56133222579956,0.4215671122074127,-2.13244366645813,1.2559527158737183,0.4353790879249573,0.44641005992889404,0.45139309763908386
12.581420421600342,0.42359206080436707,-2.1262261867523193,1.2541003227233887,0.435499906539917,0.4495604634284973,0.450174480676651
12.601743221282959,0.4248342216014862,-2.121447801589966,1.2565345764160156,0.43583714962005615,0.44811636209487915,0.450015664100647
12.621954917907715,0.4180212914943695,-2.114234447479248,1.260741114616394,0.43169575929641724,0.44035547971725464,0.4527343213558197
12.642014980316162,0.4227571487426758,-2.1143743991851807,1.254981517791748,0.43649810552597046,0.44806742668151855,0.45051759481430054
12.662053108215332,0.42042189836502075,-2.1133079528808594,1.2580565214157104,0.4358157515525818,0.44599974155426025,0.45116421580314636
12.682170867919922,0.42246299982070923,-2.114210605621338,1.2577348947525024,0.43728721141815186,0.4475451111793518,0.450551837682724
12.702306985855103,0.4221954941749573,-2.1120972633361816,1.255867600440979,0.4365904927253723,0.4481968879699707,0.45066264271736145
12.722359418869019,0.42263221740722656,-2.113046646118164,1.2584539651870728,0.4364854097366333,0.4479942321777344,0.45037999749183655
12.742624282836914,0.42117127776145935,-2.110229015350342,1.2597424983978271,0.43550822138786316,0.44536399841308594,0.45086267590522766
12.762715101242065,0.42239677906036377,-2.1119914054870605,1.2609964609146118,0.4374840557575226,0.444627046585083,0.45057615637779236
12.782854080200195,0.4210343360900879,-2.112293243408203,1.2649931907653809,0.4361574053764343,0.44222402572631836,0.45130398869514465
12.802858114242554,0.4222697913646698,-2.107344388961792,1.255489706993103,0.4384428858757019,0.45122551918029785,0.4499571621417999
12.822940111160278,0.4200546443462372,-2.1047916412353516,1.2601821422576904,0.43773144483566284,0.44765251874923706,0.4515131115913391
12.843067407608032,0.4217531085014343,-2.1052939891815186,1.257901668548584,0.43851861357688904,0.4504969120025635,0.45048788189888
12.863163232803345,0.419307678937912,-2.1023788452148438,1.2607656717300415,0.4387546181678772,0.44802385568618774,0.45124539732933044
12.883204460144043,0.4205688536167145,-2.0972530841827393,1.2606556415557861,0.43783798813819885,0.4479793310165405,0.4516196548938751
12.90335488319397,0.4207581877708435,-2.0986244678497314,1.2551507949829102,0.43970590829849243,0.45298445224761963,0.45009103417396545
12.92341923713684,0.41859450936317444,-2.0953543186187744,1.2614463567733765,0.43803924322128296,0.4479663372039795,0.4515174329280853
12.943500280380249,0.41576024889945984,-2.0960326194763184,1.2659186124801636,0.43823400139808655,0.44277721643447876,0.4533073604106903
12.963991403579712,0.42091813683509827,-2.0947303771972656,1.258683443069458,0.439613401889801,0.450309693813324,0.4516814947128296
12.984123706817627,0.41778960824012756,-2.0923144817352295,1.2632337808609009,0.43768981099128723,0.44649624824523926,0.4527548551559448
13.004220962524414,0.4182569086551666,-2.0895376205444336,1.2612632513046265,0.4394358694553375,0.4480254650115967,0.45254990458488464
13.024234056472778,0.4177530109882355,-2.087888717651367,1.259835124015808,0.43992072343826294,0.4490293264389038,0.4525217115879059
13.044348955154419,0.4193875193595886,-2.087869644165039,1.2621151208877563,0.4395003914833069,0.4488444924354553,0.4517512619495392
13.064472436904907,0.4196222126483917,-2.084049940109253,1.263995885848999,0.43954095244407654,0.44694167375564575,0.4515514373779297
13.084506511688232,0.4166354835033417,-2.0867979526519775,1.2627266645431519,0.4413621127605438,0.44589340686798096,0.45257726311683655
13.104570388793945,0.41932234168052673,-2.0810084342956543,1.262073040008545,0.44132983684539795,0.45049935579299927,0.451541006565094
13.12472152709961,0.4190985858440399,-2.080634593963623,1.264458417892456,0.44075241684913635,0.44881558418273926,0.4518197476863861
13.14475393295288,0.42211732268333435,-2.081233501434326,1.263526201248169,0.4421858787536621,0.4512496590614319,0.45088905096054077
13.164827585220337,0.415403813123703,-2.0769691467285156,1.2654708623886108,0.4395872950553894,0.44652754068374634,0.4535088837146759
13.184893131256104,0.4160177409648895,-2.0731005668640137,1.2628685235977173,0.4415819048881531,0.4490348696708679,0.45254847407341003
13.2049720287323,0.41672903299331665,-2.0745253562927246,1.2619245052337646,0.4426595866680145,0.45088446140289307,0.45154738426208496
13.225052833557129,0.41611751914024353,-2.069612503051758,1.2578502893447876,0.44297176599502563,0.4527667760848999,0.4520367383956909
13.245152473449707,0.41762977838516235,-2.069216012954712,1.2632277011871338,0.44281625747680664,0.4514881372451782,0.4515109360218048
13.265254497528076,0.42091694474220276,-2.0703225135803223,1.2670058012008667,0.44323137402534485,0.45113515853881836,0.4511072337627411
13.28538203239441,0.4185730218887329,-2.0688562393188477,1.265952467918396,0.4430508017539978,0.4505993723869324,0.45186513662338257
13.30547308921814,0.41500601172447205,-2.0703201293945312,1.2686666250228882,0.4428699314594269,0.4467695355415344,0.45328858494758606
13.325475215911865,0.4176667034626007,-2.06935453414917,1.2661877870559692,0.44350510835647583,0.4504432678222656,0.4524305760860443
13.345561504364014,0.4119398295879364,-2.064744710922241,1.2670890092849731,0.44083696603775024,0.4475586414337158,0.45387253165245056
13.365694046020508,0.41427555680274963,-2.0597341060638428,1.2688323259353638,0.44160348176956177,0.44725245237350464,0.453351765871048
13.385699033737183,0.40899166464805603,-2.0561277866363525,1.2706907987594604,0.4416255056858063,0.44443100690841675,0.45448678731918335
13.405827522277832,0.41102632880210876,-2.05525803565979,1.2678321599960327,0.4442436695098877,0.4478267431259155,0.45353513956069946
13.425882339477539,0.4141714572906494,-2.0525810718536377,1.266248106956482,0.444856733083725,0.4518619775772095,0.4521680772304535
13.445961475372314,0.41404610872268677,-2.0522725582122803,1.271948218345642,0.44428199529647827,0.44679415225982666,0.45304667949676514
13.466110944747925,0.4123663008213043,-2.0515449047088623,1.2693438529968262,0.44389986991882324,0.4467543363571167,0.45293736457824707
13.486220836639404,0.41377535462379456,-2.0505013465881348,1.267765998840332,0.4446532726287842,0.44739145040512085,0.45245131850242615
13.506349802017212,0.4117574393749237,-2.0461318492889404,1.2689766883850098,0.4444277286529541,0.4490090012550354,0.45398300886154175
13.526346683502197,0.41247808933258057,-2.044492721557617,1.2687617540359497,0.4454461336135864,0.4509034752845764,0.45335492491722107
13.54642915725708,0.4114205539226532,-2.04426646232605,1.2665536403656006,0.44648146629333496,0.45240235328674316,0.45320621132850647
13.566490650177002,0.41002902388572693,-2.0397191047668457,1.2671266794204712,0.4465793967247009,0.45224863290786743,0.45345377922058105
13.586586475372314,0.4113132059574127,-2.0376622676849365,1.2671598196029663,0.44718247652053833,0.45345693826675415,0.4528915584087372
13.606729984283447,0.4121277332305908,-2.033107280731201,1.270553469657898,0.44656509160995483,0.45102930068969727,0.4535124599933624
13.626874208450317,0.41207030415534973,-2.0332045555114746,1.273695945739746,0.4470406770706177,0.4503060579299927,0.453458696603775
13.64691162109375,0.41147878766059875,-2.034086227416992,1.2703875303268433,0.44859325885772705,0.4527330994606018,0.45339271426200867
13.667092323303223,0.4101906418800354,-2.0291385650634766,1.2716320753097534,0.4468502402305603,0.45105892419815063,0.4543442130088806
13.687195539474487,0.41322773694992065,-2.0292351245880127,1.2735459804534912,0.44892770051956177,0.4514233469963074,0.4539220929145813
13.707281351089478,0.41094067692756653,-2.0301132202148438,1.2730926275253296,0.44986069202423096,0.45107388496398926,0.454364538192749
13.727366209030151,0.4083358943462372,-2.0285470485687256,1.2690966129302979,0.4489935040473938,0.45431870222091675,0.4546659588813782
13.747396469116211,0.412722110748291,-2.028564453125,1.2731961011886597,0.4502395987510681,0.4510537385940552,0.4541222155094147
13.767484426498413,0.4077911972999573,-2.0269832611083984,1.2786237001419067,0.4476996064186096,0.44464749097824097,0.45597416162490845
13.78755497932434,0.4100731313228607,-2.0246083736419678,1.2708297967910767,0.4497137665748596,0.45330584049224854,0.4544115960597992
13.807653427124023,0.41130417585372925,-2.022414445877075,1.2735751867294312,0.4510149657726288,0.45090335607528687,0.4544523358345032
13.827906608581543,0.4103148877620697,-2.0191593170166016,1.2729836702346802,0.4508104920387268,0.4532797932624817,0.45436814427375793
13.848048448562622,0.40352293848991394,-2.015681028366089,1.279610276222229,0.4476191997528076,0.44466882944107056,0.4571087062358856
13.868102550506592,0.40588197112083435,-2.009315252304077,1.275338888168335,0.44852495193481445,0.4504835605621338,0.455504447221756
13.888141870498657,0.40390172600746155,-2.004173755645752,1.2742785215377808,0.44875890016555786,0.4497346878051758,0.4565746486186981
13.908229112625122,0.40523797273635864,-2.0034146308898926,1.2708178758621216,0.4509138762950897,0.4536755084991455,0.4553317725658417
13.928297758102417,0.4056863486766815,-2.001544952392578,1.2734743356704712,0.4513298273086548,0.4519885778427124,0.45604225993156433
13.948389053344727,0.4055987596511841,-2.0001707077026367,1.273163914680481,0.45097267627716064,0.4522463083267212,0.4563904106616974
13.96846055984497,0.4074248969554901,-2.000380277633667,1.2744694948196411,0.45198625326156616,0.45361751317977905,0.45531901717185974
13.988574266433716,0.4061698913574219,-2.000102996826172,1.2763391733169556,0.45190149545669556,0.4513498544692993,0.4552955627441406
14.008654832839966,0.4010743200778961,-1.9971768856048584,1.2784652709960938,0.4509166181087494,0.4481085538864136,0.4575088620185852
14.028778076171875,0.4057215750217438,-1.9945772886276245,1.2761180400848389,0.45295077562332153,0.453075647354126,0.4554857313632965
14.048775434494019,0.4059162437915802,-1.9948691129684448,1.273471713066101,0.45389020442962646,0.4563829302787781,0.45469462871551514
14.068870782852173,0.40277162194252014,-1.9928253889083862,1.2773181200027466,0.45183202624320984,0.45183730125427246,0.4569229483604431
14.088941812515259,0.40372633934020996,-1.9930585622787476,1.2804274559020996,0.45316728949546814,0.4508857727050781,0.45668575167655945
14.108999729156494,0.40688297152519226,-1.9932159185409546,1.272934079170227,0.4550771713256836,0.45882976055145264,0.4547457993030548
14.129054307937622,0.40582773089408875,-1.9923967123031616,1.2791962623596191,0.4538685381412506,0.454312264919281,0.45666444301605225
14.149141550064087,0.4047791361808777,-1.9908934831619263,1.2770427465438843,0.4536598026752472,0.45421189069747925,0.45689111948013306
14.169318914413452,0.4028577506542206,-1.9855529069900513,1.276204228401184,0.45322132110595703,0.45325934886932373,0.45766887068748474
14.18942642211914,0.4026677906513214,-1.9814460277557373,1.2772853374481201,0.4540821313858032,0.45233964920043945,0.45851820707321167
14.209399223327637,0.4031173586845398,-1.9769395589828491,1.2792686223983765,0.4545598030090332,0.45195573568344116,0.45830321311950684
14.229480981826782,0.40579766035079956,-1.9759149551391602,1.2807674407958984,0.4553496539592743,0.4522511959075928,0.4563729166984558
14.249550104141235,0.4061364531517029,-1.9732035398483276,1.2811964750289917,0.4569075107574463,0.45008182525634766,0.45639768242836
14.269617557525635,0.4007743000984192,-1.972327709197998,1.280404806137085,0.45665282011032104,0.4516996145248413,0.4579639732837677
14.289820194244385,0.4015902578830719,-1.969321370124817,1.2787621021270752,0.4574899673461914,0.45506781339645386,0.4575813114643097
14.309903621673584,0.40506404638290405,-1.9690340757369995,1.2821305990219116,0.4579402506351471,0.4554692506790161,0.45634689927101135
14.32999038696289,0.39700260758399963,-1.9670320749282837,1.2826426029205322,0.4565664231777191,0.4506422281265259,0.45868146419525146
14.350034475326538,0.39632436633110046,-1.959896445274353,1.2810757160186768,0.45550066232681274,0.4521019458770752,0.45878928899765015
14.370118856430054,0.4006447494029999,-1.9570246934890747,1.280106544494629,0.45754438638687134,0.4551151990890503,0.4571278989315033
14.390194416046143,0.39778101444244385,-1.9514344930648804,1.2819238901138306,0.45676082372665405,0.4502826929092407,0.45847293734550476
14.410239696502686,0.39510002732276917,-1.9526481628417969,1.2879225015640259,0.4584239423274994,0.44814491271972656,0.45868709683418274
14.430357694625854,0.3964806795120239,-1.9486147165298462,1.2834464311599731,0.4569797217845917,0.4522688388824463,0.45861107110977173
14.450447082519531,0.3993547260761261,-1.949250340461731,1.280542016029358,0.4604797661304474,0.4563743472099304,0.4582144320011139
14.470518589019775,0.3976787030696869,-1.9501851797103882,1.2885125875473022,0.4600098729133606,0.4484119415283203,0.45952722430229187
14.49057388305664,0.3969933092594147,-1.9452799558639526,1.2850069999694824,0.45810651779174805,0.4513894319534302,0.45885103940963745
14.510660648345947,0.40241318941116333,-1.9459134340286255,1.2817347049713135,0.46234816312789917,0.4551578760147095,0.45742568373680115
14.530726909637451,0.4036964178085327,-1.9428261518478394,1.2866047620773315,0.46113356947898865,0.4558306932449341,0.45861849188804626
14.550793170928955,0.3952904939651489,-1.9424045085906982,1.2889291048049927,0.4616314172744751,0.4504219889640808,0.4615316092967987
14.57086730003357,0.39645475149154663,-1.9392601251602173,1.2828514575958252,0.462673544883728,0.45806223154067993,0.4597460925579071
14.590959787368774,0.39589253067970276,-1.9370386600494385,1.2835241556167603,0.4621724486351013,0.45729464292526245,0.4599155783653259
14.61102819442749,0.3925686180591583,-1.9343162775039673,1.289228081703186,0.4608573317527771,0.45046746730804443,0.4616856873035431
14.631111145019531,0.39655420184135437,-1.927579641342163,1.2856463193893433,0.4617959260940552,0.4526514410972595,0.4606482684612274
14.65114951133728,0.3976525068283081,-1.9247525930404663,1.2867302894592285,0.4627149701118469,0.4555796980857849,0.4597470164299011
14.67122769355774,0.3969302475452423,-1.9248322248458862,1.2833353281021118,0.46415838599205017,0.4583854675292969,0.459794282913208
14.691298961639404,0.3939126431941986,-1.924315333366394,1.2893925905227661,0.4635813534259796,0.4536409378051758,0.4606109857559204
14.71134352684021,0.39678889513015747,-1.9184210300445557,1.2871503829956055,0.46452149748802185,0.4571784734725952,0.4593634605407715
14.73151707649231,0.3950948417186737,-1.9157792329788208,1.2865478992462158,0.46440303325653076,0.45754992961883545,0.45929771661758423
14.751611948013306,0.38793835043907166,-1.9126421213150024,1.290468692779541,0.4615994691848755,0.44952869415283203,0.462616890668869
14.771785974502563,0.39535608887672424,-1.909752607345581,1.2860065698623657,0.46611934900283813,0.4535823464393616,0.45933958888053894
14.791816234588623,0.3942774832248688,-1.9046400785446167,1.2955349683761597,0.46367746591567993,0.4499809741973877,0.4602506458759308
14.812339067459106,0.39143291115760803,-1.9038243293762207,1.284281611442566,0.46610063314437866,0.4577932357788086,0.46069976687431335
14.83244252204895,0.3898387551307678,-1.9042770862579346,1.29084312915802,0.4672544300556183,0.4559462070465088,0.4609961211681366
14.8525710105896,0.3946579396724701,-1.8996983766555786,1.2934342622756958,0.46494928002357483,0.4551680088043213,0.46054333448410034
14.87261414527893,0.393921822309494,-1.8994163274765015,1.2956660985946655,0.4667207896709442,0.4543303847312927,0.46128585934638977
14.892677783966064,0.39113157987594604,-1.8980501890182495,1.3002452850341797,0.46647876501083374,0.44917112588882446,0.46268609166145325
14.9127516746521,0.39472028613090515,-1.8946517705917358,1.2883516550064087,0.4697323143482208,0.4616541266441345,0.4608927071094513
14.93282413482666,0.39278003573417664,-1.889297366142273,1.292667269706726,0.4690501093864441,0.45867371559143066,0.46164196729660034
14.952892303466797,0.38917189836502075,-1.8869225978851318,1.2935638427734375,0.46810245513916016,0.454212486743927,0.46362558007240295
14.972970962524414,0.38539066910743713,-1.879309892654419,1.2913967370986938,0.46701860427856445,0.45373404026031494,0.4642830789089203
14.993038177490234,0.3893229067325592,-1.8777899742126465,1.2919729948043823,0.47053128480911255,0.4564690589904785,0.46283450722694397
15.013211965560913,0.3901004195213318,-1.8783735036849976,1.2941747903823853,0.4705492854118347,0.4568358063697815,0.46235528588294983
15.033328533172607,0.38903388381004333,-1.8761329650878906,1.2896844148635864,0.4707638621330261,0.4594953656196594,0.4625321328639984
15.053333282470703,0.391253262758255,-1.8741121292114258,1.2930201292037964,0.4718121886253357,0.4566187858581543,0.4625687897205353
15.073389291763306,0.38722681999206543,-1.8703759908676147,1.2972052097320557,0.4688926637172699,0.45251578092575073,0.46369513869285583
