liuyurong129/humanoid-gym/humanoid/data/target_q_20250522-041809.csv
timestamp,joint_1,joint_2,joint_3,joint_4,joint_5,joint_6
0.00016307830810546875,0.0,0.0,0.0,0.0,0.0,0.0
0.020298242568969727,0.0,0.0,0.0,0.0,0.0,0.0
0.04035139083862305,0.0,0.0,0.0,0.0,0.0,0.0
0.0604250431060791,0.0,0.0,0.0,0.0,0.0,0.0
0.08051395416259766,0.0,0.0,0.0,0.0,0.0,0.0
0.10056829452514648,0.3175431787967682,-0.9483764171600342,0.9665393233299255,-0.18016579747200012,0.056885186582803726,0.2424044907093048
0.12069272994995117,0.3146800398826599,-0.9510120749473572,0.9669899344444275,-0.1808047592639923,0.058420076966285706,0.24264764785766602
0.14078569412231445,0.3117240071296692,-0.9534112215042114,0.9668816924095154,-0.1813143640756607,0.05999206006526947,0.24288542568683624
0.1608593463897705,0.31020545959472656,-0.9545233845710754,0.9666268825531006,-0.18152539432048798,0.06078064441680908,0.2429964691400528
0.18099331855773926,0.30716753005981445,-0.9566952586174011,0.966081440448761,-0.18189625442028046,0.06232091411948204,0.2432098090648651
0.20115280151367188,0.30570974946022034,-0.9577818512916565,0.9659558534622192,-0.18207202851772308,0.06305466592311859,0.24330760538578033
0.22115850448608398,0.30282631516456604,-0.9598965048789978,0.9658061265945435,-0.18239986896514893,0.06444385647773743,0.24347743391990662
0.24130678176879883,0.3000064492225647,-0.9619796872138977,0.9657701849937439,-0.18271657824516296,0.06579165905714035,0.2436397224664688
0.2613980770111084,0.29857972264289856,-0.9629899263381958,0.9656791687011719,-0.1828640103340149,0.06645926088094711,0.243720144033432
0.28146839141845703,0.2958366572856903,-0.9650419354438782,0.9656925201416016,-0.18316569924354553,0.06779849529266357,0.24389395117759705
0.3015472888946533,0.2945488691329956,-0.9660946130752563,0.9659008979797363,-0.18332356214523315,0.06845179200172424,0.24398300051689148
0.3216423988342285,0.2920205593109131,-0.9681591391563416,0.9664651155471802,-0.1836324781179428,0.06970727443695068,0.24414652585983276
0.3417239189147949,0.28959405422210693,-0.9702005982398987,0.9673436880111694,-0.18393699824810028,0.07088314741849899,0.24429062008857727
0.36186790466308594,0.2883646786212921,-0.9711803197860718,0.9677174091339111,-0.1840682029724121,0.0714556872844696,0.24435736238956451
0.3819594383239746,0.28596970438957214,-0.9731743335723877,0.9687082767486572,-0.18432271480560303,0.07255766540765762,0.24450072646141052
0.4020390510559082,0.28484106063842773,-0.974198579788208,0.9693459868431091,-0.18444667756557465,0.07309916615486145,0.24458162486553192
0.422161340713501,0.2825852036476135,-0.9762004017829895,0.9703508615493774,-0.18460853397846222,0.07419838756322861,0.24475744366645813
0.442767858505249,0.2804858386516571,-0.9782090783119202,0.9713811874389648,-0.18471352756023407,0.07532494515180588,0.2449522167444229
0.46286797523498535,0.2794036567211151,-0.9791834354400635,0.9717408418655396,-0.1847316473722458,0.0758967399597168,0.24505220353603363
0.4829576015472412,0.27734512090682983,-0.9811859130859375,0.9727610945701599,-0.18479123711585999,0.07701854407787323,0.24527041614055634
0.5030131340026855,0.27633675932884216,-0.9821895360946655,0.973312258720398,-0.18481042981147766,0.07756394892930984,0.2453826367855072
0.5231025218963623,0.27427902817726135,-0.9841223955154419,0.9741695523262024,-0.1847774237394333,0.07861967384815216,0.24558661878108978
0.5431642532348633,0.2723689079284668,-0.9860028028488159,0.9751299023628235,-0.1847010850906372,0.07962863892316818,0.2457631528377533
0.5632443428039551,0.27143627405166626,-0.9869261980056763,0.9756011366844177,-0.18465377390384674,0.0801219493150711,0.24584566056728363
0.5834007263183594,0.26968058943748474,-0.9888058304786682,0.9769050478935242,-0.1846057027578354,0.08105384558439255,0.24601703882217407
0.6034798622131348,0.26884469389915466,-0.989772379398346,0.9777396321296692,-0.1846075803041458,0.08148793876171112,0.24611152708530426
0.6236271858215332,0.2670215368270874,-0.9916606545448303,0.9794295430183411,-0.18460717797279358,0.08226724714040756,0.24629434943199158
0.6436996459960938,0.2660493552684784,-0.9925795197486877,0.9803226590156555,-0.18459078669548035,0.0825936421751976,0.246376171708107
0.6637816429138184,0.2642717659473419,-0.994447648525238,0.9825744032859802,-0.1845821589231491,0.0831676721572876,0.24654468894004822
0.6838393211364746,0.26351019740104675,-0.9953985810279846,0.9839190244674683,-0.1845884770154953,0.0834287628531456,0.2466316819190979
0.7039201259613037,0.26205727458000183,-0.9972922801971436,0.9864253997802734,-0.18453854322433472,0.08396901190280914,0.24681448936462402
0.724003791809082,0.261323481798172,-0.9982327222824097,0.9875338673591614,-0.18447206914424896,0.08425457775592804,0.24690905213356018
0.7440848350524902,0.2599254846572876,-1.000128149986267,0.9899101257324219,-0.1843315213918686,0.08478973805904388,0.24710462987422943
0.7642030715942383,0.2585425078868866,-1.0019776821136475,0.9923202991485596,-0.18420273065567017,0.08530046790838242,0.24729371070861816
0.7842698097229004,0.25794142484664917,-1.0029020309448242,0.9936753511428833,-0.18417082726955414,0.08554007858037949,0.24739088118076324
0.8043694496154785,0.2567267119884491,-1.0047510862350464,0.9960483908653259,-0.18404574692249298,0.08606325089931488,0.24758392572402954
0.8244452476501465,0.25605398416519165,-1.0056873559951782,0.9970347285270691,-0.18393270671367645,0.08633407205343246,0.24768014252185822
0.8445494174957275,0.2548069953918457,-1.0076009035110474,0.9992070198059082,-0.18370255827903748,0.08683457970619202,0.24789275228977203
0.8651692867279053,0.25351500511169434,-1.0095382928848267,1.0014361143112183,-0.18345244228839874,0.08726124465465546,0.24812114238739014
0.8852546215057373,0.25295934081077576,-1.0105094909667969,1.0027437210083008,-0.1833505630493164,0.08743440359830856,0.24824443459510803
0.9053270816802979,0.25173622369766235,-1.0124616622924805,1.0051683187484741,-0.18309389054775238,0.08774221688508987,0.24848346412181854
0.925403356552124,0.2510414123535156,-1.0134531259536743,1.0062520503997803,-0.1829235702753067,0.08787298202514648,0.24859793484210968
0.9455280303955078,0.24979987740516663,-1.015453577041626,1.0086272954940796,-0.18259435892105103,0.08808108419179916,0.24884003400802612
0.9658524990081787,0.24850869178771973,-1.017500877380371,1.0109195709228516,-0.1822359710931778,0.0882359966635704,0.2490910142660141
0.9859895706176758,0.24790175259113312,-1.0185329914093018,1.0121268033981323,-0.18205854296684265,0.08829005062580109,0.24922563135623932
1.0060358047485352,0.24642695486545563,-1.0206708908081055,1.0141619443893433,-0.18162626028060913,0.08836597204208374,0.2494806945323944
1.026111125946045,0.24554410576820374,-1.02176833152771,1.0150171518325806,-0.18137001991271973,0.08837147802114487,0.24959321320056915
1.04618501663208,0.24380533397197723,-1.0239635705947876,1.0168455839157104,-0.18085725605487823,0.08829209953546524,0.24980168044567108
1.0662720203399658,0.24291446805000305,-1.0250834226608276,1.017747163772583,-0.18058927357196808,0.08821871131658554,0.2499023675918579
1.0864033699035645,0.2407485842704773,-1.0274648666381836,1.0190742015838623,-0.1799910068511963,0.08804239332675934,0.25011399388313293
1.106477975845337,0.23838035762310028,-1.0300480127334595,1.020042896270752,-0.1793704479932785,0.08784084767103195,0.2503700852394104
1.1265645027160645,0.23706834018230438,-1.0314306020736694,1.0203598737716675,-0.17905224859714508,0.08771973848342896,0.2505134046077728
1.1468403339385986,0.23453651368618011,-1.0342893600463867,1.0210962295532227,-0.17843374609947205,0.08740140497684479,0.25085416436195374
1.1669275760650635,0.23330296576023102,-1.0357824563980103,1.0214804410934448,-0.17811772227287292,0.08720559626817703,0.2510571777820587
1.1869893074035645,0.2306206077337265,-1.0389364957809448,1.0220465660095215,-0.17741286754608154,0.08672412484884262,0.2514893412590027
1.20711088180542,0.2291622906923294,-1.0406134128570557,1.0221999883651733,-0.17702318727970123,0.08644615113735199,0.2517155110836029
1.2271687984466553,0.2262413650751114,-1.0441350936889648,1.0223846435546875,-0.17618532478809357,0.085838183760643,0.25220954418182373
1.24753999710083,0.22478757798671722,-1.0460083484649658,1.0223753452301025,-0.17575237154960632,0.08552142232656479,0.25248217582702637
1.267761468887329,0.22143052518367767,-1.0502328872680664,1.0217845439910889,-0.1747804433107376,0.08481178432703018,0.2530970275402069
1.2881274223327637,0.2194778025150299,-1.0526403188705444,1.021207332611084,-0.17424684762954712,0.08439189195632935,0.2534513473510742
1.3082849979400635,0.21519602835178375,-1.0581295490264893,1.019547939300537,-0.1730726957321167,0.0834738239645958,0.25430428981781006
1.3289093971252441,0.2128642499446869,-1.0611737966537476,1.0185717344284058,-0.17243646085262299,0.08294995129108429,0.2548098862171173
1.349055290222168,0.207671120762825,-1.0677781105041504,1.016541838645935,-0.17112532258033752,0.08167868852615356,0.25598952174186707
1.3691761493682861,0.2048911601305008,-1.0711405277252197,1.0157251358032227,-0.17045970261096954,0.08087443560361862,0.25665482878685
1.3892669677734375,0.19877000153064728,-1.0775707960128784,1.0147428512573242,-0.16911581158638,0.0787164717912674,0.25804147124290466
1.4093241691589355,0.19164398312568665,-1.0831680297851562,1.014989972114563,-0.16754262149333954,0.07550419867038727,0.25929567217826843
1.4294724464416504,0.18765823543071747,-1.0856660604476929,1.0157560110092163,-0.16660919785499573,0.07344947010278702,0.2598276436328888
1.4494898319244385,0.17918863892555237,-1.09028959274292,1.0184457302093506,-0.1644086241722107,0.06864199042320251,0.260753333568573
1.4697134494781494,0.1749020665884018,-1.0924806594848633,1.0202484130859375,-0.16321364045143127,0.06604466587305069,0.2611985504627228
1.4897403717041016,0.16686445474624634,-1.0967665910720825,1.0242829322814941,-0.16087588667869568,0.061013005673885345,0.2621844410896301
1.5101470947265625,0.1599969118833542,-1.101056456565857,1.028583288192749,-0.15893959999084473,0.05643486604094505,0.26336079835891724
1.5303611755371094,0.157052144408226,-1.103219985961914,1.0307186841964722,-0.15815351903438568,0.05436880514025688,0.2640228867530823
1.5504212379455566,0.15210087597370148,-1.107512354850769,1.0349570512771606,-0.15693560242652893,0.050676681101322174,0.2654608488082886
1.5705041885375977,0.14994440972805023,-1.1096190214157104,1.0370630025863647,-0.1564219892024994,0.04900866374373436,0.2662256956100464
1.5906047821044922,0.14596857130527496,-1.113708734512329,1.0413097143173218,-0.15544207394123077,0.0458846315741539,0.2678261995315552
1.6109731197357178,0.1421077400445938,-1.117679476737976,1.0454999208450317,-0.1544925719499588,0.04290936142206192,0.26949405670166016
1.6310951709747314,0.14015863835811615,-1.11964750289917,1.0475199222564697,-0.15401257574558258,0.04146590456366539,0.2703492045402527
1.6511428356170654,0.13623496890068054,-1.1235697269439697,1.0513519048690796,-0.15310397744178772,0.03867921605706215,0.2720935046672821
1.6712393760681152,0.13425041735172272,-1.1255353689193726,1.0531545877456665,-0.15265372395515442,0.03732706978917122,0.27298301458358765
1.6913230419158936,0.13037845492362976,-1.1294270753860474,1.056684136390686,-0.1517532467842102,0.03469550237059593,0.2747897207736969
1.7114052772521973,0.12694059312343597,-1.1331830024719238,1.0603506565093994,-0.1508447825908661,0.032199423760175705,0.27662190794944763
1.7315473556518555,0.12538917362689972,-1.134985327720642,1.0622763633728027,-0.1504170000553131,0.03100580908358097,0.27753981947898865
1.7515807151794434,0.12265091389417648,-1.1384742259979248,1.0661938190460205,-0.14961405098438263,0.02880048379302025,0.2793751358985901
1.7717411518096924,0.12029991298913956,-1.14187753200531,1.069962739944458,-0.14889004826545715,0.02690288797020912,0.28120866417884827
1.7918477058410645,0.11929328739643097,-1.1435623168945312,1.0717363357543945,-0.14856187999248505,0.026088740676641464,0.2821233570575714
1.8118979930877686,0.1173577606678009,-1.1468946933746338,1.0750919580459595,-0.14795169234275818,0.024612391367554665,0.2839413583278656
1.8319859504699707,0.1164066269993782,-1.1485344171524048,1.0766937732696533,-0.14767618477344513,0.023942019790410995,0.284843385219574
1.8520872592926025,0.11454490572214127,-1.151719093322754,1.0798430442810059,-0.1471548080444336,0.022720197215676308,0.2866373360157013
1.872157335281372,0.1127517968416214,-1.1547513008117676,1.083069920539856,-0.1466003656387329,0.021536991000175476,0.28840723633766174
1.8922369480133057,0.11187194287776947,-1.1562069654464722,1.084761142730713,-0.1462980955839157,0.020917022600769997,0.28927963972091675
1.91233229637146,0.11013918370008469,-1.1590169668197632,1.0883079767227173,-0.14563022553920746,0.019581403583288193,0.2909944951534271
1.9325108528137207,0.10856684297323227,-1.161769986152649,1.091805100440979,-0.1449425369501114,0.01832420565187931,0.2926870286464691
1.952603816986084,0.10784169286489487,-1.1631525754928589,1.0934406518936157,-0.1446005254983902,0.017775049433112144,0.29353004693984985
1.9726996421813965,0.10650308430194855,-1.1659446954727173,1.0964003801345825,-0.14394882321357727,0.01688351482152939,0.2952081859111786
1.992809772491455,0.1058751568198204,-1.167322039604187,1.0977873802185059,-0.1436464786529541,0.01653057523071766,0.29604050517082214
2.012913465499878,0.10476069152355194,-1.1699893474578857,1.1005213260650635,-0.14307568967342377,0.015965105965733528,0.297685444355011
2.032928466796875,0.10368719696998596,-1.1724910736083984,1.1034471988677979,-0.1424916535615921,0.015395066700875759,0.29930171370506287
2.0530807971954346,0.10320570319890976,-1.1736998558044434,1.1049669981002808,-0.1421869546175003,0.015100804157555103,0.3001018166542053
2.073124647140503,0.10234049707651138,-1.1760292053222656,1.108156681060791,-0.14153510332107544,0.014452377334237099,0.30168595910072327
2.093268632888794,0.10197406262159348,-1.1771695613861084,1.1097599267959595,-0.14120063185691833,0.014136062003672123,0.3024695813655853
2.1133666038513184,0.101192906498909,-1.1793969869613647,1.1129423379898071,-0.14051079750061035,0.013524540700018406,0.3040108382701874
2.133430242538452,0.10026825219392776,-1.181589961051941,1.1159762144088745,-0.1398114711046219,0.012972611002624035,0.30551448464393616
2.1535301208496094,0.09977119415998459,-1.1826814413070679,1.117406964302063,-0.1394709199666977,0.012734233401715755,0.3062557876110077
2.1736509799957275,0.09880642592906952,-1.1848833560943604,1.1200371980667114,-0.1388174295425415,0.012354409322142601,0.30772796273231506
2.193702220916748,0.09839233011007309,-1.1859787702560425,1.1212877035140991,-0.1385153830051422,0.012215529568493366,0.3084601163864136
2.2138071060180664,0.0977448895573616,-1.188132882118225,1.1237435340881348,-0.13791608810424805,0.01202098187059164,0.30991363525390625
2.2338829040527344,0.09731645882129669,-1.1901702880859375,1.1263561248779297,-0.13730409741401672,0.011873182840645313,0.3113436698913574
2.254060745239258,0.09712586551904678,-1.191150426864624,1.1277141571044922,-0.13699671626091003,0.011804824694991112,0.31205037236213684
2.2740895748138428,0.09670037776231766,-1.1930190324783325,1.1305313110351562,-0.13640287518501282,0.011651977896690369,0.3134421110153198
2.294171094894409,0.09616027772426605,-1.1948113441467285,1.1333189010620117,-0.13586008548736572,0.01150637585669756,0.31480661034584045
2.314277410507202,0.09583175182342529,-1.1956967115402222,1.134647011756897,-0.13559842109680176,0.011432258412241936,0.315475732088089
2.334357976913452,0.09505516290664673,-1.197478175163269,1.1371632814407349,-0.13505223393440247,0.011269036680459976,0.3167964518070221
2.354557752609253,0.09416626393795013,-1.199249267578125,1.1395561695098877,-0.13443522155284882,0.011087601073086262,0.31809157133102417
2.374656915664673,0.09373587369918823,-1.2001110315322876,1.1407727003097534,-0.13409580290317535,0.010987047106027603,0.31873005628585815
2.3947417736053467,0.0930287167429924,-1.2017781734466553,1.1432534456253052,-0.13342374563217163,0.010813521221280098,0.3199910521507263
2.414907217025757,0.09277686476707458,-1.202582836151123,1.144517183303833,-0.13310609757900238,0.01075050886720419,0.3206128776073456
2.434937000274658,0.09250122308731079,-1.2041535377502441,1.1470532417297363,-0.13252665102481842,0.010727578774094582,0.3218490183353424
2.455077648162842,0.09239175170660019,-1.204918384552002,1.1483217477798462,-0.13223938643932343,0.010742861777544022,0.3224577009677887
2.475140333175659,0.0920879915356636,-1.2064168453216553,1.150818943977356,-0.1316341608762741,0.010807695798575878,0.3236550986766815
2.4954192638397217,0.091544970870018,-1.2078946828842163,1.15317702293396,-0.13097146153450012,0.01085006631910801,0.32482194900512695
2.515512466430664,0.09119082987308502,-1.208649754524231,1.154248833656311,-0.13062132894992828,0.010854789055883884,0.3253975212574005
2.5356433391571045,0.09036809951066971,-1.2102015018463135,1.1562055349349976,-0.12991148233413696,0.010811409913003445,0.32653576135635376
2.555675745010376,0.08994458615779877,-1.2109934091567993,1.1571252346038818,-0.12956514954566956,0.010776909999549389,0.3271016478538513
2.5758512020111084,0.0891757607460022,-1.212560772895813,1.1589645147323608,-0.12887682020664215,0.010716886259615421,0.32822349667549133
2.5960593223571777,0.08865148574113846,-1.2140213251113892,1.1609928607940674,-0.12818525731563568,0.010709021240472794,0.32932883501052856
2.616147518157959,0.088477224111557,-1.2147096395492554,1.1620591878890991,-0.12782351672649384,0.010729396715760231,0.32987180352211
2.636212110519409,0.08825524151325226,-1.2160181999206543,1.1642494201660156,-0.12712040543556213,0.010829989798367023,0.33093923330307007
2.656303644180298,0.08817426860332489,-1.2166544198989868,1.165332555770874,-0.12679274380207062,0.010914597660303116,0.3314638137817383
2.6763904094696045,0.0880795493721962,-1.2178782224655151,1.1675230264663696,-0.12616035342216492,0.011110793799161911,0.3324895203113556
2.6964128017425537,0.08798783272504807,-1.218466877937317,1.1686475276947021,-0.12583060562610626,0.011185639537870884,0.3329911530017853
2.716519832611084,0.08771970868110657,-1.219646692276001,1.1708409786224365,-0.12513577938079834,0.011302453465759754,0.33398765325546265
2.736542224884033,0.08718866854906082,-1.2208532094955444,1.1729302406311035,-0.12436086684465408,0.011296574957668781,0.3349808156490326
2.756635904312134,0.08687188476324081,-1.2214778661727905,1.1738930940628052,-0.12396863102912903,0.011279861442744732,0.3354780972003937
2.776705026626587,0.08615719527006149,-1.2227368354797363,1.1757458448410034,-0.12316170334815979,0.0111910505220294,0.3364626169204712
2.7970073223114014,0.08545003086328506,-1.2239924669265747,1.177528738975525,-0.12239011377096176,0.011121407151222229,0.33743104338645935
2.817169189453125,0.08512073010206223,-1.2246075868606567,1.1784273386001587,-0.12201932817697525,0.011099915951490402,0.3379080295562744
2.837207078933716,0.08454439043998718,-1.2258045673370361,1.1802444458007812,-0.12134001404047012,0.011103229597210884,0.33884772658348083
2.857356548309326,0.0842885673046112,-1.226399302482605,1.181127667427063,-0.12102914601564407,0.011128649115562439,0.3393123745918274
2.8774843215942383,0.08383286744356155,-1.227586269378662,1.1828397512435913,-0.1204364076256752,0.011213093996047974,0.34023383259773254
2.898149251937866,0.08344671130180359,-1.2287184000015259,1.1846567392349243,-0.11981508880853653,0.011266300454735756,0.3411422073841095
2.918307065963745,0.08327546715736389,-1.2292534112930298,1.1856282949447632,-0.11948816478252411,0.01127789355814457,0.3415897488594055
2.938401699066162,0.08295876532793045,-1.2302721738815308,1.187630534172058,-0.11882822215557098,0.011288772337138653,0.3424675762653351
2.9584312438964844,0.08279868960380554,-1.230779767036438,1.1885966062545776,-0.11849808692932129,0.011298021301627159,0.3428976237773895
2.978527069091797,0.0825233981013298,-1.2318161725997925,1.1903787851333618,-0.11783359199762344,0.011363232508301735,0.3437454402446747
2.998603582382202,0.0824267566204071,-1.2323509454727173,1.1911892890930176,-0.1174989864230156,0.0114239901304245,0.3441665470600128
3.018688678741455,0.08233984559774399,-1.2334729433059692,1.1925666332244873,-0.1168368011713028,0.011665147729218006,0.34500882029533386
3.039299726486206,0.08232143521308899,-1.2346386909484863,1.1936684846878052,-0.11618348211050034,0.01204745564609766,0.3458435535430908
3.059462547302246,0.08232246339321136,-1.2352014780044556,1.1942245960235596,-0.11586317420005798,0.012268002144992352,0.34625357389450073
3.0794930458068848,0.08237387984991074,-1.23622727394104,1.1954902410507202,-0.11523554474115372,0.012734080664813519,0.34705275297164917
3.099571704864502,0.08241160959005356,-1.236681342124939,1.1962440013885498,-0.11491354554891586,0.012943023815751076,0.34744060039520264
3.1197595596313477,0.08244218677282333,-1.237525224685669,1.1978700160980225,-0.11424972862005234,0.013280229642987251,0.3481941223144531
3.1397972106933594,0.08231839537620544,-1.2383482456207275,1.1995474100112915,-0.11357556283473969,0.013485759496688843,0.3489232659339905
3.159910202026367,0.0822015106678009,-1.2387640476226807,1.2003767490386963,-0.11324606835842133,0.01355987973511219,0.34928223490715027
3.17995285987854,0.08190197497606277,-1.2396267652511597,1.2019352912902832,-0.11259149760007858,0.013705902732908726,0.3499981164932251
3.200042963027954,0.08173001557588577,-1.2400753498077393,1.2026546001434326,-0.11225895583629608,0.013784470036625862,0.350357323884964
3.2201507091522217,0.08136364072561264,-1.2410002946853638,1.2039768695831299,-0.11158476769924164,0.013954097405076027,0.3510814905166626
3.2405524253845215,0.08100105822086334,-1.2419129610061646,1.2052536010742188,-0.11092822253704071,0.014132092706859112,0.3518032729625702
3.260751962661743,0.08082204312086105,-1.242347240447998,1.2059062719345093,-0.11061503738164902,0.014220425859093666,0.3521581292152405
3.2808456420898438,0.08049391955137253,-1.2431561946868896,1.2072898149490356,-0.11001687496900558,0.014394660480320454,0.3528517484664917
3.300949811935425,0.08018121868371964,-1.2439346313476562,1.2087044715881348,-0.10941512137651443,0.014555441215634346,0.3535301387310028
3.3210859298706055,0.08001972734928131,-1.2443279027938843,1.20940101146698,-0.10909943282604218,0.014624296687543392,0.3538665175437927
3.341169834136963,0.07966427505016327,-1.2451289892196655,1.210744023323059,-0.1084313839673996,0.014745756983757019,0.3545357286930084
3.3612565994262695,0.07947320491075516,-1.2455319166183472,1.2113895416259766,-0.10809526592493057,0.014802058227360249,0.35486796498298645
3.381354808807373,0.07909087836742401,-1.2463314533233643,1.2126305103302002,-0.10744648426771164,0.014928394928574562,0.3555271327495575
3.401880979537964,0.07873395085334778,-1.2471145391464233,1.2138385772705078,-0.1068389043211937,0.015068892389535904,0.3561769127845764
3.4219863414764404,0.07855421304702759,-1.247503399848938,1.214439868927002,-0.10653447359800339,0.015132380649447441,0.3564974069595337
3.4420759677886963,0.0781719908118248,-1.248286247253418,1.21563720703125,-0.10589814186096191,0.015227874740958214,0.3571326434612274
3.4621694087982178,0.07797244191169739,-1.2486793994903564,1.216235876083374,-0.10556072741746902,0.015258909203112125,0.35744941234588623
3.4823341369628906,0.07756032049655914,-1.249465823173523,1.217402458190918,-0.10486635565757751,0.015310756862163544,0.35808128118515015
3.5024306774139404,0.07716351002454758,-1.250222086906433,1.2185375690460205,-0.10419109463691711,0.015382608398795128,0.35870203375816345
3.522512435913086,0.07697171717882156,-1.2505921125411987,1.2190752029418945,-0.10387000441551208,0.015436339192092419,0.3590063154697418
3.5427322387695312,0.07665154337882996,-1.2513055801391602,1.2201528549194336,-0.10327091813087463,0.01556333340704441,0.3596007227897644
3.562732696533203,0.07652511447668076,-1.2516579627990723,1.2206790447235107,-0.10297204554080963,0.01563810370862484,0.35989245772361755
3.582832098007202,0.07639120519161224,-1.2523468732833862,1.221740484237671,-0.10234972834587097,0.015808166936039925,0.36046579480171204
3.6028850078582764,0.07632732391357422,-1.253025770187378,1.2228145599365234,-0.10169307887554169,0.015981251373887062,0.36102768778800964
3.622990846633911,0.07634145021438599,-1.2533572912216187,1.2233668565750122,-0.10137762874364853,0.016083626076579094,0.3613068461418152
3.643131971359253,0.07641441375017166,-1.254001498222351,1.2245075702667236,-0.10075967013835907,0.016302205622196198,0.3618610203266144
3.6631720066070557,0.07648280262947083,-1.2543208599090576,1.2250559329986572,-0.10046001523733139,0.01643814705312252,0.3621363639831543
3.683251142501831,0.07654906064271927,-1.254959225654602,1.2260997295379639,-0.0998605340719223,0.016701258718967438,0.36267614364624023
3.703406810760498,0.07647956907749176,-1.2555807828903198,1.2271099090576172,-0.09929074347019196,0.01693391054868698,0.3631947934627533
3.7234904766082764,0.07640113681554794,-1.2558828592300415,1.2276220321655273,-0.09901170432567596,0.01703166589140892,0.3634472191333771
3.7436342239379883,0.07619306445121765,-1.2564833164215088,1.2286304235458374,-0.09843052178621292,0.017197206616401672,0.36394259333610535
3.7636823654174805,0.07606609165668488,-1.2567942142486572,1.2291054725646973,-0.0981171503663063,0.01726621203124523,0.36418819427490234
3.7837674617767334,0.07574745267629623,-1.2574304342269897,1.2300277948379517,-0.09744937717914581,0.017351895570755005,0.3646712303161621
3.8039767742156982,0.07541576772928238,-1.2580623626708984,1.2309644222259521,-0.09680227935314178,0.01740363799035549,0.3651454746723175
3.8240699768066406,0.07525485754013062,-1.2583729028701782,1.231433629989624,-0.09649437665939331,0.017430346459150314,0.36537981033325195
3.844186782836914,0.07495994865894318,-1.258981704711914,1.2323452234268188,-0.09592484682798386,0.017514996230602264,0.3658432960510254
3.8642611503601074,0.07480476796627045,-1.2592861652374268,1.2327743768692017,-0.09563802927732468,0.017562082037329674,0.3660716414451599
3.884347438812256,0.07448694854974747,-1.2598872184753418,1.2336382865905762,-0.09504297375679016,0.017636248841881752,0.36652135848999023
3.904376983642578,0.0741783007979393,-1.2604812383651733,1.2345097064971924,-0.09442441910505295,0.017691675573587418,0.36696523427963257
3.9245312213897705,0.07403942197561264,-1.260771632194519,1.2349590063095093,-0.09410814195871353,0.017714954912662506,0.36718541383743286
3.944582462310791,0.07380378991365433,-1.2613369226455688,1.2358810901641846,-0.09347399324178696,0.017760299146175385,0.36761894822120667
3.9647157192230225,0.07371359318494797,-1.2616101503372192,1.23635733127594,-0.09315952658653259,0.017780819907784462,0.3678308427333832
3.9848012924194336,0.07360292226076126,-1.2621407508850098,1.2373329401016235,-0.09254758059978485,0.01781606301665306,0.3682429790496826
4.004943132400513,0.07356396317481995,-1.262668251991272,1.2382676601409912,-0.09197854995727539,0.01787780225276947,0.36864471435546875
4.025017738342285,0.07354129105806351,-1.262937307357788,1.2387027740478516,-0.09169401973485947,0.01792585477232933,0.36884453892707825
4.0450921058654785,0.07343560457229614,-1.2634859085083008,1.2394969463348389,-0.0911087840795517,0.018050335347652435,0.3692425489425659
4.065202236175537,0.07335174828767776,-1.263757586479187,1.2398889064788818,-0.09079844504594803,0.018112095072865486,0.3694404661655426
4.085268497467041,0.07314202934503555,-1.2642980813980103,1.2406638860702515,-0.09015549719333649,0.01821025274693966,0.3698323667049408
4.105323553085327,0.07288933545351028,-1.264831304550171,1.2414528131484985,-0.08948083221912384,0.018260525539517403,0.37021881341934204
4.125405311584473,0.07275217771530151,-1.2650961875915527,1.2418479919433594,-0.08913808315992355,0.018273649737238884,0.37040939927101135
4.145507097244263,0.07247602939605713,-1.265615701675415,1.2426472902297974,-0.08846525102853775,0.01829741708934307,0.37078362703323364
4.165637016296387,0.07235150784254074,-1.265868067741394,1.2430572509765625,-0.08813738077878952,0.0183169636875391,0.37096792459487915
4.185715198516846,0.07214723527431488,-1.2663683891296387,1.2438404560089111,-0.0875171348452568,0.018390867859125137,0.3713327944278717
4.205769300460815,0.07197704166173935,-1.266888976097107,1.2445032596588135,-0.08693438023328781,0.0185098759829998,0.3717002868652344
4.225859880447388,0.07190319895744324,-1.2671524286270142,1.2447967529296875,-0.08667374402284622,0.0185850802809,0.3718837797641754
4.24593186378479,0.07175126671791077,-1.2676643133163452,1.2453677654266357,-0.08619450032711029,0.018755419179797173,0.3722454309463501
4.266088247299194,0.07167822867631912,-1.267902135848999,1.245681643486023,-0.08595985174179077,0.01884027011692524,0.37242114543914795
4.2861855030059814,0.07154575735330582,-1.268345594406128,1.2463774681091309,-0.08546467125415802,0.018996652215719223,0.3727642893791199
4.306249380111694,0.07143713533878326,-1.2687644958496094,1.2471674680709839,-0.08491559326648712,0.019104043021798134,0.3731020390987396
4.326337814331055,0.0714009627699852,-1.268974781036377,1.2475783824920654,-0.08463576436042786,0.019142694771289825,0.37327104806900024
4.346425294876099,0.07137927412986755,-1.2694005966186523,1.2484009265899658,-0.08409036695957184,0.019213978201150894,0.37360724806785583
4.366629362106323,0.07138823717832565,-1.2696171998977661,1.248786211013794,-0.08382337540388107,0.01926184631884098,0.3737718462944031
4.386634588241577,0.07140003144741058,-1.270042061805725,1.2494990825653076,-0.08332186192274094,0.019380953162908554,0.3740840554237366
4.40679144859314,0.07140049338340759,-1.270250678062439,1.2498009204864502,-0.08309813588857651,0.019463831558823586,0.3742298185825348
4.426909685134888,0.07137466222047806,-1.270673394203186,1.2502714395523071,-0.08268817514181137,0.01967727206647396,0.37450742721557617
4.447988986968994,0.07130967825651169,-1.27109694480896,1.2506293058395386,-0.08230093121528625,0.019929466769099236,0.374772310256958
4.468064546585083,0.07125940173864365,-1.2713018655776978,1.2508100271224976,-0.08209680020809174,0.020056292414665222,0.3749012351036072
4.488120794296265,0.07112834602594376,-1.2716820240020752,1.2512743473052979,-0.08164627104997635,0.02026388980448246,0.37515053153038025
4.508291006088257,0.0710652694106102,-1.271855115890503,1.2515685558319092,-0.08140165358781815,0.020347436890006065,0.3752719759941101
4.5283873081207275,0.07094322144985199,-1.2721796035766602,1.2522766590118408,-0.0808594599366188,0.020449457690119743,0.37551262974739075
4.548546552658081,0.07084827125072479,-1.2724889516830444,1.2530826330184937,-0.08031030744314194,0.020495155826210976,0.3757537007331848
4.568608283996582,0.07079371809959412,-1.272649884223938,1.2534716129302979,-0.08003764599561691,0.02050752565264702,0.3758740723133087
4.588671684265137,0.07064203917980194,-1.2729963064193726,1.2541695833206177,-0.07949299365282059,0.020524658262729645,0.3761122524738312
4.608757019042969,0.07054300606250763,-1.2731804847717285,1.2544641494750977,-0.07922367751598358,0.020544325932860374,0.3762291669845581
4.628837823867798,0.07031725347042084,-1.2735633850097656,1.2549742460250854,-0.07870470732450485,0.020606394857168198,0.3764592111110687
4.648932456970215,0.0700928345322609,-1.2739388942718506,1.255444049835205,-0.07823488861322403,0.020701950415968895,0.3766835033893585
4.669013261795044,0.0699818879365921,-1.2741249799728394,1.255668044090271,-0.07799932360649109,0.020753266289830208,0.37679460644721985
4.689114570617676,0.06979195028543472,-1.2744793891906738,1.2561415433883667,-0.07749934494495392,0.020853694528341293,0.3770143985748291
4.709266185760498,0.06966927647590637,-1.2748273611068726,1.2565979957580566,-0.07695033401250839,0.02096841298043728,0.3772331178188324
4.729362726211548,0.06962257623672485,-1.2749980688095093,1.2568254470825195,-0.07667561620473862,0.02102956548333168,0.377340704202652
4.749439716339111,0.06953737884759903,-1.275334358215332,1.2572804689407349,-0.07615122944116592,0.021155718713998795,0.3775523900985718
4.769522666931152,0.0694810226559639,-1.2754985094070435,1.2575198411941528,-0.07590183615684509,0.021211087703704834,0.37765511870384216
4.789695978164673,0.06935643404722214,-1.27580988407135,1.2580350637435913,-0.07541501522064209,0.021309787407517433,0.3778538107872009
4.809723854064941,0.06920650601387024,-1.2761048078536987,1.2585744857788086,-0.07491742074489594,0.021387580782175064,0.37804341316223145
4.829932689666748,0.06912615895271301,-1.2762494087219238,1.2588441371917725,-0.07466693222522736,0.021421940997242928,0.378135621547699
4.850389242172241,0.06895712018013,-1.2765488624572754,1.259345531463623,-0.0741664469242096,0.02148613892495632,0.3783176839351654
4.870542287826538,0.06887219101190567,-1.2767032384872437,1.2595778703689575,-0.07391976565122604,0.021519269794225693,0.37840738892555237
4.890621900558472,0.06873276084661484,-1.2770159244537354,1.260000467300415,-0.07341811060905457,0.021604610607028008,0.3785826563835144
4.910703420639038,0.06869219988584518,-1.2771657705307007,1.2602040767669678,-0.07316465675830841,0.021661054342985153,0.37866684794425964
4.930778980255127,0.06864859163761139,-1.2774630784988403,1.2605828046798706,-0.07265198230743408,0.02179565653204918,0.37883007526397705
4.950862646102905,0.0686422660946846,-1.277613639831543,1.2607606649398804,-0.0723969042301178,0.021870777010917664,0.37891051173210144
4.970972061157227,0.0686146467924118,-1.277921438217163,1.2611163854599,-0.07188763469457626,0.02201259881258011,0.379069983959198
4.9917378425598145,0.0686018094420433,-1.2782214879989624,1.261513113975525,-0.07137560099363327,0.022136107087135315,0.37922435998916626
5.0119171142578125,0.0685865581035614,-1.2783634662628174,1.261735439300537,-0.07111648470163345,0.0221839789301157,0.3792988359928131
5.032011270523071,0.06853815913200378,-1.2786318063735962,1.2622100114822388,-0.07059859484434128,0.02226855419576168,0.3794457018375397
5.052051782608032,0.06849078088998795,-1.278761386871338,1.2624508142471313,-0.07033948600292206,0.022305481135845184,0.3795190453529358
5.07213282585144,0.06837859004735947,-1.2790213823318481,1.2628968954086304,-0.06982330232858658,0.022396648302674294,0.3796677589416504
5.092190980911255,0.06825152039527893,-1.279291033744812,1.2632752656936646,-0.06932984292507172,0.022501250728964806,0.37981510162353516
5.112284898757935,0.06819697469472885,-1.2794263362884521,1.2634530067443848,-0.0691077783703804,0.02255708910524845,0.37988680601119995
5.132359266281128,0.0681331604719162,-1.2796827554702759,1.2638522386550903,-0.06870889663696289,0.022660717368125916,0.3800260126590729
5.152413606643677,0.06809940189123154,-1.2799263000488281,1.2642905712127686,-0.06833266466856003,0.0227518193423748,0.38015785813331604
5.172632217407227,0.06807821989059448,-1.280043363571167,1.2645256519317627,-0.06813134998083115,0.02278776653110981,0.38022080063819885
5.192672491073608,0.06801851093769073,-1.2802715301513672,1.2650063037872314,-0.06770574301481247,0.022849520668387413,0.3803410530090332
5.212773084640503,0.06798198074102402,-1.2803789377212524,1.2652631998062134,-0.06748625636100769,0.022871628403663635,0.38039758801460266
5.232814788818359,0.06789357960224152,-1.2805880308151245,1.2657610177993774,-0.0670727789402008,0.022914856672286987,0.38050249218940735
5.252867937088013,0.06774988770484924,-1.2808045148849487,1.2661960124969482,-0.0666729062795639,0.02294745296239853,0.38059499859809875
5.272960662841797,0.06766104698181152,-1.2809196710586548,1.266381025314331,-0.06646938621997833,0.022964874282479286,0.38063859939575195
5.293032884597778,0.06745515763759613,-1.281166911125183,1.2667077779769897,-0.06602669507265091,0.022988125681877136,0.38072434067726135
5.3130998611450195,0.06734921783208847,-1.2812930345535278,1.2668735980987549,-0.06578446179628372,0.022992154583334923,0.3807673454284668
5.333202838897705,0.0671435296535492,-1.2815426588058472,1.2672315835952759,-0.06528206169605255,0.022984832525253296,0.3808527886867523
5.353273391723633,0.0669669359922409,-1.2817871570587158,1.2676277160644531,-0.06477978080511093,0.02296745404601097,0.38093841075897217
5.373406648635864,0.06689058244228363,-1.2819089889526367,1.2678241729736328,-0.06454070657491684,0.022964444011449814,0.3809809386730194
5.393491268157959,0.06674231588840485,-1.2821508646011353,1.2681992053985596,-0.06408558040857315,0.022968385368585587,0.38106295466423035
5.413639783859253,0.06666135787963867,-1.2822740077972412,1.2683638334274292,-0.06386535614728928,0.022976258769631386,0.3811022937297821
5.433747291564941,0.06648562103509903,-1.2825181484222412,1.2686583995819092,-0.06345703452825546,0.02300064079463482,0.38117483258247375
5.453755617141724,0.06639697402715683,-1.2826400995254517,1.2687886953353882,-0.06326590478420258,0.023017041385173798,0.3812084496021271
5.473844528198242,0.06624262779951096,-1.2828783988952637,1.2690353393554688,-0.06289985775947571,0.023061156272888184,0.38127025961875916
5.493941307067871,0.06615974754095078,-1.2830990552902222,1.2693113088607788,-0.0625094547867775,0.023116670548915863,0.3813265264034271
5.514019727706909,0.06614575535058975,-1.2832014560699463,1.2694768905639648,-0.06229954957962036,0.023141106590628624,0.38135313987731934
5.534122705459595,0.06617918610572815,-1.283388376235962,1.2698880434036255,-0.06186922267079353,0.02318435348570347,0.3814059793949127
5.554225921630859,0.06627151370048523,-1.2835601568222046,1.270362138748169,-0.061451952904462814,0.023231593891978264,0.38145744800567627
5.574321746826172,0.0663345456123352,-1.2836428880691528,1.2705997228622437,-0.06124987080693245,0.023262592032551765,0.3814815878868103
5.594365119934082,0.06643892079591751,-1.2838099002838135,1.2710248231887817,-0.06086074188351631,0.023341456428170204,0.38152435421943665
5.614480257034302,0.0664634183049202,-1.2839820384979248,1.2713700532913208,-0.060482315719127655,0.023428693413734436,0.38155749440193176
5.634568929672241,0.0664357990026474,-1.2840744256973267,1.271502137184143,-0.06030002236366272,0.0234763752669096,0.38157084584236145
5.654672861099243,0.06633864343166351,-1.2842638492584229,1.2717278003692627,-0.05992479249835014,0.02356845512986183,0.3815914988517761
5.674741506576538,0.06627687811851501,-1.284359335899353,1.2718368768692017,-0.059727150946855545,0.02360716462135315,0.38159942626953125
5.695076942443848,0.06613921374082565,-1.2845524549484253,1.2720577716827393,-0.059310182929039,0.023666255176067352,0.38161274790763855
5.7151548862457275,0.06606914103031158,-1.2846473455429077,1.2721763849258423,-0.05909876525402069,0.023688577115535736,0.3816182017326355
5.735356569290161,0.06594187766313553,-1.284833550453186,1.2724252939224243,-0.0586819127202034,0.023734232410788536,0.3816283047199249
5.755498170852661,0.06582871824502945,-1.2850185632705688,1.2726653814315796,-0.05827340856194496,0.023790990933775902,0.38163894414901733
5.77558708190918,0.06577353179454803,-1.2851091623306274,1.2727874517440796,-0.05806555226445198,0.02381930686533451,0.3816443085670471
5.795644998550415,0.06566084176301956,-1.285286784172058,1.2730294466018677,-0.057653725147247314,0.023876655846834183,0.38165438175201416
5.815736293792725,0.065602146089077,-1.2853724956512451,1.2731590270996094,-0.057448048144578934,0.023898467421531677,0.3816586434841156
5.8358423709869385,0.06548330187797546,-1.2855429649353027,1.2734289169311523,-0.05704557150602341,0.023927535861730576,0.3816654086112976
5.855897903442383,0.0653766393661499,-1.285717487335205,1.2736936807632446,-0.05667669698596001,0.023948121815919876,0.3816699981689453
5.875988006591797,0.0653301402926445,-1.2858028411865234,1.273827075958252,-0.056507498025894165,0.02396043948829174,0.38167086243629456
5.89605975151062,0.06523522734642029,-1.2859715223312378,1.2740765810012817,-0.05618491768836975,0.02399725653231144,0.38166987895965576
5.916160821914673,0.06511900573968887,-1.286138892173767,1.274307370185852,-0.055847059935331345,0.024040138348937035,0.38166773319244385
5.936252593994141,0.06505274772644043,-1.286224126815796,1.274412751197815,-0.05566354840993881,0.02406180277466774,0.38166794180870056
5.956315040588379,0.06491495668888092,-1.2863906621932983,1.2746351957321167,-0.05527982488274574,0.024096108973026276,0.38166970014572144
5.976409435272217,0.06485039740800858,-1.286472201347351,1.274749517440796,-0.05508657544851303,0.024111680686473846,0.3816717267036438
5.996453285217285,0.06473111361265182,-1.2866334915161133,1.274985671043396,-0.05471688508987427,0.02413337305188179,0.38167521357536316
6.01685905456543,0.064615897834301,-1.2867867946624756,1.2752344608306885,-0.054361458867788315,0.024146147072315216,0.3816758096218109
6.036945343017578,0.06455732882022858,-1.286858081817627,1.2753634452819824,-0.054189082235097885,0.024152271449565887,0.3816738426685333
6.057004451751709,0.06444056332111359,-1.2869911193847656,1.2756098508834839,-0.053867511451244354,0.0241805799305439,0.38166433572769165
6.077097177505493,0.06438026577234268,-1.2870575189590454,1.27571702003479,-0.053713951259851456,0.02420056425035,0.38165736198425293
6.097161293029785,0.06425049155950546,-1.2871958017349243,1.2759085893630981,-0.05338247865438461,0.024238795042037964,0.38164064288139343
6.117213010787964,0.06411591172218323,-1.2873364686965942,1.2760953903198242,-0.053013186901807785,0.02427109144628048,0.3816210925579071
6.137301445007324,0.06405357271432877,-1.2874044179916382,1.2761987447738647,-0.052815936505794525,0.024284476414322853,0.38161054253578186
6.157483339309692,0.06395838409662247,-1.2875373363494873,1.2764084339141846,-0.05242335796356201,0.02431979961693287,0.38158926367759705
6.177952527999878,0.06389795243740082,-1.2876784801483154,1.2765783071517944,-0.052029937505722046,0.024366727098822594,0.3815683126449585
6.198030948638916,0.06387471407651901,-1.2877501249313354,1.276654839515686,-0.051837094128131866,0.024389849975705147,0.3815571665763855
6.21811056137085,0.06382565200328827,-1.2878928184509277,1.2767986059188843,-0.05146850273013115,0.024435801431536674,0.3815302848815918
6.238215208053589,0.0637974888086319,-1.2879581451416016,1.2768845558166504,-0.05129246041178703,0.024455860257148743,0.38151422142982483
6.25825047492981,0.06373849511146545,-1.2880780696868896,1.2770884037017822,-0.05094603821635246,0.024493612349033356,0.381478488445282
6.278360843658447,0.06370943039655685,-1.2881327867507935,1.277203917503357,-0.05078113451600075,0.024512743577361107,0.38145911693573
6.298416376113892,0.06365770846605301,-1.2882311344146729,1.2774522304534912,-0.050465214997529984,0.02454536221921444,0.38141557574272156
6.318970203399658,0.06363436579704285,-1.2882803678512573,1.2775636911392212,-0.05031007155776024,0.02456231601536274,0.3813917338848114
6.339059114456177,0.06360309571027756,-1.2883872985839844,1.277744174003601,-0.04997308924794197,0.024602893739938736,0.3813417851924896
6.359118461608887,0.0635770857334137,-1.2885057926177979,1.277884840965271,-0.0496060848236084,0.02466108463704586,0.3812924027442932
6.379249095916748,0.06356498599052429,-1.2885645627975464,1.2779563665390015,-0.04942241311073303,0.02469708025455475,0.3812674283981323
6.399382591247559,0.06353628635406494,-1.2886755466461182,1.2781213521957397,-0.049075476825237274,0.024774275720119476,0.38121625781059265
6.419417142868042,0.0635191947221756,-1.2887823581695557,1.2783228158950806,-0.04874163120985031,0.02483312413096428,0.38116392493247986
6.43954062461853,0.06350971013307571,-1.2888356447219849,1.2784329652786255,-0.048571716994047165,0.02485249564051628,0.3811376392841339
6.459607839584351,0.06348086893558502,-1.2889431715011597,1.2786555290222168,-0.04822070151567459,0.024882802739739418,0.3810838460922241
6.479753255844116,0.06345444172620773,-1.2889982461929321,1.2787563800811768,-0.048038460314273834,0.024898290634155273,0.3810560405254364
6.49987530708313,0.0633900910615921,-1.2891067266464233,1.2789450883865356,-0.047676801681518555,0.024935470893979073,0.3809981942176819
6.51995587348938,0.06331510841846466,-1.2892149686813354,1.2791200876235962,-0.047323212027549744,0.02497243881225586,0.38093802332878113
6.540109634399414,0.06328283995389938,-1.289265751838684,1.279205560684204,-0.0471588596701622,0.024996742606163025,0.38090693950653076
6.560150146484375,0.06322720646858215,-1.289359211921692,1.2793740034103394,-0.04686225950717926,0.0250548105686903,0.3808411955833435
6.580251216888428,0.06317099183797836,-1.2894477844238281,1.2795383930206299,-0.0465821735560894,0.02511266991496086,0.3807714879512787
6.600395917892456,0.0631343349814415,-1.2894949913024902,1.279617428779602,-0.046435896307229996,0.025132404640316963,0.38073548674583435
6.62054443359375,0.06304357945919037,-1.289597749710083,1.2797714471817017,-0.046110812574625015,0.025154804810881615,0.380663126707077
6.6405580043792725,0.06299487501382828,-1.2896536588668823,1.2798413038253784,-0.04593878611922264,0.025164686143398285,0.38062721490859985
6.660698652267456,0.06289399415254593,-1.2897663116455078,1.279978632926941,-0.045595575124025345,0.02518269419670105,0.38055384159088135
6.680790424346924,0.0628129169344902,-1.2898725271224976,1.2801271677017212,-0.04526792839169502,0.025208985432982445,0.38048049807548523
6.7008655071258545,0.06277935206890106,-1.2899211645126343,1.280208706855774,-0.045114241540431976,0.02522270753979683,0.38044336438179016
6.720928430557251,0.06271851807832718,-1.2900205850601196,1.280347466468811,-0.044814981520175934,0.02526383474469185,0.38037076592445374
6.741023063659668,0.06268321722745895,-1.2900712490081787,1.280404806137085,-0.044668689370155334,0.025286179035902023,0.38033363223075867
6.7611706256866455,0.06260179728269577,-1.2901731729507446,1.2805109024047852,-0.044363122433423996,0.025328796356916428,0.38025835156440735
6.781275272369385,0.06250567734241486,-1.2902666330337524,1.2806400060653687,-0.04405739903450012,0.025351952761411667,0.38017815351486206
6.801328659057617,0.06245764344930649,-1.2903081178665161,1.2807193994522095,-0.04390612244606018,0.025357792153954506,0.38013678789138794
6.821432828903198,0.06236884742975235,-1.2903811931610107,1.280893325805664,-0.0436321422457695,0.025368042290210724,0.3800506293773651
6.841485500335693,0.06231722608208656,-1.2904417514801025,1.2810996770858765,-0.043379683047533035,0.025384994223713875,0.37996330857276917
6.861597537994385,0.06231381744146347,-1.290471076965332,1.2812086343765259,-0.043255764991045,0.025397861376404762,0.37992027401924133
6.88170313835144,0.062333717942237854,-1.2905352115631104,1.2814061641693115,-0.042988721281290054,0.02543557621538639,0.379834920167923
6.901846408843994,0.06235707923769951,-1.2905693054199219,1.2814911603927612,-0.04284438118338585,0.02546335570514202,0.379791796207428
6.921968698501587,0.06238163262605667,-1.2906414270401,1.281622052192688,-0.0425385907292366,0.025525400415062904,0.3797008991241455
6.942048788070679,0.06237897276878357,-1.2907090187072754,1.2817531824111938,-0.042222537100315094,0.02558484859764576,0.3796059489250183
6.962166786193848,0.06236378848552704,-1.2907413244247437,1.2818251848220825,-0.04206470772624016,0.025608396157622337,0.37955740094184875
6.982237339019775,0.06232776120305061,-1.2908000946044922,1.2819823026657104,-0.041765570640563965,0.02565755881369114,0.3794589638710022
7.002309799194336,0.062287963926792145,-1.2908542156219482,1.282149076461792,-0.04148503765463829,0.02570306323468685,0.3793579339981079
7.022394418716431,0.06226639449596405,-1.2908803224563599,1.2822307348251343,-0.041349466890096664,0.025724664330482483,0.3793068528175354
7.0424864292144775,0.06220659986138344,-1.2909388542175293,1.2823667526245117,-0.04107876494526863,0.025760866701602936,0.3792029321193695
7.0627052783966064,0.062128134071826935,-1.2910091876983643,1.2824548482894897,-0.0408112071454525,0.025794576853513718,0.3790971636772156
7.082828998565674,0.062088657170534134,-1.29104483127594,1.2824937105178833,-0.040681250393390656,0.025812292471528053,0.3790431320667267
7.102912902832031,0.06201418116688728,-1.2911134958267212,1.282585620880127,-0.04041268303990364,0.025845859199762344,0.378933310508728
7.122987985610962,0.06198645383119583,-1.2911429405212402,1.2826499938964844,-0.040274728089571,0.025863084942102432,0.3788774609565735
7.143164396286011,0.06194860115647316,-1.2911945581436157,1.2828043699264526,-0.0399954579770565,0.025897763669490814,0.3787643313407898
7.163228750228882,0.06192757561802864,-1.2912375926971436,1.2829867601394653,-0.039722319692373276,0.025928277522325516,0.3786490261554718
7.183276891708374,0.06191682443022728,-1.2912578582763672,1.283080816268921,-0.03959057107567787,0.025940051302313805,0.37859028577804565
7.203378200531006,0.06188531219959259,-1.291306495666504,1.2832449674606323,-0.03932847082614899,0.02596123330295086,0.3784715533256531
7.22343897819519,0.06184453144669533,-1.2913620471954346,1.283373475074768,-0.039071016013622284,0.025988969951868057,0.37835100293159485
7.243539094924927,0.06182225048542023,-1.291390061378479,1.2834320068359375,-0.03894409164786339,0.0260052178055048,0.3782900273799896
7.263620853424072,0.06178555265069008,-1.291439414024353,1.2835568189620972,-0.038688160479068756,0.02604100853204727,0.378167062997818
7.2837395668029785,0.06177094578742981,-1.2914625406265259,1.2836241722106934,-0.03855884447693825,0.026058729737997055,0.37810516357421875
7.303829193115234,0.06177760288119316,-1.2915067672729492,1.2837527990341187,-0.038282543420791626,0.026103181764483452,0.37798210978507996
7.32394552230835,0.06180952489376068,-1.2915514707565308,1.2838761806488037,-0.03799128159880638,0.026151852682232857,0.37785688042640686
7.344047784805298,0.061827342957258224,-1.291573405265808,1.283935308456421,-0.03784725069999695,0.026179205626249313,0.3777933418750763
7.364138126373291,0.061835817992687225,-1.291618824005127,1.2840523719787598,-0.0375700518488884,0.026232194155454636,0.37766459584236145
7.3842244148254395,0.061828844249248505,-1.2916430234909058,1.2841050624847412,-0.03743913397192955,0.026261387392878532,0.3776001036167145
7.4043128490448,0.061806485056877136,-1.2916951179504395,1.2841962575912476,-0.03717680647969246,0.026321575045585632,0.37747207283973694
7.42439603805542,0.06178933009505272,-1.2917237281799316,1.2842315435409546,-0.0370476059615612,0.02635003998875618,0.37740829586982727
7.444478988647461,0.06173548847436905,-1.2917864322662354,1.2842893600463867,-0.03677832707762718,0.026392269879579544,0.3772805631160736
7.464569807052612,0.061665695160627365,-1.2918446063995361,1.2843576669692993,-0.036522939801216125,0.026414312422275543,0.37714794278144836
7.484680414199829,0.06163328140974045,-1.2918691635131836,1.2844024896621704,-0.036403585225343704,0.026423510164022446,0.3770792484283447
7.504748582839966,0.061585791409015656,-1.291909098625183,1.2845144271850586,-0.036168791353702545,0.02645001746714115,0.37693920731544495
7.525193929672241,0.06155097857117653,-1.2919495105743408,1.2846314907073975,-0.035906028002500534,0.02648656815290451,0.37680020928382874
7.545297622680664,0.061533279716968536,-1.2919707298278809,1.2846908569335938,-0.03576092794537544,0.02650412917137146,0.3767315149307251
7.565356254577637,0.06148986145853996,-1.2920150756835938,1.284810185432434,-0.035456977784633636,0.026531245559453964,0.3765946626663208
7.585457801818848,0.061466068029403687,-1.2920373678207397,1.2848670482635498,-0.03530863672494888,0.02654346264898777,0.37652623653411865
7.605515956878662,0.0614081546664238,-1.2920879125595093,1.2849565744400024,-0.03501534461975098,0.026566065847873688,0.37638983130455017
7.625640153884888,0.06137540936470032,-1.2921168804168701,1.2849888801574707,-0.034873709082603455,0.026577891781926155,0.3763214945793152
7.645729064941406,0.06131044775247574,-1.2921732664108276,1.2850501537322998,-0.03459958732128143,0.02660233899950981,0.376184344291687
7.665833234786987,0.06125902384519577,-1.2922197580337524,1.2851393222808838,-0.034337420016527176,0.026627445593476295,0.37604573369026184
7.685901403427124,0.0612463653087616,-1.2922359704971313,1.2852070331573486,-0.03421423211693764,0.026638733223080635,0.37597623467445374
7.738621473312378,0.06123645231127739,-1.2922618389129639,1.2853760719299316,-0.033969081938266754,0.026652613654732704,0.37583693861961365
7.758713483810425,0.06123387813568115,-1.292272686958313,1.28546941280365,-0.03384886682033539,0.0266562532633543,0.37576624751091003
7.778766870498657,0.06121775135397911,-1.2922933101654053,1.2856494188308716,-0.033618468791246414,0.02666160836815834,0.3756200075149536
7.798930406570435,0.06120177358388901,-1.2923028469085693,1.2857258319854736,-0.03351544588804245,0.026667747646570206,0.3755435645580292
7.818979024887085,0.061166077852249146,-1.2923215627670288,1.2858526706695557,-0.03332505375146866,0.026691997423768044,0.3753860294818878
7.839057922363281,0.061148520559072495,-1.2923319339752197,1.2859100103378296,-0.03322189301252365,0.02670740894973278,0.37530651688575745
7.859138011932373,0.06111488863825798,-1.2923550605773926,1.286021113395691,-0.03299793601036072,0.026741236448287964,0.3751475512981415
7.879338979721069,0.061070408672094345,-1.2923827171325684,1.2861381769180298,-0.03273916617035866,0.02676316164433956,0.37498939037323
7.899433135986328,0.061042189598083496,-1.2923989295959473,1.2861921787261963,-0.03261088579893112,0.026770029217004776,0.3749098479747772
7.919504165649414,0.060970962047576904,-1.2924447059631348,1.2862536907196045,-0.03236199915409088,0.02678518183529377,0.37475091218948364
7.93967604637146,0.060926858335733414,-1.2924734354019165,1.2862669229507446,-0.03223521634936333,0.026790276169776917,0.3746716380119324
7.959778308868408,0.060842450708150864,-1.2925286293029785,1.2862932682037354,-0.03198236599564552,0.026802511885762215,0.3745136260986328
7.979830741882324,0.06076918914914131,-1.292572259902954,1.286362886428833,-0.03171280398964882,0.026808330789208412,0.37435680627822876
7.99992823600769,0.0607389397919178,-1.2925899028778076,1.2864123582839966,-0.031578775495290756,0.026811858639121056,0.37427854537963867
8.020087718963623,0.06067560613155365,-1.2926256656646729,1.2865185737609863,-0.031309135258197784,0.026813508942723274,0.37412235140800476
8.040160179138184,0.06061317026615143,-1.2926591634750366,1.286626935005188,-0.03105275146663189,0.02681540697813034,0.37396568059921265
8.060302734375,0.0605820007622242,-1.2926759719848633,1.2866778373718262,-0.030931487679481506,0.026817278936505318,0.37388721108436584
8.080368041992188,0.060514673590660095,-1.2927137613296509,1.2867623567581177,-0.03069666028022766,0.026821546256542206,0.37373030185699463
8.100957870483398,0.06043090298771858,-1.292762279510498,1.2868225574493408,-0.03045499138534069,0.02681751362979412,0.37357404828071594
8.121058225631714,0.06038855016231537,-1.292785882949829,1.2868537902832031,-0.03033427521586418,0.026814190670847893,0.37349584698677063
8.141171216964722,0.06030641496181488,-1.2928287982940674,1.2869316339492798,-0.030099140480160713,0.02680419199168682,0.37333810329437256
8.161241292953491,0.06027058884501457,-1.2928459644317627,1.2869806289672852,-0.029988879337906837,0.026800306513905525,0.37325870990753174
8.181347370147705,0.06020329147577286,-1.292877435684204,1.287083625793457,-0.029772942885756493,0.026793843135237694,0.37309888005256653
8.201390266418457,0.06015758216381073,-1.292903184890747,1.2871838808059692,-0.02956601046025753,0.026799917221069336,0.3729383647441864
8.221487045288086,0.06013992428779602,-1.2929133176803589,1.2872337102890015,-0.02947072498500347,0.026806209236383438,0.37285661697387695
8.241617202758789,0.06011402979493141,-1.2929285764694214,1.2873327732086182,-0.029291607439517975,0.026824191212654114,0.3726906478404999
8.261790990829468,0.06010766699910164,-1.2929352521896362,1.2873798608779907,-0.02919897250831127,0.026837646961212158,0.37260738015174866
8.281912803649902,0.06011301279067993,-1.292950987815857,1.2874658107757568,-0.028980568051338196,0.026867492124438286,0.3724408745765686
8.301959037780762,0.060124631971120834,-1.2929672002792358,1.2875500917434692,-0.028735147789120674,0.026894619688391685,0.3722728192806244
8.322049379348755,0.060126177966594696,-1.2929754257202148,1.2875933647155762,-0.028610944747924805,0.026906952261924744,0.3721873462200165
8.342122793197632,0.060117028653621674,-1.2929894924163818,1.2876838445663452,-0.02836988866329193,0.026935266330838203,0.37201541662216187
8.362194061279297,0.06010543555021286,-1.2930030822753906,1.287772297859192,-0.028127405792474747,0.026971491053700447,0.37184369564056396
8.382325410842896,0.060096386820077896,-1.2930091619491577,1.287818193435669,-0.028003515675663948,0.026986369863152504,0.3717575669288635
8.402376890182495,0.06006963551044464,-1.29301917552948,1.2879165410995483,-0.027754545211791992,0.027004674077033997,0.37158292531967163
8.422455549240112,0.06003216654062271,-1.2930339574813843,1.2880100011825562,-0.027507303282618523,0.027011727914214134,0.37140488624572754
8.442550420761108,0.0600147545337677,-1.2930454015731812,1.2880465984344482,-0.027389992028474808,0.027016984298825264,0.37131568789482117
8.462627649307251,0.05998842045664787,-1.293076753616333,1.2881004810333252,-0.027166182175278664,0.027035599574446678,0.37113869190216064
8.482696533203125,0.059984829276800156,-1.2931066751480103,1.2881542444229126,-0.02695746161043644,0.027071885764598846,0.3709637522697449
8.502785682678223,0.05998529493808746,-1.293117880821228,1.2881896495819092,-0.026856889948248863,0.027091238647699356,0.3708757162094116
8.522884130477905,0.059978291392326355,-1.2931337356567383,1.2882778644561768,-0.02666126750409603,0.02712278813123703,0.3706974685192108
8.543010234832764,0.059967417269945145,-1.2931404113769531,1.2883248329162598,-0.026561623439192772,0.02713274024426937,0.3706077039241791
8.563100814819336,0.05993911996483803,-1.2931543588638306,1.2884197235107422,-0.02635858952999115,0.027147330343723297,0.3704282343387604
8.583228826522827,0.05991235375404358,-1.2931694984436035,1.2885111570358276,-0.026146026328206062,0.027164969593286514,0.3702508807182312
8.603292226791382,0.059903260320425034,-1.293176293373108,1.288555383682251,-0.026050353422760963,0.027178281918168068,0.3701620101928711
8.62337064743042,0.059889111667871475,-1.2931873798370361,1.2886439561843872,-0.025874562561511993,0.027208592742681503,0.36998313665390015
8.643733978271484,0.059873081743717194,-1.2931965589523315,1.2887336015701294,-0.025715751573443413,0.027237139642238617,0.36980119347572327
8.663858890533447,0.059863343834877014,-1.2932019233703613,1.288777470588684,-0.025630302727222443,0.02724999375641346,0.3697097599506378
8.683952808380127,0.059837307780981064,-1.2932158708572388,1.288863182067871,-0.025441529229283333,0.027270060032606125,0.3695274591445923
8.704013347625732,0.059826456010341644,-1.2932242155075073,1.2889028787612915,-0.025336211547255516,0.027282563969492912,0.36943742632865906
8.724096536636353,0.059796445071697235,-1.2932459115982056,1.288970947265625,-0.025109266862273216,0.027302715927362442,0.3692578971385956
8.744163751602173,0.059782642871141434,-1.2932593822479248,1.288995623588562,-0.024993034079670906,0.02731659822165966,0.36916860938072205
8.764240026473999,0.05974931642413139,-1.2932904958724976,1.2890305519104004,-0.024767767637968063,0.02734345756471157,0.36898964643478394
8.784444808959961,0.05971261113882065,-1.2933250665664673,1.2890582084655762,-0.02455395646393299,0.02736837975680828,0.3688109815120697
8.804599285125732,0.059695348143577576,-1.2933403253555298,1.2890785932540894,-0.02444801665842533,0.02737646922469139,0.36872145533561707
8.824678897857666,0.05971131846308708,-1.2933634519577026,1.289122223854065,-0.02423725463449955,0.027408860623836517,0.36854293942451477
8.844741106033325,0.05974365398287773,-1.2933714389801025,1.289146900177002,-0.02412492223083973,0.027429623529314995,0.36845332384109497
8.864834785461426,0.05982549861073494,-1.2933868169784546,1.2891957759857178,-0.023895230144262314,0.027480008080601692,0.36827346682548523
8.884933710098267,0.05987027660012245,-1.2934017181396484,1.2892582416534424,-0.023671844974160194,0.02751726657152176,0.36809083819389343
8.905096530914307,0.05987580865621567,-1.293408989906311,1.2892937660217285,-0.023566702380776405,0.027534857392311096,0.36799946427345276
8.925095558166504,0.05988083779811859,-1.293420433998108,1.28936767578125,-0.023365957662463188,0.027571868151426315,0.3678169548511505
8.9451904296875,0.05988430976867676,-1.2934256792068481,1.2894035577774048,-0.023266175761818886,0.027592672035098076,0.36772608757019043
8.965294599533081,0.05987776070833206,-1.2934377193450928,1.2894788980484009,-0.023060794919729233,0.027620360255241394,0.367543488740921
8.98587942123413,0.059862177819013596,-1.2934547662734985,1.2895524501800537,-0.022847844287753105,0.027639366686344147,0.3673597574234009
9.00597333908081,0.05984896048903465,-1.2934653759002686,1.2895894050598145,-0.022736486047506332,0.027643535286188126,0.36726757884025574
9.026083946228027,0.059827931225299835,-1.2934882640838623,1.289656162261963,-0.022519562393426895,0.02765907160937786,0.36708253622055054
9.046140432357788,0.05981936305761337,-1.2935000658035278,1.2896857261657715,-0.022415436804294586,0.027669820934534073,0.3669898808002472
9.066205024719238,0.0598202683031559,-1.2935177087783813,1.2897387742996216,-0.022243574261665344,0.02771006152033806,0.36680349707603455
9.086305618286133,0.05982553958892822,-1.2935256958007812,1.2897582054138184,-0.022168653085827827,0.027737125754356384,0.36670997738838196
9.106394529342651,0.05983094125986099,-1.2935467958450317,1.2897676229476929,-0.022025665268301964,0.02779681235551834,0.3665226399898529
9.126441955566406,0.05981019139289856,-1.2935791015625,1.2897510528564453,-0.021861158311367035,0.027840930968523026,0.36633434891700745
9.146537065505981,0.05979418009519577,-1.2935954332351685,1.2897471189498901,-0.021768832579255104,0.027856092900037766,0.3662397563457489
9.166607141494751,0.05975915864109993,-1.2936198711395264,1.2897777557373047,-0.021573083475232124,0.027870163321495056,0.36604875326156616
9.186735391616821,0.05974265933036804,-1.2936286926269531,1.2898085117340088,-0.02146846614778042,0.027872825041413307,0.3659527003765106
9.206825971603394,0.059715818613767624,-1.293643832206726,1.2898763418197632,-0.021269122138619423,0.02788177877664566,0.36575958132743835
9.226886749267578,0.05969994142651558,-1.2936584949493408,1.2899413108825684,-0.021077273413538933,0.02790200710296631,0.3655671775341034
9.246975660324097,0.059696782380342484,-1.2936652898788452,1.2899720668792725,-0.02098381333053112,0.027917223051190376,0.36547186970710754
9.267074346542358,0.05968862771987915,-1.2936815023422241,1.2900314331054688,-0.02078872174024582,0.027946854010224342,0.365283340215683
9.287195205688477,0.05967242643237114,-1.293700098991394,1.2900912761688232,-0.02058180421590805,0.027969175949692726,0.36509591341018677
9.307286262512207,0.059660859405994415,-1.2937116622924805,1.290120244026184,-0.02047611027956009,0.02797771245241165,0.3650020360946655
9.32736611366272,0.059633221477270126,-1.293735384941101,1.2901793718338013,-0.02027084492146969,0.027990445494651794,0.36481401324272156
9.347498416900635,0.05962163209915161,-1.2937475442886353,1.2902079820632935,-0.020171411335468292,0.027999233454465866,0.3647204339504242
9.367579221725464,0.05960152670741081,-1.2937685251235962,1.2902684211730957,-0.019980771467089653,0.028018547222018242,0.3645336329936981
9.387636661529541,0.05958481505513191,-1.2937849760055542,1.2903333902359009,-0.019795846194028854,0.028039321303367615,0.3643473982810974
9.40773057937622,0.05957656353712082,-1.293791651725769,1.2903672456741333,-0.019705722108483315,0.028049258515238762,0.3642542362213135
9.427938222885132,0.05955891311168671,-1.2938023805618286,1.2904376983642578,-0.01952851191163063,0.028066959232091904,0.3640673756599426
9.448232412338257,0.05954672023653984,-1.2938096523284912,1.2905089855194092,-0.01935216598212719,0.028088966384530067,0.36387917399406433
9.468326330184937,0.059542588889598846,-1.293810486793518,1.2905465364456177,-0.019266029819846153,0.028100846335291862,0.3637840747833252
9.488387823104858,0.059535808861255646,-1.293804407119751,1.2906285524368286,-0.01910691149532795,0.028122862800955772,0.3635903596878052
9.508472919464111,0.059535324573516846,-1.2937989234924316,1.2906699180603027,-0.019032973796129227,0.028135942295193672,0.3634917438030243
9.528607368469238,0.05953643098473549,-1.2937904596328735,1.2907475233078003,-0.018893353641033173,0.028165612369775772,0.3632911145687103
9.549391031265259,0.059534892439842224,-1.2937874794006348,1.290818691253662,-0.018754346296191216,0.028195146471261978,0.363087922334671
9.569557428359985,0.0595274344086647,-1.293787956237793,1.2908549308776855,-0.018684769049286842,0.0282038114964962,0.36298537254333496
9.589640140533447,0.059505339711904526,-1.2937911748886108,1.2909276485443115,-0.018541859462857246,0.028215209022164345,0.36278069019317627
9.609719514846802,0.05948925018310547,-1.2937955856323242,1.2909629344940186,-0.018465284258127213,0.028217414394021034,0.3626790940761566
9.629950761795044,0.05944829434156418,-1.2938106060028076,1.2910302877426147,-0.018293287605047226,0.02821625955402851,0.36247891187667847
9.650089502334595,0.059421639889478683,-1.2938203811645508,1.2910642623901367,-0.01819841004908085,0.028210332617163658,0.3623800277709961
9.670328378677368,0.059362396597862244,-1.2938451766967773,1.2911202907562256,-0.01800055243074894,0.028196359053254128,0.3621843159198761
9.690478801727295,0.05933284014463425,-1.2938610315322876,1.2911386489868164,-0.017900610342621803,0.028192289173603058,0.3620874583721161
9.7104811668396,0.05927329882979393,-1.293898582458496,1.291156530380249,-0.017703427001833916,0.028189722448587418,0.3618961274623871
9.730567693710327,0.05924518033862114,-1.2939180135726929,1.2911627292633057,-0.017609667032957077,0.02819068729877472,0.36180105805397034
9.750634670257568,0.0591917522251606,-1.2939505577087402,1.2911897897720337,-0.017438068985939026,0.028189916163682938,0.36161065101623535
9.771042346954346,0.0591677762567997,-1.2939631938934326,1.2912112474441528,-0.017354179173707962,0.02818906120955944,0.36151593923568726
9.791132926940918,0.05911792069673538,-1.2939850091934204,1.2912675142288208,-0.017182232812047005,0.028181005269289017,0.3613269031047821
9.811248779296875,0.05907028913497925,-1.2940070629119873,1.2913427352905273,-0.01699424535036087,0.028162140399217606,0.36113980412483215
9.831305742263794,0.059050481766462326,-1.294018030166626,1.2913919687271118,-0.016896400600671768,0.028147518634796143,0.3610469400882721
9.851405620574951,0.059017363935709,-1.2940400838851929,1.2914979457855225,-0.016705278307199478,0.028118852525949478,0.3608618676662445
9.871452569961548,0.05898076295852661,-1.2940622568130493,1.291595697402954,-0.016520610079169273,0.028095079585909843,0.36067724227905273
9.891564130783081,0.05895701050758362,-1.294073462486267,1.2916356325149536,-0.016431597992777824,0.028085995465517044,0.360584557056427
9.911643266677856,0.05890420451760292,-1.2940993309020996,1.2917014360427856,-0.016252104192972183,0.02807037904858589,0.3603994846343994
9.931692838668823,0.058853134512901306,-1.2941265106201172,1.291759967803955,-0.016072861850261688,0.02805914357304573,0.3602149188518524
9.951795101165771,0.05882803350687027,-1.2941409349441528,1.2917872667312622,-0.015981843695044518,0.02805446833372116,0.36012277007102966
9.971893072128296,0.058778077363967896,-1.2941664457321167,1.2918496131896973,-0.0158025324344635,0.028042443096637726,0.35993731021881104
9.992211818695068,0.05873110890388489,-1.2941848039627075,1.2919187545776367,-0.01563694141805172,0.028029726818203926,0.3597494065761566
10.01245403289795,0.05871040001511574,-1.2941920757293701,1.2919540405273438,-0.015560314059257507,0.028025129809975624,0.3596544861793518
10.032482862472534,0.05869140848517418,-1.2941991090774536,1.291986107826233,-0.015484850853681564,0.02802269347012043,0.35955923795700073
10.052719116210938,0.05865057185292244,-1.2942256927490234,1.2920050621032715,-0.015328340232372284,0.02802889235317707,0.35936906933784485
10.072808265686035,0.058628667145967484,-1.2942427396774292,1.2920022010803223,-0.015247263945639133,0.028034187853336334,0.3592737317085266
10.092870712280273,0.05858535319566727,-1.2942768335342407,1.2919938564300537,-0.015083160251379013,0.02804551087319851,0.3590826690196991
10.113091945648193,0.05855817347764969,-1.2942969799041748,1.2920246124267578,-0.014926631934940815,0.028058215975761414,0.3588901162147522
10.13318133354187,0.058550819754600525,-1.2943035364151,1.2920490503311157,-0.01485257688909769,0.028067292645573616,0.3587934374809265
10.153191089630127,0.058539532124996185,-1.294313907623291,1.292102336883545,-0.01471539493650198,0.028087563812732697,0.3585985004901886
10.173252582550049,0.05852380394935608,-1.2943215370178223,1.2921606302261353,-0.014586993493139744,0.028102798387408257,0.35840192437171936
10.193338871002197,0.05851081758737564,-1.2943261861801147,1.2921911478042603,-0.014522896148264408,0.028105685487389565,0.3583030104637146
10.213477849960327,0.058481182903051376,-1.2943354845046997,1.2922531366348267,-0.014392400160431862,0.028108276426792145,0.35810571908950806
10.233522891998291,0.05846491456031799,-1.2943408489227295,1.2922837734222412,-0.014324842020869255,0.028108539059758186,0.35800737142562866
10.253681421279907,0.058427732437849045,-1.29435396194458,1.292344331741333,-0.014178069308400154,0.028105204924941063,0.35781171917915344
10.273685455322266,0.058384329080581665,-1.2943696975708008,1.2924045324325562,-0.01401506643742323,0.02809637226164341,0.35761797428131104
10.293776273727417,0.058361925184726715,-1.2943780422210693,1.2924343347549438,-0.013932368718087673,0.028091467916965485,0.3575216233730316
10.313854932785034,0.05831976234912872,-1.2943931818008423,1.2924940586090088,-0.013767196796834469,0.028084056451916695,0.3573300838470459
10.333942413330078,0.058282025158405304,-1.2944068908691406,1.2925529479980469,-0.013604101724922657,0.028080860152840614,0.35713985562324524
10.354169845581055,0.058263346552848816,-1.2944135665893555,1.2925822734832764,-0.013520028442144394,0.02807944267988205,0.3570455312728882
10.374168395996094,0.05822674185037613,-1.294426679611206,1.2926408052444458,-0.01335771195590496,0.028077231720089912,0.35685741901397705
10.394260883331299,0.058210842311382294,-1.2944326400756836,1.292669653892517,-0.013281651772558689,0.028078459203243256,0.3567635118961334
10.414344787597656,0.05817792937159538,-1.2944469451904297,1.2927250862121582,-0.013127584010362625,0.02808079868555069,0.3565756380558014
10.434478521347046,0.058143921196460724,-1.2944623231887817,1.2927793264389038,-0.012974356301128864,0.02808259427547455,0.3563876450061798
10.45454740524292,0.05812254920601845,-1.294471025466919,1.2928073406219482,-0.01289345696568489,0.028079209849238396,0.3562937080860138
10.474641799926758,0.05808272212743759,-1.2944837808609009,1.292866587638855,-0.012745671905577183,0.028073741123080254,0.35610488057136536
10.494669914245605,0.05804971605539322,-1.2944914102554321,1.2929267883300781,-0.012607688084244728,0.028073467314243317,0.3559153378009796
10.514795541763306,0.058042678982019424,-1.2944918870925903,1.2929562330245972,-0.012542856857180595,0.028078991919755936,0.3558200001716614
10.534879922866821,0.058057356625795364,-1.2944889068603516,1.2930078506469727,-0.012407160364091396,0.028103327378630638,0.35562843084335327
10.55511474609375,0.05808341130614281,-1.2944858074188232,1.2930291891098022,-0.01233616378158331,0.028122371062636375,0.3555315136909485
10.575230360031128,0.058149006217718124,-1.294478178024292,1.293068528175354,-0.012200797908008099,0.02816803939640522,0.35533443093299866
10.59528112411499,0.058203671127557755,-1.294470191001892,1.293110728263855,-0.01208651065826416,0.028215525671839714,0.35513290762901306
10.61537504196167,0.058215945959091187,-1.2944666147232056,1.2931360006332397,-0.01203678548336029,0.02823474444448948,0.3550308644771576
10.635442018508911,0.058230701833963394,-1.2944620847702026,1.29318368434906,-0.011943453922867775,0.02827257663011551,0.3548262119293213
10.655545473098755,0.05823114886879921,-1.2944629192352295,1.2932019233703613,-0.011896321550011635,0.028288235887885094,0.35472360253334045
10.675638675689697,0.05822467803955078,-1.2944681644439697,1.2932250499725342,-0.011806956492364407,0.028317708522081375,0.3545180559158325
10.69570517539978,0.05820665508508682,-1.2944738864898682,1.2932465076446533,-0.011715876869857311,0.028337547555565834,0.3543112277984619
10.7158043384552,0.058194052428007126,-1.2944751977920532,1.2932645082473755,-0.011667274869978428,0.02834196388721466,0.3542073965072632
10.735901117324829,0.058163028210401535,-1.2944767475128174,1.2933158874511719,-0.01155508030205965,0.028340904042124748,0.35399937629699707
10.756038427352905,0.058147188276052475,-1.2944778203964233,1.2933449745178223,-0.011495563201606274,0.028339192271232605,0.3538953363895416
10.776151657104492,0.05812237784266472,-1.2944824695587158,1.293398380279541,-0.011366421356797218,0.028343696147203445,0.35368868708610535
10.796215295791626,0.058112241327762604,-1.294487714767456,1.2934449911117554,-0.01123372744768858,0.02836376056075096,0.35348427295684814
10.81629467010498,0.05811233073472977,-1.294489860534668,1.2934662103652954,-0.011165299452841282,0.028378991410136223,0.3533834218978882
10.836377143859863,0.058104559779167175,-1.2944964170455933,1.293508768081665,-0.011012016795575619,0.028401942923665047,0.3531835079193115
10.856428861618042,0.058086097240448,-1.29450523853302,1.293553352355957,-0.01085325051099062,0.028414400294423103,0.35298457741737366
10.876539468765259,0.05806983634829521,-1.2945096492767334,1.2935786247253418,-0.010773943737149239,0.028413226827979088,0.35288479924201965
10.896553993225098,0.05804268643260002,-1.2945127487182617,1.2936326265335083,-0.010631977580487728,0.028414146974682808,0.35268545150756836
10.916630983352661,0.058031558990478516,-1.2945135831832886,1.2936592102050781,-0.01056149136275053,0.028416799381375313,0.35258638858795166
10.936713695526123,0.0580168180167675,-1.2945164442062378,1.2937074899673462,-0.010414354503154755,0.028430316597223282,0.35238969326019287
10.956767082214355,0.05800527334213257,-1.294524073600769,1.293749213218689,-0.010258311405777931,0.02844889834523201,0.35219302773475647
10.976856708526611,0.0579984188079834,-1.2945274114608765,1.2937710285186768,-0.01017814688384533,0.02845686301589012,0.3520943522453308
10.996934175491333,0.057977426797151566,-1.2945337295532227,1.2938182353973389,-0.010021641850471497,0.02846512943506241,0.3518954813480377
11.017045974731445,0.05796589329838753,-1.2945374250411987,1.29384183883667,-0.009944734163582325,0.028468402102589607,0.35179606080055237
11.037127017974854,0.05794685706496239,-1.294546127319336,1.293883204460144,-0.009798387996852398,0.02848045527935028,0.3515981435775757
11.057177066802979,0.05793339014053345,-1.2945629358291626,1.2938934564590454,-0.009655393660068512,0.028507201001048088,0.35140323638916016
11.077409267425537,0.057924289256334305,-1.294575810432434,1.2938836812973022,-0.009581645019352436,0.02852306328713894,0.3513069748878479
11.09752631187439,0.0579005591571331,-1.294605016708374,1.2938593626022339,-0.009429117664694786,0.02855110727250576,0.3511160612106323
11.117516040802002,0.05788826942443848,-1.2946195602416992,1.293851375579834,-0.00934987235814333,0.02856314554810524,0.3510206341743469
11.137652397155762,0.057872526347637177,-1.2946372032165527,1.2938683032989502,-0.00920534785836935,0.028583653271198273,0.35082727670669556
11.15774130821228,0.05786485970020294,-1.2946499586105347,1.293899416923523,-0.009071308188140392,0.0286057461053133,0.3506317734718323
11.1778404712677,0.05786152184009552,-1.294655442237854,1.293916940689087,-0.009004191495478153,0.028616318479180336,0.35053443908691406
11.19788908958435,0.05784683674573898,-1.2946676015853882,1.2939544916152954,-0.008853624574840069,0.028629375621676445,0.3503410518169403
11.217994928359985,0.057838067412376404,-1.2946724891662598,1.2939751148223877,-0.008773457258939743,0.02863398753106594,0.35024508833885193
11.238060474395752,0.05781961977481842,-1.2946819067001343,1.2940171957015991,-0.008617881685495377,0.028642360121011734,0.35005316138267517
11.258194208145142,0.05781130492687225,-1.2946871519088745,1.2940372228622437,-0.008543131873011589,0.02864786982536316,0.3499574065208435
11.278228759765625,0.05779537931084633,-1.2946985960006714,1.2940763235092163,-0.008402087725698948,0.028660258278250694,0.3497662842273712
11.298410654067993,0.05777320638298988,-1.294714331626892,1.2941137552261353,-0.008247739635407925,0.02866802178323269,0.34957611560821533
11.318544864654541,0.057760659605264664,-1.2947219610214233,1.2941334247589111,-0.00817054882645607,0.028670374304056168,0.34948116540908813
11.338606595993042,0.057742007076740265,-1.2947337627410889,1.2941731214523315,-0.008028601296246052,0.028680773451924324,0.34929150342941284
11.358713388442993,0.057735610753297806,-1.2947371006011963,1.2941943407058716,-0.007970733568072319,0.028688227757811546,0.34919607639312744
11.37877631187439,0.057725805789232254,-1.2947403192520142,1.294238805770874,-0.007871674373745918,0.028705338016152382,0.34900417923927307
11.399026155471802,0.05771784484386444,-1.2947412729263306,1.294263243675232,-0.00782560184597969,0.028710396960377693,0.34890756011009216
11.419198036193848,0.057700175791978836,-1.2947407960891724,1.2943156957626343,-0.007737646345049143,0.028717270120978355,0.34871339797973633
11.439218997955322,0.057678643614053726,-1.2947416305541992,1.2943693399429321,-0.00763343321159482,0.02871963009238243,0.3485192060470581
11.459320783615112,0.0576678141951561,-1.2947428226470947,1.2943952083587646,-0.007571476977318525,0.028720935806632042,0.34842216968536377
11.479448080062866,0.05764554440975189,-1.2947453260421753,1.2944459915161133,-0.007422186434268951,0.02872307598590851,0.3482288420200348
11.499839544296265,0.05762159451842308,-1.2947463989257812,1.2944982051849365,-0.007259055972099304,0.02872290275990963,0.3480338454246521
11.519996404647827,0.057608503848314285,-1.2947463989257812,1.2945252656936646,-0.007179430685937405,0.028721367940306664,0.3479350507259369
11.540012121200562,0.05758403614163399,-1.2947452068328857,1.2945799827575684,-0.007034233771264553,0.028719181194901466,0.3477349579334259
11.560188055038452,0.057577814906835556,-1.2947436571121216,1.2946059703826904,-0.0069711715914309025,0.02872348390519619,0.3476340174674988
11.580849647521973,0.0575861819088459,-1.2947386503219604,1.2946516275405884,-0.0068562328815460205,0.028749220073223114,0.3474317789077759
11.600934028625488,0.05759861320257187,-1.2947373390197754,1.2946715354919434,-0.006797628942877054,0.028765352442860603,0.3473305106163025
11.621070384979248,0.05762919411063194,-1.2947382926940918,1.2947086095809937,-0.006673671770840883,0.02879427559673786,0.34712839126586914
11.641106367111206,0.05764401704072952,-1.2947392463684082,1.2947274446487427,-0.006607630755752325,0.028806941583752632,0.3470280170440674
11.661174058914185,0.0576598197221756,-1.294742226600647,1.2947680950164795,-0.006473171059042215,0.028826585039496422,0.34682798385620117
11.681265354156494,0.05766276270151138,-1.2947444915771484,1.2947882413864136,-0.006403922103345394,0.028837310150265694,0.34672805666923523
11.701366424560547,0.05766395479440689,-1.2947512865066528,1.2948288917541504,-0.006266777403652668,0.02885768935084343,0.34652772545814514
11.721719026565552,0.05766215920448303,-1.2947555780410767,1.2948487997055054,-0.006193798966705799,0.02886621095240116,0.34642770886421204
11.741816759109497,0.05765702202916145,-1.294765591621399,1.2948883771896362,-0.006052322685718536,0.028882397338747978,0.34622922539711
11.762084007263184,0.05764934420585632,-1.294777750968933,1.2949268817901611,-0.0059107569977641106,0.028896985575556755,0.34603339433670044
11.78222918510437,0.057644009590148926,-1.2947851419448853,1.2949460744857788,-0.005837972741574049,0.028902944177389145,0.34593644738197327
11.80227279663086,0.05763442441821098,-1.294798493385315,1.2949867248535156,-0.005691578611731529,0.028915036469697952,0.34574347734451294
11.822389125823975,0.057625167071819305,-1.2948042154312134,1.2950108051300049,-0.005615191999822855,0.028915904462337494,0.34564700722694397
11.842427492141724,0.057601604610681534,-1.2948135137557983,1.2950642108917236,-0.005472686607390642,0.028911612927913666,0.3454529047012329
11.862521886825562,0.05759023129940033,-1.2948169708251953,1.295092225074768,-0.005403975956141949,0.028909146785736084,0.3453553318977356
11.882671594619751,0.05757180601358414,-1.2948225736618042,1.2951470613479614,-0.005275010131299496,0.028908003121614456,0.34515970945358276
11.902682304382324,0.05756920203566551,-1.2948250770568848,1.2951682806015015,-0.0052115423604846,0.028915051370859146,0.34506237506866455
11.922779321670532,0.057557281106710434,-1.2948336601257324,1.2951974868774414,-0.005073717329651117,0.028927238658070564,0.344867467880249
11.942888498306274,0.0575382336974144,-1.2948505878448486,1.2952064275741577,-0.004928722511976957,0.028939921408891678,0.3446720242500305
11.962970495223999,0.05752689763903618,-1.29486083984375,1.2952107191085815,-0.0048560756258666515,0.028944822028279305,0.34457364678382874
11.983100652694702,0.05751204118132591,-1.294878363609314,1.2952287197113037,-0.004724812228232622,0.028958801180124283,0.3443758189678192
12.003280639648438,0.05751071125268936,-1.294884204864502,1.2952436208724976,-0.0046680946834385395,0.028969435021281242,0.3442765772342682
12.023344993591309,0.05751987546682358,-1.2948875427246094,1.2952802181243896,-0.00457749655470252,0.028999246656894684,0.34407779574394226
12.043784379959106,0.05752474069595337,-1.2948881387710571,1.2953002452850342,-0.0045370436273515224,0.029014015570282936,0.34397852420806885
12.063886165618896,0.05752896890044212,-1.294887900352478,1.295344352722168,-0.004457285162061453,0.029037553817033768,0.34377962350845337
12.08417272567749,0.05752056837081909,-1.2948907613754272,1.2953910827636719,-0.004368023946881294,0.02904939465224743,0.3435801565647125
12.104353427886963,0.05751467123627663,-1.2948925495147705,1.2954148054122925,-0.004323924425989389,0.029053911566734314,0.34348011016845703
12.124512434005737,0.05750027671456337,-1.294897437095642,1.295461654663086,-0.004232683684676886,0.02906131185591221,0.3432804048061371
12.144576072692871,0.05749029293656349,-1.2949002981185913,1.2954857349395752,-0.004182903561741114,0.029062548652291298,0.3431808650493622
12.164639949798584,0.057461488991975784,-1.2949104309082031,1.2955330610275269,-0.004058858845382929,0.029057824984192848,0.34298303723335266
12.184752464294434,0.05744194611907005,-1.2949166297912598,1.2955577373504639,-0.00398872559890151,0.02905072644352913,0.3428843319416046
12.204789400100708,0.057398248463869095,-1.294930338859558,1.295607566833496,-0.0038390883710235357,0.02903243899345398,0.34268778562545776
12.22488260269165,0.057379454374313354,-1.2949362993240356,1.295632004737854,-0.0037697169464081526,0.02902628295123577,0.34259000420570374
12.24494743347168,0.05734850466251373,-1.294946312904358,1.2956796884536743,-0.003629368497058749,0.029020218178629875,0.34239673614501953
12.265023708343506,0.05733675882220268,-1.2949517965316772,1.295701265335083,-0.003558273194357753,0.029021283611655235,0.3423011302947998
12.285110712051392,0.05730525776743889,-1.2949661016464233,1.295744776725769,-0.0034017444122582674,0.02901627868413925,0.3421112895011902
12.305282592773438,0.05727353319525719,-1.2949810028076172,1.2957881689071655,-0.00324845383875072,0.02901141345500946,0.3419225811958313
12.325359582901001,0.05725881829857826,-1.2949869632720947,1.295814871788025,-0.0031772740185260773,0.029007304459810257,0.34182819724082947
12.345442295074463,0.05722847580909729,-1.294994592666626,1.2958773374557495,-0.0030490742065012455,0.028994392603635788,0.3416386842727661
12.365699291229248,0.057214245200157166,-1.294996976852417,1.2959110736846924,-0.002988506341353059,0.028987856581807137,0.34154385328292847
12.385786771774292,0.05717672407627106,-1.295005440711975,1.2959758043289185,-0.002862166380509734,0.02896874025464058,0.3413541913032532
12.405854225158691,0.05714135617017746,-1.2950161695480347,1.2960302829742432,-0.0027366832364350557,0.0289569403976202,0.3411649763584137
12.425949335098267,0.05712467059493065,-1.2950215339660645,1.2960560321807861,-0.0026738091837614775,0.028952382504940033,0.3410705029964447
12.446058511734009,0.0570906326174736,-1.2950341701507568,1.2960965633392334,-0.0025529067497700453,0.02894594706594944,0.34088149666786194
12.466176986694336,0.0570528618991375,-1.2950522899627686,1.2961114645004272,-0.0024285167455673218,0.028943857178092003,0.34069275856018066
12.486269235610962,0.057033367455005646,-1.2950645685195923,1.2961043119430542,-0.0023670645896345377,0.028946654871106148,0.3405984044075012
12.506340503692627,0.05700508505105972,-1.2950854301452637,1.2960906028747559,-0.002245698357000947,0.0289603341370821,0.3404085636138916
12.526466131210327,0.0569952018558979,-1.2950936555862427,1.296088695526123,-0.002188262762501836,0.028968703001737595,0.34031248092651367
12.546588659286499,0.05698404833674431,-1.295103669166565,1.296112298965454,-0.002076942240819335,0.028983458876609802,0.34011805057525635
12.566605567932129,0.056981973350048065,-1.2951120138168335,1.2961457967758179,-0.001963288988918066,0.02900269627571106,0.3399243950843811
12.586698055267334,0.05698108673095703,-1.2951165437698364,1.2961632013320923,-0.0019061524653807282,0.029012348502874374,0.3398284316062927
12.606785774230957,0.05697410926222801,-1.29512619972229,1.296200156211853,-0.0017818573396652937,0.029026435688138008,0.3396378457546234
12.627036094665527,0.0569516196846962,-1.295137882232666,1.2962424755096436,-0.0016521391225978732,0.029025333002209663,0.3394467532634735
12.647119760513306,0.056940652430057526,-1.2951428890228271,1.2962641716003418,-0.0015864968299865723,0.029024895280599594,0.339351624250412
12.66721510887146,0.05691960081458092,-1.2951533794403076,1.296306848526001,-0.0014547518221661448,0.0290254857391119,0.3391626477241516
12.6872878074646,0.05691258981823921,-1.2951580286026,1.296326994895935,-0.0013903520302847028,0.02902941033244133,0.3390689194202423
12.737529993057251,0.05689138546586037,-1.2951719760894775,1.29636549949646,-0.0012474935501813889,0.029031865298748016,0.3388820290565491
12.757609128952026,0.043035101145505905,-1.2978006601333618,1.2958999872207642,-0.002148216590285301,0.02793411910533905,0.3416321575641632
12.777678489685059,0.015802618116140366,-1.3028956651687622,1.2949910163879395,-0.003923816606402397,0.025822807103395462,0.34706389904022217
12.797760725021362,0.0024477671831846237,-1.3053655624389648,1.2945435047149658,-0.004780970513820648,0.024789053946733475,0.34974434971809387
12.817925214767456,-0.02353644371032715,-1.310160756111145,1.2936463356018066,-0.006403717212378979,0.02280288375914097,0.3550325930118561
12.838064908981323,-0.03595109283924103,-1.3124847412109375,1.2931923866271973,-0.0071782562881708145,0.021943379193544388,0.35764187574386597
12.858093976974487,-0.05917596071958542,-1.3169686794281006,1.2922230958938599,-0.008703513070940971,0.0207396000623703,0.36278781294822693
12.87827730178833,-0.06983844190835953,-1.3191101551055908,1.291693925857544,-0.009478621184825897,0.02049810253083706,0.36531952023506165
12.898377180099487,-0.08932521939277649,-1.323150873184204,1.2905237674713135,-0.011028802953660488,0.020739145576953888,0.37027883529663086
12.91864013671875,-0.10633090883493423,-1.3268285989761353,1.289171814918518,-0.012581618502736092,0.022020094096660614,0.3750753700733185
12.938744068145752,-0.11393313854932785,-1.3285293579101562,1.288426160812378,-0.013349821791052818,0.023043371737003326,0.3774036467075348
12.958799362182617,-0.1275995671749115,-1.3316744565963745,1.2868285179138184,-0.014825244434177876,0.02574746124446392,0.38190990686416626
12.978907346725464,-0.133823424577713,-1.3331254720687866,1.286004900932312,-0.015505781397223473,0.027358638122677803,0.38408607244491577
12.998965978622437,-0.14537902176380157,-1.3357948064804077,1.2843916416168213,-0.01675071008503437,0.031014978885650635,0.38829851150512695
13.01905083656311,-0.15095818042755127,-1.3370102643966675,1.2836438417434692,-0.017295515164732933,0.03295391425490379,0.3903416097164154
13.039136171340942,-0.16199491918087006,-1.3392260074615479,1.2824333906173706,-0.018183564767241478,0.0368524007499218,0.3943139612674713
13.059291124343872,-0.16754713654518127,-1.3402408361434937,1.2819806337356567,-0.018520882353186607,0.03874415531754494,0.39624765515327454
13.079322338104248,-0.17861686646938324,-1.3421260118484497,1.2812676429748535,-0.018976951017975807,0.0424102284014225,0.4000222980976105
13.099579334259033,-0.1841128170490265,-1.3430095911026,1.280985951423645,-0.01911088265478611,0.044196657836437225,0.4018690884113312
13.119716882705688,-0.19508352875709534,-1.344686508178711,1.2805001735687256,-0.019177990034222603,0.04762161523103714,0.40548989176750183
13.139944076538086,-0.2059432864189148,-1.3462822437286377,1.2800389528274536,-0.018937643617391586,0.05082126706838608,0.4090183675289154
13.160043478012085,-0.2112448513507843,-1.347060203552246,1.2797839641571045,-0.018720712512731552,0.05237382650375366,0.41075098514556885
13.180123567581177,-0.2212534099817276,-1.3485773801803589,1.2792068719863892,-0.018212126567959785,0.05565307289361954,0.41415879130363464
13.200217485427856,-0.22588342428207397,-1.3493114709854126,1.2788981199264526,-0.017945487052202225,0.057437457144260406,0.41583460569381714
13.22032356262207,-0.234239399433136,-1.3507153987884521,1.2783089876174927,-0.01744413934648037,0.06143515557050705,0.4191308319568634
13.240406036376953,-0.23793494701385498,-1.3513782024383545,1.2780120372772217,-0.017206575721502304,0.06365437805652618,0.42074835300445557
13.26067852973938,-0.24455738067626953,-1.352630853652954,1.277449131011963,-0.016753707081079483,0.06844750791788101,0.42392340302467346
13.281038522720337,-0.25029635429382324,-1.3537641763687134,1.2769700288772583,-0.016346530988812447,0.07370487600564957,0.42702990770339966
13.30112886428833,-0.2530444264411926,-1.354289174079895,1.2767813205718994,-0.016102226451039314,0.07637421786785126,0.42855769395828247
13.32121205329895,-0.25839975476264954,-1.3552769422531128,1.2764918804168701,-0.015506702475249767,0.08168677985668182,0.4315616190433502
13.341398000717163,-0.2610675096511841,-1.3557523488998413,1.2763721942901611,-0.015136019326746464,0.08426171541213989,0.4330350458621979
13.361485481262207,-0.2665069103240967,-1.3566850423812866,1.2761352062225342,-0.014248529449105263,0.08915811777114868,0.43592211604118347
13.38153624534607,-0.272071897983551,-1.3576160669326782,1.2759594917297363,-0.013205556198954582,0.09375564008951187,0.43874073028564453
13.40162205696106,-0.2748619616031647,-1.3580877780914307,1.2759058475494385,-0.012633475475013256,0.09597358852624893,0.44012922048568726
13.421753406524658,-0.2801744341850281,-1.3590538501739502,1.2759201526641846,-0.011414267122745514,0.1004069522023201,0.44287699460983276
13.44193434715271,-0.2825934588909149,-1.3595401048660278,1.2759735584259033,-0.010785061866044998,0.10268665105104446,0.44423675537109375
13.462079286575317,-0.28695887327194214,-1.360515832901001,1.2761330604553223,-0.009503940120339394,0.10737387090921402,0.44691988825798035
13.482450485229492,-0.2905620038509369,-1.3614752292633057,1.276237964630127,-0.00827082246541977,0.11235582083463669,0.44954219460487366
13.50267481803894,-0.29207128286361694,-1.3619464635849,1.276250958442688,-0.007665557786822319,0.1149602085351944,0.45082804560661316
13.522642850875854,-0.2946801483631134,-1.362860918045044,1.276179552078247,-0.006463269237428904,0.12035400420427322,0.4533517360687256
13.542718172073364,-0.2958654761314392,-1.3633038997650146,1.2761129140853882,-0.005858100485056639,0.12310817837715149,0.4545919895172119
13.562923669815063,-0.29820653796195984,-1.36416494846344,1.2759307622909546,-0.004643148742616177,0.1286335587501526,0.4570348262786865
13.582950353622437,-0.29944977164268494,-1.3645919561386108,1.2758392095565796,-0.004017655272036791,0.13133904337882996,0.4582394063472748
13.60312271118164,-0.3022076189517975,-1.3654634952545166,1.2756882905960083,-0.0027050587814301252,0.13651253283023834,0.4606180489063263
13.623268842697144,-0.303720086812973,-1.3659144639968872,1.2756401300430298,-0.00200247042812407,0.13894951343536377,0.4617913067340851
13.643674612045288,-0.3053203225135803,-1.3663811683654785,1.2756239175796509,-0.0012674371246248484,0.14129027724266052,0.4629564881324768
13.663816452026367,-0.30872082710266113,-1.367366909980774,1.275630235671997,0.0002907782909460366,0.14567318558692932,0.46525582671165466
13.684260368347168,-0.3121643662452698,-1.368428349494934,1.2756980657577515,0.001908387872390449,0.14980149269104004,0.46751669049263
13.704370260238647,-0.3137190639972687,-1.3689765930175781,1.2757306098937988,0.002709882566705346,0.1518852263689041,0.4686325192451477
13.72442102432251,-0.3163350224494934,-1.3700865507125854,1.275786280632019,0.004289544187486172,0.15619990229606628,0.47083601355552673
13.744521379470825,-0.31732645630836487,-1.3706364631652832,1.2758092880249023,0.0050661759451031685,0.15847629308700562,0.47192248702049255
13.764583110809326,-0.3187602162361145,-1.3717104196548462,1.2758574485778809,0.006595521233975887,0.1632622480392456,0.47406232357025146
13.78475022315979,-0.3197113275527954,-1.3727519512176514,1.2759474515914917,0.008067089132964611,0.16828680038452148,0.476157546043396
13.804886102676392,-0.3200644850730896,-1.3732548952102661,1.2760127782821655,0.008792405016720295,0.17086943984031677,0.4771905541419983
13.824951887130737,-0.3208664357662201,-1.3742536306381226,1.276214361190796,0.01028087455779314,0.17595680058002472,0.4792279303073883
13.845067024230957,-0.3213343322277069,-1.37474524974823,1.2763285636901855,0.01104273833334446,0.17844727635383606,0.48023277521133423
13.865155935287476,-0.32265505194664,-1.3757398128509521,1.2765580415725708,0.012653045356273651,0.18315452337265015,0.48221859335899353
13.885228395462036,-0.32449719309806824,-1.376753568649292,1.2767248153686523,0.014351754449307919,0.18745581805706024,0.484173059463501
13.9053213596344,-0.32560044527053833,-1.3772797584533691,1.2768021821975708,0.015244666486978531,0.18943847715854645,0.485140323638916
13.925399780273438,-0.3281376361846924,-1.3784022331237793,1.2769815921783447,0.017095521092414856,0.19306407868862152,0.4870576858520508
13.94560956954956,-0.330766886472702,-1.3796265125274658,1.277247428894043,0.018970221281051636,0.1964234709739685,0.4889567196369171
13.965697765350342,-0.3319598436355591,-1.3802692890167236,1.2774163484573364,0.019900314509868622,0.19809876382350922,0.4899013340473175
13.985786437988281,-0.33396393060684204,-1.3815960884094238,1.2778301239013672,0.021721063181757927,0.2015509158372879,0.49178004264831543
14.006155490875244,-0.3353934586048126,-1.3829286098480225,1.2782622575759888,0.023457728326320648,0.20524582266807556,0.49364036321640015
14.026256084442139,-0.33594703674316406,-1.3835827112197876,1.2784675359725952,0.024299491196870804,0.2071734070777893,0.49456241726875305
14.046324729919434,-0.33676090836524963,-1.3848410844802856,1.278784155845642,0.025917569175362587,0.21119047701358795,0.4963817000389099
14.066381931304932,-0.33707815408706665,-1.3854470252990723,1.278904914855957,0.026713630184531212,0.21324382722377777,0.4972780644893646
14.086493968963623,-0.33762145042419434,-1.3866219520568848,1.2791130542755127,0.02829752489924431,0.2173358052968979,0.49903684854507446
14.106549978256226,-0.33812540769577026,-1.3877681493759155,1.27934992313385,0.02993820421397686,0.22131159901618958,0.5007496476173401
14.126633644104004,-0.33840861916542053,-1.3883472681045532,1.2794967889785767,0.03079337254166603,0.22322429716587067,0.5015910863876343
14.14669680595398,-0.3390921950340271,-1.3895477056503296,1.2798928022384644,0.03254913166165352,0.2269112765789032,0.5032522082328796
14.166781187057495,-0.3395511507987976,-1.39017653465271,1.28013277053833,0.03344915062189102,0.22866016626358032,0.5040757060050964
14.18687105178833,-0.34064990282058716,-1.3914711475372314,1.2806942462921143,0.03526335954666138,0.23201017081737518,0.5057140588760376
14.206931114196777,-0.341973215341568,-1.392789363861084,1.2812645435333252,0.03710657358169556,0.23513367772102356,0.5073381662368774
14.227039575576782,-0.34268662333488464,-1.3934608697891235,1.2815508842468262,0.03803378343582153,0.23661622405052185,0.5081430673599243
14.247102737426758,-0.34410226345062256,-1.3948270082473755,1.2821099758148193,0.039880186319351196,0.2395091950893402,0.5097402930259705
14.267421007156372,-0.34538957476615906,-1.3962174654006958,1.2826350927352905,0.04170365631580353,0.24235840141773224,0.5113163590431213
14.287522315979004,-0.3459397852420807,-1.3969146013259888,1.2828482389450073,0.0426039882004261,0.24380366504192352,0.512097954750061
14.307566404342651,-0.34683042764663696,-1.3983043432235718,1.2832005023956299,0.04437298700213432,0.24675093591213226,0.5136458277702332
14.327746629714966,-0.3471600413322449,-1.3989887237548828,1.2833495140075684,0.04524100199341774,0.24827547371387482,0.514413058757782
14.347768068313599,-0.34756898880004883,-1.4003134965896606,1.2836921215057373,0.046924933791160583,0.2514518201351166,0.5159299969673157
14.367897033691406,-0.3477831482887268,-1.4015800952911377,1.2841176986694336,0.04857143014669418,0.2546978294849396,0.5174164175987244
14.387993812561035,-0.3478553593158722,-1.4022066593170166,1.2843483686447144,0.049405183643102646,0.2562994658946991,0.5181460380554199
14.4080650806427,-0.348062664270401,-1.4034698009490967,1.284831166267395,0.05113585293292999,0.2593778073787689,0.5195846557617188
14.428147554397583,-0.3482280969619751,-1.4041093587875366,1.2850717306137085,0.052013471722602844,0.26085221767425537,0.5202945470809937
14.448224544525146,-0.34870433807373047,-1.4054063558578491,1.285598874092102,0.053797397762537,0.26366257667541504,0.5217007994651794
14.468319654464722,-0.3490467667579651,-1.4060636758804321,1.2858822345733643,0.05468584597110748,0.26498693227767944,0.5223947763442993
14.488407373428345,-0.34985142946243286,-1.4073938131332397,1.2864762544631958,0.056453581899404526,0.2675118148326874,0.5237618088722229
14.50852632522583,-0.3508319556713104,-1.408739447593689,1.2870417833328247,0.05825207382440567,0.2698710858821869,0.5251091122627258
14.52861738204956,-0.35132136940956116,-1.409421682357788,1.2873128652572632,0.05915369838476181,0.2710338234901428,0.5257792472839355
14.548744916915894,-0.352261483669281,-1.4108163118362427,1.287899136543274,0.06093483045697212,0.27332091331481934,0.5271098017692566
