liuyurong129/humanoid-gym/humanoid/data/target_q_20250523-025738.csv
timestamp,joint_1,joint_2,joint_3,joint_4,joint_5,joint_6
7.271766662597656e-05,0.0,0.0,0.0,0.0,0.0,0.0
0.02014303207397461,0.0,0.0,0.0,0.0,0.0,0.0
0.04021453857421875,0.0,0.0,0.0,0.0,0.0,0.0
0.06029224395751953,0.0,0.0,0.0,0.0,0.0,0.0
0.08036065101623535,0.0,0.0,0.0,0.0,0.0,0.0
0.10065031051635742,-0.04877319559454918,-0.21898692846298218,0.3782716393470764,0.1834980845451355,0.20998384058475494,0.33710402250289917
0.12073969841003418,-0.09416826069355011,-0.1222226694226265,0.358102023601532,0.22188465297222137,0.2524998188018799,0.3664822280406952
0.1408548355102539,-0.07746044546365738,-0.15724554657936096,0.32604292035102844,0.2105635553598404,0.20997266471385956,0.36553120613098145
0.1609513759613037,-0.07465659081935883,-0.15489594638347626,0.3407525420188904,0.213686004281044,0.22069065272808075,0.366649866104126
0.18100523948669434,-0.07306323945522308,-0.16468767821788788,0.3390056788921356,0.21429164707660675,0.22408901154994965,0.3669561743736267
0.2010514736175537,-0.07536269724369049,-0.15595166385173798,0.36741673946380615,0.21712137758731842,0.23865459859371185,0.3662503957748413
0.2212371826171875,-0.07755425572395325,-0.1600317806005478,0.3576173186302185,0.21586038172245026,0.22289042174816132,0.3657822608947754
0.24136018753051758,-0.07682377099990845,-0.1627800315618515,0.3572300672531128,0.2171052247285843,0.2226606160402298,0.36690670251846313
0.2614283561706543,-0.07832241803407669,-0.167451873421669,0.35677510499954224,0.21904256939888,0.2081177979707718,0.3676254153251648
0.2816016674041748,-0.07683208584785461,-0.16176636517047882,0.37621742486953735,0.2145736962556839,0.23651857674121857,0.36412742733955383
0.3017151355743408,-0.0761091411113739,-0.1695791333913803,0.36275213956832886,0.21354703605175018,0.23145373165607452,0.3651490807533264
0.3217296600341797,-0.07734408974647522,-0.16670042276382446,0.3652713894844055,0.21868079900741577,0.2237299233675003,0.36798179149627686
0.34180641174316406,-0.07680825889110565,-0.18003642559051514,0.3531002402305603,0.2192426472902298,0.20896892249584198,0.3687674403190613
0.36185717582702637,-0.07632814347743988,-0.17411711812019348,0.3674262762069702,0.21935515105724335,0.2242707759141922,0.3681188225746155
0.38194966316223145,-0.07832220196723938,-0.17438755929470062,0.37396466732025146,0.2172384113073349,0.22730575501918793,0.3658710718154907
0.4020388126373291,-0.07776396721601486,-0.1759553700685501,0.37877869606018066,0.2168268859386444,0.23282618820667267,0.3660712242126465
0.42235469818115234,-0.07800960540771484,-0.17961104214191437,0.3754008412361145,0.2174881100654602,0.22802557051181793,0.36695894598960876
0.442446231842041,-0.07880688458681107,-0.1875992864370346,0.3606818914413452,0.22288267314434052,0.2094702273607254,0.3707692623138428
0.46253085136413574,-0.07975860685110092,-0.1882762759923935,0.36545637249946594,0.2236240953207016,0.20971564948558807,0.371523916721344
0.48282527923583984,-0.07793272286653519,-0.1946934312582016,0.35846805572509766,0.22376106679439545,0.2091309279203415,0.37278348207473755
0.5029206275939941,-0.0802481472492218,-0.18039198219776154,0.3956543803215027,0.21815897524356842,0.24204935133457184,0.3663560152053833
0.5229918956756592,-0.07479119300842285,-0.19286136329174042,0.3839150667190552,0.21874144673347473,0.24523083865642548,0.3697383403778076
0.5431313514709473,-0.08171522617340088,-0.1947404444217682,0.3681941628456116,0.2247324138879776,0.20836444199085236,0.37312713265419006
0.5631918907165527,-0.08035776019096375,-0.2039630264043808,0.36014559864997864,0.22429130971431732,0.20175372064113617,0.3735356032848358
0.5832474231719971,-0.08124814927577972,-0.20908989012241364,0.3578743040561676,0.22601361572742462,0.19440077245235443,0.3743743598461151
0.6034018993377686,-0.07751935720443726,-0.19715268909931183,0.39720845222473145,0.21900703012943268,0.2506372332572937,0.3680196702480316
0.6234378814697266,-0.07806191593408585,-0.20305447280406952,0.39348042011260986,0.22038744390010834,0.238441601395607,0.3693526089191437
0.6434834003448486,-0.07717962563037872,-0.2120010107755661,0.3844444751739502,0.22083258628845215,0.23632241785526276,0.37067025899887085
0.6636862754821777,-0.0790480300784111,-0.216440811753273,0.36719560623168945,0.2265702486038208,0.20867355167865753,0.3742983639240265
0.6836798191070557,-0.07994583994150162,-0.21895401179790497,0.377963662147522,0.2287014275789261,0.21553866565227509,0.3748294413089752
0.7049953937530518,-0.08113184571266174,-0.21852995455265045,0.3834201693534851,0.2290717214345932,0.21166841685771942,0.3749324083328247
0.7250754833221436,-0.07976924628019333,-0.22221003472805023,0.3935747742652893,0.22544680535793304,0.22951708734035492,0.37238603830337524
0.7451348304748535,-0.07714775204658508,-0.2232365757226944,0.39883169531822205,0.22379633784294128,0.2446526139974594,0.37217339873313904
0.7652590274810791,-0.08055584877729416,-0.22806526720523834,0.38603729009628296,0.22970157861709595,0.21686245501041412,0.37559014558792114
0.7853937149047852,-0.08079084753990173,-0.2318030744791031,0.3903425931930542,0.23124907910823822,0.21593071520328522,0.37643855810165405
0.8057022094726562,-0.08111755549907684,-0.24246563017368317,0.37397611141204834,0.23087002336978912,0.20111490786075592,0.3775936961174011
0.8258509635925293,-0.07941093295812607,-0.2317073494195938,0.40555018186569214,0.22559969127178192,0.23572690784931183,0.3723902702331543
0.8458993434906006,-0.07741090655326843,-0.23627254366874695,0.408523291349411,0.2261052280664444,0.24385638535022736,0.3728904724121094
0.8662614822387695,-0.07811965048313141,-0.2409459799528122,0.41360366344451904,0.2282518893480301,0.249821737408638,0.37435823678970337
0.8863527774810791,-0.08322422951459885,-0.2486688643693924,0.38512033224105835,0.2337161749601364,0.20203351974487305,0.37833452224731445
0.9064188003540039,-0.08422674238681793,-0.24881310760974884,0.3941050171852112,0.2346625179052353,0.2065763622522354,0.37874287366867065
0.9265999794006348,-0.08075754344463348,-0.24655096232891083,0.41449421644210815,0.2290017157793045,0.2401740401983261,0.37392520904541016
0.9466941356658936,-0.08558210730552673,-0.24280159175395966,0.43384110927581787,0.23035727441310883,0.2369607836008072,0.37264978885650635
0.9671981334686279,-0.08332032710313797,-0.24669091403484344,0.43450313806533813,0.2302122563123703,0.2426537424325943,0.3738510012626648
0.9873816967010498,-0.08317025005817413,-0.2616504728794098,0.40230703353881836,0.23945485055446625,0.20493850111961365,0.38140207529067993
1.007420539855957,-0.08334094285964966,-0.26931315660476685,0.393615186214447,0.2395188957452774,0.19456778466701508,0.3819417953491211
1.0277924537658691,-0.08387228101491928,-0.2656017243862152,0.40819281339645386,0.24143607914447784,0.20472095906734467,0.3816646635532379
1.0479152202606201,-0.08298252522945404,-0.25955525040626526,0.4391314387321472,0.23174452781677246,0.24370567500591278,0.37423402070999146
1.068026065826416,-0.08126915991306305,-0.25955304503440857,0.4474509656429291,0.22973953187465668,0.2585579752922058,0.374099463224411
1.088383436203003,-0.08546914905309677,-0.27930256724357605,0.402748703956604,0.24362178146839142,0.1954095959663391,0.38403284549713135
1.1085121631622314,-0.08434741944074631,-0.2812736928462982,0.4081205427646637,0.24289877712726593,0.19923032820224762,0.3836669325828552
1.1285581588745117,-0.08587172627449036,-0.28327038884162903,0.41172876954078674,0.2424217015504837,0.19988365471363068,0.3833971321582794
1.1486406326293945,-0.07974260300397873,-0.27599379420280457,0.4476175308227539,0.234162375330925,0.25784194469451904,0.378717303276062
1.1687171459197998,-0.08023510873317719,-0.2811271846294403,0.4473213851451874,0.2342265099287033,0.2500309944152832,0.3787005543708801
1.1888225078582764,-0.08406682312488556,-0.28052377700805664,0.4557589888572693,0.2349785715341568,0.2469303458929062,0.3778824210166931
1.2089171409606934,-0.08627787232398987,-0.2984566390514374,0.41723936796188354,0.24637778103351593,0.1968047171831131,0.3861241340637207
1.229013204574585,-0.08399948477745056,-0.30557215213775635,0.41539180278778076,0.24699489772319794,0.1951986700296402,0.3875805735588074
1.2490379810333252,-0.08490438759326935,-0.31117740273475647,0.41585421562194824,0.2491040974855423,0.19389672577381134,0.3886595368385315
1.2691280841827393,-0.08589101582765579,-0.29196861386299133,0.46362394094467163,0.2361476570367813,0.23751716315746307,0.37786176800727844
1.2893211841583252,-0.08293015509843826,-0.2958589196205139,0.4679161310195923,0.23897580802440643,0.24556086957454681,0.3795187771320343
1.309363842010498,-0.08277808129787445,-0.3024026155471802,0.4671916961669922,0.23899446427822113,0.24927805364131927,0.3802470564842224
1.3294999599456787,-0.08766428381204605,-0.3188367784023285,0.4268508553504944,0.2505829632282257,0.1900300830602646,0.388400137424469
1.3495380878448486,-0.08702030032873154,-0.316410630941391,0.4404141902923584,0.2510347068309784,0.20345941185951233,0.3878624439239502
1.3696441650390625,-0.08481647074222565,-0.31910213828086853,0.44928351044654846,0.2497718781232834,0.2190617173910141,0.38809460401535034
1.389723777770996,-0.08499319851398468,-0.31342843174934387,0.4689813256263733,0.24395321309566498,0.23670105636119843,0.3833622634410858
1.4098970890045166,-0.08468780666589737,-0.31195542216300964,0.47813791036605835,0.24128837883472443,0.245797261595726,0.3822033107280731
1.4303219318389893,-0.08423498272895813,-0.31922462582588196,0.47646886110305786,0.2435542792081833,0.23678918182849884,0.38309407234191895
1.4504826068878174,-0.08485269546508789,-0.3416394889354706,0.4275118410587311,0.25143033266067505,0.19188734889030457,0.389923632144928
1.4705557823181152,-0.08858140558004379,-0.3331618010997772,0.452035516500473,0.2542877793312073,0.19967229664325714,0.38861143589019775
1.4906251430511475,-0.08584394305944443,-0.33043596148490906,0.4749312996864319,0.2461196929216385,0.2337781935930252,0.3834109902381897
1.5107297897338867,-0.08542266488075256,-0.3257129490375519,0.49091804027557373,0.24518759548664093,0.2450508326292038,0.3824167549610138
1.5308377742767334,-0.08505939692258835,-0.33519819378852844,0.483217716217041,0.24389226734638214,0.2386837750673294,0.38388732075691223
1.55096435546875,-0.08646838366985321,-0.345194935798645,0.4627581834793091,0.25867587327957153,0.21109096705913544,0.3931911587715149
1.5709874629974365,-0.08621726930141449,-0.36035242676734924,0.44765132665634155,0.25814002752304077,0.19730214774608612,0.3942301869392395
1.5910487174987793,-0.08274035155773163,-0.3682653605937958,0.44194290041923523,0.2598908841609955,0.20026519894599915,0.3961939811706543
1.6111385822296143,-0.0873449519276619,-0.33961978554725647,0.5034145712852478,0.24596570432186127,0.24820436537265778,0.3833966851234436
1.6312894821166992,-0.08973844349384308,-0.3426748812198639,0.5082594156265259,0.24828504025936127,0.24054796993732452,0.3834797143936157
1.6514744758605957,-0.0873885452747345,-0.34360799193382263,0.520375669002533,0.2500656545162201,0.2539406418800354,0.38513273000717163
1.6716265678405762,-0.08655912429094315,-0.36950209736824036,0.4732087254524231,0.26423248648643494,0.21097390353679657,0.3968051075935364
1.6917479038238525,-0.08664719760417938,-0.37875130772590637,0.4636591672897339,0.2638077437877655,0.20055724680423737,0.39602795243263245
1.7118744850158691,-0.0871865525841713,-0.3643461763858795,0.49632948637008667,0.25301313400268555,0.22880692780017853,0.3879300355911255
1.7319650650024414,-0.08764855563640594,-0.3721309006214142,0.4882346987724304,0.25638988614082336,0.21634729206562042,0.39009547233581543
1.752025842666626,-0.08924423158168793,-0.36643755435943604,0.5070140361785889,0.25795236229896545,0.2292584329843521,0.38917088508605957
1.7721166610717773,-0.08926712721586227,-0.39159679412841797,0.46131348609924316,0.2654062807559967,0.18443500995635986,0.3961905539035797
1.7921974658966064,-0.08752135932445526,-0.3887558877468109,0.47349852323532104,0.2668690085411072,0.2012268304824829,0.3970543146133423
1.8122751712799072,-0.08743781596422195,-0.3921680748462677,0.4785926342010498,0.26863157749176025,0.20320408046245575,0.3988279700279236
1.8323760032653809,-0.09148537367582321,-0.37049195170402527,0.521075427532196,0.2595003843307495,0.2308947890996933,0.3895706534385681
1.8524351119995117,-0.08968590945005417,-0.37670668959617615,0.5174182653427124,0.26128941774368286,0.23169384896755219,0.3915834426879883
1.8725063800811768,-0.09109053760766983,-0.38227739930152893,0.5119206309318542,0.26185178756713867,0.22396855056285858,0.3931545615196228
1.8926050662994385,-0.08802556991577148,-0.3930249512195587,0.4977778196334839,0.2706231474876404,0.21869762241840363,0.4005763530731201
1.912665605545044,-0.08980828523635864,-0.40220269560813904,0.48549169301986694,0.27111437916755676,0.2002800554037094,0.40092870593070984
1.932856798171997,-0.08967529982328415,-0.40310943126678467,0.4905414581298828,0.2726452946662903,0.20021437108516693,0.40144962072372437
1.9528663158416748,-0.08722314238548279,-0.3877493441104889,0.5272506475448608,0.2625129818916321,0.2464996725320816,0.3938051462173462
1.9729349613189697,-0.08715064078569412,-0.39490392804145813,0.5229260325431824,0.2639140188694,0.2421826869249344,0.39548224210739136
1.9929893016815186,-0.08503641188144684,-0.3961237370967865,0.5307729244232178,0.26403921842575073,0.2563169598579407,0.39551714062690735
2.0130791664123535,-0.09608110785484314,-0.41021573543548584,0.4980735778808594,0.27492350339889526,0.1905830055475235,0.4013993740081787
2.033341407775879,-0.09610916674137115,-0.40535232424736023,0.515335738658905,0.2740374803543091,0.20489759743213654,0.3997991681098938
2.0532894134521484,-0.09485848248004913,-0.41121044754981995,0.5142762064933777,0.27287179231643677,0.2108715921640396,0.40026623010635376
2.073399066925049,-0.08667030930519104,-0.4189600348472595,0.5081535577774048,0.2699041962623596,0.2268277257680893,0.4014761745929718
2.0934550762176514,-0.09113038331270218,-0.42444175481796265,0.5104411840438843,0.27498680353164673,0.21659846603870392,0.40340912342071533
2.1135730743408203,-0.09593118727207184,-0.42620849609375,0.5047884583473206,0.2733590006828308,0.20022468268871307,0.4019154906272888
2.133669376373291,-0.09750745445489883,-0.42332223057746887,0.5131616592407227,0.2742496132850647,0.20294569432735443,0.4005134403705597
2.1537299156188965,-0.0975886881351471,-0.42065948247909546,0.5300799608230591,0.27510547637939453,0.21393658220767975,0.399414598941803
2.173872947692871,-0.09103678166866302,-0.4401145875453949,0.5041212439537048,0.27881479263305664,0.20794694125652313,0.40583404898643494
2.193993091583252,-0.09576578438282013,-0.42880964279174805,0.5342828035354614,0.28244340419769287,0.21541611850261688,0.40572112798690796
2.2140491008758545,-0.0935380756855011,-0.43595626950263977,0.5262218117713928,0.27861288189888,0.21846021711826324,0.405701220035553
2.2341299057006836,-0.09845004230737686,-0.4293152987957001,0.5410028100013733,0.280562162399292,0.21317248046398163,0.4037776589393616
2.254199743270874,-0.09230926632881165,-0.43509143590927124,0.5382772088050842,0.2761684060096741,0.23350585997104645,0.4039570093154907
2.2742574214935303,-0.09473948180675507,-0.4408091604709625,0.5386393666267395,0.27846547961235046,0.22510801255702972,0.4050697684288025
2.2943592071533203,-0.09856569766998291,-0.4494047462940216,0.5242270231246948,0.28662216663360596,0.1970238834619522,0.4101782441139221
2.3144381046295166,-0.10161012411117554,-0.4483517110347748,0.5331039428710938,0.2886325716972351,0.19509360194206238,0.4118521809577942
2.3345260620117188,-0.09951980412006378,-0.4465566575527191,0.5455140471458435,0.2879907786846161,0.2133704572916031,0.411243200302124
2.354924201965332,-0.09082023799419403,-0.44088977575302124,0.5651825666427612,0.2830859422683716,0.25236737728118896,0.4096244275569916
2.3750152587890625,-0.08946716785430908,-0.437202513217926,0.5786296725273132,0.2792283594608307,0.26883167028427124,0.40633144974708557
2.395068407058716,-0.09237872064113617,-0.4589204490184784,0.5476924777030945,0.28190553188323975,0.23490507900714874,0.4099073112010956
2.4152491092681885,-0.10188113152980804,-0.46306535601615906,0.5355042815208435,0.2902494966983795,0.2013731747865677,0.4133075773715973
2.4352991580963135,-0.10207246243953705,-0.4668901562690735,0.5375099778175354,0.29122859239578247,0.2035292536020279,0.41488832235336304
2.4552624225616455,-0.10196880251169205,-0.463317334651947,0.5531541705131531,0.29250335693359375,0.2119622677564621,0.4148035943508148
2.47536039352417,-0.09480378031730652,-0.47191122174263,0.543727695941925,0.28782761096954346,0.22850944101810455,0.41447263956069946
2.495452642440796,-0.09427574276924133,-0.4755946695804596,0.5451036691665649,0.2879835367202759,0.23143340647220612,0.4158235788345337
2.5155763626098633,-0.09534458816051483,-0.4750232994556427,0.5511844158172607,0.2892678380012512,0.23691989481449127,0.4167766571044922
2.535604953765869,-0.10559052228927612,-0.4805803596973419,0.5418145060539246,0.2956749200820923,0.19688232243061066,0.41804277896881104
2.5557336807250977,-0.10347738116979599,-0.48412811756134033,0.5437647104263306,0.29732030630111694,0.20498235523700714,0.41975194215774536
2.5758187770843506,-0.09893161058425903,-0.47459888458251953,0.5669594407081604,0.2916056513786316,0.23617355525493622,0.41719120740890503
2.5959813594818115,-0.09606233239173889,-0.47718796133995056,0.5690887570381165,0.29021507501602173,0.24612189829349518,0.41800427436828613
2.616058349609375,-0.09771115332841873,-0.4780931770801544,0.5749463438987732,0.295082688331604,0.24378632009029388,0.4211709499359131
2.6360971927642822,-0.10651613026857376,-0.48230960965156555,0.5663323402404785,0.3003312349319458,0.21556426584720612,0.4221555292606354
2.6561694145202637,-0.10918950289487839,-0.4847910702228546,0.5679852366447449,0.30161553621292114,0.20974309742450714,0.42345666885375977
2.6762242317199707,-0.10649808496236801,-0.485427588224411,0.5721381902694702,0.29823118448257446,0.22563864290714264,0.4230971038341522
2.6963629722595215,-0.10140291601419449,-0.4988514482975006,0.5593018531799316,0.3018452823162079,0.22996486723423004,0.42791128158569336
2.716416835784912,-0.10033171623945236,-0.5015235543251038,0.5585389137268066,0.3022874593734741,0.23448611795902252,0.428408145904541
2.7364704608917236,-0.1046663299202919,-0.5019396543502808,0.5651140809059143,0.3053005337715149,0.22480101883411407,0.42907941341400146
2.7565853595733643,-0.10863351821899414,-0.501025915145874,0.5688987374305725,0.3036608099937439,0.21284715831279755,0.42727935314178467
2.776655673980713,-0.10929703712463379,-0.500922441482544,0.5756897330284119,0.3064412772655487,0.21829931437969208,0.4294396638870239
2.7976865768432617,-0.10734313726425171,-0.5070146918296814,0.5702282190322876,0.30725330114364624,0.2179618924856186,0.43174827098846436
2.8177809715270996,-0.10447144508361816,-0.5083222985267639,0.5703331232070923,0.3051769733428955,0.23095659911632538,0.43197935819625854
2.8378875255584717,-0.10619961470365524,-0.5143551230430603,0.5708640813827515,0.30970585346221924,0.2240074723958969,0.43485838174819946
2.8579442501068115,-0.10330250859260559,-0.5207617282867432,0.5665358304977417,0.3089138865470886,0.23457877337932587,0.43766236305236816
2.8780407905578613,-0.11385145783424377,-0.5142094492912292,0.577742874622345,0.31227385997772217,0.21291594207286835,0.4356593191623688
2.8981518745422363,-0.11204323172569275,-0.520280659198761,0.5721797943115234,0.3117046356201172,0.21573875844478607,0.4364311695098877
2.918280839920044,-0.10709146410226822,-0.5231930613517761,0.5768737196922302,0.31115931272506714,0.23208637535572052,0.43920302391052246
2.9383513927459717,-0.11013257503509521,-0.5220368504524231,0.5807090997695923,0.31497126817703247,0.22662876546382904,0.44082745909690857
2.958444356918335,-0.1076059639453888,-0.5290889739990234,0.5725495219230652,0.31505125761032104,0.23028595745563507,0.44194114208221436
2.9785566329956055,-0.10919040441513062,-0.5309615731239319,0.5779162049293518,0.3178793787956238,0.23284144699573517,0.4443420171737671
2.9986844062805176,-0.11542905867099762,-0.5265291333198547,0.588655948638916,0.3212451636791229,0.22327132523059845,0.4440540373325348
3.0187251567840576,-0.11511330306529999,-0.5229446291923523,0.5981356501579285,0.3222172260284424,0.23165656626224518,0.44436174631118774
3.038834810256958,-0.11283920705318451,-0.5372756123542786,0.5745155811309814,0.32341283559799194,0.2259608954191208,0.4465351104736328
3.0590298175811768,-0.10998063534498215,-0.5371844172477722,0.5826064944267273,0.32297685742378235,0.24289025366306305,0.4477699398994446
3.07938289642334,-0.11476459354162216,-0.5392111539840698,0.5865258574485779,0.3277125358581543,0.23145867884159088,0.45027753710746765
3.099557876586914,-0.11509422957897186,-0.5377718806266785,0.589668333530426,0.32554346323013306,0.23247604072093964,0.44877105951309204
3.119635581970215,-0.11800354719161987,-0.5390716791152954,0.5900028944015503,0.32793810963630676,0.22926653921604156,0.44934165477752686
3.1396725177764893,-0.11326731741428375,-0.5483227968215942,0.5819537043571472,0.3297579884529114,0.23775450885295868,0.45342278480529785
3.1597740650177,-0.11273984611034393,-0.5464122891426086,0.5880102515220642,0.32987260818481445,0.2538229823112488,0.45342105627059937
3.1798489093780518,-0.11353598535060883,-0.5526319146156311,0.5826043486595154,0.33303552865982056,0.2469637542963028,0.45586544275283813
3.1999335289001465,-0.12197113037109375,-0.5426720976829529,0.5968809127807617,0.33403387665748596,0.2345566600561142,0.4524259567260742
3.220046281814575,-0.12028555572032928,-0.5489476919174194,0.5924655795097351,0.3358469009399414,0.23431496322155,0.45566481351852417
3.2401087284088135,-0.1224813163280487,-0.5498527884483337,0.5926308035850525,0.33836787939071655,0.23392389714717865,0.4566194415092468
3.2601921558380127,-0.11916843801736832,-0.5525517463684082,0.5969564914703369,0.34095990657806396,0.2507069706916809,0.4597489833831787
3.2802772521972656,-0.11909668147563934,-0.5597552061080933,0.5888411402702332,0.3425900936126709,0.24809576570987701,0.4601472020149231
3.300325870513916,-0.12065252661705017,-0.5544271469116211,0.6026283502578735,0.34524667263031006,0.2577909827232361,0.46122312545776367
3.3204410076141357,-0.12487652897834778,-0.5553014874458313,0.6038759350776672,0.3475710451602936,0.2446238249540329,0.46195703744888306
3.3405213356018066,-0.12505590915679932,-0.5521692633628845,0.6204330325126648,0.3504788875579834,0.2561056613922119,0.46390634775161743
3.360585927963257,-0.12591180205345154,-0.5595993995666504,0.6126344799995422,0.3522945046424866,0.251407265663147,0.46538248658180237
3.3807225227355957,-0.12790623307228088,-0.5599837303161621,0.6171727180480957,0.3564727306365967,0.24865643680095673,0.46630096435546875
3.4008257389068604,-0.1255526840686798,-0.5697159171104431,0.6057711243629456,0.35539692640304565,0.2500290870666504,0.46939975023269653
3.421342372894287,-0.13059929013252258,-0.5743071436882019,0.6095045208930969,0.36221736669540405,0.24170179665088654,0.4720337986946106
3.4413576126098633,-0.1278422772884369,-0.5780190825462341,0.6040562987327576,0.36206772923469543,0.25482428073883057,0.4738366901874542
3.4614064693450928,-0.1301005482673645,-0.576897144317627,0.6102480888366699,0.3660411238670349,0.24644775688648224,0.47411951422691345
3.4814672470092773,-0.12852558493614197,-0.5810931324958801,0.6074735522270203,0.36585766077041626,0.257457435131073,0.47514471411705017
3.501579999923706,-0.1314687579870224,-0.582461953163147,0.615629255771637,0.3730354309082031,0.2528439164161682,0.47950372099876404
3.521637201309204,-0.12948554754257202,-0.5815680623054504,0.6214359998703003,0.37379735708236694,0.2687811851501465,0.48185455799102783
3.541762351989746,-0.1332567185163498,-0.5858206152915955,0.6172379851341248,0.37639397382736206,0.2592518925666809,0.48308175802230835
3.561828851699829,-0.13333994150161743,-0.5841248035430908,0.628765881061554,0.378886342048645,0.2674872875213623,0.4835145175457001
3.5821948051452637,-0.13285137712955475,-0.5886465907096863,0.6259276270866394,0.3821917772293091,0.2711167335510254,0.48682087659835815
3.602337598800659,-0.13212530314922333,-0.5919681787490845,0.6197168231010437,0.3804055452346802,0.2719241976737976,0.4862293601036072
3.6223981380462646,-0.13578446209430695,-0.5940924286842346,0.6246122717857361,0.38779401779174805,0.2632083296775818,0.48837706446647644
3.642591714859009,-0.13807736337184906,-0.5958650708198547,0.6273404955863953,0.3902544379234314,0.2647143602371216,0.4889335036277771
3.662698745727539,-0.13685044646263123,-0.6027576327323914,0.6165811419487,0.39284399151802063,0.2621397376060486,0.4915367662906647
3.6827497482299805,-0.13764630258083344,-0.5985106825828552,0.6291760206222534,0.39463698863983154,0.2676628828048706,0.4924563765525818
3.70286226272583,-0.13520073890686035,-0.6034687757492065,0.6231104731559753,0.39309197664260864,0.27132898569107056,0.4939599335193634
3.7229506969451904,-0.13822630047798157,-0.5948047041893005,0.642809271812439,0.39624321460723877,0.2819998860359192,0.49356722831726074
3.7430169582366943,-0.1375662088394165,-0.6002110838890076,0.6419532299041748,0.39795807003974915,0.2803773283958435,0.4971606135368347
3.7631165981292725,-0.13845501840114594,-0.6006725430488586,0.6393383145332336,0.3998699486255646,0.2756502628326416,0.49807992577552795
3.7831878662109375,-0.13711591064929962,-0.6099995374679565,0.6299863457679749,0.4004807472229004,0.2782345414161682,0.49785029888153076
3.8032703399658203,-0.13961011171340942,-0.616039514541626,0.6198313236236572,0.4042104482650757,0.26706767082214355,0.4984700381755829
3.8233470916748047,-0.13895300030708313,-0.6137637495994568,0.6321104168891907,0.40409791469573975,0.27429330348968506,0.4975705146789551
3.843426465988159,-0.13942494988441467,-0.6126734018325806,0.6351228356361389,0.408361554145813,0.2825047969818115,0.5013851523399353
3.863475799560547,-0.14344730973243713,-0.6028872132301331,0.6618611812591553,0.41121047735214233,0.287467360496521,0.5022343397140503
3.883577823638916,-0.13943037390708923,-0.6050633192062378,0.656830906867981,0.4112517237663269,0.288472056388855,0.502618134021759
3.903658151626587,-0.13753333687782288,-0.6105144619941711,0.6487221717834473,0.4058865010738373,0.29269593954086304,0.5032131671905518
3.9237301349639893,-0.1404195874929428,-0.6163043975830078,0.6394003629684448,0.41112402081489563,0.2768656611442566,0.5021782517433167
3.943833589553833,-0.1396450698375702,-0.6203125715255737,0.6371325254440308,0.4103858768939972,0.2775520086288452,0.503892719745636
3.9639132022857666,-0.1431676149368286,-0.6199494004249573,0.6383824348449707,0.4186631441116333,0.26806873083114624,0.5033925175666809
3.9839930534362793,-0.14097130298614502,-0.604649007320404,0.6746779680252075,0.4166271686553955,0.30230623483657837,0.5035759210586548
4.004215717315674,-0.1430860161781311,-0.6104298233985901,0.6643972992897034,0.4220759868621826,0.28811919689178467,0.5070030093193054
4.0241827964782715,-0.13804851472377777,-0.6062960624694824,0.674538254737854,0.41394105553627014,0.30829811096191406,0.5053513646125793
4.044420003890991,-0.14218851923942566,-0.6157612204551697,0.6615243554115295,0.421085000038147,0.2901908755302429,0.5090574622154236
4.064532518386841,-0.1392119973897934,-0.6195994019508362,0.6585202217102051,0.41502639651298523,0.29575371742248535,0.5069233179092407
4.084580898284912,-0.1371627151966095,-0.6292393207550049,0.6363630890846252,0.41587233543395996,0.28717273473739624,0.5054134130477905
4.104684829711914,-0.1427333801984787,-0.6189890503883362,0.664720892906189,0.4190628230571747,0.29858821630477905,0.5030410885810852
4.124772071838379,-0.13869959115982056,-0.6325296759605408,0.6331431269645691,0.41799336671829224,0.2857033610343933,0.5056086778640747
4.14501690864563,-0.14718100428581238,-0.6111618876457214,0.6821667551994324,0.4278886020183563,0.290979266166687,0.5052170157432556
4.165108919143677,-0.13875383138656616,-0.6254138350486755,0.6484697461128235,0.421319842338562,0.29237329959869385,0.5064833164215088
4.185182094573975,-0.14663545787334442,-0.6112095713615417,0.6858347058296204,0.4295785129070282,0.29690462350845337,0.5090898275375366
4.205301523208618,-0.13818266987800598,-0.620196521282196,0.6625921130180359,0.4211472272872925,0.29712963104248047,0.5082745552062988
4.225409746170044,-0.14255291223526,-0.6243136525154114,0.6626358032226562,0.4225543737411499,0.2882393002510071,0.5064634680747986
4.24548864364624,-0.141891211271286,-0.635532021522522,0.6341569423675537,0.4229448735713959,0.26981985569000244,0.503956139087677
4.2658679485321045,-0.14211097359657288,-0.6247465014457703,0.665022075176239,0.42741554975509644,0.2939324378967285,0.5043725967407227
4.286001920700073,-0.14026731252670288,-0.6298119425773621,0.6548043489456177,0.42539113759994507,0.29535025358200073,0.505640983581543
4.306040525436401,-0.14217180013656616,-0.6189913749694824,0.6815534234046936,0.42835018038749695,0.3016231656074524,0.5074975490570068
4.3261308670043945,-0.1367623209953308,-0.6208894848823547,0.6726095676422119,0.42308881878852844,0.3134993314743042,0.5069825649261475
4.346227645874023,-0.1379154622554779,-0.6214515566825867,0.673696756362915,0.4211054742336273,0.31055009365081787,0.5061246156692505
4.3662779331207275,-0.14229103922843933,-0.6333295702934265,0.6499800086021423,0.4245140552520752,0.2794799208641052,0.5066241025924683
4.386375665664673,-0.14227481186389923,-0.6307598948478699,0.660600483417511,0.4256943166255951,0.2862783670425415,0.5061524510383606
4.406493663787842,-0.14317071437835693,-0.6326271295547485,0.6595098376274109,0.42916733026504517,0.280231237411499,0.506264865398407
4.426534175872803,-0.14096903800964355,-0.6301862001419067,0.6640753149986267,0.4279208183288574,0.29159480333328247,0.5062856078147888
4.446661949157715,-0.14074403047561646,-0.6272917985916138,0.6694609522819519,0.4272303879261017,0.2980878949165344,0.5065910220146179
4.466849088668823,-0.13845112919807434,-0.6229209303855896,0.6785547733306885,0.4264185428619385,0.30613625049591064,0.507348358631134
4.486804485321045,-0.1399683654308319,-0.6308344006538391,0.6623291373252869,0.42680007219314575,0.2913306951522827,0.5083662271499634
4.506909370422363,-0.1419949233531952,-0.62727952003479,0.6696257591247559,0.4269922375679016,0.29328346252441406,0.5068580508232117
4.527018308639526,-0.1430094838142395,-0.6327653527259827,0.6596699953079224,0.42817211151123047,0.2818126678466797,0.5067039132118225
4.547199010848999,-0.14069023728370667,-0.631633460521698,0.6623501777648926,0.4272902309894562,0.29233938455581665,0.5050786137580872
4.56738543510437,-0.1421353667974472,-0.6308779716491699,0.6650125980377197,0.42900538444519043,0.2911856174468994,0.5047719478607178
4.587409973144531,-0.14091968536376953,-0.6308890581130981,0.6671767234802246,0.42869359254837036,0.29610055685043335,0.5055939555168152
4.607924938201904,-0.1409810483455658,-0.6297818422317505,0.6702855229377747,0.4294329583644867,0.2968604564666748,0.5061067342758179
4.62801194190979,-0.14158548414707184,-0.6291906237602234,0.6712433695793152,0.42956483364105225,0.29619401693344116,0.5066917538642883
4.648090362548828,-0.14169688522815704,-0.630756676197052,0.6686899065971375,0.42930328845977783,0.2926276922225952,0.5065042972564697
4.668378829956055,-0.14196862280368805,-0.6325506567955017,0.6647257804870605,0.4295337200164795,0.2887433171272278,0.5065162777900696
4.688478708267212,-0.14369794726371765,-0.630832850933075,0.6677491068840027,0.43116816878318787,0.2852226495742798,0.5059714317321777
4.708563327789307,-0.14251849055290222,-0.6365612149238586,0.6541187763214111,0.42984235286712646,0.2806295156478882,0.505705714225769
4.7295074462890625,-0.14267975091934204,-0.6300920844078064,0.6687261462211609,0.4307374358177185,0.2913106679916382,0.5050437450408936
4.7496466636657715,-0.13907352089881897,-0.6328271627426147,0.6650308966636658,0.4287525713443756,0.2980652451515198,0.505955696105957
4.7697412967681885,-0.13968969881534576,-0.6325216293334961,0.6643050312995911,0.4288572669029236,0.2971527576446533,0.5059332847595215
4.78977632522583,-0.1415059119462967,-0.6269188523292542,0.6752628087997437,0.4306293725967407,0.2978523373603821,0.5054753422737122
4.809910297393799,-0.14165714383125305,-0.6337141394615173,0.6625551581382751,0.4306109547615051,0.2892003059387207,0.5063210129737854
4.830044269561768,-0.14099007844924927,-0.6325517296791077,0.6687232851982117,0.4293019771575928,0.294202983379364,0.5052019357681274
4.850199222564697,-0.1426171362400055,-0.631842315196991,0.6682427525520325,0.4314020276069641,0.28968924283981323,0.5056320428848267
4.87022590637207,-0.1423790454864502,-0.6320767998695374,0.6685218811035156,0.4306364357471466,0.28996920585632324,0.5045522451400757
4.890477657318115,-0.14066839218139648,-0.63225919008255,0.669184684753418,0.42972755432128906,0.29541927576065063,0.5053327679634094
4.910567283630371,-0.14131569862365723,-0.6321461200714111,0.6675894260406494,0.43022453784942627,0.2938787341117859,0.5053641200065613
4.930660247802734,-0.14153489470481873,-0.6278585195541382,0.6764835119247437,0.4309152364730835,0.29763227701187134,0.5051935315132141
4.950721979141235,-0.141398623585701,-0.6322678327560425,0.665420651435852,0.4306546449661255,0.2907649278640747,0.5054378509521484
4.9709131717681885,-0.14159074425697327,-0.6314054131507874,0.6706148982048035,0.43037307262420654,0.29421448707580566,0.5047731995582581
4.990981578826904,-0.14181160926818848,-0.6325851678848267,0.6682294607162476,0.4305185377597809,0.29130876064300537,0.5050734281539917
5.011397361755371,-0.14128601551055908,-0.6336314082145691,0.6658591032028198,0.43039602041244507,0.29160600900650024,0.5048631429672241
5.0315022468566895,-0.1429099440574646,-0.6321293711662292,0.6691093444824219,0.4322214722633362,0.28845012187957764,0.5049239993095398
5.051574230194092,-0.1416628062725067,-0.63248211145401,0.6685330271720886,0.43046173453330994,0.29310470819473267,0.5044798851013184
5.071640253067017,-0.14126840233802795,-0.6328557133674622,0.6680561304092407,0.4311264753341675,0.29293566942214966,0.5051621198654175
5.091716766357422,-0.14092224836349487,-0.6327533721923828,0.6676879525184631,0.43025845289230347,0.2943464517593384,0.5046880841255188
5.111766815185547,-0.141297847032547,-0.6327816843986511,0.6679180860519409,0.4307592213153839,0.2928504943847656,0.5047630071640015
5.131860017776489,-0.1420619934797287,-0.6334825754165649,0.6666696667671204,0.4315764307975769,0.2902042865753174,0.5049346089363098
5.151939868927002,-0.1421341598033905,-0.6322850584983826,0.6687845587730408,0.43185627460479736,0.291765034198761,0.5040274262428284
5.17201828956604,-0.14191043376922607,-0.6332061886787415,0.6691191792488098,0.43188202381134033,0.2920146584510803,0.5044206976890564
5.192092418670654,-0.14218872785568237,-0.6333426833152771,0.6687720417976379,0.4327636957168579,0.2902693748474121,0.5052850842475891
5.212172508239746,-0.14158383011817932,-0.633146345615387,0.6687520742416382,0.43175917863845825,0.29319173097610474,0.5048229694366455
5.232246398925781,-0.1419600248336792,-0.6328988671302795,0.6686225533485413,0.4319078326225281,0.2916032075881958,0.5043631196022034
5.252333641052246,-0.14121833443641663,-0.6336880922317505,0.6682147979736328,0.43185490369796753,0.2930850386619568,0.5047919750213623
5.2724292278289795,-0.14181086421012878,-0.6335810422897339,0.6662511825561523,0.4318850636482239,0.29009175300598145,0.5045275092124939
5.29246973991394,-0.14150550961494446,-0.6339614391326904,0.6662482619285583,0.431914359331131,0.2916346788406372,0.5047480463981628
5.312563896179199,-0.14195027947425842,-0.6331302523612976,0.6690190434455872,0.4322984516620636,0.29150283336639404,0.5046018362045288
5.3326575756073,-0.14177429676055908,-0.6324995160102844,0.6707231402397156,0.43230780959129333,0.2927517294883728,0.5045872330665588
5.35285758972168,-0.14151841402053833,-0.6323937177658081,0.6701212525367737,0.4322716295719147,0.29357194900512695,0.5046043395996094
5.372951507568359,-0.14105600118637085,-0.6290318369865417,0.675760805606842,0.43213844299316406,0.29775309562683105,0.5043141841888428
5.393031120300293,-0.13993722200393677,-0.6347675919532776,0.6656390428543091,0.43020719289779663,0.2944948673248291,0.504468560218811
5.413134813308716,-0.14247658848762512,-0.6312592625617981,0.6745268106460571,0.4328940808773041,0.2937791347503662,0.5041375160217285
5.433206081390381,-0.14236824214458466,-0.6337386965751648,0.6681568026542664,0.4323576092720032,0.29008257389068604,0.5043285489082336
5.453252792358398,-0.1413683295249939,-0.6344336867332458,0.6663793921470642,0.431888610124588,0.2915397882461548,0.5041981935501099
5.473554849624634,-0.1420256793498993,-0.6333462595939636,0.6698178648948669,0.4327864646911621,0.2915239930152893,0.504215657711029
5.49364447593689,-0.1412932127714157,-0.633442759513855,0.6696944236755371,0.4322436451911926,0.2943950295448303,0.5042579770088196
5.513710260391235,-0.1412525773048401,-0.633956253528595,0.6686712503433228,0.43256986141204834,0.2927370071411133,0.5044811964035034
5.53411602973938,-0.14047911763191223,-0.6343396306037903,0.6678410768508911,0.43183788657188416,0.2939186096191406,0.5046675801277161
5.554209232330322,-0.1419612616300583,-0.633370041847229,0.669894814491272,0.43253129720687866,0.2926744222640991,0.5042489767074585
5.574344873428345,-0.1409289836883545,-0.634455144405365,0.6660789847373962,0.43145155906677246,0.2928256392478943,0.5039036870002747
5.5944623947143555,-0.14216244220733643,-0.6335700154304504,0.6703813076019287,0.43324175477027893,0.2914128303527832,0.5043997168540955
5.614476680755615,-0.14056354761123657,-0.6339059472084045,0.6683512330055237,0.4313531517982483,0.2957634925842285,0.503743588924408
5.63453221321106,-0.1412661224603653,-0.6348910927772522,0.6672000885009766,0.4326532781124115,0.29141074419021606,0.5047051906585693
5.654634952545166,-0.14153093099594116,-0.6347154974937439,0.6676054000854492,0.4323079586029053,0.2916180491447449,0.504479706287384
5.674724817276001,-0.1418132781982422,-0.63404381275177,0.6689185500144958,0.43311989307403564,0.2909383773803711,0.5044211149215698
5.694995880126953,-0.1415545642375946,-0.6339177489280701,0.6692055463790894,0.43269339203834534,0.2926076650619507,0.5042594075202942
5.715095281600952,-0.14194416999816895,-0.6338877081871033,0.6693564653396606,0.43317216634750366,0.2910822033882141,0.5043580532073975
5.735238313674927,-0.14120882749557495,-0.6338991522789001,0.6695654392242432,0.4322609305381775,0.2942351698875427,0.5041014552116394
5.755520820617676,-0.1411590874195099,-0.6337987184524536,0.6691306233406067,0.43244096636772156,0.2940264940261841,0.5042785406112671
5.775604486465454,-0.14140506088733673,-0.6343035697937012,0.6691486239433289,0.43305301666259766,0.2924560308456421,0.5046705603599548
5.795680522918701,-0.1415276974439621,-0.6337045431137085,0.6688681840896606,0.4324699342250824,0.2925635576248169,0.5040059685707092
5.815800189971924,-0.14149603247642517,-0.6342045664787292,0.6690645813941956,0.4329552948474884,0.2923988699913025,0.5042516589164734
5.835891008377075,-0.1415315717458725,-0.6340895891189575,0.6690306663513184,0.43284088373184204,0.2924543619155884,0.5041952729225159
5.856003046035767,-0.14146244525909424,-0.6339409947395325,0.6690566539764404,0.4326167702674866,0.2925475835800171,0.5040181875228882
5.876141548156738,-0.14154979586601257,-0.6339706778526306,0.6691316366195679,0.4329257011413574,0.29231196641921997,0.5041937828063965
5.896120309829712,-0.14102953672409058,-0.6339744925498962,0.6687697768211365,0.43210482597351074,0.2941264510154724,0.5041329860687256
5.91623592376709,-0.14221203327178955,-0.6334264874458313,0.6697726845741272,0.43317872285842896,0.2910054326057434,0.5038854479789734
5.936286926269531,-0.14164401590824127,-0.6337286233901978,0.6691737174987793,0.4324609935283661,0.29258882999420166,0.5036831498146057
5.956920146942139,-0.1410481482744217,-0.634030282497406,0.6687839031219482,0.43210119009017944,0.29405152797698975,0.5038976073265076
5.977108955383301,-0.14168182015419006,-0.6337509751319885,0.6693816184997559,0.4328135848045349,0.292270302772522,0.5038439631462097
5.997167587280273,-0.14184008538722992,-0.6335122585296631,0.6693916320800781,0.43264418840408325,0.29258835315704346,0.5035691857337952
6.01728892326355,-0.14076988399028778,-0.6345949769020081,0.6687360405921936,0.43264240026474,0.29371345043182373,0.5043946504592896
6.03740119934082,-0.14133809506893158,-0.6340518593788147,0.6688059568405151,0.43273770809173584,0.29223132133483887,0.504094660282135
6.057829141616821,-0.14103305339813232,-0.6339534521102905,0.6686663627624512,0.4321063756942749,0.2940489649772644,0.5039531588554382
6.077905178070068,-0.14179173111915588,-0.6336967945098877,0.6695364117622375,0.4330545663833618,0.2923393249511719,0.5040218830108643
6.097957134246826,-0.14178092777729034,-0.6336498856544495,0.6695059537887573,0.4327526092529297,0.29221445322036743,0.5037810206413269
6.118037462234497,-0.1413441002368927,-0.6344489455223083,0.6689631342887878,0.43312743306159973,0.2920842170715332,0.5045061707496643
6.138196229934692,-0.14098992943763733,-0.6343408226966858,0.6686887741088867,0.43244433403015137,0.2936038374900818,0.5043452382087708
6.1582441329956055,-0.14179086685180664,-0.6334602236747742,0.6694139242172241,0.4326430559158325,0.29241079092025757,0.5037887096405029
6.178318977355957,-0.1417895257472992,-0.6343708634376526,0.6688445210456848,0.43312162160873413,0.29068225622177124,0.5041425824165344
6.198382139205933,-0.14155793190002441,-0.6340102553367615,0.6690293550491333,0.4328063130378723,0.29216915369033813,0.5038911700248718
6.218514919281006,-0.1414608210325241,-0.6342064142227173,0.6690015196800232,0.43289294838905334,0.2921634316444397,0.5041449666023254
6.238628149032593,-0.1420285701751709,-0.6340618133544922,0.6691228151321411,0.4333134889602661,0.2906549572944641,0.5040532946586609
6.2586846351623535,-0.14138798415660858,-0.6334664225578308,0.6692711710929871,0.4320811331272125,0.2937420606613159,0.5035750865936279
6.278919219970703,-0.14107868075370789,-0.6341845393180847,0.6690135598182678,0.4328047037124634,0.2934819459915161,0.5042678117752075
6.298906087875366,-0.14115232229232788,-0.6340174674987793,0.6690301895141602,0.4331313967704773,0.291689932346344,0.5041609406471252
6.3190929889678955,-0.14080271124839783,-0.6340073347091675,0.6685068011283875,0.4322279691696167,0.2933005690574646,0.5036447048187256
6.339200735092163,-0.142377570271492,-0.6332250237464905,0.6708272695541382,0.43377140164375305,0.2890050411224365,0.5039610862731934
6.359327793121338,-0.1408940553665161,-0.6340559124946594,0.6689751148223877,0.43198615312576294,0.2935062646865845,0.5036096572875977
6.379399299621582,-0.14199933409690857,-0.6336472630500793,0.6699258089065552,0.433706134557724,0.2902812957763672,0.5041733980178833
6.399491548538208,-0.14157602190971375,-0.6338367462158203,0.6690481901168823,0.4329071640968323,0.2916785478591919,0.5036110281944275
6.419638156890869,-0.14131493866443634,-0.6342688798904419,0.6692301034927368,0.43299660086631775,0.29193782806396484,0.5039846301078796
6.439733505249023,-0.14133989810943604,-0.6334303021430969,0.670282244682312,0.4332130551338196,0.2905391454696655,0.5039751529693604
6.459774494171143,-0.14090201258659363,-0.6334297060966492,0.6691029667854309,0.4327147603034973,0.29116833209991455,0.5034231543540955
6.47985577583313,-0.1408683955669403,-0.6337485909461975,0.6692757606506348,0.43283912539482117,0.29130202531814575,0.5038173198699951
6.499941825866699,-0.14142879843711853,-0.6337930560112,0.6695407032966614,0.4335811138153076,0.2896019220352173,0.5039048790931702
6.5201170444488525,-0.14004471898078918,-0.6339078545570374,0.6687014698982239,0.43187806010246277,0.29419392347335815,0.5035075545310974
6.540175437927246,-0.14079329371452332,-0.6341022849082947,0.6687915325164795,0.433075487613678,0.2910289168357849,0.5039108395576477
6.560361862182617,-0.14094719290733337,-0.6338666081428528,0.669317901134491,0.43296077847480774,0.29119008779525757,0.5037152171134949
6.5804150104522705,-0.14040838181972504,-0.633820116519928,0.6689448952674866,0.4324198365211487,0.29262375831604004,0.5035939812660217
6.600485324859619,-0.1406138688325882,-0.6338130831718445,0.6694197654724121,0.43268662691116333,0.2927323579788208,0.5036812424659729
6.62066388130188,-0.14089679718017578,-0.6337096095085144,0.6690368056297302,0.4329022765159607,0.2911478877067566,0.5035219788551331
6.641143083572388,-0.1403847336769104,-0.6341083645820618,0.6689729690551758,0.4325982332229614,0.292732298374176,0.5036910772323608
6.661317825317383,-0.14068995416164398,-0.6343445181846619,0.6685189008712769,0.4332391321659088,0.2909001111984253,0.5038465261459351
6.681315183639526,-0.14090591669082642,-0.6338731646537781,0.6692390441894531,0.43320950865745544,0.2910940647125244,0.5036599636077881
6.701415061950684,-0.14083567261695862,-0.6337609887123108,0.6692328453063965,0.43273529410362244,0.2912682890892029,0.5033367276191711
6.721548795700073,-0.14068704843521118,-0.6338682770729065,0.6684730052947998,0.4324699938297272,0.2912890911102295,0.503147304058075
6.74172306060791,-0.140465646982193,-0.6338543891906738,0.6692550778388977,0.4325927495956421,0.2927430272102356,0.5034012794494629
6.7617316246032715,-0.14079222083091736,-0.634035050868988,0.6691670417785645,0.43299344182014465,0.2912420630455017,0.5037450194358826
6.781805753707886,-0.14093294739723206,-0.6337894797325134,0.6691815257072449,0.4328349828720093,0.2911641001701355,0.5032503008842468
6.801931858062744,-0.1409423053264618,-0.6338912844657898,0.6691176295280457,0.4329991042613983,0.2911965847015381,0.5031293630599976
6.8219640254974365,-0.1413666009902954,-0.6336853504180908,0.669572651386261,0.4333155155181885,0.28975850343704224,0.5030555129051208
6.842057466506958,-0.14065337181091309,-0.6343080401420593,0.6689013838768005,0.43311041593551636,0.29112929105758667,0.5034075379371643
6.862127304077148,-0.1408141851425171,-0.6339210867881775,0.6693297028541565,0.43317675590515137,0.2912043333053589,0.5031543970108032
6.882200241088867,-0.14092379808425903,-0.6335219740867615,0.6692336797714233,0.43270397186279297,0.29120492935180664,0.5026580691337585
6.902338266372681,-0.14034906029701233,-0.6338691115379333,0.6688370704650879,0.4320942461490631,0.292904794216156,0.502753734588623
6.922361373901367,-0.14114010334014893,-0.6332589387893677,0.6702172756195068,0.4330003261566162,0.2913896441459656,0.5028616189956665
6.942448854446411,-0.14075733721256256,-0.6340254545211792,0.6690462827682495,0.433099627494812,0.2911754846572876,0.503153383731842
6.962622404098511,-0.14083191752433777,-0.6339496374130249,0.669379711151123,0.433131605386734,0.29133814573287964,0.5031001567840576
6.982856512069702,-0.1413574516773224,-0.6339492797851562,0.6696053743362427,0.43347039818763733,0.28989851474761963,0.5031238794326782
7.00295352935791,-0.14070527255535126,-0.6342536807060242,0.6690877676010132,0.4329327940940857,0.2913653254508972,0.503248393535614
7.023122549057007,-0.1406262218952179,-0.6341590881347656,0.6687398552894592,0.43289923667907715,0.291265070438385,0.5030972957611084
7.0431835651397705,-0.1409410834312439,-0.6338333487510681,0.6694800853729248,0.43286216259002686,0.2914029359817505,0.5029285550117493
7.06329870223999,-0.14028972387313843,-0.6340566277503967,0.6690177917480469,0.43234118819236755,0.29299455881118774,0.5028359293937683
7.083380699157715,-0.14106211066246033,-0.6336113214492798,0.6698970198631287,0.43299591541290283,0.2915589213371277,0.5029232501983643
7.103450536727905,-0.1406347006559372,-0.6339760422706604,0.6688578724861145,0.43254354596138,0.29148077964782715,0.5028193593025208
7.123505592346191,-0.14047208428382874,-0.6338096857070923,0.6690245270729065,0.43236008286476135,0.29294008016586304,0.5026602745056152
7.143597841262817,-0.14126944541931152,-0.6340071558952332,0.6694719791412354,0.43344730138778687,0.28999340534210205,0.5031261444091797
7.163651466369629,-0.14041313529014587,-0.6337619423866272,0.6692071557044983,0.4322640299797058,0.2930191159248352,0.502753496170044
7.1839704513549805,-0.14101466536521912,-0.6336851716041565,0.6698125004768372,0.43308717012405396,0.2914738059043884,0.503000020980835
7.204065561294556,-0.14130352437496185,-0.6339617967605591,0.6698216199874878,0.4334181547164917,0.29006290435791016,0.503235399723053
7.22414231300354,-0.14105191826820374,-0.6337293386459351,0.6701536774635315,0.4329996109008789,0.2916397452354431,0.5030929446220398
7.244307518005371,-0.14123153686523438,-0.6337757706642151,0.6693676114082336,0.43329328298568726,0.28997284173965454,0.5030620694160461
7.264399766921997,-0.14088651537895203,-0.6340427994728088,0.66960608959198,0.4330407381057739,0.2915213704109192,0.503211498260498
7.284459352493286,-0.14085805416107178,-0.6339555382728577,0.6693501472473145,0.43299901485443115,0.29140424728393555,0.5030344724655151
7.304555177688599,-0.14076708257198334,-0.6340588927268982,0.6694049835205078,0.43289798498153687,0.29153645038604736,0.5031601786613464
7.324654817581177,-0.14081121981143951,-0.6339150071144104,0.6693024039268494,0.4328958988189697,0.2914680242538452,0.5029825568199158
7.345515727996826,-0.14080369472503662,-0.6337210536003113,0.6693472862243652,0.43271946907043457,0.29151421785354614,0.5028420686721802
7.365677356719971,-0.140823632478714,-0.6337652206420898,0.6693547964096069,0.4327976703643799,0.29145562648773193,0.5028864145278931
7.385692119598389,-0.14086583256721497,-0.633851945400238,0.6693561673164368,0.4329589307308197,0.2913687825202942,0.5030109286308289
7.405773878097534,-0.14084982872009277,-0.6338875889778137,0.6693044900894165,0.43294578790664673,0.29133766889572144,0.5030133724212646
7.425908803939819,-0.14083358645439148,-0.6338879466056824,0.6693300604820251,0.43286511301994324,0.29150283336639404,0.5029528141021729
7.44598913192749,-0.14056849479675293,-0.6337337493896484,0.6694098114967346,0.43242424726486206,0.29292988777160645,0.5028477311134338
7.466063499450684,-0.1414463222026825,-0.6333970427513123,0.6700851917266846,0.43347999453544617,0.28988683223724365,0.503021240234375
7.4861438274383545,-0.1406232714653015,-0.6337059140205383,0.6696662902832031,0.43237078189849854,0.2930663228034973,0.5027508735656738
7.506201505661011,-0.1409619003534317,-0.633729100227356,0.6698911786079407,0.4330713748931885,0.29129981994628906,0.503162145614624
7.526337146759033,-0.14127671718597412,-0.6339635252952576,0.6695461273193359,0.4334856867790222,0.2898206114768982,0.5033525228500366
7.5464253425598145,-0.14093129336833954,-0.6338441967964172,0.6694700121879578,0.43296340107917786,0.29137349128723145,0.5030021667480469
7.56646203994751,-0.14084357023239136,-0.633962094783783,0.6694005727767944,0.4330577850341797,0.29133331775665283,0.5030469298362732
7.586672067642212,-0.1408924162387848,-0.6335210204124451,0.6689015626907349,0.432620108127594,0.2912694215774536,0.5026414394378662
7.606710910797119,-0.14038076996803284,-0.6339463591575623,0.6689753532409668,0.432375967502594,0.2928565740585327,0.5028808116912842
7.627135753631592,-0.14098802208900452,-0.6335942149162292,0.6696174740791321,0.4330877661705017,0.2913021445274353,0.5028234124183655
7.647249698638916,-0.14081121981143951,-0.6341651678085327,0.6692374348640442,0.4331672787666321,0.29129964113235474,0.5031536221504211
7.66730523109436,-0.1408369541168213,-0.6339161992073059,0.6693507432937622,0.4330000877380371,0.2913249135017395,0.5030452013015747
7.6876280307769775,-0.14082513749599457,-0.6339892745018005,0.6690976023674011,0.43304678797721863,0.29122716188430786,0.5030824542045593
7.7076802253723145,-0.140372171998024,-0.6339799165725708,0.6690219044685364,0.43240615725517273,0.29283851385116577,0.5028963088989258
7.727774143218994,-0.140239417552948,-0.6341434121131897,0.6689078211784363,0.43260788917541504,0.29273611307144165,0.5030319690704346
7.747877597808838,-0.14109981060028076,-0.6337550282478333,0.6697381138801575,0.43307971954345703,0.29133927822113037,0.5031890273094177
7.767990589141846,-0.1413716971874237,-0.6340776085853577,0.6694457530975342,0.43362969160079956,0.2897353172302246,0.5032284259796143
7.7881247997283936,-0.14070186018943787,-0.6340700387954712,0.669141948223114,0.43283194303512573,0.2913801670074463,0.5031594038009644
7.808266878128052,-0.14097508788108826,-0.6339702010154724,0.6690131425857544,0.43301934003829956,0.291223406791687,0.5031285285949707
7.828308820724487,-0.14092177152633667,-0.6336732506752014,0.6691994667053223,0.432622492313385,0.29140979051589966,0.5028697848320007
7.848646879196167,-0.14085784554481506,-0.6340990662574768,0.669272780418396,0.4332360029220581,0.29125237464904785,0.5032320618629456
7.868734836578369,-0.1406908631324768,-0.6341291069984436,0.6684945821762085,0.4328914284706116,0.2911827564239502,0.5031120777130127
7.888807058334351,-0.14079074561595917,-0.6340656280517578,0.6694361567497253,0.4331018626689911,0.29135990142822266,0.5032954216003418
7.908912420272827,-0.14094333350658417,-0.6336320638656616,0.6688103079795837,0.43265944719314575,0.2912302613258362,0.5027222037315369
7.929076910018921,-0.14108239114284515,-0.6335970163345337,0.6698566675186157,0.4329804480075836,0.2914235591888428,0.5029253959655762
7.949280023574829,-0.14037549495697021,-0.6340848207473755,0.668820321559906,0.4325052797794342,0.2926951050758362,0.5029611587524414
7.969370603561401,-0.14062759280204773,-0.6335489749908447,0.6691133975982666,0.43243563175201416,0.29275673627853394,0.5026776790618896
7.989437580108643,-0.1413523554801941,-0.633601188659668,0.6690271496772766,0.4330666959285736,0.289752721786499,0.5027615427970886
8.009589433670044,-0.1406480371952057,-0.6342476010322571,0.6685936450958252,0.43298763036727905,0.2911691665649414,0.503143846988678
8.029637098312378,-0.14085730910301208,-0.6335341334342957,0.6691861152648926,0.4327715337276459,0.29133695363998413,0.502711832523346
8.049768209457397,-0.14085060358047485,-0.6340107321739197,0.6693947315216064,0.43312183022499084,0.29127466678619385,0.5030849575996399
8.069831848144531,-0.1408379077911377,-0.6339583992958069,0.6694022417068481,0.43311041593551636,0.2913312315940857,0.5030807852745056
8.090143918991089,-0.1408529430627823,-0.633910596370697,0.6690363883972168,0.43294215202331543,0.2912328839302063,0.5030465126037598
8.110233306884766,-0.14086231589317322,-0.6339006423950195,0.669026792049408,0.43289732933044434,0.291243314743042,0.5030186772346497
8.130329370498657,-0.14063331484794617,-0.6341143250465393,0.6684761643409729,0.4326944053173065,0.29126042127609253,0.5029974579811096
8.150375843048096,-0.1409008502960205,-0.6340199112892151,0.6696591973304749,0.43305495381355286,0.2914063334465027,0.5032234191894531
8.170528888702393,-0.14084124565124512,-0.6342456936836243,0.6694281697273254,0.43323850631713867,0.29131144285202026,0.5033974647521973
8.190667390823364,-0.1413654237985611,-0.6336027979850769,0.6696260571479797,0.4333362281322479,0.2898036241531372,0.5030351281166077
8.210980415344238,-0.140160471200943,-0.6342944502830505,0.6684074997901917,0.4324108362197876,0.29269564151763916,0.5030193328857422
8.231071949005127,-0.14051494002342224,-0.634292721748352,0.6683462262153625,0.43301302194595337,0.2911245822906494,0.5032026767730713
8.251145601272583,-0.14080268144607544,-0.6338992714881897,0.6692783832550049,0.4330442547798157,0.29134154319763184,0.5030896663665771
8.27128791809082,-0.14090600609779358,-0.6337175369262695,0.6691986322402954,0.432771235704422,0.29132652282714844,0.5027199983596802
8.29135775566101,-0.140846848487854,-0.6335156559944153,0.6689186096191406,0.43248116970062256,0.2913244366645813,0.5025578141212463
8.311413764953613,-0.14060623943805695,-0.633867621421814,0.6691604256629944,0.4326011836528778,0.29277461767196655,0.5029832124710083
8.331530570983887,-0.1409461796283722,-0.6336674094200134,0.6697248816490173,0.43304407596588135,0.291376531124115,0.5030049681663513
8.351618766784668,-0.14106887578964233,-0.633628785610199,0.6698696613311768,0.4330351650714874,0.29139208793640137,0.5029645562171936
8.371719598770142,-0.14093580842018127,-0.6337196826934814,0.6691811084747314,0.4327237606048584,0.29127711057662964,0.5027151107788086
8.391793966293335,-0.14129941165447235,-0.6336904168128967,0.6693987846374512,0.43341177701950073,0.28978317975997925,0.5030691027641296
8.411861419677734,-0.14043280482292175,-0.6340752840042114,0.6691346168518066,0.4324713349342346,0.292919397354126,0.5029422044754028
8.43192744255066,-0.14079025387763977,-0.6338145136833191,0.6690465211868286,0.4328445494174957,0.29124903678894043,0.5028008222579956
8.452019453048706,-0.1404164880514145,-0.634035050868988,0.6688013672828674,0.4325541853904724,0.29270613193511963,0.50299072265625
8.472098588943481,-0.1407562792301178,-0.6340456604957581,0.6692438125610352,0.43297064304351807,0.2913120985031128,0.5032643675804138
8.492151737213135,-0.14031735062599182,-0.6342481374740601,0.6690106391906738,0.4325485825538635,0.2928449511528015,0.5032417178153992
8.51224422454834,-0.14109155535697937,-0.6335139274597168,0.6697998642921448,0.43291613459587097,0.2914125323295593,0.5029299259185791
8.532318830490112,-0.14136344194412231,-0.6337913870811462,0.6696695685386658,0.4333247244358063,0.28989553451538086,0.5030097365379333
8.552441596984863,-0.14072154462337494,-0.6341344118118286,0.6682922840118408,0.4328809380531311,0.2911667227745056,0.5029581189155579
8.572506189346313,-0.14093050360679626,-0.6338099837303162,0.6689328551292419,0.43295079469680786,0.2912030816078186,0.5030776262283325
8.592556476593018,-0.1404801309108734,-0.6337571740150452,0.6687084436416626,0.4323025345802307,0.29281723499298096,0.5025069117546082
8.612665176391602,-0.14095750451087952,-0.633909285068512,0.6701288223266602,0.4333876967430115,0.2914285659790039,0.5033061504364014
8.63280439376831,-0.14116600155830383,-0.634061336517334,0.6688321232795715,0.43332988023757935,0.28971153497695923,0.5031555891036987
8.652823209762573,-0.1407647728919983,-0.6342399716377258,0.6685749888420105,0.43297675251960754,0.2912386655807495,0.5031669735908508
8.672926187515259,-0.14037734270095825,-0.6339239478111267,0.6691303849220276,0.43233901262283325,0.2929078936576843,0.5028459429740906
8.693090200424194,-0.1401897817850113,-0.634490966796875,0.6690453886985779,0.43280094861984253,0.29288214445114136,0.5035443305969238
8.713099002838135,-0.1407289206981659,-0.6340059041976929,0.6691423654556274,0.43312275409698486,0.2912139296531677,0.5031734704971313
8.733190059661865,-0.14087116718292236,-0.6337476968765259,0.6694278717041016,0.4327215552330017,0.29146409034729004,0.5030278563499451
8.753257751464844,-0.14081847667694092,-0.6339781284332275,0.6693549156188965,0.4330229163169861,0.29132527112960815,0.5030382871627808
8.774118185043335,-0.14120575785636902,-0.6340499520301819,0.6688851118087769,0.4333469271659851,0.2897261381149292,0.503005862236023
8.794230699539185,-0.14019596576690674,-0.6342276930809021,0.6686520576477051,0.4323284924030304,0.292863667011261,0.5029075145721436
8.814298629760742,-0.14056624472141266,-0.6339583396911621,0.6683956384658813,0.432597815990448,0.2913699746131897,0.5029828548431396
8.834378719329834,-0.14049682021141052,-0.6336824297904968,0.6692017912864685,0.4323045015335083,0.29287099838256836,0.5027875900268555
8.854503393173218,-0.14059865474700928,-0.6342554688453674,0.6683197021484375,0.43289631605148315,0.2910667061805725,0.503143310546875
8.874568939208984,-0.14037486910820007,-0.6339588165283203,0.6689069867134094,0.43251585960388184,0.2927507758140564,0.5030132532119751
8.894813299179077,-0.1415482759475708,-0.6335896849632263,0.6699082851409912,0.43352511525154114,0.28989046812057495,0.5032735466957092
8.914814233779907,-0.1405332088470459,-0.6337609887123108,0.6690614223480225,0.4322756230831146,0.292888879776001,0.5028297305107117
8.934876680374146,-0.14078885316848755,-0.6340051293373108,0.6689120531082153,0.4329777657985687,0.29123830795288086,0.5032837986946106
8.954956531524658,-0.14088225364685059,-0.633901834487915,0.6690523624420166,0.43283796310424805,0.2913089394569397,0.5031949877738953
8.975025177001953,-0.1406370997428894,-0.6342175006866455,0.6688249707221985,0.4329197406768799,0.29133909940719604,0.5032918453216553
8.995097637176514,-0.14132775366306305,-0.6338433623313904,0.6695874333381653,0.4335486590862274,0.28985595703125,0.5033919215202332
9.01520323753357,-0.14065924286842346,-0.6341488361358643,0.6684280633926392,0.43270230293273926,0.29124993085861206,0.5032269954681396
9.035285472869873,-0.14083418250083923,-0.6338837742805481,0.6692442893981934,0.43295592069625854,0.2913823127746582,0.5032576322555542
9.055341243743896,-0.1408548504114151,-0.633891761302948,0.6692867279052734,0.43293166160583496,0.2913832664489746,0.5032336115837097
9.075495958328247,-0.14082476496696472,-0.6339299082756042,0.6689338088035583,0.4327656030654907,0.29141825437545776,0.5031691193580627
9.09553599357605,-0.14091140031814575,-0.6334705948829651,0.6687973737716675,0.4325084984302521,0.29128342866897583,0.502838671207428
9.115697145462036,-0.1413409262895584,-0.6337695121765137,0.6695917844772339,0.43325889110565186,0.2899792194366455,0.5032021999359131
9.135790348052979,-0.1406516283750534,-0.6341479420661926,0.6687667965888977,0.43286481499671936,0.2913348078727722,0.5032896995544434
9.155925989151001,-0.14034834504127502,-0.6341045498847961,0.6687246561050415,0.43264031410217285,0.29282259941101074,0.503279983997345
9.176157236099243,-0.14095813035964966,-0.6338368058204651,0.6699729561805725,0.4329126477241516,0.2916337251663208,0.5032849907875061
9.196311712265015,-0.14091764390468597,-0.6338589787483215,0.669303297996521,0.43291690945625305,0.29131627082824707,0.503239631652832
9.216415166854858,-0.14084428548812866,-0.6340994238853455,0.6694262623786926,0.4331214725971222,0.2914313077926636,0.5033299922943115
9.236588716506958,-0.14087221026420593,-0.6338227391242981,0.668982207775116,0.43280452489852905,0.2913515567779541,0.5031853318214417
9.256677627563477,-0.14131903648376465,-0.6338247060775757,0.6696287989616394,0.43334418535232544,0.2899302840232849,0.5032597780227661
9.276735305786133,-0.14090192317962646,-0.6338798403739929,0.6694725751876831,0.43285655975341797,0.2914345860481262,0.5031571984291077
9.296833038330078,-0.1408098340034485,-0.6340450048446655,0.669387698173523,0.43308916687965393,0.2914004921913147,0.5035161375999451
9.316913604736328,-0.14061681926250458,-0.6346642374992371,0.6686751842498779,0.43323031067848206,0.2912289500236511,0.5039397478103638
9.336971998214722,-0.14137715101242065,-0.6337129473686218,0.6695948243141174,0.4335297644138336,0.2898706793785095,0.5034118890762329
9.357176065444946,-0.14057904481887817,-0.6343520879745483,0.6688295006752014,0.432847797870636,0.2913287281990051,0.5034720301628113
9.37726879119873,-0.14099785685539246,-0.633867084980011,0.6699132919311523,0.4333428740501404,0.29134494066238403,0.5035826563835144
9.397427797317505,-0.1406533271074295,-0.6343744397163391,0.668721616268158,0.432869553565979,0.2914431691169739,0.5033156871795654
9.417555332183838,-0.1409251093864441,-0.6337650418281555,0.6694892048835754,0.4328193962574005,0.29151952266693115,0.5031284093856812
9.437610387802124,-0.14082008600234985,-0.6340658068656921,0.6694234609603882,0.43299320340156555,0.29140007495880127,0.5034464001655579
9.4578697681427,-0.14087994396686554,-0.6337500810623169,0.6691527962684631,0.4328482747077942,0.2913327217102051,0.5030106902122498
9.477975130081177,-0.14077675342559814,-0.6339625716209412,0.6695176362991333,0.43299317359924316,0.29141199588775635,0.5033960342407227
9.498033046722412,-0.14086711406707764,-0.6337485909461975,0.6691376566886902,0.43283405900001526,0.2913450002670288,0.5030046105384827
9.51823091506958,-0.1406516283750534,-0.6340823769569397,0.6684330701828003,0.43264904618263245,0.29132604598999023,0.5031916499137878
9.538325309753418,-0.14044418931007385,-0.6339714527130127,0.6691908240318298,0.4324702024459839,0.29287731647491455,0.5031377077102661
9.55841875076294,-0.14013540744781494,-0.634515106678009,0.6682548522949219,0.43260395526885986,0.29266494512557983,0.5034022927284241
9.57869553565979,-0.14073801040649414,-0.6340164542198181,0.6691735982894897,0.4332183003425598,0.2912968397140503,0.5034186840057373
9.598873138427734,-0.14043879508972168,-0.6338160634040833,0.6688820719718933,0.4321812093257904,0.29285699129104614,0.5027967095375061
9.618896961212158,-0.14130799472332,-0.6336003541946411,0.6692413687705994,0.43308618664741516,0.2898862361907959,0.5029762387275696
9.63908338546753,-0.14110101759433746,-0.6343141198158264,0.6693291664123535,0.43356412649154663,0.28986692428588867,0.5036377310752869
9.65916633605957,-0.1408819854259491,-0.6338226199150085,0.6693088412284851,0.4327544569969177,0.29154664278030396,0.5031406283378601
9.679280281066895,-0.14059898257255554,-0.6341956257820129,0.668687641620636,0.43263158202171326,0.29148024320602417,0.503150224685669
9.699295997619629,-0.14100073277950287,-0.6336410641670227,0.6693998575210571,0.43283697962760925,0.2914375066757202,0.5029513835906982
9.71946930885315,-0.14141792058944702,-0.6335871815681458,0.669579803943634,0.43324869871139526,0.28995025157928467,0.5029951930046082
9.739467859268188,-0.14092403650283813,-0.6339021325111389,0.6695422530174255,0.43294066190719604,0.2914615273475647,0.5031654834747314
9.759627342224121,-0.14078351855278015,-0.6339130997657776,0.6692044138908386,0.43281590938568115,0.2915462851524353,0.503166913986206
9.779678106307983,-0.14078117907047272,-0.6341415047645569,0.669182300567627,0.43306466937065125,0.29144251346588135,0.5034917593002319
9.800084352493286,-0.14078596234321594,-0.633773148059845,0.669266939163208,0.4327208697795868,0.2915087938308716,0.5030885934829712
9.820262908935547,-0.1413278579711914,-0.6338528990745544,0.6696304678916931,0.4333590269088745,0.2900264263153076,0.5032563209533691
9.84029769897461,-0.14093318581581116,-0.6338947415351868,0.6694862246513367,0.4329017400741577,0.2915313243865967,0.503167986869812
9.860368728637695,-0.14079730212688446,-0.6340788006782532,0.6691914796829224,0.432969331741333,0.2915293574333191,0.5032851099967957
9.880509376525879,-0.14083212614059448,-0.6339055299758911,0.669306218624115,0.43288546800613403,0.2915222644805908,0.503194272518158
9.900655508041382,-0.14079472422599792,-0.6337373852729797,0.6693147420883179,0.4326612651348114,0.2915534973144531,0.5030354261398315
9.920760869979858,-0.14057376980781555,-0.6341951489448547,0.6686569452285767,0.43260657787323,0.291495144367218,0.5031402707099915
9.940845012664795,-0.14053653180599213,-0.6342855095863342,0.6686816811561584,0.43268054723739624,0.29149961471557617,0.5034052133560181
9.961018562316895,-0.14096984267234802,-0.6339650750160217,0.6694014668464661,0.43285414576530457,0.29155516624450684,0.5031964778900146
9.981062412261963,-0.14066624641418457,-0.6341599822044373,0.6684858202934265,0.43269437551498413,0.2913740873336792,0.5032049417495728
10.001100540161133,-0.14035707712173462,-0.6339103579521179,0.6688730120658875,0.43228623270988464,0.29300230741500854,0.5030887126922607
10.021442174911499,-0.14102084934711456,-0.6336765289306641,0.6698383688926697,0.43298032879829407,0.29154086112976074,0.5031594634056091
10.041432857513428,-0.14087241888046265,-0.6336521506309509,0.6689927577972412,0.4325070381164551,0.29145926237106323,0.5029956698417664
10.061527967453003,-0.14033278822898865,-0.6339345574378967,0.6688262820243835,0.43224096298217773,0.2929760217666626,0.5028282403945923
10.081621170043945,-0.1405705362558365,-0.6337894797325134,0.6693171262741089,0.4325965940952301,0.2929540276527405,0.5031373500823975
10.10181188583374,-0.14074955880641937,-0.6341399550437927,0.6689462661743164,0.43290072679519653,0.29138416051864624,0.5034481287002563
10.122321844100952,-0.14018306136131287,-0.6341761350631714,0.6683332920074463,0.43227335810661316,0.2927809953689575,0.5031927824020386
10.14240312576294,-0.14157649874687195,-0.6336801648139954,0.6704463958740234,0.4336007237434387,0.290008008480072,0.5034732222557068
10.162468433380127,-0.14021003246307373,-0.6342108845710754,0.6685951352119446,0.4320605993270874,0.29303252696990967,0.5029875636100769
10.18256139755249,-0.1409175843000412,-0.6335780024528503,0.6697759628295898,0.4330931603908539,0.29137563705444336,0.5032077431678772
10.202653408050537,-0.14136886596679688,-0.6337146162986755,0.6690693497657776,0.43327584862709045,0.289715051651001,0.503082275390625
10.22274136543274,-0.1408994197845459,-0.6340973377227783,0.6697049140930176,0.4331127405166626,0.2915857434272766,0.5034366250038147
10.242820978164673,-0.14084139466285706,-0.6337758302688599,0.6692008972167969,0.4328020215034485,0.2914344072341919,0.5031812191009521
10.262898683547974,-0.14041033387184143,-0.6338640451431274,0.6689600348472595,0.43249672651290894,0.2928379774093628,0.5029706358909607
10.28297472000122,-0.14054402709007263,-0.6343467235565186,0.6687268018722534,0.4329322278499603,0.29133111238479614,0.5035324096679688
10.303057432174683,-0.14098091423511505,-0.6337677836418152,0.6694325804710388,0.4327307641506195,0.29144954681396484,0.5030970573425293
10.323129177093506,-0.14136257767677307,-0.6338503360748291,0.6696327328681946,0.4334139823913574,0.28986406326293945,0.5032950043678284
10.34318494796753,-0.14096079766750336,-0.6340153813362122,0.6694421172142029,0.43303418159484863,0.2914199233055115,0.503284752368927
10.363296508789062,-0.1407337486743927,-0.6337181925773621,0.6692124009132385,0.43258780241012573,0.29159432649612427,0.5030153393745422
10.383387088775635,-0.14060460031032562,-0.6344112753868103,0.6686154007911682,0.4328436255455017,0.2914230227470398,0.5033103227615356
10.403425931930542,-0.14136692881584167,-0.6336089968681335,0.6695122718811035,0.4334135949611664,0.289895236492157,0.5031213164329529
10.423516750335693,-0.14065270125865936,-0.6340748071670532,0.6686756014823914,0.43275171518325806,0.29131078720092773,0.5030110478401184
10.443621158599854,-0.1410098373889923,-0.6336271166801453,0.6698118448257446,0.43297111988067627,0.29160165786743164,0.5031498670578003
10.463661193847656,-0.14068935811519623,-0.6341961622238159,0.6687827110290527,0.43285009264945984,0.2912864685058594,0.5032702088356018
10.483750820159912,-0.14134788513183594,-0.633784294128418,0.669701099395752,0.4331895112991333,0.29014110565185547,0.5031420588493347
10.503822803497314,-0.14088726043701172,-0.6341386437416077,0.669658899307251,0.4331822395324707,0.2913830876350403,0.5034998655319214
10.523904800415039,-0.14088235795497894,-0.6336296200752258,0.6690284609794617,0.43263763189315796,0.2914122939109802,0.5029099583625793
10.543985605239868,-0.14029699563980103,-0.6340980529785156,0.669098436832428,0.4323132038116455,0.29311394691467285,0.5032423734664917
10.56412386894226,-0.14068743586540222,-0.6342182159423828,0.6692878603935242,0.43320736289024353,0.29130274057388306,0.5035929083824158
10.584165096282959,-0.14140251278877258,-0.6337031126022339,0.669596254825592,0.43314820528030396,0.2899707555770874,0.5031495690345764
10.604238510131836,-0.14040648937225342,-0.6338024735450745,0.6688088178634644,0.4320634603500366,0.2929542660713196,0.5029057860374451
10.62429928779602,-0.14021284878253937,-0.633979082107544,0.6685203909873962,0.4322335720062256,0.29284435510635376,0.5030447840690613
10.644495248794556,-0.14116036891937256,-0.6333173513412476,0.6695860028266907,0.4328364133834839,0.2913041114807129,0.5028738975524902
10.664551258087158,-0.14092278480529785,-0.6339183449745178,0.6692334413528442,0.43270939588546753,0.29148542881011963,0.5031306147575378
10.684876441955566,-0.14080093801021576,-0.6340251564979553,0.6694141030311584,0.4329042434692383,0.2914479374885559,0.503395140171051
10.704971075057983,-0.14034020900726318,-0.6342411637306213,0.6691861152648926,0.43262866139411926,0.2928735613822937,0.5036554932594299
10.725055932998657,-0.14077265560626984,-0.6343154311180115,0.668911874294281,0.43329188227653503,0.29116374254226685,0.5037378072738647
10.745115518569946,-0.1408396065235138,-0.6340594291687012,0.6694416999816895,0.43319156765937805,0.291361927986145,0.5035772323608398
10.765369653701782,-0.1408551037311554,-0.6338278651237488,0.6691882610321045,0.43272238969802856,0.2913912534713745,0.5031389594078064
10.785370349884033,-0.14084498584270477,-0.6338969469070435,0.6692721843719482,0.4328809380531311,0.2913854122161865,0.503204345703125
10.805588245391846,-0.14086021482944489,-0.6338922381401062,0.669297993183136,0.4329374432563782,0.2913805842399597,0.5032352209091187
10.825696229934692,-0.1413566917181015,-0.6338436007499695,0.6696251034736633,0.4334815740585327,0.28986459970474243,0.5033407211303711
10.845755338668823,-0.1406278908252716,-0.6339213252067566,0.6698587536811829,0.43275007605552673,0.292893648147583,0.5033876895904541
10.865867376327515,-0.14144816994667053,-0.6335076093673706,0.6698461174964905,0.4334096610546112,0.289930522441864,0.5032761693000793
10.88597297668457,-0.1407516747713089,-0.6335194706916809,0.6694955229759216,0.43225225806236267,0.29291218519210815,0.5029923319816589
10.906009912490845,-0.14079496264457703,-0.6340270638465881,0.6692450642585754,0.43294787406921387,0.2913256287574768,0.5032280683517456
10.926107406616211,-0.14084553718566895,-0.6340321898460388,0.6694527864456177,0.43301236629486084,0.29143935441970825,0.503449559211731
10.946209907531738,-0.1409301608800888,-0.6338449120521545,0.6690568327903748,0.4328659772872925,0.29132354259490967,0.5030734539031982
10.966276168823242,-0.1413431167602539,-0.6338698267936707,0.6696933507919312,0.4333486557006836,0.2899664044380188,0.5034618377685547
10.986453294754028,-0.14021199941635132,-0.6340211629867554,0.6682137846946716,0.43216758966445923,0.2927579879760742,0.5029486417770386
11.00652265548706,-0.14010339975357056,-0.6342247128486633,0.6681603789329529,0.43246325850486755,0.2926877737045288,0.5030925869941711
11.026661396026611,-0.1411430835723877,-0.6336511373519897,0.6701186299324036,0.4329938590526581,0.2915145754814148,0.503089427947998
11.046799182891846,-0.14060017466545105,-0.634227454662323,0.6690436601638794,0.43282678723335266,0.2913685441017151,0.5033756494522095
11.066835641860962,-0.140337273478508,-0.6336718797683716,0.6688061952590942,0.4322531819343567,0.2928140163421631,0.5028584599494934
11.086930513381958,-0.1411108523607254,-0.6335946321487427,0.6698005199432373,0.4331074655056,0.2913363575935364,0.503023087978363
11.107073783874512,-0.141079843044281,-0.6336970925331116,0.6699755191802979,0.4331093430519104,0.2914438843727112,0.5031890869140625
11.127649545669556,-0.14108914136886597,-0.6336427330970764,0.6698893904685974,0.4330056607723236,0.2914227247238159,0.5031643509864807
11.147780895233154,-0.14127156138420105,-0.6338276267051697,0.6692739129066467,0.4333590269088745,0.2897700071334839,0.5032857060432434
11.167889833450317,-0.14107224345207214,-0.6337095499038696,0.6701279878616333,0.4330158531665802,0.29144126176834106,0.5034706592559814
11.188119888305664,-0.1413479894399643,-0.6340844631195068,0.6696874499320984,0.4336259365081787,0.2898678183555603,0.503426730632782
11.208232641220093,-0.14011672139167786,-0.6343380808830261,0.668536901473999,0.4323187470436096,0.2929174304008484,0.5033590793609619
11.228387594223022,-0.14076435565948486,-0.6338030695915222,0.6689237356185913,0.43290960788726807,0.2912730574607849,0.503092885017395
11.24844741821289,-0.14087331295013428,-0.6339743733406067,0.6694211363792419,0.4329601526260376,0.29138022661209106,0.5032038688659668
11.268553972244263,-0.14091786742210388,-0.633729875087738,0.6691142320632935,0.432817667722702,0.2913033962249756,0.5030083656311035
11.288614273071289,-0.14086765050888062,-0.6338734030723572,0.6693010926246643,0.43287068605422974,0.29141169786453247,0.5031863451004028
11.30875277519226,-0.14088591933250427,-0.6337301731109619,0.669161319732666,0.4328342080116272,0.29136019945144653,0.5029945373535156
11.328782558441162,-0.1404106616973877,-0.6335427165031433,0.66881263256073,0.43215975165367126,0.29284489154815674,0.5025642514228821
11.348869323730469,-0.1407671868801117,-0.6339814066886902,0.6688753962516785,0.43293440341949463,0.2912853956222534,0.5032585859298706
11.368941307067871,-0.1403256058692932,-0.6339592337608337,0.6689285635948181,0.43225085735321045,0.2927303910255432,0.503344714641571
11.389184713363647,-0.1407891809940338,-0.634182870388031,0.6690590977668762,0.43318140506744385,0.29123246669769287,0.5034546256065369
11.40915584564209,-0.1405898928642273,-0.6338585019111633,0.6694921851158142,0.43272334337234497,0.29290902614593506,0.5032553672790527
11.429245710372925,-0.14087353646755219,-0.633618175983429,0.6698305606842041,0.4328436851501465,0.2913762331008911,0.5034037232398987
11.449312686920166,-0.14067988097667694,-0.6340544819831848,0.668593168258667,0.432734876871109,0.2912546992301941,0.5030450224876404
11.46973466873169,-0.14083290100097656,-0.6338745951652527,0.6692546010017395,0.43292859196662903,0.2914033532142639,0.5032339692115784
11.489893198013306,-0.14085979759693146,-0.6338995099067688,0.6693080067634583,0.4329172372817993,0.2913757562637329,0.503218948841095
11.509969472885132,-0.14085155725479126,-0.6339667439460754,0.6690572500228882,0.4330299496650696,0.291268527507782,0.5032984614372253
11.53070878982544,-0.14086994528770447,-0.6338816285133362,0.669304370880127,0.4329564571380615,0.2913846969604492,0.503244936466217
11.550867319107056,-0.14039956033229828,-0.6338276267051697,0.6688277721405029,0.43232887983322144,0.2928215265274048,0.5029098391532898
11.571019887924194,-0.14009147882461548,-0.6342758536338806,0.6682586073875427,0.43232375383377075,0.2927755117416382,0.503207266330719
11.591097593307495,-0.14067953824996948,-0.6336482167243958,0.6694351434707642,0.4323943853378296,0.2927672863006592,0.5031562447547913
11.61128306388855,-0.14078938961029053,-0.63377845287323,0.6691998839378357,0.43272536993026733,0.2913435101509094,0.5031041502952576
11.631346225738525,-0.14083528518676758,-0.6340962052345276,0.6690899729728699,0.43307265639305115,0.29125165939331055,0.5035375356674194
11.651559829711914,-0.14092504978179932,-0.6338512301445007,0.6687660813331604,0.43275582790374756,0.2912590503692627,0.50303715467453
11.671568155288696,-0.1409004032611847,-0.6338628530502319,0.6690005660057068,0.43287110328674316,0.29129940271377563,0.5032215714454651
11.691742897033691,-0.14093010127544403,-0.6337699294090271,0.6687062978744507,0.4328206777572632,0.29121750593185425,0.5028700828552246
11.711752891540527,-0.14091253280639648,-0.6338722705841064,0.6689771413803101,0.4328470230102539,0.29126960039138794,0.5032262206077576
11.731826066970825,-0.14157818257808685,-0.6336621642112732,0.6700841188430786,0.43349185585975647,0.28995805978775024,0.5033017992973328
11.751912117004395,-0.14058874547481537,-0.6343355774879456,0.6682297587394714,0.4329414963722229,0.2911967635154724,0.503440260887146
11.772000789642334,-0.14032858610153198,-0.6341373324394226,0.6690659523010254,0.43269363045692444,0.29284989833831787,0.5035003423690796
11.792234659194946,-0.14118678867816925,-0.6339351534843445,0.669529378414154,0.4335099458694458,0.2898867726325989,0.5033738613128662
11.812352657318115,-0.14067256450653076,-0.6342862248420715,0.6689453125,0.43283653259277344,0.29139113426208496,0.5034297704696655
11.832462310791016,-0.14119061827659607,-0.6340680718421936,0.6698025465011597,0.4335596561431885,0.2898266911506653,0.5036934614181519
11.852526664733887,-0.14023499190807343,-0.6342934966087341,0.6681416630744934,0.4322333335876465,0.2927061915397644,0.5033872723579407
11.872685194015503,-0.14051103591918945,-0.6341972947120667,0.6685486435890198,0.43277502059936523,0.2913145422935486,0.5032863020896912
11.892689228057861,-0.1407347321510315,-0.6339853405952454,0.6692970395088196,0.4328387379646301,0.29133546352386475,0.5035420656204224
11.912784576416016,-0.141374409198761,-0.6338967680931091,0.669645369052887,0.43340015411376953,0.28986483812332153,0.5035288333892822
11.932867765426636,-0.14135527610778809,-0.6333774924278259,0.6705106496810913,0.433135986328125,0.2914314866065979,0.5031611919403076
11.952977418899536,-0.14090485870838165,-0.6335336565971375,0.6693043112754822,0.4324374496936798,0.2913193106651306,0.5028376579284668
11.973012924194336,-0.1408359259366989,-0.6339688897132874,0.6692869067192078,0.433100163936615,0.2912004590034485,0.5034765601158142
11.993139028549194,-0.14081642031669617,-0.6336809992790222,0.6693174242973328,0.4327300190925598,0.2914469242095947,0.5030937790870667
12.013201236724854,-0.14100292325019836,-0.6338053941726685,0.669929563999176,0.43310052156448364,0.2914561629295349,0.5034207701683044
12.0332932472229,-0.14082807302474976,-0.6340389847755432,0.6690382361412048,0.4330001473426819,0.29131412506103516,0.5033565759658813
12.053365707397461,-0.14092105627059937,-0.6337675452232361,0.6691739559173584,0.432947039604187,0.2912951111793518,0.5030611157417297
12.073694705963135,-0.1408693492412567,-0.6340301632881165,0.668988823890686,0.43290895223617554,0.2913452386856079,0.5032709836959839
12.09388279914856,-0.14080938696861267,-0.6337027549743652,0.669358491897583,0.4327319860458374,0.291443407535553,0.5030861496925354
12.113903284072876,-0.14062492549419403,-0.6341522932052612,0.6687132120132446,0.4327462315559387,0.29135751724243164,0.5032238960266113
12.134665489196777,-0.14085370302200317,-0.6337305903434753,0.6691040992736816,0.43284130096435547,0.2913582921028137,0.5030114054679871
12.154775381088257,-0.14127786457538605,-0.63401198387146,0.6695350408554077,0.43347182869911194,0.2897578477859497,0.5036542415618896
12.174932956695557,-0.14097100496292114,-0.6339564323425293,0.6693471074104309,0.4329679310321808,0.2913960814476013,0.5032901167869568
12.195017099380493,-0.140893816947937,-0.6336899399757385,0.6691827178001404,0.432716965675354,0.29140704870224,0.5029184818267822
12.215112924575806,-0.14081493020057678,-0.6337994933128357,0.6693972945213318,0.43294984102249146,0.291378378868103,0.5031907558441162
12.235197305679321,-0.1407148689031601,-0.6341498494148254,0.6682698130607605,0.4328072667121887,0.2912142872810364,0.5031386613845825
12.255335330963135,-0.14043940603733063,-0.6337148547172546,0.6687515377998352,0.4322596788406372,0.29284602403640747,0.5028946399688721
12.275490522384644,-0.14096367359161377,-0.6337378621101379,0.670063316822052,0.4331740438938141,0.2914121747016907,0.503413736820221
12.295578002929688,-0.1409582793712616,-0.6338391900062561,0.6687757968902588,0.4328095316886902,0.29123586416244507,0.5030694007873535
12.315786838531494,-0.1409260332584381,-0.6337001919746399,0.6691872477531433,0.4327767789363861,0.29138660430908203,0.5029462575912476
12.33595609664917,-0.140816330909729,-0.6339758634567261,0.6693506240844727,0.43307048082351685,0.2913709878921509,0.5032908320426941
12.355985879898071,-0.14135277271270752,-0.6337959170341492,0.6693126559257507,0.4334039092063904,0.28981518745422363,0.5033328533172607
12.376810789108276,0.014123830944299698,-0.566827118396759,0.7918391227722168,-0.06709180027246475,0.35506224632263184,-0.09318286180496216
12.396936893463135,-0.12375786900520325,-0.6051128506660461,0.8858779668807983,0.2931169271469116,0.2775154709815979,0.10578987747430801
12.416995763778687,-0.09166616946458817,-0.592347264289856,0.8864525556564331,0.21493391692638397,0.3236204981803894,0.05394212156534195
12.437053203582764,-0.07248204201459885,-0.5921533107757568,0.8767099976539612,0.19661031663417816,0.33036160469055176,0.04337218403816223
12.457143306732178,-0.056285060942173004,-0.5888767838478088,0.8688237071037292,0.19171209633350372,0.3330625891685486,0.041543908417224884
12.477228164672852,-0.059995803982019424,-0.5896151065826416,0.8678095936775208,0.19244198501110077,0.33132755756378174,0.041537098586559296
12.497365236282349,-0.05987720564007759,-0.5920510292053223,0.8654810190200806,0.1915096640586853,0.33178597688674927,0.04082486033439636
12.517527341842651,-0.06272415816783905,-0.5919256806373596,0.8695863485336304,0.19234737753868103,0.3292818069458008,0.04033244401216507
12.537586450576782,-0.06257690489292145,-0.5917874574661255,0.8718221187591553,0.19363541901111603,0.3253578543663025,0.04128237068653107
12.557855367660522,-0.060219909995794296,-0.5936653017997742,0.8589674234390259,0.19141429662704468,0.32309234142303467,0.03939130902290344
12.578001976013184,-0.06083862856030464,-0.5943784713745117,0.867605984210968,0.19275878369808197,0.32465869188308716,0.03975800424814224
12.598159313201904,-0.06159617379307747,-0.5916770100593567,0.8717206716537476,0.19318240880966187,0.3263118863105774,0.040194958448410034
12.618170261383057,-0.061489809304475784,-0.5920289754867554,0.8723940253257751,0.1933753341436386,0.323550283908844,0.03986611217260361
12.638235807418823,-0.05917135998606682,-0.5964729189872742,0.857968807220459,0.19174058735370636,0.3201771378517151,0.03730180859565735
12.658387899398804,-0.059753675013780594,-0.5939780473709106,0.8657508492469788,0.19201530516147614,0.32497072219848633,0.03762324899435043
12.678476095199585,-0.06049218401312828,-0.5935662388801575,0.8692323565483093,0.19364140927791595,0.3216094374656677,0.03794155269861221
12.698590993881226,-0.05923992022871971,-0.5945671796798706,0.8640826940536499,0.19188135862350464,0.32086706161499023,0.036311015486717224
12.718719482421875,-0.05999670550227165,-0.5948723554611206,0.8668625354766846,0.19272778928279877,0.32030147314071655,0.03620936721563339
12.738810062408447,-0.0580747164785862,-0.5932387709617615,0.8678436279296875,0.19239330291748047,0.3242664337158203,0.03615278750658035
12.758853673934937,-0.056752804666757584,-0.5959659814834595,0.8555421829223633,0.19099748134613037,0.31811290979385376,0.03486115485429764
12.779022455215454,-0.05915260687470436,-0.5957514643669128,0.8692641258239746,0.19258011877536774,0.3207877278327942,0.03508211672306061
12.79912781715393,-0.05832863971590996,-0.5956107974052429,0.8630567789077759,0.19055630266666412,0.3164641857147217,0.03247594088315964
12.819222211837769,-0.05761300027370453,-0.5942577123641968,0.8672100305557251,0.19224703311920166,0.3213503956794739,0.03257536143064499
12.839326620101929,-0.05976070836186409,-0.5958039164543152,0.8653168678283691,0.1916298270225525,0.31305742263793945,0.03037852980196476
12.859458446502686,-0.058969978243112564,-0.5952324271202087,0.869905412197113,0.19215181469917297,0.3170264959335327,0.031055854633450508
12.879788398742676,-0.05663235858082771,-0.5963175892829895,0.8611159324645996,0.19069959223270416,0.318401575088501,0.02944791503250599
12.899895668029785,-0.057941336184740067,-0.5965090990066528,0.866212010383606,0.19277648627758026,0.3151361346244812,0.030427360907197
12.919986248016357,-0.05607745423913002,-0.5963725447654724,0.8632845878601074,0.19139079749584198,0.31700408458709717,0.030387671664357185
12.940077543258667,-0.05808395519852638,-0.5958585739135742,0.8685125112533569,0.19205515086650848,0.31592750549316406,0.029881423339247704
12.960153341293335,-0.056028034538030624,-0.5978297591209412,0.8642992377281189,0.19149748980998993,0.3132745623588562,0.028911182656884193
12.98020076751709,-0.0574982576072216,-0.5989780426025391,0.8589867949485779,0.1914301961660385,0.3005497455596924,0.02757827378809452
13.00028657913208,-0.054229237139225006,-0.5999345779418945,0.8593356609344482,0.1900825947523117,0.3120148777961731,0.02761007286608219
13.020519733428955,-0.05533032491803169,-0.5971103310585022,0.8618005514144897,0.19109731912612915,0.3097544312477112,0.02694602869451046
13.04050874710083,-0.0568024180829525,-0.5974364876747131,0.8682785034179688,0.19229285418987274,0.30760353803634644,0.0266833808273077
13.060682773590088,-0.0554596483707428,-0.5989944338798523,0.8586181402206421,0.1910211741924286,0.30535566806793213,0.025189625099301338
13.0807523727417,-0.05640244483947754,-0.5991820693016052,0.8636519908905029,0.19230546057224274,0.3035854697227478,0.025392716750502586
13.100829839706421,-0.054125744849443436,-0.59904545545578,0.8611621856689453,0.19098971784114838,0.30868303775787354,0.025049148127436638
13.120914936065674,-0.05500700697302818,-0.5980852842330933,0.8635265827178955,0.19100666046142578,0.3064698576927185,0.023345312103629112
13.140993595123291,-0.053742051124572754,-0.6008299589157104,0.8599600195884705,0.19142647087574005,0.30828362703323364,0.02232719399034977
13.16111946105957,-0.055763792246580124,-0.598819375038147,0.8660088777542114,0.19114573299884796,0.3062443137168884,0.021555250510573387
13.18117904663086,-0.05220548436045647,-0.6009699702262878,0.8611173629760742,0.1899537444114685,0.305586040019989,0.021012859418988228
13.201236724853516,-0.054726723581552505,-0.6007963418960571,0.8648338913917542,0.19161184132099152,0.2988203167915344,0.01994163729250431
13.22132396697998,-0.05440376326441765,-0.6001338362693787,0.8647163510322571,0.1919316053390503,0.30190354585647583,0.020338231697678566
13.24144697189331,-0.05374036729335785,-0.602119505405426,0.8609585762023926,0.1914803385734558,0.29483217000961304,0.018703700974583626
13.261792659759521,-0.05233322083950043,-0.6010913252830505,0.8619319200515747,0.1915375143289566,0.2987139821052551,0.019548917189240456
13.281912326812744,-0.054537903517484665,-0.6003581881523132,0.8660468459129333,0.19215188920497894,0.29599881172180176,0.01909085549414158
13.301958799362183,-0.04875533655285835,-0.6012557148933411,0.8549867868423462,0.18902945518493652,0.29792022705078125,0.018371323123574257
13.322067022323608,-0.05813251808285713,-0.6024491190910339,0.8690487146377563,0.19277390837669373,0.2836737036705017,0.016967447474598885
13.342155456542969,-0.05425359308719635,-0.6023096442222595,0.8621381521224976,0.19026310741901398,0.29221540689468384,0.015861326828598976
13.362219333648682,-0.052588630467653275,-0.6042689681053162,0.8580558896064758,0.19030745327472687,0.2901715636253357,0.01475110836327076
13.382435083389282,-0.049785129725933075,-0.6033660173416138,0.8572185635566711,0.18963007628917694,0.2951180934906006,0.01468486525118351
13.402465105056763,-0.050492819398641586,-0.6018629670143127,0.8594126105308533,0.1910228729248047,0.29467034339904785,0.014595573768019676
13.422650337219238,-0.05323951318860054,-0.6014851331710815,0.8678538799285889,0.19228868186473846,0.2873551845550537,0.013894597068428993
13.44273829460144,-0.04798292741179466,-0.602051317691803,0.8578715920448303,0.18878774344921112,0.29480236768722534,0.012674422934651375
13.462811708450317,-0.047701552510261536,-0.6044507622718811,0.8576314449310303,0.18823650479316711,0.29146331548690796,0.010687490925192833
13.482916116714478,-0.05434693768620491,-0.6029284000396729,0.8684599995613098,0.19310249388217926,0.28358709812164307,0.012339627370238304
13.503013372421265,-0.05203218385577202,-0.6050294041633606,0.8617043495178223,0.1902114599943161,0.28315818309783936,0.009570812806487083
13.523114681243896,-0.05136570706963539,-0.6066673994064331,0.8545551300048828,0.1915029138326645,0.2743769884109497,0.008115401491522789
13.543182849884033,-0.046820782124996185,-0.6083955764770508,0.8513826727867126,0.1878442019224167,0.2805352807044983,0.00632169283926487
13.563297271728516,-0.045537009835243225,-0.6038565635681152,0.857407808303833,0.188991978764534,0.2851731777191162,0.006913257762789726
13.583338975906372,-0.04581785574555397,-0.6074978113174438,0.8538467288017273,0.19052666425704956,0.27985161542892456,0.008019672706723213
13.603432416915894,-0.04852237179875374,-0.6053141951560974,0.8616591095924377,0.18944741785526276,0.28432393074035645,0.0069223809987306595
13.623534917831421,-0.04761989787220955,-0.6065390110015869,0.8533881306648254,0.18827083706855774,0.2750048041343689,0.005202801898121834
13.643576860427856,-0.047284435480833054,-0.6036590337753296,0.863713800907135,0.18909095227718353,0.2823386788368225,0.004917273297905922
13.66373610496521,-0.04691211134195328,-0.6040967702865601,0.8590314388275146,0.1880570501089096,0.28124988079071045,0.004109667614102364
13.683773040771484,-0.046617183834314346,-0.6055085062980652,0.8594465255737305,0.1887894719839096,0.28128480911254883,0.00368405319750309
13.704096794128418,-0.046098582446575165,-0.6055529713630676,0.8569542765617371,0.1885782927274704,0.27569568157196045,0.003269219771027565
13.724261045455933,-0.0479506254196167,-0.6085219383239746,0.854141891002655,0.1886318176984787,0.2681621313095093,0.001779681071639061
13.7442946434021,-0.0462690070271492,-0.6067233681678772,0.8582515716552734,0.18782980740070343,0.2743133306503296,0.0006910134106874466
13.764380693435669,-0.04606156796216965,-0.6069144010543823,0.8576741814613342,0.1889607161283493,0.27183008193969727,0.0020472537726163864
13.784606695175171,-0.04621119424700737,-0.6068611741065979,0.8582524061203003,0.18748484551906586,0.27194201946258545,-9.501911699771881e-05
13.804577350616455,-0.04585177078843117,-0.6066882014274597,0.8571822047233582,0.1882917284965515,0.2699959874153137,-0.001060856506228447
13.824761629104614,-0.044492121785879135,-0.6077190637588501,0.8554226160049438,0.187339648604393,0.2695797085762024,-0.0020185131579637527
13.844830513000488,-0.04324929788708687,-0.6092583537101746,0.8527722358703613,0.18686310946941376,0.2690010666847229,-0.0035740304738283157
13.864928960800171,-0.04652419313788414,-0.6076273918151855,0.8619598150253296,0.18850992619991302,0.2656039595603943,-0.0029313620179891586
13.88510513305664,-0.04528441280126572,-0.6098610758781433,0.8577149510383606,0.18850013613700867,0.2631095051765442,-0.0037007611244916916
13.905208587646484,-0.04084595665335655,-0.6102737784385681,0.8508383631706238,0.18663348257541656,0.26378434896469116,-0.00465269573032856
13.925295352935791,-0.04626047983765602,-0.6100727915763855,0.8601826429367065,0.18849416077136993,0.2568466067314148,-0.006398702040314674
13.945389032363892,-0.044717494398355484,-0.6108675003051758,0.8554977178573608,0.18765310943126678,0.26005470752716064,-0.007604056969285011
13.96579647064209,-0.04014986380934715,-0.611553966999054,0.8484748601913452,0.18650884926319122,0.260029137134552,-0.008200524374842644
13.985882759094238,-0.041353125125169754,-0.6097137331962585,0.8543410301208496,0.1863718181848526,0.26337796449661255,-0.008646195754408836
14.00602388381958,-0.04414688050746918,-0.6100168824195862,0.8601750731468201,0.18740925192832947,0.2554279565811157,-0.010151689872145653
14.02608346939087,-0.04035729169845581,-0.6101725697517395,0.8530843257904053,0.18672902882099152,0.2591673731803894,-0.010221587494015694
14.046258687973022,-0.03988716006278992,-0.6142981052398682,0.84694904088974,0.18464769423007965,0.25594186782836914,-0.01316811703145504
14.066262006759644,-0.04016035422682762,-0.613135576248169,0.8483004570007324,0.18504266440868378,0.2556651830673218,-0.013289807364344597
14.086330652236938,-0.04113037884235382,-0.6139454245567322,0.8524249792098999,0.18514606356620789,0.25238746404647827,-0.01422915793955326
14.106411933898926,-0.0412309430539608,-0.6123061776161194,0.8556329011917114,0.18558438122272491,0.25040334463119507,-0.015355991199612617
14.126451015472412,-0.039408933371305466,-0.6166979670524597,0.8470231890678406,0.1855325996875763,0.2481113225221634,-0.016365455463528633
14.146557569503784,-0.039467137306928635,-0.6143509149551392,0.8543709516525269,0.1858230084180832,0.2532868981361389,-0.016107557341456413
14.166650772094727,-0.03719286248087883,-0.6149852871894836,0.8466854095458984,0.18553532660007477,0.2469492107629776,-0.017155161127448082
14.186689853668213,-0.03567011281847954,-0.612593412399292,0.8527527451515198,0.18523088097572327,0.25194811820983887,-0.017506225034594536
14.206795692443848,-0.04461216926574707,-0.6125974059104919,0.8640078902244568,0.18854358792304993,0.2351805418729782,-0.01834098808467388
14.226902723312378,-0.04647305980324745,-0.6154488325119019,0.8628352880477905,0.18903179466724396,0.22591398656368256,-0.01980728842318058
14.246975421905518,-0.044462405145168304,-0.6168788075447083,0.8617641925811768,0.18730023503303528,0.22915096580982208,-0.022014273330569267
14.26704740524292,-0.03168443217873573,-0.616398274898529,0.8457682132720947,0.18564580380916595,0.2395159751176834,-0.021814076229929924
14.287183284759521,-0.034937288612127304,-0.6165804862976074,0.8493284583091736,0.18636135756969452,0.23557685315608978,-0.023523731157183647
14.307778596878052,-0.03399882838129997,-0.6183786988258362,0.8462153673171997,0.1841094046831131,0.23999573290348053,-0.026052167639136314
14.327879428863525,-0.03622397407889366,-0.6162249445915222,0.8543922901153564,0.1842893362045288,0.23905210196971893,-0.027295229956507683
14.347968339920044,-0.032069139182567596,-0.6180810332298279,0.8481532335281372,0.1834462732076645,0.24049974977970123,-0.027124760672450066
14.368019342422485,-0.02822820097208023,-0.6167780160903931,0.8442181944847107,0.1815062016248703,0.24164940416812897,-0.0289617907255888
14.388100147247314,-0.04118874669075012,-0.617730438709259,0.8604922294616699,0.18696388602256775,0.22237013280391693,-0.030029071494936943
14.408201932907104,-0.038143180310726166,-0.6180147528648376,0.8563408851623535,0.18629778921604156,0.22499816119670868,-0.029997313395142555
14.428241491317749,-0.029979225248098373,-0.6204703450202942,0.8420267105102539,0.18375463783740997,0.22367699444293976,-0.03181910514831543
14.44837999343872,-0.031872253865003586,-0.620415210723877,0.8480251431465149,0.18445779383182526,0.2248527556657791,-0.03232565522193909
14.46849513053894,-0.030561111867427826,-0.6222548484802246,0.8448917865753174,0.18488682806491852,0.21561355888843536,-0.03397578001022339
14.48851203918457,-0.030325934290885925,-0.6224635243415833,0.8459054231643677,0.18367238342761993,0.22386999428272247,-0.03548037260770798
14.508677244186401,-0.027471177279949188,-0.6223654747009277,0.8427390456199646,0.18364344537258148,0.22179944813251495,-0.03680597245693207
14.528769969940186,-0.027145810425281525,-0.6204152703285217,0.8476723432540894,0.18306457996368408,0.22682936489582062,-0.03843580186367035
14.548807621002197,-0.031014394015073776,-0.6201850771903992,0.8529733419418335,0.18556128442287445,0.2231084257364273,-0.038034237921237946
14.568944215774536,-0.02745947614312172,-0.6214049458503723,0.8473066091537476,0.18419145047664642,0.22435395419597626,-0.039013832807540894
14.58912992477417,-0.027942173182964325,-0.6220685839653015,0.8450950384140015,0.18425646424293518,0.2152407318353653,-0.04167509824037552
14.609221935272217,-0.025492195039987564,-0.6225054860115051,0.8459523320198059,0.18187464773654938,0.2198897749185562,-0.04257158935070038
14.629286289215088,-0.023211855441331863,-0.6222552061080933,0.8442196249961853,0.18174083530902863,0.21785689890384674,-0.045402683317661285
14.64936351776123,-0.03366013988852501,-0.6240453124046326,0.8550659418106079,0.18461959064006805,0.19714142382144928,-0.048350781202316284
14.66956615447998,-0.03496723994612694,-0.6238269209861755,0.8585684299468994,0.18473272025585175,0.1936141401529312,-0.04969412833452225
