liuyurong129/humanoid-gym/humanoid/data/target_q_20250524-021701.csv
timestamp,joint_1,joint_2,joint_3,joint_4,joint_5,joint_6
3.886222839355469e-05,0.0,0.0,0.0,0.0,0.0,0.0
0.020154953002929688,0.0,0.0,0.0,0.0,0.0,0.0
0.040180206298828125,0.0,0.0,0.0,0.0,0.0,0.0
0.06025099754333496,0.0,0.0,0.0,0.0,0.0,0.0
0.08030414581298828,0.017504259943962097,-0.23061351478099823,0.6168846487998962,-0.41617321968078613,-0.07521213591098785,-0.8062567114830017
0.10058879852294922,-0.07915669679641724,-0.259117990732193,0.37675291299819946,-0.22189636528491974,0.06206292286515236,-0.39667320251464844
0.12072324752807617,-0.07279366999864578,-0.24145609140396118,0.4501344561576843,-0.28677859902381897,0.07941398024559021,-0.4889964461326599
0.14076805114746094,-0.07293365895748138,-0.22544512152671814,0.4714469015598297,-0.30770599842071533,0.07332456111907959,-0.5099942684173584
0.16081523895263672,-0.07094261050224304,-0.2414660006761551,0.46031081676483154,-0.3147234618663788,0.07204720377922058,-0.5106484293937683
0.1809227466583252,-0.06776163727045059,-0.2542063295841217,0.4605409502983093,-0.3123663067817688,0.07427091896533966,-0.5175652503967285
0.20097875595092773,-0.06612389534711838,-0.2631244361400604,0.4521692395210266,-0.3113085627555847,0.07456809282302856,-0.5165299773216248
0.22106385231018066,-0.06538363546133041,-0.2670924961566925,0.45415621995925903,-0.30964651703834534,0.07247340679168701,-0.5185447335243225
0.24116802215576172,-0.06982634216547012,-0.24615371227264404,0.46233776211738586,-0.3121263086795807,0.0666021853685379,-0.5180002450942993
0.26129770278930664,-0.06880515068769455,-0.25057774782180786,0.4626326262950897,-0.30959632992744446,0.06522449851036072,-0.520447850227356
0.2813704013824463,-0.06961227208375931,-0.24801146984100342,0.4722546935081482,-0.31026318669319153,0.06504344940185547,-0.5227133631706238
0.30223703384399414,-0.06628245115280151,-0.26476335525512695,0.46171578764915466,-0.3063477575778961,0.06692667305469513,-0.525636613368988
0.3223288059234619,-0.06526977568864822,-0.26366502046585083,0.46121978759765625,-0.30710098147392273,0.0662384182214737,-0.5257036685943604
0.3424217700958252,-0.06771062314510345,-0.25732409954071045,0.4707487225532532,-0.305815726518631,0.06301118433475494,-0.5303561091423035
0.3624846935272217,-0.06992854923009872,-0.25523898005485535,0.473884642124176,-0.30766263604164124,0.05980489030480385,-0.5296912789344788
0.38262343406677246,-0.06443207710981369,-0.28396111726760864,0.4599539637565613,-0.3048430383205414,0.06384381651878357,-0.5315976738929749
0.40265703201293945,-0.06403329968452454,-0.2892751097679138,0.45906001329421997,-0.3056500256061554,0.06826759874820709,-0.5306435227394104
0.4227612018585205,-0.06603983789682388,-0.28987911343574524,0.46068793535232544,-0.3031279742717743,0.06728750467300415,-0.5326122641563416
0.4428708553314209,-0.068660207092762,-0.27309155464172363,0.47170954942703247,-0.30545350909233093,0.06479066610336304,-0.5343580842018127
0.46297264099121094,-0.06700090318918228,-0.2779628336429596,0.4697633981704712,-0.3076014518737793,0.06367126107215881,-0.5343576073646545
0.4831399917602539,-0.06494800001382828,-0.292096883058548,0.4623580574989319,-0.304799348115921,0.06340765953063965,-0.5346803665161133
0.5031859874725342,-0.06278393417596817,-0.29743120074272156,0.46310150623321533,-0.30285054445266724,0.062249038368463516,-0.538060188293457
0.5234105587005615,-0.07227088510990143,-0.25989633798599243,0.4868231415748596,-0.30843812227249146,0.05223095789551735,-0.5363172888755798
0.5435147285461426,-0.0688885971903801,-0.2701062560081482,0.4775901436805725,-0.3080752491950989,0.05440875515341759,-0.5372093915939331
0.563568115234375,-0.06532082706689835,-0.29864296317100525,0.46318429708480835,-0.3025279641151428,0.05590524151921272,-0.5386592745780945
0.5836942195892334,-0.06483367830514908,-0.3069843351840973,0.4669603109359741,-0.3003227412700653,0.05942812189459801,-0.5410556197166443
0.6037662029266357,-0.06849109381437302,-0.26619434356689453,0.48785632848739624,-0.30918094515800476,0.05348924174904823,-0.5441396832466125
0.6238491535186768,-0.07144136726856232,-0.26332888007164,0.49459612369537354,-0.30814695358276367,0.047289419919252396,-0.5452278852462769
0.6438841819763184,-0.07069241255521774,-0.26729652285575867,0.49161195755004883,-0.3104577958583832,0.05281970277428627,-0.5437083840370178
0.6644167900085449,-0.0702110156416893,-0.28393566608428955,0.4835693836212158,-0.3072102665901184,0.05040008947253227,-0.5444664359092712
0.6845109462738037,-0.06509911268949509,-0.301265150308609,0.4826505184173584,-0.3029530644416809,0.05592324212193489,-0.5514917969703674
0.7045953273773193,-0.06767646968364716,-0.2923212945461273,0.4861323833465576,-0.3023573160171509,0.045559871941804886,-0.553358256816864
0.7246456146240234,-0.06571902334690094,-0.30072760581970215,0.4786829352378845,-0.3006807267665863,0.047561872750520706,-0.5525384545326233
0.7446980476379395,-0.06327170878648758,-0.3054763674736023,0.4796072840690613,-0.3008754551410675,0.05353010818362236,-0.5541645288467407
0.764894962310791,-0.06736362725496292,-0.29824286699295044,0.4870654344558716,-0.3021230697631836,0.04834640398621559,-0.5547104477882385
0.7850644588470459,-0.0662422701716423,-0.30956557393074036,0.48258429765701294,-0.30069518089294434,0.055489230901002884,-0.5548451542854309
0.8050415515899658,-0.06363161653280258,-0.32105734944343567,0.47743552923202515,-0.2963590919971466,0.04926961287856102,-0.5591834783554077
0.8252394199371338,-0.06630901992321014,-0.3023403286933899,0.4898216724395752,-0.30220329761505127,0.04502082243561745,-0.5584340691566467
0.8452401161193848,-0.06529546529054642,-0.3213769197463989,0.4803580045700073,-0.29784923791885376,0.043853405863046646,-0.5583552718162537
0.8653154373168945,-0.05846744030714035,-0.343747079372406,0.47193121910095215,-0.29500770568847656,0.0509045384824276,-0.5621091723442078
0.8854095935821533,-0.07099359482526779,-0.28415215015411377,0.5123586654663086,-0.30394604802131653,0.03763258829712868,-0.5623557567596436
0.9055118560791016,-0.07245427370071411,-0.28465721011161804,0.5118069052696228,-0.3034754991531372,0.033755820244550705,-0.5629984140396118
0.9256443977355957,-0.07200674712657928,-0.2895248532295227,0.5132944583892822,-0.3031424283981323,0.03369149938225746,-0.563832700252533
0.9457581043243408,-0.07129871100187302,-0.2958049774169922,0.5113134980201721,-0.3028515577316284,0.03548410162329674,-0.5656343102455139
0.9658255577087402,-0.05995210260152817,-0.35307174921035767,0.4810166358947754,-0.29409924149513245,0.04693588986992836,-0.5711831450462341
0.9858887195587158,-0.05888257175683975,-0.3594337999820709,0.4808329939842224,-0.29174908995628357,0.04510028287768364,-0.5738149881362915
1.0059654712677002,-0.055794112384319305,-0.3679042458534241,0.47883301973342896,-0.2908473312854767,0.04930788651108742,-0.5749502182006836
1.0260341167449951,-0.07159269601106644,-0.2886945307254791,0.5223051905632019,-0.3022751212120056,0.030258823186159134,-0.5721316337585449
1.0461111068725586,-0.07119984179735184,-0.2922953963279724,0.5246474742889404,-0.30073249340057373,0.028230194002389908,-0.5751931667327881
1.0661919116973877,-0.07327624410390854,-0.2838124632835388,0.5373953580856323,-0.3019162714481354,0.024540413171052933,-0.5777757167816162
1.0863864421844482,-0.05601903796195984,-0.3773900270462036,0.4841023087501526,-0.28667473793029785,0.04509479179978371,-0.5824193358421326
1.1064164638519287,-0.05924025923013687,-0.37047088146209717,0.4933859705924988,-0.2885293662548065,0.043015990406274796,-0.5832638740539551
1.1265311241149902,-0.059649452567100525,-0.37272748351097107,0.49215567111968994,-0.28927892446517944,0.04162703827023506,-0.5844791531562805
1.146824836730957,-0.06329808384180069,-0.36084893345832825,0.5077939033508301,-0.2898872494697571,0.03967126086354256,-0.5872110724449158
1.1669573783874512,-0.07043017446994781,-0.3228868246078491,0.525407075881958,-0.2971901297569275,0.02740081027150154,-0.5828031897544861
1.1870379447937012,-0.06825556606054306,-0.3237379491329193,0.5267572999000549,-0.2968081831932068,0.027834255248308182,-0.5857923626899719
1.2072625160217285,-0.06067056953907013,-0.3659918010234833,0.5030822157859802,-0.2899860143661499,0.03562882915139198,-0.5881863236427307
1.2274549007415771,-0.06471539288759232,-0.35982292890548706,0.5175428986549377,-0.2897088825702667,0.031827207654714584,-0.5913233160972595
1.247493028640747,-0.06348167359828949,-0.3659149408340454,0.5110428333282471,-0.29007020592689514,0.03172226622700691,-0.5914389491081238
1.2675130367279053,-0.06834527105093002,-0.3289755582809448,0.5333114862442017,-0.2917153835296631,0.021020356565713882,-0.5941011905670166
1.287658452987671,-0.07263831049203873,-0.31358811259269714,0.5460838675498962,-0.29640910029411316,0.019461918622255325,-0.594098687171936
1.3078067302703857,-0.07013727724552155,-0.3222957253456116,0.541420578956604,-0.2959616184234619,0.018795479089021683,-0.5942968726158142
1.3278443813323975,-0.07215132564306259,-0.3249790072441101,0.5463396906852722,-0.2943209707736969,0.01517656072974205,-0.5962048172950745
1.3479359149932861,-0.0560484379529953,-0.39486974477767944,0.5080801248550415,-0.2879030108451843,0.03616602346301079,-0.6007591485977173
1.368011236190796,-0.05673922598361969,-0.4036025106906891,0.5015451908111572,-0.2837415933609009,0.03113691136240959,-0.6035560965538025
1.3880679607391357,-0.06096555292606354,-0.38894784450531006,0.5172187089920044,-0.28314676880836487,0.027898330241441727,-0.605911910533905
1.4081506729125977,-0.06802447885274887,-0.35646653175354004,0.534354567527771,-0.2889750003814697,0.013560045510530472,-0.6033352017402649
1.428215742111206,-0.06549487262964249,-0.3651832342147827,0.5346671342849731,-0.28915145993232727,0.018754635006189346,-0.6045177578926086
1.4482710361480713,-0.06414660066366196,-0.37486377358436584,0.5338086485862732,-0.2886087894439697,0.021496791392564774,-0.6059253215789795
1.4684340953826904,-0.059667445719242096,-0.3904637098312378,0.5231115818023682,-0.28830665349960327,0.02912832424044609,-0.6063523888587952
1.4885220527648926,-0.067055843770504,-0.353799432516098,0.5482035875320435,-0.2899989187717438,0.018581677228212357,-0.610101044178009
1.508599042892456,-0.07018967717885971,-0.34900325536727905,0.5548049807548523,-0.29114043712615967,0.016531873494386673,-0.6095253825187683
1.5286381244659424,-0.06893176585435867,-0.3527218699455261,0.5537301301956177,-0.28895989060401917,0.009973492473363876,-0.6134710311889648
1.5487315654754639,-0.05748094618320465,-0.4075356423854828,0.5245733261108398,-0.28336653113365173,0.025566842406988144,-0.615777850151062
1.5689036846160889,-0.05589330941438675,-0.42190390825271606,0.5167823433876038,-0.27936363220214844,0.023398179560899734,-0.6188436150550842
1.5888936519622803,-0.054852135479450226,-0.43216872215270996,0.5137869715690613,-0.27657878398895264,0.021948102861642838,-0.6205677390098572
1.609668254852295,-0.055819347500801086,-0.41478294134140015,0.5307496190071106,-0.2781936824321747,0.021626312285661697,-0.6244742274284363
1.629755973815918,-0.06871230900287628,-0.3650693893432617,0.5609645247459412,-0.28666573762893677,0.004798341542482376,-0.6200582385063171
1.6498188972473145,-0.06667936593294144,-0.3617967367172241,0.5656865239143372,-0.2860278785228729,0.010287094861268997,-0.6225512623786926
1.6698698997497559,-0.06654103100299835,-0.36900657415390015,0.5622362494468689,-0.2844546139240265,0.00825243815779686,-0.6259846091270447
1.689957618713379,-0.05481506884098053,-0.42617684602737427,0.5297448635101318,-0.2791173756122589,0.02319267764687538,-0.6264699101448059
1.710054874420166,-0.053921401500701904,-0.43430453538894653,0.5266029238700867,-0.2770044207572937,0.02083824947476387,-0.6307279467582703
1.7301316261291504,-0.05554673820734024,-0.43155643343925476,0.5367541909217834,-0.27625128626823425,0.01758197322487831,-0.6330912709236145
1.7502202987670898,-0.0569157674908638,-0.4272615313529968,0.5426562428474426,-0.27662932872772217,0.013520602136850357,-0.6355164647102356
1.7703325748443604,-0.06647632271051407,-0.37401413917541504,0.5757861137390137,-0.28174617886543274,-0.0012232474982738495,-0.6325072646141052
1.790442943572998,-0.06614135950803757,-0.37044835090637207,0.5807820558547974,-0.28229811787605286,-0.0036350302398204803,-0.6362309455871582
1.8104546070098877,-0.06639911979436874,-0.3746066987514496,0.5847481489181519,-0.2841819226741791,-0.0014429949223995209,-0.636537492275238
1.8305490016937256,-0.052427731454372406,-0.44859129190444946,0.5333691239356995,-0.2728307545185089,0.016904275864362717,-0.6398409008979797
1.8508954048156738,-0.052778758108615875,-0.44883018732070923,0.5374183058738708,-0.2738359868526459,0.019921142607927322,-0.6414998173713684
1.8709335327148438,-0.05362004041671753,-0.4499647319316864,0.5457068681716919,-0.2738122045993805,0.017264079302549362,-0.6446781754493713
1.8910510540008545,-0.06579134613275528,-0.37889379262924194,0.5904228091239929,-0.2811586260795593,-0.0031210891902446747,-0.6439502835273743
1.9111392498016357,-0.06566182523965836,-0.37729912996292114,0.595794677734375,-0.28076988458633423,-0.007298771291971207,-0.6467368006706238
1.931180477142334,-0.06575183570384979,-0.37832313776016235,0.6040287017822266,-0.2808072865009308,-0.009131703525781631,-0.6480247378349304
1.9512720108032227,-0.05031146854162216,-0.4604972302913666,0.5451952219009399,-0.2695043385028839,0.012434523552656174,-0.651836097240448
1.9713644981384277,-0.05353385955095291,-0.4548100233078003,0.5593920350074768,-0.2709408700466156,0.006263013929128647,-0.6540167927742004
1.9914591312408447,-0.05411279946565628,-0.4535682499408722,0.5630502104759216,-0.2692916691303253,0.0012806914746761322,-0.6559714078903198
2.0114996433258057,-0.04852502793073654,-0.4631376266479492,0.5554047226905823,-0.2694876492023468,0.011954616755247116,-0.6555722951889038
2.0317113399505615,-0.06580118834972382,-0.3945689797401428,0.6087884306907654,-0.2747722864151001,-0.013908762484788895,-0.6571730971336365
2.0519189834594727,-0.06438254565000534,-0.40032508969306946,0.6060323119163513,-0.27442696690559387,-0.012210231274366379,-0.6565064787864685
2.0719568729400635,-0.060713522136211395,-0.40447133779525757,0.6069403886795044,-0.2743217647075653,-0.011740166693925858,-0.6599633097648621
2.0919454097747803,-0.05121031403541565,-0.4767714738845825,0.5611727237701416,-0.2647739350795746,-0.0002892129123210907,-0.6655870079994202
2.112077236175537,-0.048850372433662415,-0.4814126789569855,0.5622897744178772,-0.2643253207206726,0.0010143257677555084,-0.6684357523918152
2.1321167945861816,-0.05201786011457443,-0.47531095147132874,0.5752004384994507,-0.2637007534503937,-0.005916241556406021,-0.6704221367835999
2.1522138118743896,-0.061173245310783386,-0.4079773426055908,0.6206326484680176,-0.27090713381767273,-0.02210402861237526,-0.6710607409477234
2.1723151206970215,-0.05858340859413147,-0.41058897972106934,0.6204336285591125,-0.2709038257598877,-0.017111103981733322,-0.6712629199028015
2.1924235820770264,-0.06318943947553635,-0.40706413984298706,0.6387195587158203,-0.2717650830745697,-0.024455886334180832,-0.6733590960502625
2.212427854537964,-0.04838813096284866,-0.48936915397644043,0.5700849890708923,-0.25863397121429443,-0.005571793764829636,-0.6765126585960388
2.2326431274414062,-0.0532345324754715,-0.45592957735061646,0.6062384843826294,-0.26479750871658325,-0.01110970601439476,-0.6802393794059753
2.252595901489258,-0.052593909204006195,-0.44755661487579346,0.6149372458457947,-0.26551735401153564,-0.01407688483595848,-0.6811907291412354
2.27268123626709,-0.05413210391998291,-0.4664626121520996,0.6027881503105164,-0.26043516397476196,-0.017109092324972153,-0.6833003759384155
2.292764663696289,-0.055226705968379974,-0.461467444896698,0.6111186742782593,-0.2607437074184418,-0.023585151880979538,-0.6859500408172607
2.3129334449768066,-0.055675484240055084,-0.45499804615974426,0.6252357363700867,-0.2634614408016205,-0.022640634328126907,-0.6876601576805115
2.333061933517456,-0.057310543954372406,-0.45366671681404114,0.6318855285644531,-0.26239606738090515,-0.024277713149785995,-0.6884253025054932
2.353147506713867,-0.05029045790433884,-0.4772655963897705,0.6084374189376831,-0.26014721393585205,-0.015639279037714005,-0.6906730532646179
2.373304605484009,-0.05414462089538574,-0.46181562542915344,0.6308097839355469,-0.26117175817489624,-0.023880910128355026,-0.693244457244873
2.3933660984039307,-0.053287066519260406,-0.4731837213039398,0.6222360134124756,-0.25974351167678833,-0.020730096846818924,-0.6936814785003662
2.4134864807128906,-0.05032125860452652,-0.4773769974708557,0.6213241815567017,-0.2603108584880829,-0.017903972417116165,-0.6950220465660095
2.4335219860076904,-0.05036181956529617,-0.47780975699424744,0.623797595500946,-0.25760123133659363,-0.02356959506869316,-0.6987283229827881
2.4535882472991943,-0.05138824135065079,-0.4673236012458801,0.6390687227249146,-0.2592743933200836,-0.02811872586607933,-0.7011977434158325
2.473727226257324,-0.04888059198856354,-0.49043241143226624,0.6240829825401306,-0.2556593120098114,-0.027762245386838913,-0.7030368447303772
2.493875741958618,-0.04890725761651993,-0.47649630904197693,0.6386397480964661,-0.258158802986145,-0.024829912930727005,-0.7043794393539429
2.5139408111572266,-0.04889038950204849,-0.49036654829978943,0.6326799988746643,-0.2545178234577179,-0.027610357850790024,-0.7063974738121033
2.533977508544922,-0.049377985298633575,-0.4922991693019867,0.6359413266181946,-0.25355061888694763,-0.031482528895139694,-0.7097322344779968
2.554111957550049,-0.05040835589170456,-0.49121755361557007,0.64183509349823,-0.25352275371551514,-0.03296331688761711,-0.7096652388572693
2.574309825897217,-0.050737909972667694,-0.4873825013637543,0.6469717621803284,-0.25307756662368774,-0.035923030227422714,-0.7125635147094727
2.59439754486084,-0.04833688586950302,-0.4958763122558594,0.643639326095581,-0.2514881193637848,-0.03483967110514641,-0.7149122953414917
2.6145219802856445,-0.04928823560476303,-0.4937492311000824,0.6510633826255798,-0.2519884705543518,-0.03519701585173607,-0.7163447141647339
2.63460373878479,-0.04521223157644272,-0.49548768997192383,0.6503376960754395,-0.25161978602409363,-0.031209047883749008,-0.7190138697624207
2.654721736907959,-0.04471690207719803,-0.4901246428489685,0.6599758267402649,-0.25361135601997375,-0.028167512267827988,-0.7212720513343811
2.6747183799743652,-0.04785538464784622,-0.5165150761604309,0.6373445987701416,-0.2454472780227661,-0.03397911414504051,-0.7228198647499084
2.694866180419922,-0.046013906598091125,-0.511491596698761,0.6471548080444336,-0.24650543928146362,-0.0362604521214962,-0.7267124652862549
2.7148985862731934,-0.045236386358737946,-0.5140816569328308,0.6518102884292603,-0.24597448110580444,-0.03816674277186394,-0.7299461960792542
2.735037326812744,-0.045248761773109436,-0.5193544626235962,0.6545836329460144,-0.2456168532371521,-0.04054359719157219,-0.7330121397972107
2.755096197128296,-0.0448322519659996,-0.5063199400901794,0.6635887026786804,-0.24510690569877625,-0.043620120733976364,-0.7333213686943054
2.775151252746582,-0.045165129005908966,-0.4966743588447571,0.6769871115684509,-0.24473780393600464,-0.04913411661982536,-0.736068069934845
2.7952463626861572,-0.04405168443918228,-0.5088829398155212,0.6750357151031494,-0.24423635005950928,-0.04998580738902092,-0.7385768294334412
2.8152873516082764,-0.04057830572128296,-0.5218289494514465,0.6670146584510803,-0.242237389087677,-0.04557676240801811,-0.7411187291145325
2.835360288619995,-0.04010181874036789,-0.5255488753318787,0.664942741394043,-0.2412709891796112,-0.042795952409505844,-0.7418609857559204
2.85552978515625,-0.04152660071849823,-0.5240123271942139,0.6743521690368652,-0.2401668131351471,-0.046595167368650436,-0.7452914714813232
2.8756277561187744,-0.04174014925956726,-0.5208678245544434,0.6793711185455322,-0.23769909143447876,-0.05179485306143761,-0.7481761574745178
2.8957247734069824,-0.03869635611772537,-0.5435696840286255,0.6694628596305847,-0.23781070113182068,-0.04699840769171715,-0.7508614659309387
2.9158518314361572,-0.03863094002008438,-0.5429547429084778,0.673281192779541,-0.2354218065738678,-0.0491001270711422,-0.7542838454246521
2.935908079147339,-0.03760742396116257,-0.5478665232658386,0.6723740696907043,-0.2344914972782135,-0.049006473273038864,-0.7564451098442078
2.956052780151367,-0.04255013167858124,-0.5222088694572449,0.7035072445869446,-0.23687037825584412,-0.06071920320391655,-0.7579711675643921
2.976177453994751,-0.04258651286363602,-0.5177987217903137,0.7109615802764893,-0.23577693104743958,-0.0648387223482132,-0.7611858248710632
2.9962575435638428,-0.043054528534412384,-0.5241982936859131,0.7150931358337402,-0.23352307081222534,-0.06812036037445068,-0.7644948959350586
3.016411542892456,-0.03975105285644531,-0.5283671617507935,0.7133052945137024,-0.23332470655441284,-0.06569148600101471,-0.7674601674079895
3.036499261856079,-0.03556434065103531,-0.565967857837677,0.6787519454956055,-0.22904253005981445,-0.059299957007169724,-0.7707943320274353
3.0566024780273438,-0.03382804989814758,-0.5607162117958069,0.6829882860183716,-0.2277347296476364,-0.059818919748067856,-0.7740930318832397
3.076659917831421,-0.033345140516757965,-0.5520946383476257,0.6973568201065063,-0.2285648137331009,-0.06242307648062706,-0.7768630385398865
3.0968072414398193,-0.03403819352388382,-0.5650521516799927,0.6963480710983276,-0.22695721685886383,-0.06320048868656158,-0.778056263923645
3.116842746734619,-0.030756041407585144,-0.577081024646759,0.6857361793518066,-0.2250189632177353,-0.059827771037817,-0.7813040614128113
3.1369102001190186,-0.028055720031261444,-0.5781641602516174,0.6847096681594849,-0.22340288758277893,-0.06015634164214134,-0.7844631671905518
3.1569597721099854,-0.02793607860803604,-0.5733411312103271,0.6951168179512024,-0.22295115888118744,-0.06311962008476257,-0.7891603112220764
3.1770782470703125,-0.028132423758506775,-0.571276068687439,0.7032697200775146,-0.22166630625724792,-0.06650692224502563,-0.7895790338516235
3.197139024734497,-0.025420434772968292,-0.5812690258026123,0.6982783675193787,-0.2195604145526886,-0.06537070870399475,-0.7933355569839478
3.217210054397583,-0.024133436381816864,-0.5826565027236938,0.7008539438247681,-0.2199031412601471,-0.0636058896780014,-0.7962126731872559
3.237375497817993,-0.02460111677646637,-0.579315185546875,0.7152190208435059,-0.21868212521076202,-0.07088698446750641,-0.8007265329360962
3.257469415664673,-0.021989166736602783,-0.5832038521766663,0.712378203868866,-0.21792785823345184,-0.07059620320796967,-0.8025429248809814
3.2775449752807617,-0.020511530339717865,-0.5771353244781494,0.7269406318664551,-0.2168126255273819,-0.07555891573429108,-0.8077811598777771
3.2976067066192627,-0.01884361356496811,-0.5824782848358154,0.7288994789123535,-0.21264109015464783,-0.08322171866893768,-0.8125891089439392
3.3177292346954346,-0.021476268768310547,-0.5867462158203125,0.7405349016189575,-0.21117597818374634,-0.0892845094203949,-0.8167819380760193
3.3378169536590576,-0.016635380685329437,-0.5988893508911133,0.7205071449279785,-0.21024230122566223,-0.08245529234409332,-0.8184365034103394
3.3578877449035645,-0.0179201140999794,-0.5856413841247559,0.7416428923606873,-0.21012520790100098,-0.0888175517320633,-0.8222938776016235
3.3779637813568115,-0.014147751033306122,-0.5996736288070679,0.7440837621688843,-0.20707979798316956,-0.09048312902450562,-0.8263950943946838
3.3982207775115967,-0.012439750134944916,-0.6064971685409546,0.745031476020813,-0.20255149900913239,-0.09555581212043762,-0.8317615985870361
3.4183037281036377,-0.009761892259120941,-0.6243473887443542,0.7251170873641968,-0.20085260272026062,-0.0923551470041275,-0.8336388468742371
3.438436269760132,-0.011991776525974274,-0.6119281053543091,0.7523418664932251,-0.20020520687103271,-0.1002112627029419,-0.8389154076576233
3.4584829807281494,-0.007150836288928986,-0.625492513179779,0.753766655921936,-0.1981758028268814,-0.09822382032871246,-0.8439177870750427
3.478583574295044,-0.00644286721944809,-0.6394944787025452,0.7469359636306763,-0.19329647719860077,-0.10216979682445526,-0.8481587171554565
3.498706579208374,-0.003987349569797516,-0.6273690462112427,0.7619675397872925,-0.1952209174633026,-0.10490144789218903,-0.8503231406211853
3.5187816619873047,-0.007011495530605316,-0.6179504990577698,0.78851717710495,-0.1926112174987793,-0.11971874535083771,-0.8564273715019226
3.5387957096099854,-0.003238894045352936,-0.6229240298271179,0.7908802032470703,-0.1898481845855713,-0.11821836233139038,-0.861833393573761
3.5589118003845215,-0.0070565566420555115,-0.6284967064857483,0.781581461429596,-0.18972407281398773,-0.12253205478191376,-0.8640398383140564
3.5790040493011475,-0.006267823278903961,-0.6357317566871643,0.7893773317337036,-0.1856347918510437,-0.12585118412971497,-0.8697164058685303
3.59902286529541,-0.0036162659525871277,-0.6376236081123352,0.7865601778030396,-0.18370060622692108,-0.12778840959072113,-0.8761914968490601
3.619123935699463,-0.0037892386317253113,-0.6333209276199341,0.7978236675262451,-0.18438027799129486,-0.12829388678073883,-0.8803585767745972
3.639263391494751,-0.0010046586394309998,-0.6428728699684143,0.8012391924858093,-0.18220186233520508,-0.12479311227798462,-0.883889377117157
3.659311294555664,-0.0010325387120246887,-0.6459171772003174,0.8044103384017944,-0.1817445307970047,-0.12697194516658783,-0.8883000016212463
3.679386615753174,0.0008130744099617004,-0.6601253151893616,0.7995535731315613,-0.18013609945774078,-0.12306615710258484,-0.8932588696479797
3.6995108127593994,0.0009488239884376526,-0.6490316987037659,0.8121227025985718,-0.18080827593803406,-0.12568005919456482,-0.8954492211341858
3.7196714878082275,0.004107825458049774,-0.6637325286865234,0.8158897161483765,-0.18067842721939087,-0.12513896822929382,-0.9009694457054138
3.739677906036377,0.008190907537937164,-0.674638569355011,0.8057273030281067,-0.17787857353687286,-0.12480559945106506,-0.9084883332252502
3.760010004043579,0.011645101010799408,-0.686205267906189,0.7933488488197327,-0.17619340121746063,-0.1278569996356964,-0.9151800870895386
3.7800915241241455,0.0038708075881004333,-0.6750473976135254,0.8160136342048645,-0.17320096492767334,-0.14448165893554688,-0.9155554175376892
3.800259828567505,0.004330582916736603,-0.6827893853187561,0.8051725029945374,-0.1660647839307785,-0.1561214029788971,-0.9238837361335754
3.8202528953552246,0.006919540464878082,-0.6829221248626709,0.8001307249069214,-0.16620375216007233,-0.15511661767959595,-0.9302223324775696
3.8403635025024414,0.015292011201381683,-0.6865506172180176,0.8105719685554504,-0.16852515935897827,-0.1450367271900177,-0.9346906542778015
3.8604633808135986,0.014561913907527924,-0.6892903447151184,0.8086174130439758,-0.16585251688957214,-0.15637630224227905,-0.9417836666107178
3.880488872528076,0.01867247372865677,-0.6874046325683594,0.8081415891647339,-0.16597457230091095,-0.15638163685798645,-0.9487742185592651
3.900655508041382,0.009326107800006866,-0.6862682104110718,0.8175008296966553,-0.15791139006614685,-0.1769668608903885,-0.9512025117874146
3.9207470417022705,0.011079110205173492,-0.6929473280906677,0.8075556755065918,-0.15412406623363495,-0.18324124813079834,-0.9596955180168152
3.9408209323883057,0.01075146347284317,-0.694482147693634,0.8055213689804077,-0.14949992299079895,-0.19568105041980743,-0.9679378271102905
3.960899591445923,0.030948273837566376,-0.6939448118209839,0.8059492111206055,-0.15878117084503174,-0.1656707525253296,-0.9746042490005493
3.9809772968292236,0.02741359919309616,-0.6921572685241699,0.8106297850608826,-0.15421050786972046,-0.18901792168617249,-0.9837912321090698
4.001068830490112,0.029933415353298187,-0.689862072467804,0.8133329749107361,-0.15101705491542816,-0.1958753615617752,-0.9913215637207031
4.0211262702941895,0.03350856155157089,-0.6871700286865234,0.817029595375061,-0.14887423813343048,-0.20175184309482574,-1.000110387802124
4.041273355484009,0.025859899818897247,-0.698060929775238,0.8059036135673523,-0.1391351968050003,-0.22149160504341125,-1.0049700736999512
4.061304330825806,0.032229967415332794,-0.6914570331573486,0.8118457794189453,-0.13828033208847046,-0.22964057326316833,-1.0150235891342163
4.0813987255096436,0.03708944469690323,-0.7003117799758911,0.8059671521186829,-0.13434743881225586,-0.2372487187385559,-1.0263416767120361
4.101590156555176,0.04391396790742874,-0.6938859820365906,0.8149095177650452,-0.1375516951084137,-0.22674696147441864,-1.0319206714630127
4.121609449386597,0.05169060081243515,-0.6965980529785156,0.8153971433639526,-0.13751378655433655,-0.2285361886024475,-1.0423448085784912
4.141724348068237,0.05076395720243454,-0.7032492160797119,0.8131502270698547,-0.13121353089809418,-0.24680745601654053,-1.0530422925949097
4.161818265914917,0.04952535778284073,-0.7015030384063721,0.8094297647476196,-0.1284959614276886,-0.25137197971343994,-1.0561712980270386
4.181934118270874,0.05723349004983902,-0.7010062336921692,0.8103165626525879,-0.12722553312778473,-0.26225152611732483,-1.0683696269989014
4.201947212219238,0.06467757374048233,-0.7025998830795288,0.8079716563224792,-0.12490599602460861,-0.26925036311149597,-1.0804166793823242
4.22210168838501,0.05796138197183609,-0.7085990309715271,0.8051624298095703,-0.11714708060026169,-0.28936001658439636,-1.0862841606140137
4.242155313491821,0.061600618064403534,-0.7103113532066345,0.8046566247940063,-0.11282805353403091,-0.302313894033432,-1.0974774360656738
4.262283563613892,0.07242024689912796,-0.7056562304496765,0.8091297149658203,-0.11499462276697159,-0.30080685019493103,-1.111305594444275
4.282339811325073,0.0701967254281044,-0.7074364423751831,0.8065242171287537,-0.11052917689085007,-0.3173940181732178,-1.1160935163497925
4.3024938106536865,0.07439438253641129,-0.7053118348121643,0.8131167888641357,-0.10717075318098068,-0.3291543126106262,-1.128359079360962
4.322561025619507,0.08349379152059555,-0.7103702425956726,0.8059967756271362,-0.10571377724409103,-0.32977983355522156,-1.1415847539901733
4.342597246170044,0.09260395914316177,-0.7027696371078491,0.8130311965942383,-0.11243457347154617,-0.3221052885055542,-1.1487810611724854
4.362684726715088,0.09517013281583786,-0.7121201157569885,0.8086637258529663,-0.1033572107553482,-0.3429487645626068,-1.1630644798278809
4.3827598094940186,0.10428430140018463,-0.7127322554588318,0.8041502833366394,-0.1030699610710144,-0.34519854187965393,-1.1773524284362793
4.4035608768463135,0.11109745502471924,-0.7123618721961975,0.8061889410018921,-0.10287140309810638,-0.35598647594451904,-1.1914467811584473
4.423715353012085,0.11158487200737,-0.7146807312965393,0.806897759437561,-0.0993979424238205,-0.36107754707336426,-1.1974446773529053
4.443832635879517,0.1204163059592247,-0.7185631990432739,0.8070372939109802,-0.09781321883201599,-0.3674934208393097,-1.211590051651001
4.463839292526245,0.1252712607383728,-0.7214937806129456,0.8049023747444153,-0.09449519217014313,-0.3847777545452118,-1.225653886795044
4.484009504318237,0.129792720079422,-0.723228394985199,0.8017116189002991,-0.09327658265829086,-0.38572511076927185,-1.2343474626541138
4.504019737243652,0.13165953755378723,-0.7271217703819275,0.8035539984703064,-0.08785981684923172,-0.4010765254497528,-1.2478289604187012
4.524081468582153,0.13617894053459167,-0.725631833076477,0.8089993000030518,-0.08679351210594177,-0.40764784812927246,-1.2611674070358276
4.544131278991699,0.14909110963344574,-0.7292205691337585,0.8012387156486511,-0.09021070599555969,-0.3932691812515259,-1.2711577415466309
4.56420636177063,0.15039744973182678,-0.7297643423080444,0.8060820698738098,-0.08761493116617203,-0.4068538546562195,-1.2829598188400269
4.584339380264282,0.15699729323387146,-0.7373926043510437,0.8027549386024475,-0.08364184945821762,-0.41352999210357666,-1.2981457710266113
4.604402542114258,0.1620168387889862,-0.7360221147537231,0.8087381720542908,-0.08293026685714722,-0.4182881712913513,-1.3111817836761475
4.624892950057983,0.16526079177856445,-0.7329465746879578,0.8109937310218811,-0.08219555765390396,-0.41917675733566284,-1.31816828250885
4.645037651062012,0.16931864619255066,-0.7445076107978821,0.8062419891357422,-0.07652559131383896,-0.42930150032043457,-1.3333656787872314
4.665100574493408,0.1673164665699005,-0.7418838739395142,0.8162026405334473,-0.07188951224088669,-0.4450299143791199,-1.342782735824585
4.685187578201294,0.17941734194755554,-0.7462558150291443,0.8061109781265259,-0.0708446130156517,-0.42494136095046997,-1.3590565919876099
4.705240964889526,0.18130674958229065,-0.7533248066902161,0.810335099697113,-0.07058865576982498,-0.43093764781951904,-1.365763783454895
4.725305080413818,0.18458443880081177,-0.7466896772384644,0.8169618844985962,-0.07025860995054245,-0.43743088841438293,-1.3760906457901
4.745464324951172,0.18840813636779785,-0.752503514289856,0.8152245879173279,-0.06694699078798294,-0.43655064702033997,-1.3893383741378784
4.765456914901733,0.18967804312705994,-0.7534902691841125,0.8185921907424927,-0.06526311486959457,-0.43985381722450256,-1.3990298509597778
4.785540342330933,0.19274532794952393,-0.7575872540473938,0.8169097304344177,-0.06531213968992233,-0.44338011741638184,-1.4055335521697998
4.805635213851929,0.19953423738479614,-0.7664003968238831,0.8085184693336487,-0.061683110892772675,-0.4361629784107208,-1.4165256023406982
4.825755834579468,0.19781267642974854,-0.7656764388084412,0.8162672519683838,-0.05973298102617264,-0.45192691683769226,-1.4251455068588257
4.845857620239258,0.19950157403945923,-0.7685877680778503,0.81687331199646,-0.05699410289525986,-0.45344436168670654,-1.429078221321106
4.865946531295776,0.2052677571773529,-0.7714767456054688,0.813991904258728,-0.05626648664474487,-0.44605499505996704,-1.4384551048278809
4.8861401081085205,0.20439201593399048,-0.7709366083145142,0.8194404244422913,-0.053123779594898224,-0.4536729156970978,-1.4468326568603516
4.906200647354126,0.2081529200077057,-0.7748772501945496,0.820902943611145,-0.05133741348981857,-0.452854186296463,-1.4548864364624023
4.926273822784424,0.20836427807807922,-0.772462785243988,0.8238354325294495,-0.05148579925298691,-0.44968217611312866,-1.4573349952697754
4.946322917938232,0.2054470181465149,-0.7806532382965088,0.822731077671051,-0.04587044566869736,-0.4638475477695465,-1.4642640352249146
4.966433525085449,0.2152934968471527,-0.7784362435340881,0.8221136331558228,-0.048393748700618744,-0.4442898631095886,-1.4705376625061035
4.986836671829224,0.20920303463935852,-0.7820776700973511,0.8286279439926147,-0.045720621943473816,-0.46092426776885986,-1.4755102396011353
5.0069358348846436,0.2101491391658783,-0.7821095585823059,0.827508270740509,-0.04374098777770996,-0.4651920199394226,-1.4788873195648193
5.027031421661377,0.21400058269500732,-0.7841168642044067,0.829432487487793,-0.04178135097026825,-0.4581525921821594,-1.4853605031967163
5.04706072807312,0.20979565382003784,-0.7841554284095764,0.8346965312957764,-0.03997956961393356,-0.4745873212814331,-1.489768147468567
5.067145109176636,0.22095829248428345,-0.792323112487793,0.8228473663330078,-0.041429392993450165,-0.4551968574523926,-1.4948370456695557
5.087233781814575,0.2195833921432495,-0.7943320870399475,0.8269312977790833,-0.03789336979389191,-0.4600876569747925,-1.5001204013824463
5.107287883758545,0.22200152277946472,-0.8032832741737366,0.8181808590888977,-0.03435484319925308,-0.4565393924713135,-1.5048843622207642
5.127455234527588,0.22102949023246765,-0.7955819964408875,0.8292840719223022,-0.03625655919313431,-0.46020394563674927,-1.507689118385315
5.147619962692261,0.21906134486198425,-0.7912996411323547,0.8358376026153564,-0.033651672303676605,-0.4636988937854767,-1.5081901550292969
5.167645215988159,0.21466940641403198,-0.7902687788009644,0.842903196811676,-0.03287748992443085,-0.47449731826782227,-1.5108451843261719
5.187702417373657,0.22233814001083374,-0.7966311573982239,0.8358315825462341,-0.03204687684774399,-0.4623998999595642,-1.5172427892684937
5.208028793334961,0.2198321521282196,-0.8067115545272827,0.8306546211242676,-0.028720175847411156,-0.4638960361480713,-1.520486831665039
5.2282421588897705,0.21800363063812256,-0.797236979007721,0.8438946604728699,-0.02933296002447605,-0.47287970781326294,-1.5209431648254395
5.24831223487854,0.2193014919757843,-0.798043966293335,0.8447667360305786,-0.02786182425916195,-0.4700509309768677,-1.5232298374176025
5.268312454223633,0.2203473150730133,-0.8000625371932983,0.8420546650886536,-0.02697748877108097,-0.4681536853313446,-1.5271316766738892
5.288503408432007,0.22388267517089844,-0.8106490969657898,0.8303041458129883,-0.025148766115307808,-0.461860716342926,-1.5304784774780273
5.3086302280426025,0.22475597262382507,-0.8083390593528748,0.8335973024368286,-0.02478274144232273,-0.46032509207725525,-1.5336651802062988
5.328667402267456,0.22414889931678772,-0.8096997141838074,0.8374102711677551,-0.025139285251498222,-0.4670979678630829,-1.5349327325820923
5.348723888397217,0.22511139512062073,-0.8062596917152405,0.8386209607124329,-0.023573530837893486,-0.46334710717201233,-1.5382288694381714
5.368808269500732,0.221726655960083,-0.8061370253562927,0.8484677076339722,-0.02402017079293728,-0.4711969196796417,-1.5376667976379395
5.388960123062134,0.22515469789505005,-0.8019756078720093,0.8484544157981873,-0.022708280012011528,-0.4641781747341156,-1.5412126779556274
5.409048795700073,0.22275599837303162,-0.8016198873519897,0.8543645739555359,-0.023240992799401283,-0.4724334180355072,-1.5417475700378418
5.429065465927124,0.22744834423065186,-0.8073084354400635,0.8513945937156677,-0.02223447896540165,-0.4663945138454437,-1.5447027683258057
5.449239730834961,0.22525310516357422,-0.8112426400184631,0.8394556045532227,-0.021325210109353065,-0.4647335708141327,-1.5461976528167725
5.469251394271851,0.2247055470943451,-0.8143169283866882,0.8409959077835083,-0.019470227882266045,-0.4648855924606323,-1.5472410917282104
5.489515781402588,0.22736042737960815,-0.8107355833053589,0.8470461368560791,-0.021602461114525795,-0.46152836084365845,-1.549128532409668
5.509496450424194,0.22668951749801636,-0.8099169135093689,0.8495230078697205,-0.020070141181349754,-0.46295976638793945,-1.5503931045532227
5.529579162597656,0.2272285521030426,-0.8165289759635925,0.8410581946372986,-0.018328731879591942,-0.45953431725502014,-1.5525000095367432
5.54970908164978,0.22583070397377014,-0.8153723478317261,0.8451290130615234,-0.01887579821050167,-0.46409162878990173,-1.5528028011322021
5.569764137268066,0.2263636291027069,-0.8212976455688477,0.8376887440681458,-0.01568201370537281,-0.4628562331199646,-1.55398690700531
5.589821100234985,0.22677823901176453,-0.8160455226898193,0.8416225910186768,-0.017795180901885033,-0.46600544452667236,-1.5565922260284424
5.610175609588623,0.22868776321411133,-0.8165144324302673,0.8480114340782166,-0.0168029572814703,-0.46096038818359375,-1.5561307668685913
5.630347490310669,0.22556844353675842,-0.8154748678207397,0.8475326299667358,-0.015784284099936485,-0.4662502706050873,-1.55751633644104
5.650412082672119,0.2267911732196808,-0.8163576126098633,0.8488869071006775,-0.015916673466563225,-0.4658983051776886,-1.5590097904205322
5.670459270477295,0.22757196426391602,-0.8192771077156067,0.8469562530517578,-0.015005392953753471,-0.4615432620048523,-1.559584617614746
5.690507888793945,0.2262551188468933,-0.8202260136604309,0.8474259376525879,-0.015200858935713768,-0.4626966714859009,-1.5590895414352417
5.710675239562988,0.22751453518867493,-0.8192346096038818,0.8475708365440369,-0.01542525552213192,-0.4602140784263611,-1.5597033500671387
5.730729103088379,0.2266494631767273,-0.8194452524185181,0.8465524315834045,-0.015181468799710274,-0.46105635166168213,-1.559673547744751
5.75106954574585,0.22758892178535461,-0.8165497183799744,0.8486435413360596,-0.015750473365187645,-0.4588751792907715,-1.561638593673706
5.771165132522583,0.2276327908039093,-0.8141700029373169,0.852679431438446,-0.015871861949563026,-0.4593459367752075,-1.561492919921875
5.791239023208618,0.22776225209236145,-0.8138538002967834,0.8536927103996277,-0.015206912532448769,-0.4604991376399994,-1.5622289180755615
5.811469793319702,0.22695115208625793,-0.8143388628959656,0.8561471700668335,-0.014543427154421806,-0.46284130215644836,-1.5625370740890503
5.831839084625244,0.22740188241004944,-0.8182677626609802,0.8536516427993774,-0.013374270871281624,-0.46121945977211,-1.56290602684021
5.851967096328735,0.227289080619812,-0.8218290209770203,0.8461012840270996,-0.013142725452780724,-0.460425466299057,-1.563269853591919
5.8720009326934814,0.22557878494262695,-0.8216362595558167,0.8473427295684814,-0.011455642059445381,-0.46539202332496643,-1.5642671585083008
5.892070055007935,0.2279857099056244,-0.8213681578636169,0.8483325242996216,-0.012819891795516014,-0.45916685461997986,-1.5649139881134033
5.912241697311401,0.22582614421844482,-0.8217363953590393,0.8505147695541382,-0.011976299807429314,-0.46350976824760437,-1.564635992050171
5.932358026504517,0.22774207592010498,-0.8227782845497131,0.8476462364196777,-0.011710921302437782,-0.46064627170562744,-1.5652046203613281
5.952527046203613,0.22754812240600586,-0.8209199905395508,0.8483778834342957,-0.010514302179217339,-0.46145495772361755,-1.5665040016174316
5.972545385360718,0.22646576166152954,-0.8212325572967529,0.8504427075386047,-0.011579098179936409,-0.4617402255535126,-1.566028356552124
5.992608308792114,0.22665318846702576,-0.8251931071281433,0.8477722406387329,-0.009830476716160774,-0.46081364154815674,-1.5665614604949951
6.012699842453003,0.22696641087532043,-0.8217694759368896,0.8498926162719727,-0.010952888056635857,-0.46001437306404114,-1.5664660930633545
6.032750129699707,0.22534659504890442,-0.821441113948822,0.8508367538452148,-0.010065840557217598,-0.46273189783096313,-1.566351294517517
6.052810430526733,0.22694489359855652,-0.8219664692878723,0.8497596383094788,-0.009946247562766075,-0.458710253238678,-1.5675740242004395
6.07289981842041,0.2270403504371643,-0.8217918276786804,0.8501647114753723,-0.010041115805506706,-0.4579527974128723,-1.5680289268493652
6.092965126037598,0.2261231243610382,-0.823176920413971,0.850131094455719,-0.009146777912974358,-0.4590485692024231,-1.567974328994751
6.113108158111572,0.22646820545196533,-0.8223677277565002,0.85057532787323,-0.009460138157010078,-0.458467960357666,-1.5678138732910156
6.133162260055542,0.22695869207382202,-0.8246037364006042,0.8479986786842346,-0.009139647707343102,-0.4573138952255249,-1.5678116083145142
6.15331506729126,0.22705259919166565,-0.8230870366096497,0.8492492437362671,-0.009783519431948662,-0.45707905292510986,-1.567713737487793
6.173319339752197,0.22664973139762878,-0.8232048153877258,0.8494773507118225,-0.009228954091668129,-0.45740315318107605,-1.5679199695587158
6.193382740020752,0.22689098119735718,-0.8230435848236084,0.8499679565429688,-0.009187368676066399,-0.4570780098438263,-1.568349003791809
6.213530778884888,0.2272903025150299,-0.822459876537323,0.8502492904663086,-0.00929265283048153,-0.45654258131980896,-1.5682151317596436
6.233662843704224,0.2267014980316162,-0.8209642171859741,0.8509464859962463,-0.009252915158867836,-0.457714319229126,-1.568540096282959
6.253671407699585,0.2261410355567932,-0.8217616677284241,0.8496497273445129,-0.008666804060339928,-0.45741337537765503,-1.5696203708648682
6.273739337921143,0.22587984800338745,-0.8240547180175781,0.8497673273086548,-0.007999463006854057,-0.4577690362930298,-1.5693514347076416
6.293801546096802,0.22477805614471436,-0.824958860874176,0.8487282991409302,-0.006843900308012962,-0.4596945345401764,-1.5695253610610962
6.313903570175171,0.22643965482711792,-0.8258588314056396,0.8471004962921143,-0.0071413759142160416,-0.45695269107818604,-1.569254994392395
6.333993434906006,0.22499799728393555,-0.8291581869125366,0.8463607430458069,-0.004442090168595314,-0.46197542548179626,-1.5690420866012573
6.35413122177124,0.2259352207183838,-0.8269403576850891,0.8490577340126038,-0.0058778878301382065,-0.46108657121658325,-1.56937575340271
6.374165058135986,0.22598308324813843,-0.8238398432731628,0.8522790670394897,-0.006659673526883125,-0.46122050285339355,-1.5690956115722656
6.394283771514893,0.22556385397911072,-0.8229321241378784,0.8528372049331665,-0.00775538943707943,-0.45865681767463684,-1.568910837173462
6.414349317550659,0.22646531462669373,-0.8237616419792175,0.8532455563545227,-0.007916254922747612,-0.45541903376579285,-1.5697970390319824
6.434536457061768,0.2260359227657318,-0.8258582949638367,0.8499939441680908,-0.006607742980122566,-0.4557139277458191,-1.5697805881500244
6.454594373703003,0.22542589902877808,-0.824475109577179,0.850832998752594,-0.0063386280089616776,-0.45737767219543457,-1.5695241689682007
6.4746294021606445,0.22603705525398254,-0.825299084186554,0.8505436778068542,-0.00671703927218914,-0.45688772201538086,-1.5693726539611816
6.49470067024231,0.2263927459716797,-0.8251834511756897,0.850314736366272,-0.0068063270300626755,-0.45604264736175537,-1.5696501731872559
6.514789342880249,0.22577854990959167,-0.8251052498817444,0.8503545522689819,-0.006968142464756966,-0.45699113607406616,-1.5694937705993652
6.53486967086792,0.2256486713886261,-0.8240442276000977,0.8513542413711548,-0.007290681824088097,-0.4573114514350891,-1.569621205329895
6.55497932434082,0.2256353795528412,-0.8236526250839233,0.8509790301322937,-0.00754292868077755,-0.4554177522659302,-1.5695466995239258
6.57511043548584,0.22599118947982788,-0.8240354657173157,0.8511437177658081,-0.0064176227897405624,-0.45580095052719116,-1.5696543455123901
6.595216751098633,0.2259189486503601,-0.8241499066352844,0.851168155670166,-0.006313128396868706,-0.45591607689857483,-1.5695056915283203
6.615315914154053,0.22620806097984314,-0.8226242661476135,0.8515427708625793,-0.007132710888981819,-0.4553701877593994,-1.5693998336791992
6.63537335395813,0.225504070520401,-0.823179304599762,0.8518858551979065,-0.007074201479554176,-0.4565419554710388,-1.5693347454071045
6.655420303344727,0.22591912746429443,-0.8234577775001526,0.8519898653030396,-0.006696866825222969,-0.455797016620636,-1.569488286972046
6.675504207611084,0.22797620296478271,-0.8236934542655945,0.8478100895881653,-0.00761907733976841,-0.4489401876926422,-1.5700345039367676
6.695576429367065,0.22574138641357422,-0.8245279788970947,0.8498811721801758,-0.006723241880536079,-0.45397940278053284,-1.569811463356018
6.715672969818115,0.22625479102134705,-0.8242793083190918,0.8499423265457153,-0.006793783977627754,-0.4529919922351837,-1.5696885585784912
6.7358105182647705,0.22380098700523376,-0.8241004943847656,0.8497077822685242,-0.0058528464287519455,-0.45661303400993347,-1.5690884590148926
6.755833148956299,0.22428518533706665,-0.8268939852714539,0.8471453189849854,-0.005237223580479622,-0.4548831880092621,-1.5694739818572998
6.775896787643433,0.2246892750263214,-0.8236620426177979,0.8492091298103333,-0.006300302222371101,-0.4548720121383667,-1.5694873332977295
6.795959711074829,0.22442710399627686,-0.8225919008255005,0.8505730628967285,-0.006589313969016075,-0.45526981353759766,-1.5691843032836914
6.816044092178345,0.22488507628440857,-0.8241870999336243,0.8491114377975464,-0.006316350772976875,-0.4541763961315155,-1.569700002670288
6.8361358642578125,0.22638052701950073,-0.8226804137229919,0.849744439125061,-0.007212990894913673,-0.45068079233169556,-1.5699875354766846
6.856199502944946,0.22356662154197693,-0.8234180212020874,0.8495100140571594,-0.005786152556538582,-0.45261937379837036,-1.5692329406738281
6.876266241073608,0.22424349188804626,-0.823546826839447,0.8484598398208618,-0.006249831989407539,-0.4533517062664032,-1.5692473649978638
6.896366357803345,0.22551602125167847,-0.8218570947647095,0.8512366414070129,-0.007456997409462929,-0.4513629674911499,-1.5696091651916504
6.916444778442383,0.22437310218811035,-0.82379549741745,0.8490320444107056,-0.006444336846470833,-0.4523451030254364,-1.5694496631622314
6.936513423919678,0.22453543543815613,-0.8226501941680908,0.8498051762580872,-0.00668511725962162,-0.453005313873291,-1.5695066452026367
6.9565513134002686,0.22458931803703308,-0.8225396275520325,0.8502075672149658,-0.006625385954976082,-0.45303061604499817,-1.56952702999115
6.976643085479736,0.2244327962398529,-0.8232215642929077,0.8484246134757996,-0.006232397630810738,-0.45317643880844116,-1.5694491863250732
6.996741533279419,0.22422254085540771,-0.8232771754264832,0.8488801717758179,-0.006057387217879295,-0.4541247487068176,-1.5694572925567627
7.016783952713013,0.22484663128852844,-0.8233934044837952,0.8490291833877563,-0.006358126178383827,-0.45314592123031616,-1.5695956945419312
7.036848068237305,0.22427362203598022,-0.8231117129325867,0.8488739728927612,-0.006170285865664482,-0.4535616636276245,-1.5692861080169678
7.056932687759399,0.223791241645813,-0.8218494653701782,0.8499053716659546,-0.006626216694712639,-0.4541228711605072,-1.5692743062973022
7.077065706253052,0.22436931729316711,-0.8206546902656555,0.85097336769104,-0.007011169567704201,-0.4529132544994354,-1.569443941116333
7.097107172012329,0.22440281510353088,-0.8304588198661804,0.8409420847892761,-0.00453593023121357,-0.44839128851890564,-1.5695315599441528
7.117187261581421,0.22462397813796997,-0.8200568556785583,0.8528560400009155,-0.007149675861001015,-0.45155996084213257,-1.569061517715454
7.137252330780029,0.22424575686454773,-0.8237032294273376,0.8485527038574219,-0.005508771166205406,-0.45078045129776,-1.5696922540664673
7.157312631607056,0.22319146990776062,-0.8234100341796875,0.8468629717826843,-0.005686303600668907,-0.45288896560668945,-1.5694539546966553
7.177386522293091,0.2264842391014099,-0.8191351294517517,0.8480027318000793,-0.007958715781569481,-0.44501882791519165,-1.5697896480560303
7.197452783584595,0.22189077734947205,-0.8242292404174805,0.845525860786438,-0.005027519538998604,-0.4511706829071045,-1.5696306228637695
7.217525959014893,0.22238311171531677,-0.8223969340324402,0.845619797706604,-0.0057191383093595505,-0.45190179347991943,-1.569683313369751
7.237591028213501,0.22298994660377502,-0.8219037652015686,0.8461789488792419,-0.005974205210804939,-0.45156198740005493,-1.5696841478347778
7.2576844692230225,0.22309502959251404,-0.8217346668243408,0.8467850685119629,-0.006059756502509117,-0.4517788887023926,-1.5696122646331787
7.277744293212891,0.2237810492515564,-0.8215997815132141,0.8474346995353699,-0.006040425971150398,-0.45075541734695435,-1.569742202758789
7.297810792922974,0.22406738996505737,-0.8214346766471863,0.8472345471382141,-0.006398824974894524,-0.4500008821487427,-1.5697762966156006
7.317864418029785,0.22310271859169006,-0.8215866684913635,0.8474403023719788,-0.005888296291232109,-0.4514976441860199,-1.5693871974945068
7.338010311126709,0.2234959602355957,-0.8215749263763428,0.8472368121147156,-0.0060390327125787735,-0.4507075548171997,-1.5696219205856323
7.358140468597412,0.22278746962547302,-0.8214564919471741,0.8471491932868958,-0.0058127511292696,-0.4517125189304352,-1.5695176124572754
7.378187417984009,0.22376984357833862,-0.8208966851234436,0.847915768623352,-0.006562499329447746,-0.44972726702690125,-1.5696384906768799
7.39825177192688,0.22331911325454712,-0.8214766383171082,0.8474203944206238,-0.006162097677588463,-0.45080289244651794,-1.5693776607513428
7.4182984828948975,0.2233753204345703,-0.8213266730308533,0.8473096489906311,-0.006039535626769066,-0.45077773928642273,-1.569695234298706
7.4383933544158936,0.22286102175712585,-0.8217368125915527,0.8471840023994446,-0.005776045843958855,-0.45147907733917236,-1.5695304870605469
7.458466529846191,0.22357597947120667,-0.8216268420219421,0.8471828699111938,-0.00607495941221714,-0.45062363147735596,-1.56978440284729
7.478541612625122,0.2229946255683899,-0.820560872554779,0.8479567170143127,-0.0063670966774225235,-0.4515193998813629,-1.569698691368103
7.499175071716309,0.22323191165924072,-0.818609893321991,0.8491939902305603,-0.007176658138632774,-0.4499443471431732,-1.5692827701568604
7.519407510757446,0.22251394391059875,-0.822056233882904,0.8452664613723755,-0.0061743054538965225,-0.44967564940452576,-1.5692987442016602
7.53946328163147,0.22356730699539185,-0.8206614851951599,0.8462218642234802,-0.006381949409842491,-0.44759073853492737,-1.5693402290344238
7.559476852416992,0.22171887755393982,-0.8203822374343872,0.8456144332885742,-0.0056761931627988815,-0.4488488435745239,-1.5690054893493652
7.579752445220947,0.22237613797187805,-0.8219284415245056,0.8459812998771667,-0.006040623411536217,-0.44978103041648865,-1.5692553520202637
7.599833250045776,0.22292912006378174,-0.8214371800422668,0.8451572060585022,-0.006128041073679924,-0.4490051567554474,-1.5694098472595215
7.619920253753662,0.22279894351959229,-0.8202492594718933,0.8457069396972656,-0.006410779431462288,-0.44930964708328247,-1.569326400756836
7.64004111289978,0.22231727838516235,-0.8205256462097168,0.8456197381019592,-0.005906151607632637,-0.4497632682323456,-1.5692524909973145
7.66012167930603,0.22316378355026245,-0.8195781111717224,0.8475186228752136,-0.0066039543598890305,-0.44878724217414856,-1.5694854259490967
7.680249929428101,0.22291311621665955,-0.8194989562034607,0.8474419116973877,-0.006572118028998375,-0.44896265864372253,-1.569352149963379
7.700345754623413,0.22228220105171204,-0.819363534450531,0.8479745388031006,-0.006297247484326363,-0.4499910771846771,-1.5691542625427246
7.720413446426392,0.22209325432777405,-0.8186575174331665,0.8476070761680603,-0.006484249606728554,-0.45026957988739014,-1.568970799446106
7.740549325942993,0.22229820489883423,-0.8215911388397217,0.8442428708076477,-0.005718657746911049,-0.4491409361362457,-1.569303035736084
7.760688543319702,0.2209339141845703,-0.8177269101142883,0.8467704653739929,-0.006596950814127922,-0.45044049620628357,-1.5690215826034546
7.780691146850586,0.22261855006217957,-0.820086658000946,0.8458206653594971,-0.005876393988728523,-0.44811704754829407,-1.5691322088241577
7.800783157348633,0.222002774477005,-0.819925844669342,0.8459663987159729,-0.005495054647326469,-0.4492112398147583,-1.569054365158081
7.820852994918823,0.22232121229171753,-0.8201305866241455,0.8456354737281799,-0.005814136937260628,-0.44850268959999084,-1.5688726902008057
7.840932130813599,0.22198042273521423,-0.8199883103370667,0.8458801507949829,-0.00560879148542881,-0.44923126697540283,-1.5689623355865479
7.86104941368103,0.22288727760314941,-0.8212525248527527,0.8451464772224426,-0.00579691119492054,-0.44724181294441223,-1.5690665245056152
7.881095886230469,0.22216150164604187,-0.8211503624916077,0.8449555039405823,-0.00558498315513134,-0.44884711503982544,-1.5691828727722168
7.901301622390747,0.22224679589271545,-0.8195637464523315,0.8463555574417114,-0.005884667858481407,-0.44890713691711426,-1.5685570240020752
7.921411514282227,0.2215287685394287,-0.8196181058883667,0.8458490371704102,-0.00532844103872776,-0.44957518577575684,-1.5688118934631348
7.941447734832764,0.22219806909561157,-0.8200855851173401,0.845758318901062,-0.005701692774891853,-0.44859224557876587,-1.568711519241333
7.961548328399658,0.2218722105026245,-0.8220362663269043,0.8441734313964844,-0.0052863117307424545,-0.4490310847759247,-1.5687661170959473
7.981621026992798,0.22271841764450073,-0.8211430907249451,0.8445731401443481,-0.005940819159150124,-0.44776204228401184,-1.5688464641571045
8.001713275909424,0.22239989042282104,-0.8203868269920349,0.845302164554596,-0.006020026281476021,-0.44842708110809326,-1.5688358545303345
8.021732091903687,0.22230270504951477,-0.8201250433921814,0.8455268740653992,-0.005838068202137947,-0.4484729468822479,-1.5688130855560303
8.041821956634521,0.22171512246131897,-0.8199434876441956,0.8457144498825073,-0.005586167797446251,-0.4494849145412445,-1.5687596797943115
8.061896324157715,0.22171932458877563,-0.8198420405387878,0.845281720161438,-0.005564173683524132,-0.4489422142505646,-1.5684969425201416
8.082008838653564,0.22226274013519287,-0.8202428817749023,0.8455108404159546,-0.0057032760232687,-0.4484674036502838,-1.5685200691223145
8.102161884307861,0.2223704755306244,-0.8201664090156555,0.8454874753952026,-0.005964634940028191,-0.44782108068466187,-1.5684468746185303
8.122350454330444,0.2218448519706726,-0.8199326992034912,0.8455150127410889,-0.0058138202875852585,-0.4487631916999817,-1.568385124206543
8.142417430877686,0.222097247838974,-0.8199480175971985,0.8456394076347351,-0.005760250613093376,-0.44861653447151184,-1.5685408115386963
8.16245412826538,0.22208234667778015,-0.8200010061264038,0.8455941081047058,-0.005793048068881035,-0.44864070415496826,-1.5685114860534668
8.182539939880371,0.22166535258293152,-0.8200905919075012,0.845882773399353,-0.0056040044873952866,-0.4493843615055084,-1.5684539079666138
8.202639818191528,0.22213828563690186,-0.8201416730880737,0.8458793759346008,-0.0057722944766283035,-0.44857802987098694,-1.5683283805847168
8.222739219665527,0.2220914363861084,-0.819734513759613,0.8456524610519409,-0.005792560055851936,-0.4487961232662201,-1.5683430433273315
8.242802619934082,0.22252610325813293,-0.8200773596763611,0.84568190574646,-0.005981253460049629,-0.44776269793510437,-1.568281650543213
8.262919664382935,0.22195160388946533,-0.8197364211082458,0.8456119894981384,-0.005760351195931435,-0.44878989458084106,-1.568337082862854
8.282979488372803,0.22208178043365479,-0.8197720050811768,0.8455485105514526,-0.005840694531798363,-0.4483223557472229,-1.568415880203247
8.303117990493774,0.2213166356086731,-0.8196315169334412,0.845443069934845,-0.005539728328585625,-0.44937896728515625,-1.5682004690170288
8.323201417922974,0.22233879566192627,-0.8194134831428528,0.8452818989753723,-0.006134500727057457,-0.44713640213012695,-1.5680291652679443
8.343286275863647,0.2224729359149933,-0.8195387125015259,0.8455963134765625,-0.006119547411799431,-0.4468284845352173,-1.5682119131088257
8.363388061523438,0.22203665971755981,-0.8198786377906799,0.8455402255058289,-0.00603434257209301,-0.44758155941963196,-1.5682361125946045
8.383455276489258,0.22227743268013,-0.8191065192222595,0.8451300263404846,-0.0063138436526060104,-0.44721344113349915,-1.5681687593460083
8.403507947921753,0.22188198566436768,-0.8193861246109009,0.8453199863433838,-0.006022533401846886,-0.44782209396362305,-1.568179965019226
8.423609256744385,0.2217893898487091,-0.8192662596702576,0.8452315330505371,-0.0058777909725904465,-0.44795361161231995,-1.568077564239502
8.443801403045654,0.2219187319278717,-0.8193310499191284,0.84539395570755,-0.00579480268061161,-0.4477878510951996,-1.568183183670044
8.463780641555786,0.2213537096977234,-0.8192716240882874,0.845282793045044,-0.005768796429038048,-0.44876328110694885,-1.5680497884750366
8.483996152877808,0.22209414839744568,-0.8194413781166077,0.8452951908111572,-0.006115274503827095,-0.4477194845676422,-1.5682203769683838
8.503969192504883,0.2219580113887787,-0.8195872902870178,0.8453478217124939,-0.006022227928042412,-0.44767624139785767,-1.5681731700897217
8.524048089981079,0.22190821170806885,-0.8193484544754028,0.8453531861305237,-0.00601864792406559,-0.4478353261947632,-1.5679051876068115
8.544089794158936,0.22141480445861816,-0.8194587230682373,0.8454011678695679,-0.005844226107001305,-0.44869351387023926,-1.5678725242614746
8.564175844192505,0.22154289484024048,-0.8184871077537537,0.8461528420448303,-0.006322724744677544,-0.44859397411346436,-1.5679588317871094
8.584236860275269,0.22186559438705444,-0.8171584010124207,0.8477397561073303,-0.0068854112178087234,-0.4477800726890564,-1.5678691864013672
8.60433316230774,0.22158470749855042,-0.8195838332176208,0.8441953659057617,-0.006260594353079796,-0.44666436314582825,-1.5677495002746582
8.624388456344604,0.22115272283554077,-0.8190707564353943,0.8444316983222961,-0.0060922373086214066,-0.4485653340816498,-1.5676512718200684
8.644463539123535,0.22166404128074646,-0.8187660574913025,0.8454856276512146,-0.005656210705637932,-0.4481659531593323,-1.5679717063903809
8.664541006088257,0.22176888585090637,-0.8188626170158386,0.845004141330719,-0.005865259096026421,-0.4476487338542938,-1.567795753479004
8.68467092514038,0.2218700647354126,-0.8200066685676575,0.8439809679985046,-0.006039803847670555,-0.44745832681655884,-1.5677701234817505
8.704780101776123,0.22230353951454163,-0.8202516436576843,0.8437477946281433,-0.006135804578661919,-0.44642889499664307,-1.5678720474243164
8.724991083145142,0.22171786427497864,-0.8185645937919617,0.8458258509635925,-0.0059450771659612656,-0.44773024320602417,-1.567832589149475
8.745092630386353,0.22141972184181213,-0.8187372088432312,0.8460381031036377,-0.005776671692728996,-0.44848546385765076,-1.5675718784332275
8.765292167663574,0.22186988592147827,-0.8188221454620361,0.8452566862106323,-0.006130671128630638,-0.44773322343826294,-1.5676536560058594
8.785429954528809,0.2225271463394165,-0.8188447952270508,0.8449900150299072,-0.00652262382209301,-0.4468179941177368,-1.567762851715088
8.80557131767273,0.2214699685573578,-0.8187832236289978,0.8447328209877014,-0.006002260372042656,-0.4479111135005951,-1.5674841403961182
8.825721740722656,0.22136306762695312,-0.8197279572486877,0.844481885433197,-0.00582941435277462,-0.4486097991466522,-1.5674912929534912
8.845793724060059,0.22169673442840576,-0.8186937570571899,0.845106840133667,-0.00609707273542881,-0.4480106830596924,-1.5675771236419678
8.865835189819336,0.2222287356853485,-0.8190662860870361,0.8445040583610535,-0.00633980892598629,-0.4468364715576172,-1.56768798828125
8.885899543762207,0.2216637134552002,-0.8189377784729004,0.8448361158370972,-0.006006704643368721,-0.4476017653942108,-1.5676740407943726
8.905968427658081,0.22103729844093323,-0.8190092444419861,0.8447786569595337,-0.005796568468213081,-0.4485852122306824,-1.5674989223480225
8.926084518432617,0.22171586751937866,-0.8189792037010193,0.8446918725967407,-0.006012486293911934,-0.44769370555877686,-1.5676445960998535
8.946173191070557,0.22178402543067932,-0.8189631700515747,0.8449227213859558,-0.006087625399231911,-0.4476461708545685,-1.5676640272140503
8.966241598129272,0.22116291522979736,-0.8190736174583435,0.8447215557098389,-0.005910636857151985,-0.4485880434513092,-1.5674926042556763
8.986330032348633,0.22166261076927185,-0.8188632130622864,0.8447178602218628,-0.006064252927899361,-0.44780656695365906,-1.5675948858261108
9.006364822387695,0.22226127982139587,-0.8188344240188599,0.844801127910614,-0.006296994164586067,-0.4468405544757843,-1.5677258968353271
9.026488780975342,0.22165969014167786,-0.819142758846283,0.8449367880821228,-0.0060235802084207535,-0.4475390613079071,-1.5676249265670776
9.046550989151001,0.22191721200942993,-0.8190266489982605,0.8447953462600708,-0.006144775077700615,-0.4475756287574768,-1.5676965713500977
9.066739082336426,0.2215205729007721,-0.8192198872566223,0.8449652791023254,-0.0059417057782411575,-0.44830453395843506,-1.5676935911178589
9.086819887161255,0.22186115384101868,-0.8189318180084229,0.8447928428649902,-0.00613042525947094,-0.44771453738212585,-1.567659854888916
9.106962203979492,0.22185561060905457,-0.8189807534217834,0.8449564576148987,-0.006033109501004219,-0.44755685329437256,-1.5677378177642822
9.126981735229492,0.22158443927764893,-0.81889808177948,0.8448580503463745,-0.00600644014775753,-0.44772952795028687,-1.5675991773605347
9.147051811218262,0.2218051552772522,-0.8190124034881592,0.8448666930198669,-0.006108736619353294,-0.4475615322589874,-1.567676067352295
9.167128324508667,0.2214968204498291,-0.8190502524375916,0.8449296951293945,-0.005937313660979271,-0.44837290048599243,-1.567697525024414
9.187214374542236,0.2218087911605835,-0.8190968632698059,0.8449124693870544,-0.006012933328747749,-0.44758841395378113,-1.5676977634429932
9.207276821136475,0.22173812985420227,-0.8189265131950378,0.8448066711425781,-0.006096320226788521,-0.44770532846450806,-1.5676343441009521
9.227358341217041,0.2223721146583557,-0.8190710544586182,0.8449114561080933,-0.006217101588845253,-0.44662123918533325,-1.5678117275238037
9.247395992279053,0.22152858972549438,-0.8190887570381165,0.8449374437332153,-0.005964821204543114,-0.4483060836791992,-1.5677094459533691
9.267554759979248,0.22188055515289307,-0.8191724419593811,0.8449956774711609,-0.0059991758316755295,-0.4474869966506958,-1.5677520036697388
9.287687063217163,0.22157517075538635,-0.8186702132225037,0.8445937633514404,-0.006158696487545967,-0.44796571135520935,-1.5675146579742432
9.307718992233276,0.22173237800598145,-0.8191201090812683,0.844765841960907,-0.006066599860787392,-0.4476213753223419,-1.567617654800415
9.327770233154297,0.22217270731925964,-0.8190019726753235,0.8446477651596069,-0.006325123831629753,-0.4468601644039154,-1.5676316022872925
9.347852230072021,0.22218385338783264,-0.8189704418182373,0.8449697494506836,-0.006157690659165382,-0.446720153093338,-1.5677436590194702
9.367990493774414,0.22208449244499207,-0.8191034197807312,0.8450561761856079,-0.0061219725757837296,-0.4473506808280945,-1.5678191184997559
9.388094902038574,0.2213013470172882,-0.8187622427940369,0.8449822068214417,-0.005898786708712578,-0.4485646188259125,-1.567638635635376
9.408095598220825,0.22190436720848083,-0.8189811110496521,0.8448502421379089,-0.006119215860962868,-0.4476555287837982,-1.5676920413970947
9.42823314666748,0.22182008624076843,-0.8189471364021301,0.8449087738990784,-0.0060110632330179214,-0.4476301372051239,-1.5677261352539062
9.448250532150269,0.2225063145160675,-0.8193857073783875,0.8450319766998291,-0.006214728578925133,-0.44666534662246704,-1.5678884983062744
9.468395709991455,0.22239208221435547,-0.8194500803947449,0.84506756067276,-0.0062010567635297775,-0.4466390907764435,-1.567855715751648
9.48839259147644,0.2216184437274933,-0.8188483119010925,0.8447785973548889,-0.006132354959845543,-0.44774672389030457,-1.5676803588867188
9.50848126411438,0.22175022959709167,-0.8187970519065857,0.844839870929718,-0.006066987290978432,-0.4476718306541443,-1.567634105682373
9.528705596923828,0.22174480557441711,-0.8192521929740906,0.8449987173080444,-0.005987172946333885,-0.4477192759513855,-1.5676944255828857
9.54871129989624,0.2216925024986267,-0.8192618489265442,0.8449158072471619,-0.006001351401209831,-0.4478335976600647,-1.5673989057540894
9.56962537765503,0.22168263792991638,-0.819191038608551,0.8452211618423462,-0.005821222439408302,-0.4477206766605377,-1.5674794912338257
9.589728832244873,0.2217327356338501,-0.8187389969825745,0.8446159362792969,-0.0062325578182935715,-0.4478362500667572,-1.567685604095459
9.60979962348938,0.2218036949634552,-0.8189725875854492,0.8448777198791504,-0.006146768108010292,-0.44769853353500366,-1.5675016641616821
9.629865884780884,0.22118642926216125,-0.8188966512680054,0.8448135256767273,-0.005886470898985863,-0.4486701786518097,-1.5672667026519775
9.649912357330322,0.22201189398765564,-0.81905597448349,0.8449588418006897,-0.0062018949538469315,-0.4475819170475006,-1.5675716400146484
9.670053482055664,0.22175449132919312,-0.8189988732337952,0.844954252243042,-0.006079157814383507,-0.4479585587978363,-1.5674948692321777
9.690146446228027,0.22180727124214172,-0.8189034461975098,0.8448946475982666,-0.00613207183778286,-0.44778352975845337,-1.567460536956787
9.710176229476929,0.2221669852733612,-0.8192355036735535,0.8450836539268494,-0.006096871569752693,-0.44689345359802246,-1.567583441734314
9.730297803878784,0.22151190042495728,-0.8188281059265137,0.8446555137634277,-0.0061501916497945786,-0.44794392585754395,-1.567293643951416
9.750375270843506,0.22185957431793213,-0.8194518685340881,0.8451168537139893,-0.005952311679720879,-0.44759345054626465,-1.567579746246338
9.770409345626831,0.22176915407180786,-0.8192023634910583,0.8449353575706482,-0.006043123081326485,-0.4478645920753479,-1.5674943923950195
9.790574550628662,0.22182640433311462,-0.8194084763526917,0.8450520038604736,-0.00602666474878788,-0.44774046540260315,-1.567514181137085
9.810609817504883,0.22178101539611816,-0.8190220594406128,0.8449978232383728,-0.006054142490029335,-0.4479239583015442,-1.567516565322876
9.830720901489258,0.22181859612464905,-0.8193985223770142,0.84504634141922,-0.0060287658125162125,-0.4477556049823761,-1.5675079822540283
9.850813150405884,0.22151440382003784,-0.8191202282905579,0.8448522090911865,-0.0060164835304021835,-0.4480399489402771,-1.567363977432251
9.870878458023071,0.22177058458328247,-0.8192475438117981,0.8449679613113403,-0.006117748096585274,-0.44783714413642883,-1.5674620866775513
9.890946626663208,0.22208985686302185,-0.8193386197090149,0.8451188206672668,-0.0060551781207323074,-0.44761356711387634,-1.5676708221435547
9.911049842834473,0.2213611900806427,-0.8192043900489807,0.8451496958732605,-0.005849109962582588,-0.4486684799194336,-1.5674985647201538
9.931095123291016,0.22193643450737,-0.8192465901374817,0.8449205160140991,-0.006110837683081627,-0.4478130340576172,-1.567539930343628
9.951292753219604,0.22179827094078064,-0.8192091584205627,0.8449766039848328,-0.006051087751984596,-0.44785764813423157,-1.5675122737884521
9.971385717391968,0.22178319096565247,-0.8192262649536133,0.8449236154556274,-0.006030531600117683,-0.4478522837162018,-1.5675065517425537
9.99141788482666,0.22200438380241394,-0.8189080357551575,0.8448244333267212,-0.006205851212143898,-0.4472496807575226,-1.5674464702606201
10.011509895324707,0.22127243876457214,-0.8192060589790344,0.8451924324035645,-0.00573602132499218,-0.4485733211040497,-1.567521572113037
10.031651020050049,0.22230851650238037,-0.8194342851638794,0.8450362086296082,-0.006194358691573143,-0.4468920826911926,-1.5675697326660156
10.051799774169922,0.22237509489059448,-0.8193575143814087,0.8450073003768921,-0.006251668557524681,-0.44681328535079956,-1.5676167011260986
10.071808338165283,0.22204136848449707,-0.8193418979644775,0.845065712928772,-0.006148448213934898,-0.44764792919158936,-1.5676041841506958
10.092113256454468,0.2218322455883026,-0.8194177746772766,0.8450109958648682,-0.00604168139398098,-0.44774743914604187,-1.5675206184387207
10.112232208251953,0.221782386302948,-0.8189458847045898,0.8450272083282471,-0.006021065637469292,-0.44794535636901855,-1.5675313472747803
10.132338285446167,0.22177153825759888,-0.8191807270050049,0.8450019359588623,-0.006040951237082481,-0.44788211584091187,-1.5674896240234375
10.152424335479736,0.22222968935966492,-0.8190275430679321,0.8448797464370728,-0.006256168708205223,-0.44710469245910645,-1.567535638809204
10.172470569610596,0.2215345799922943,-0.8191541433334351,0.8448505401611328,-0.00600464828312397,-0.44800880551338196,-1.567381739616394
10.19261908531189,0.22174230217933655,-0.8191758394241333,0.8449170589447021,-0.006037859246134758,-0.4478920102119446,-1.5674755573272705
10.212660074234009,0.2217182219028473,-0.8191972970962524,0.8449082374572754,-0.006088504567742348,-0.4479326903820038,-1.5674359798431396
10.232731103897095,0.22169092297554016,-0.8189571499824524,0.8448318243026733,-0.0060600396245718,-0.4480370879173279,-1.5674540996551514
10.252981185913086,0.22133278846740723,-0.8192101120948792,0.8450824618339539,-0.005825715139508247,-0.44867751002311707,-1.5674818754196167
10.272961616516113,0.22165223956108093,-0.8191363215446472,0.844829797744751,-0.0060597974807024,-0.4480510354042053,-1.5673998594284058
10.293043375015259,0.22248557209968567,-0.8191047310829163,0.8449587225914001,-0.006280301138758659,-0.44693657755851746,-1.5676665306091309
10.313156127929688,0.22104772925376892,-0.8190562725067139,0.8449274301528931,-0.005728123709559441,-0.44891929626464844,-1.5673633813858032
10.33319640159607,0.2211078405380249,-0.8190590739250183,0.8448110222816467,-0.005850004032254219,-0.4489770829677582,-1.5673127174377441
10.353287935256958,0.22222495079040527,-0.8191885352134705,0.844878077507019,-0.006208794191479683,-0.44707611203193665,-1.5675272941589355
10.37338638305664,0.22166121006011963,-0.8192123770713806,0.8449997901916504,-0.005982456728816032,-0.44782698154449463,-1.5674793720245361
10.393630504608154,0.22179269790649414,-0.8192169070243835,0.8450000882148743,-0.006067631766200066,-0.4478054642677307,-1.567497730255127
10.413647651672363,0.22139021754264832,-0.8192140460014343,0.8449345827102661,-0.005962321534752846,-0.4487464129924774,-1.5674296617507935
10.433696031570435,0.22226980328559875,-0.8192203640937805,0.8449356555938721,-0.006220696493983269,-0.4470357596874237,-1.567558765411377
10.453886032104492,0.2220667600631714,-0.81953364610672,0.8450982570648193,-0.006126215681433678,-0.44755852222442627,-1.5676038265228271
10.47397255897522,0.22207880020141602,-0.8191077709197998,0.8447271585464478,-0.006269665434956551,-0.44724902510643005,-1.5674022436141968
10.494044780731201,0.2217746376991272,-0.8192741274833679,0.844923734664917,-0.00609775073826313,-0.44781985878944397,-1.5674686431884766
10.514112710952759,0.22189602255821228,-0.819238007068634,0.8451383113861084,-0.005999291315674782,-0.4477199912071228,-1.5676016807556152
10.534181356430054,0.2217869758605957,-0.8190189003944397,0.8450357913970947,-0.006055945530533791,-0.4479237496852875,-1.5675185918807983
10.554322481155396,0.22228467464447021,-0.8192761540412903,0.8448772430419922,-0.006230046972632408,-0.4469565153121948,-1.5675649642944336
10.574467897415161,0.22179841995239258,-0.819231390953064,0.8449407815933228,-0.0060772765427827835,-0.4478074312210083,-1.567505121231079
10.594540357589722,0.2225033938884735,-0.8193449378013611,0.8450050950050354,-0.0063191670924425125,-0.44683974981307983,-1.5676441192626953
10.614643096923828,0.22101843357086182,-0.8190107941627502,0.8449233770370483,-0.0057403091341257095,-0.44895848631858826,-1.5673390626907349
10.634722709655762,0.2217709720134735,-0.819130539894104,0.8449913263320923,-0.005955277010798454,-0.4478994309902191,-1.5675227642059326
10.65478777885437,0.22177550196647644,-0.8191909193992615,0.8449779152870178,-0.006037222221493721,-0.44787347316741943,-1.5674943923950195
10.67486023902893,0.22224128246307373,-0.8191930055618286,0.8449145555496216,-0.006258556619286537,-0.4470352232456207,-1.5675246715545654
10.695042371749878,0.22251304984092712,-0.8193642497062683,0.8449907898902893,-0.006343645974993706,-0.44679775834083557,-1.5676389932632446
10.715195178985596,0.2214694321155548,-0.8192495703697205,0.84482741355896,-0.0059675853699445724,-0.4480508267879486,-1.5673261880874634
10.735228061676025,0.22173628211021423,-0.8191743493080139,0.8448976874351501,-0.00603078119456768,-0.4478958249092102,-1.5674712657928467
10.755420446395874,0.2211182713508606,-0.8188726305961609,0.8450385928153992,-0.005740156397223473,-0.448873907327652,-1.567435383796692
10.775433778762817,0.22194263339042664,-0.819338321685791,0.8448871970176697,-0.006176093593239784,-0.4477570652961731,-1.567517638206482
10.795601606369019,0.22221356630325317,-0.8192465901374817,0.8448053598403931,-0.006303893402218819,-0.4470638334751129,-1.5674920082092285
10.815630197525024,0.2211759090423584,-0.8189708590507507,0.844990611076355,-0.005786450579762459,-0.44875314831733704,-1.5673959255218506
10.835667133331299,0.22170433402061462,-0.8191272020339966,0.8449159264564514,-0.006008932366967201,-0.44797512888908386,-1.5674529075622559
10.85585355758667,0.2213144600391388,-0.8191758990287781,0.8450539708137512,-0.005853826180100441,-0.4487196207046509,-1.5674676895141602
10.875845432281494,0.2214953601360321,-0.8188604712486267,0.8448633551597595,-0.005958838388323784,-0.4481731653213501,-1.567395806312561
10.895992279052734,0.22172772884368896,-0.8191528916358948,0.8449312448501587,-0.006033008918166161,-0.4479202330112457,-1.5674611330032349
10.916163921356201,0.22188398241996765,-0.8192301988601685,0.8451140522956848,-0.006002036854624748,-0.4477402865886688,-1.5675934553146362
10.936273574829102,0.22165006399154663,-0.8193456530570984,0.8450542688369751,-0.005957188084721565,-0.44781893491744995,-1.5674608945846558
10.956348419189453,0.22233936190605164,-0.8190685510635376,0.8450472950935364,-0.006201146170496941,-0.4469541013240814,-1.5676345825195312
10.976410865783691,0.2216583788394928,-0.8191561102867126,0.8449869751930237,-0.005915379151701927,-0.44785982370376587,-1.5675089359283447
10.996536016464233,0.22187012434005737,-0.8192485570907593,0.8448666334152222,-0.006155354902148247,-0.4478752911090851,-1.567474365234375
11.016671895980835,0.22114181518554688,-0.819293200969696,0.8450415134429932,-0.005764378234744072,-0.44872334599494934,-1.5673997402191162
11.03677487373352,0.2219865620136261,-0.8192715048789978,0.8450336456298828,-0.006155410781502724,-0.4477319121360779,-1.5675597190856934
11.056865930557251,0.22135356068611145,-0.8193537592887878,0.8451671004295349,-0.005850555375218391,-0.4486171007156372,-1.5674725770950317
11.07690167427063,0.2210560142993927,-0.8190401196479797,0.8449897170066833,-0.005739511922001839,-0.4489147663116455,-1.567365288734436
11.096996307373047,0.22204023599624634,-0.8193346858024597,0.84504634141922,-0.006151990965008736,-0.44766765832901,-1.5676019191741943
11.11704683303833,0.2225084900856018,-0.8193473219871521,0.8449891805648804,-0.006327470764517784,-0.446852445602417,-1.567647099494934
11.137110948562622,0.2218310534954071,-0.8192227482795715,0.8450462818145752,-0.006097814068198204,-0.44779708981513977,-1.567521572113037
11.157230615615845,0.2223060131072998,-0.8192243576049805,0.8449341654777527,-0.006204543635249138,-0.44694867730140686,-1.56759512424469
11.177333116531372,0.22149258852005005,-0.8190991282463074,0.8448335528373718,-0.006018495187163353,-0.44807401299476624,-1.5673465728759766
11.197445392608643,0.22159439325332642,-0.8190868496894836,0.8449417948722839,-0.005919920280575752,-0.4479362368583679,-1.567460536956787
11.217476606369019,0.22180292010307312,-0.8191731572151184,0.8449954390525818,-0.005990186706185341,-0.4478236436843872,-1.5675361156463623
11.237670660018921,0.2218557894229889,-0.819209098815918,0.8450758457183838,-0.00600074790418148,-0.4477754235267639,-1.5675723552703857
11.25768232345581,0.2217143177986145,-0.8189715147018433,0.8448852896690369,-0.0060591865330934525,-0.4480132758617401,-1.5674691200256348
11.27773118019104,0.2222176194190979,-0.8194195628166199,0.8448526263237,-0.006276780739426613,-0.446987122297287,-1.5674749612808228
11.297847032546997,0.22209009528160095,-0.8191467523574829,0.844968855381012,-0.006187891587615013,-0.4470791816711426,-1.5674889087677002
11.317888975143433,0.22210916876792908,-0.8192004561424255,0.8449504971504211,-0.006193807348608971,-0.4469957947731018,-1.5674952268600464
11.337892532348633,0.2218412458896637,-0.819284975528717,0.8450242280960083,-0.006051572039723396,-0.4477233290672302,-1.5675365924835205
11.357985019683838,0.22174233198165894,-0.8191686272621155,0.8449539542198181,-0.006040362641215324,-0.4478933811187744,-1.5674724578857422
11.378071546554565,0.22226932644844055,-0.8192378878593445,0.8449196219444275,-0.006242470815777779,-0.4469873309135437,-1.5675480365753174
11.398091077804565,0.22120341658592224,-0.8191953301429749,0.8451270461082458,-0.005784301087260246,-0.44865682721138,-1.5674521923065186
11.418169260025024,0.2215954065322876,-0.8191395998001099,0.8450008630752563,-0.005921626463532448,-0.44795307517051697,-1.5674540996551514
11.438258409500122,0.22182613611221313,-0.8192411661148071,0.844999372959137,-0.006084801629185677,-0.44778597354888916,-1.567521095275879
11.458340644836426,0.22193950414657593,-0.8194766044616699,0.8449456691741943,-0.006150798872113228,-0.44773727655410767,-1.5675065517425537
11.478390455245972,0.22180727124214172,-0.8192232251167297,0.8449723720550537,-0.006050789728760719,-0.4478401243686676,-1.5675208568572998
11.49859094619751,0.22222012281417847,-0.8190175890922546,0.8448703289031982,-0.006252748891711235,-0.4471193253993988,-1.5675280094146729
11.518616914749146,0.22184687852859497,-0.8192777037620544,0.8450278043746948,-0.006056973710656166,-0.44774240255355835,-1.5675379037857056
11.538758277893066,0.22179123759269714,-0.819208562374115,0.844991147518158,-0.006046609953045845,-0.44784778356552124,-1.5675082206726074
11.558703899383545,0.22222569584846497,-0.8192492127418518,0.8448845744132996,-0.006289349868893623,-0.44703856110572815,-1.567497730255127
11.578795671463013,0.22164157032966614,-0.8189345002174377,0.845041811466217,-0.0059393662959337234,-0.4479596018791199,-1.5675084590911865
11.598869562149048,0.22122332453727722,-0.8191055059432983,0.8449693918228149,-0.005837051197886467,-0.44881051778793335,-1.5674011707305908
11.618922472000122,0.2217482626438141,-0.8191565871238708,0.8449754118919373,-0.006009453907608986,-0.4479345679283142,-1.5674859285354614
11.63900375366211,0.2217102348804474,-0.8191919922828674,0.844857931137085,-0.006098749116063118,-0.4479592740535736,-1.5674312114715576
11.65906572341919,0.22176608443260193,-0.8191890716552734,0.8449392914772034,-0.006045537069439888,-0.44788071513175964,-1.5674912929534912
11.679117202758789,0.22143742442131042,-0.8192035555839539,0.8449644446372986,-0.005916396155953407,-0.44869786500930786,-1.5674843788146973
11.699223756790161,0.22197529673576355,-0.8190320730209351,0.8450460433959961,-0.0060505736619234085,-0.4478725790977478,-1.567610740661621
11.719328880310059,0.2223297357559204,-0.8192660212516785,0.8450420498847961,-0.006245134398341179,-0.44694235920906067,-1.5675861835479736
11.739406108856201,0.22164815664291382,-0.8191778063774109,0.8450375199317932,-0.005999578163027763,-0.4478544294834137,-1.5674653053283691
11.759443521499634,0.22192320227622986,-0.8192434310913086,0.8449295163154602,-0.006110822781920433,-0.4478111267089844,-1.5675309896469116
11.77961802482605,0.2214440107345581,-0.9361741542816162,0.6748483180999756,0.05990821123123169,-0.3723204433917999,-1.4396984577178955
11.799662590026855,0.22194507718086243,-0.9156324863433838,0.7197102308273315,0.029757222160696983,-0.3915462791919708,-1.4586848020553589
11.819726467132568,0.22349587082862854,-0.8872254490852356,0.7445951104164124,0.01586144231259823,-0.3828594386577606,-1.4621381759643555
11.839871644973755,0.22368183732032776,-0.85976243019104,0.7606736421585083,0.00441608764231205,-0.3698492646217346,-1.4620023965835571
11.859962940216064,0.22099420428276062,-0.8495717644691467,0.7779631018638611,0.004922064021229744,-0.3713993430137634,-1.457271933555603
11.880070447921753,0.21920570731163025,-0.8465928435325623,0.773297905921936,0.006237344816327095,-0.37133538722991943,-1.453490972518921
11.9001305103302,0.2200784683227539,-0.8517682552337646,0.7644194960594177,0.015383115038275719,-0.369270384311676,-1.4489880800247192
11.920480012893677,0.21896526217460632,-0.8599638342857361,0.757935643196106,0.02234874852001667,-0.37566298246383667,-1.4465527534484863
11.940620183944702,0.21820133924484253,-0.8579229116439819,0.7578203082084656,0.026011591777205467,-0.38037747144699097,-1.4371147155761719
11.960669040679932,0.2147429883480072,-0.872246503829956,0.744465708732605,0.02918756566941738,-0.3827973008155823,-1.425212025642395
11.980728387832642,0.20552247762680054,-0.8773705959320068,0.7371103763580322,0.02965824119746685,-0.3979876935482025,-1.4159871339797974
12.000869750976562,0.21008959412574768,-0.8524779677391052,0.7532342672348022,0.018974008038640022,-0.38960546255111694,-1.417115330696106
12.020907163619995,0.21225827932357788,-0.8543640375137329,0.7452132701873779,0.01858081854879856,-0.36622849106788635,-1.4118294715881348
12.041052341461182,0.21278241276741028,-0.8431928753852844,0.7502084374427795,0.017833752557635307,-0.36690402030944824,-1.4068100452423096
12.061092138290405,0.2180483043193817,-0.8429482579231262,0.7465425133705139,0.020933670923113823,-0.35296985507011414,-1.4036455154418945
12.081247568130493,0.22139611840248108,-0.8363854289054871,0.7491962909698486,0.02005958743393421,-0.35024309158325195,-1.3990323543548584
12.101380586624146,0.22286006808280945,-0.8424709439277649,0.742922842502594,0.020227542147040367,-0.3437490463256836,-1.395081877708435
12.121488094329834,0.22033512592315674,-0.8575536608695984,0.7306301593780518,0.023940028622746468,-0.3484644293785095,-1.3885698318481445
12.141666173934937,0.22203916311264038,-0.8596417307853699,0.7292213439941406,0.01934340037405491,-0.3552984297275543,-1.3836575746536255
12.16166090965271,0.21808356046676636,-0.8524502515792847,0.7301334142684937,0.017110196873545647,-0.35938459634780884,-1.3813923597335815
12.181785345077515,0.2175314724445343,-0.8454794883728027,0.7344465851783752,0.015912191942334175,-0.3603319525718689,-1.3802242279052734
12.201924562454224,0.2198561728000641,-0.8316887021064758,0.7436462044715881,0.01347079686820507,-0.35339221358299255,-1.3789458274841309
12.221933364868164,0.215084969997406,-0.8213782906532288,0.7462078332901001,0.01465802825987339,-0.3519587516784668,-1.374891996383667
12.242061614990234,0.2096610963344574,-0.8336203694343567,0.7340973615646362,0.023645250126719475,-0.3585951328277588,-1.3711016178131104
12.26215672492981,0.2127954661846161,-0.8440197110176086,0.7228416204452515,0.027827920392155647,-0.35527274012565613,-1.3649098873138428
12.282201051712036,0.20778948068618774,-0.848112165927887,0.7201449871063232,0.0274666640907526,-0.3678279519081116,-1.357409119606018
12.302459239959717,0.2142002284526825,-0.8455073833465576,0.7170009613037109,0.021099193021655083,-0.35271239280700684,-1.3559300899505615
12.322592735290527,0.21323567628860474,-0.8449535965919495,0.7194975018501282,0.020731376484036446,-0.34898611903190613,-1.35371994972229
12.342638731002808,0.21540439128875732,-0.8342597484588623,0.724353015422821,0.017056552693247795,-0.3410760462284088,-1.3524869680404663
12.362688064575195,0.21661484241485596,-0.8282082676887512,0.7275739312171936,0.01810442842543125,-0.34027236700057983,-1.351740837097168
12.382888078689575,0.21576443314552307,-0.8173444271087646,0.7366335391998291,0.014193223789334297,-0.3409070670604706,-1.3502343893051147
12.402915239334106,0.2156255543231964,-0.8282100558280945,0.7258214354515076,0.020227303728461266,-0.3389999568462372,-1.3465290069580078
12.422965049743652,0.21528029441833496,-0.8365118503570557,0.7190448641777039,0.02264786697924137,-0.34839144349098206,-1.342186450958252
12.443079710006714,0.2124600112438202,-0.8348442912101746,0.7196515202522278,0.019299151375889778,-0.3579607903957367,-1.3389108180999756
12.463179588317871,0.2120494544506073,-0.8394541144371033,0.7138279676437378,0.02027043141424656,-0.35784247517585754,-1.3378016948699951
12.483250617980957,0.21661168336868286,-0.8292000889778137,0.7187248468399048,0.016400741413235664,-0.34693431854248047,-1.3385796546936035
12.50334358215332,0.20780164003372192,-0.8287246823310852,0.7201945781707764,0.0206922497600317,-0.35874003171920776,-1.3353561162948608
12.523475170135498,0.21372953057289124,-0.8188509941101074,0.7271091341972351,0.016914693638682365,-0.34978580474853516,-1.3357458114624023
12.543679237365723,0.21268457174301147,-0.8220077157020569,0.7230052351951599,0.020568659529089928,-0.3465433418750763,-1.3328723907470703
12.563770771026611,0.2127934694290161,-0.824822723865509,0.7177314162254333,0.02127409167587757,-0.34644055366516113,-1.330118179321289
12.583831310272217,0.21423134207725525,-0.8298487663269043,0.7142974734306335,0.021002402529120445,-0.34578827023506165,-1.3267207145690918
12.603928804397583,0.21409985423088074,-0.8338941335678101,0.7090591192245483,0.019590327516198158,-0.3425990045070648,-1.3250466585159302
12.624054431915283,0.2131488025188446,-0.8277210593223572,0.7124814987182617,0.01747352071106434,-0.3462449610233307,-1.3238341808319092
12.644157886505127,0.2136518359184265,-0.823837161064148,0.7151519656181335,0.016328850761055946,-0.3445338010787964,-1.32282292842865
12.664204835891724,0.21223613619804382,-0.8226430416107178,0.7140464782714844,0.017181186005473137,-0.3453466296195984,-1.32158625125885
12.684404373168945,0.21252158284187317,-0.8189741373062134,0.7167304158210754,0.01680777408182621,-0.3477564752101898,-1.3213118314743042
12.704430103302002,0.21361872553825378,-0.816767156124115,0.7174779176712036,0.015042895451188087,-0.34330013394355774,-1.3194884061813354
12.724545001983643,0.212240070104599,-0.8274232745170593,0.7101523876190186,0.01845250464975834,-0.3487339913845062,-1.3171510696411133
12.744627237319946,0.2135002613067627,-0.830323338508606,0.7063246965408325,0.018181035295128822,-0.3476170003414154,-1.3164992332458496
12.764753818511963,0.2134634554386139,-0.8275896906852722,0.7062302827835083,0.018037186935544014,-0.34886878728866577,-1.3164348602294922
12.784887313842773,0.2117736041545868,-0.8225288391113281,0.7095404267311096,0.016260085627436638,-0.35057753324508667,-1.3152871131896973
12.805018186569214,0.20817315578460693,-0.8150227665901184,0.7158666849136353,0.015470197424292564,-0.35657355189323425,-1.3134942054748535
12.825093030929565,0.21195590496063232,-0.8169554471969604,0.7136838436126709,0.01526806689798832,-0.3483056426048279,-1.3132920265197754
12.845161437988281,0.2117089331150055,-0.8189205527305603,0.7120700478553772,0.016218552365899086,-0.3475189507007599,-1.3115161657333374
12.865458250045776,0.2115541696548462,-0.8162451386451721,0.7133453488349915,0.015730207785964012,-0.3493899405002594,-1.3121719360351562
12.885560750961304,0.21160441637039185,-0.8195246458053589,0.7112783789634705,0.01593806780874729,-0.3507627546787262,-1.3106415271759033
12.905658483505249,0.21247461438179016,-0.8220600485801697,0.7095656991004944,0.015852363780140877,-0.34974828362464905,-1.3096516132354736
12.925753831863403,0.2109045684337616,-0.8171282410621643,0.7122295498847961,0.013559198006987572,-0.3534880578517914,-1.3093090057373047
12.94581389427185,0.21199989318847656,-0.8197436928749084,0.7093572616577148,0.014392128214240074,-0.3508109152317047,-1.3103892803192139
12.965911865234375,0.21271634101867676,-0.8206110596656799,0.7091395258903503,0.015035176649689674,-0.3495183289051056,-1.3101073503494263
12.985984325408936,0.21237429976463318,-0.8206233382225037,0.7088736295700073,0.015516141429543495,-0.350108802318573,-1.3100917339324951
13.006048440933228,0.213599294424057,-0.823746383190155,0.7067837119102478,0.01574438251554966,-0.34829211235046387,-1.3091578483581543
13.026145219802856,0.21179136633872986,-0.8176422715187073,0.7129983901977539,0.014760693535208702,-0.35246890783309937,-1.3079707622528076
13.046212673187256,0.21184507012367249,-0.8180882334709167,0.7115640044212341,0.014199210330843925,-0.3524608910083771,-1.3075809478759766
13.066272497177124,0.21260035037994385,-0.8186934590339661,0.7108074426651001,0.013952670618891716,-0.3509521186351776,-1.3081152439117432
13.086404085159302,0.21289148926734924,-0.8187662363052368,0.7108383774757385,0.014186402782797813,-0.35061973333358765,-1.3084193468093872
13.10649561882019,0.21288993954658508,-0.8186344504356384,0.711013674736023,0.014411905780434608,-0.35081368684768677,-1.307922124862671
13.126546144485474,0.2136944830417633,-0.8191689848899841,0.71083664894104,0.014141323044896126,-0.34985700249671936,-1.30726158618927
13.146620273590088,0.21251320838928223,-0.8190853595733643,0.7110084891319275,0.014577338472008705,-0.35201495885849,-1.306732416152954
13.166693687438965,0.21282532811164856,-0.8185688853263855,0.7106960415840149,0.013838959857821465,-0.3518331050872803,-1.3063536882400513
13.186774492263794,0.2127358615398407,-0.8187418580055237,0.7108069658279419,0.013743063434958458,-0.35258427262306213,-1.3065418004989624
13.206823110580444,0.21314260363578796,-0.8176490664482117,0.7116326093673706,0.013457423076033592,-0.35162797570228577,-1.3065588474273682
13.226922035217285,0.21352282166481018,-0.8180725574493408,0.7113291025161743,0.013283679261803627,-0.35114651918411255,-1.3067690134048462
13.246988534927368,0.212437242269516,-0.8184689879417419,0.7109318375587463,0.013919295743107796,-0.3535482883453369,-1.306227445602417
13.267062664031982,0.21434155106544495,-0.8223713636398315,0.7083526253700256,0.013997936621308327,-0.35048985481262207,-1.3057278394699097
13.287245512008667,0.213628888130188,-0.8200313448905945,0.7109814286231995,0.013670550659298897,-0.35288718342781067,-1.3054423332214355
13.307406902313232,0.21387046575546265,-0.8210040330886841,0.7093819379806519,0.014053026214241982,-0.352448433637619,-1.304555892944336
13.327399730682373,0.21320199966430664,-0.8186007738113403,0.7104813456535339,0.013215990737080574,-0.3539871871471405,-1.3048657178878784
13.34748888015747,0.21436426043510437,-0.818794310092926,0.7107027173042297,0.0132600087672472,-0.35152146220207214,-1.3050603866577148
13.367546081542969,0.21382927894592285,-0.8187352418899536,0.7109689712524414,0.013438353314995766,-0.3525230586528778,-1.304992914199829
13.387697458267212,0.21353352069854736,-0.8188409209251404,0.7107202410697937,0.013511287048459053,-0.35355424880981445,-1.3049801588058472
13.407701015472412,0.21380290389060974,-0.8196282982826233,0.7110738158226013,0.01370646245777607,-0.35414090752601624,-1.3050857782363892
13.427753448486328,0.2114660143852234,-0.8203091025352478,0.7115445733070374,0.014436909928917885,-0.3611096143722534,-1.304788589477539
13.44790005683899,0.2160784900188446,-0.819586455821991,0.7106931209564209,0.012312917038798332,-0.3535086214542389,-1.305349349975586
13.467958450317383,0.21493929624557495,-0.819513201713562,0.711150586605072,0.01301189698278904,-0.354123055934906,-1.3051307201385498
13.48802638053894,0.21472162008285522,-0.8194367289543152,0.711345911026001,0.013594428077340126,-0.3549359440803528,-1.3050413131713867
13.508154392242432,0.21501600742340088,-0.8199239373207092,0.711502194404602,0.013480132445693016,-0.3550150394439697,-1.3047118186950684
13.52826476097107,0.21230360865592957,-0.8213642835617065,0.7115098834037781,0.0148319061845541,-0.36130309104919434,-1.304038166999817
13.54844045639038,0.21542489528656006,-0.8209871649742126,0.7107226848602295,0.013805123046040535,-0.35715633630752563,-1.3039441108703613
13.568465232849121,0.21442657709121704,-0.8202540874481201,0.7113673686981201,0.013762073591351509,-0.35853713750839233,-1.3038979768753052
13.588577270507812,0.2142007052898407,-0.8204171061515808,0.7122576236724854,0.01410597749054432,-0.3596011996269226,-1.3039124011993408
13.60871148109436,0.21466785669326782,-0.8191735744476318,0.7127814888954163,0.013454189524054527,-0.3592165410518646,-1.3039369583129883
13.628763437271118,0.21600079536437988,-0.8202238082885742,0.712638795375824,0.013427617028355598,-0.35666146874427795,-1.303819179534912
13.64879322052002,0.21623629331588745,-0.8200687766075134,0.7128480076789856,0.012984225526452065,-0.3570553660392761,-1.3038160800933838
13.668858289718628,0.21497124433517456,-0.82174152135849,0.7109735012054443,0.014308242127299309,-0.35879331827163696,-1.3035842180252075
13.688952207565308,0.21569690108299255,-0.8206032514572144,0.7113471031188965,0.013413595035672188,-0.3571644425392151,-1.3039284944534302
13.709087610244751,0.2161116600036621,-0.820274293422699,0.7119495868682861,0.013093611225485802,-0.35740384459495544,-1.3039116859436035
13.729108095169067,0.21563053131103516,-0.8195085525512695,0.71286940574646,0.013186292722821236,-0.3591019809246063,-1.3040460348129272
13.7491774559021,0.2163049578666687,-0.8218280673027039,0.7112757563591003,0.013710664585232735,-0.3581048548221588,-1.3042173385620117
13.769334554672241,0.21561408042907715,-0.822370707988739,0.7111259698867798,0.01404556818306446,-0.3600116968154907,-1.30386483669281
13.789390325546265,0.21664363145828247,-0.8199726939201355,0.7147319912910461,0.01339985616505146,-0.3650974631309509,-1.30433189868927
13.809422254562378,0.21518224477767944,-0.8211608529090881,0.7146817445755005,0.013785475865006447,-0.3657504916191101,-1.303946614265442
13.829525232315063,0.21527355909347534,-0.8220658898353577,0.71361243724823,0.014038199558854103,-0.3659496605396271,-1.3042935132980347
13.849589824676514,0.2168319821357727,-0.8238043189048767,0.7115093469619751,0.014870906248688698,-0.36197173595428467,-1.3040547370910645
13.869664669036865,0.21654802560806274,-0.8194506764411926,0.7150205969810486,0.012890534475445747,-0.36165139079093933,-1.3040704727172852
13.889723062515259,0.21735906600952148,-0.8229706883430481,0.7139125466346741,0.014008229598402977,-0.35919439792633057,-1.3043683767318726
13.909854888916016,0.2172514796257019,-0.8228541016578674,0.7140046954154968,0.013540977612137794,-0.35992878675460815,-1.3039171695709229
13.929935932159424,0.21793445944786072,-0.823276698589325,0.7133513689041138,0.013091208413243294,-0.35966646671295166,-1.3040547370910645
13.949986696243286,0.2184317708015442,-0.8223963379859924,0.7147282958030701,0.01258893869817257,-0.3598857522010803,-1.3041718006134033
13.970160722732544,0.21819362044334412,-0.8237306475639343,0.7139067053794861,0.01339060626924038,-0.36060890555381775,-1.304325819015503
13.99018406867981,0.22035002708435059,-0.8224324584007263,0.7160177230834961,0.01183442585170269,-0.3616809546947479,-1.3052664995193481
14.010233640670776,0.21651741862297058,-0.8244516253471375,0.7164814472198486,0.014201724901795387,-0.36931532621383667,-1.3047266006469727
14.030349016189575,0.2193812131881714,-0.8236131072044373,0.7149314880371094,0.013482393696904182,-0.3642464280128479,-1.3043735027313232
14.050512790679932,0.217585027217865,-0.8258823752403259,0.7144796848297119,0.014816345646977425,-0.36710113286972046,-1.3042075634002686
14.070568323135376,0.21852275729179382,-0.8232192397117615,0.7159116864204407,0.013577962294220924,-0.3648378252983093,-1.3041465282440186
14.090653419494629,0.21859949827194214,-0.8237940669059753,0.7164440751075745,0.013593459501862526,-0.36429744958877563,-1.30431067943573
14.110740661621094,0.21965453028678894,-0.8243158459663391,0.7155542373657227,0.01322309859097004,-0.3620440363883972,-1.3045101165771484
14.13083791732788,0.21991613507270813,-0.8228785991668701,0.7167361378669739,0.012511694803833961,-0.3613472282886505,-1.3048324584960938
14.150884866714478,0.21884742379188538,-0.825229287147522,0.7154648303985596,0.013813616707921028,-0.36346349120140076,-1.3046789169311523
14.170958757400513,0.21969342231750488,-0.8297385573387146,0.712599515914917,0.015884479507803917,-0.36425793170928955,-1.3046607971191406
14.191113233566284,0.2197553813457489,-0.8256672024726868,0.716595470905304,0.014406440779566765,-0.36608269810676575,-1.304634928703308
14.211254119873047,0.2193649709224701,-0.8260061144828796,0.7163045406341553,0.013778308406472206,-0.3657841980457306,-1.3046600818634033
14.231291770935059,0.21876874566078186,-0.8258784413337708,0.7169396281242371,0.014108428731560707,-0.36783266067504883,-1.3047209978103638
14.251739978790283,0.21685481071472168,-0.8274449706077576,0.7161499857902527,0.015557916834950447,-0.3721793591976166,-1.3045631647109985
14.271914720535278,0.2193269431591034,-0.8203178644180298,0.7198630571365356,0.013288630172610283,-0.3678397238254547,-1.3051447868347168
14.291938304901123,0.21899697184562683,-0.8240516781806946,0.7187156081199646,0.013956176117062569,-0.36654019355773926,-1.304916262626648
14.312038898468018,0.2200932800769806,-0.8253025412559509,0.7179306745529175,0.014189155772328377,-0.36496564745903015,-1.30511474609375
14.332096815109253,0.21982133388519287,-0.8265805840492249,0.7166285514831543,0.014665069058537483,-0.36544179916381836,-1.3048492670059204
14.35221529006958,0.2187305986881256,-0.8262625932693481,0.7166846394538879,0.014500724151730537,-0.3671213984489441,-1.3043901920318604
14.372264623641968,0.2197698950767517,-0.826562225818634,0.7164924144744873,0.014371821656823158,-0.36561116576194763,-1.30494225025177
