liuyurong129/humanoid-gym/humanoid/data/target_q_20250522-034732.csv
timestamp,joint_1,joint_2,joint_3,joint_4,joint_5,joint_6
5.459785461425781e-05,0.0,0.0,0.0,0.0,0.0,0.0
0.02013397216796875,0.0,0.0,0.0,0.0,0.0,0.0
0.04020571708679199,0.0,0.0,0.0,0.0,0.0,0.0
0.060280799865722656,0.0,0.0,0.0,0.0,0.0,0.0
0.08035564422607422,0.0,0.0,0.0,0.0,0.0,0.0
0.1004490852355957,0.6097184419631958,-1.0672318935394287,0.7952910661697388,-0.004954341799020767,0.06419748067855835,0.23981082439422607
0.12074661254882812,0.5794879794120789,-1.0910793542861938,0.7985937595367432,-0.014688834547996521,0.08351276814937592,0.24073956906795502
0.14086484909057617,0.5658122897148132,-1.1030339002609253,0.8033508658409119,-0.01903640665113926,0.09206850081682205,0.241299569606781
0.16100358963012695,0.5416971445083618,-1.1273114681243896,0.8187570571899414,-0.02663327008485794,0.10694044083356857,0.242611825466156
0.18181276321411133,0.5310155153274536,-1.1394035816192627,0.8283223509788513,-0.029912954196333885,0.11344916373491287,0.24334456026554108
0.20193696022033691,0.5113512873649597,-1.1622588634490967,0.8480194211006165,-0.03549986705183983,0.12469843775033951,0.24479098618030548
0.2220170497894287,0.4939466714859009,-1.1844030618667603,0.8706534504890442,-0.04019591212272644,0.13380371034145355,0.24631555378437042
0.2420804500579834,0.4857158958911896,-1.1955137252807617,0.8835830092430115,-0.04241546243429184,0.13763026893138885,0.2471359372138977
0.2621433734893799,0.47127148509025574,-1.217865228652954,0.9131207466125488,-0.04669497162103653,0.14400936663150787,0.24895642697811127
0.28221702575683594,0.46492207050323486,-1.2288907766342163,0.9289008378982544,-0.048713620752096176,0.14669471979141235,0.24993287026882172
0.3023693561553955,0.45296892523765564,-1.2497605085372925,0.9597308039665222,-0.05224132537841797,0.15100312232971191,0.2518536448478699
0.3226959705352783,0.44272947311401367,-1.2690834999084473,0.9893960952758789,-0.05504144728183746,0.15411925315856934,0.25375866889953613
0.34281039237976074,0.4380873441696167,-1.277848720550537,1.0027542114257812,-0.05600658059120178,0.15530899167060852,0.2546479403972626
0.3629472255706787,0.42995715141296387,-1.2937312126159668,1.0273492336273193,-0.05736171454191208,0.15698659420013428,0.25629714131355286
0.38298463821411133,0.42646417021751404,-1.3008195161819458,1.0383434295654297,-0.057679448276758194,0.15753480792045593,0.25704440474510193
0.4032447338104248,0.41938361525535583,-1.3133823871612549,1.0577303171157837,-0.05774669349193573,0.15774834156036377,0.25831034779548645
0.42337656021118164,0.4161168038845062,-1.3191219568252563,1.0670619010925293,-0.05764976888895035,0.15741105377674103,0.25888362526893616
0.44345664978027344,0.4126713275909424,-1.3242583274841309,1.0752159357070923,-0.057302556931972504,0.15678462386131287,0.2593577206134796
0.46355485916137695,0.4054843485355377,-1.3335727453231812,1.090319275856018,-0.056345582008361816,0.15470199286937714,0.26022088527679443
0.48360347747802734,0.3978849947452545,-1.3415452241897583,1.1029713153839111,-0.05480522662401199,0.15157684683799744,0.2609809935092926
0.5036954879760742,0.3940584659576416,-1.3452168703079224,1.1090140342712402,-0.05394719913601875,0.14963297545909882,0.26138079166412354
0.5239255428314209,0.3856924772262573,-1.3515170812606812,1.1183353662490845,-0.051532283425331116,0.14497467875480652,0.262084037065506
0.5439419746398926,0.38166308403015137,-1.3542152643203735,1.121425986289978,-0.04989131912589073,0.14253942668437958,0.2624276578426361
0.5640072822570801,0.3740677535533905,-1.3590682744979858,1.125712513923645,-0.045996084809303284,0.13738670945167542,0.2631622552871704
0.5844705104827881,0.37070661783218384,-1.3614592552185059,1.1274436712265015,-0.043913405388593674,0.13478204607963562,0.26361972093582153
0.6045637130737305,0.36438053846359253,-1.366220474243164,1.1287246942520142,-0.03938691318035126,0.12976735830307007,0.26467108726501465
0.6246201992034912,0.35836416482925415,-1.3711025714874268,1.1274330615997314,-0.034591324627399445,0.12498443573713303,0.2658860385417938
0.6447134017944336,0.35552695393562317,-1.3737212419509888,1.1264585256576538,-0.03220474720001221,0.12261958420276642,0.26657834649086
0.6647794246673584,0.3501623570919037,-1.3797378540039062,1.1237668991088867,-0.027597272768616676,0.11824531108140945,0.2682620882987976
0.6848671436309814,0.34728312492370605,-1.383113145828247,1.1218459606170654,-0.02530544437468052,0.11610038578510284,0.26922982931137085
0.7049288749694824,0.34126076102256775,-1.3904690742492676,1.1166026592254639,-0.02072003111243248,0.11184722185134888,0.27128931879997253
0.7250399589538574,0.3379583954811096,-1.3944419622421265,1.1133135557174683,-0.018319642171263695,0.10959803313016891,0.27236050367355347
0.745084285736084,0.33169203996658325,-1.4027818441390991,1.1080870628356934,-0.013479810208082199,0.10446616262197495,0.27465811371803284
0.7651634216308594,0.32886210083961487,-1.407252311706543,1.1065831184387207,-0.011186416260898113,0.1016237884759903,0.27595967054367065
0.7852458953857422,0.32328033447265625,-1.416492223739624,1.1047252416610718,-0.006790564861148596,0.09525740891695023,0.2787264585494995
0.8055765628814697,0.3177822232246399,-1.4255876541137695,1.1045076847076416,-0.0027883045841008425,0.0878073126077652,0.2816038131713867
0.8256626129150391,0.3148479759693146,-1.4301146268844604,1.1046007871627808,-0.0008790794527158141,0.08373882621526718,0.28307807445526123
0.8457479476928711,0.31029069423675537,-1.4387403726577759,1.1074364185333252,0.0023754886351525784,0.07504001259803772,0.2861652970314026
0.8658096790313721,0.30834949016571045,-1.44271719455719,1.1101762056350708,0.00371501874178648,0.07025831192731857,0.2877538502216339
0.8858697414398193,0.3044999837875366,-1.450697660446167,1.115425705909729,0.006281910464167595,0.06033586338162422,0.29095903038978577
0.9059953689575195,0.30249813199043274,-1.4547264575958252,1.1175202131271362,0.007683179806917906,0.0552251897752285,0.29252949357032776
0.9261102676391602,0.2980835735797882,-1.4629985094070435,1.1207069158554077,0.010782774537801743,0.044676218181848526,0.29564791917800903
0.9464502334594727,0.2959496080875397,-1.4669109582901,1.1225556135177612,0.012400481849908829,0.03913681581616402,0.2971384525299072
0.9665746688842773,0.2921313941478729,-1.4742335081100464,1.1272287368774414,0.015589086338877678,0.02753107063472271,0.2999717593193054
0.9867610931396484,0.28869691491127014,-1.4808322191238403,1.1337348222732544,0.018463220447301865,0.015148315578699112,0.3026669919490814
1.0068697929382324,0.28756269812583923,-1.4836281538009644,1.138466238975525,0.019631486386060715,0.008614011108875275,0.30397918820381165
1.0269200801849365,0.28697913885116577,-1.4861490726470947,1.1440070867538452,0.020488161593675613,0.0020185066387057304,0.30526861548423767
1.0471231937408447,0.2881339490413666,-1.4897114038467407,1.1595594882965088,0.02090505324304104,-0.011830741539597511,0.30775976181030273
1.06724214553833,0.2918921113014221,-1.4918456077575684,1.178896188735962,0.019894879311323166,-0.0260888934135437,0.3100548982620239
1.0873513221740723,0.2946133017539978,-1.492269515991211,1.1900980472564697,0.01875629462301731,-0.03348058834671974,0.3110964596271515
1.107424259185791,0.3006821572780609,-1.4923269748687744,1.2139267921447754,0.01552229281514883,-0.04864678531885147,0.31299611926078796
1.1275274753570557,0.30375468730926514,-1.4919934272766113,1.2263081073760986,0.01351504772901535,-0.05640925467014313,0.3138672113418579
1.147603988647461,0.3111891448497772,-1.4906063079833984,1.252061128616333,0.007975109852850437,-0.07158266007900238,0.3156680166721344
1.1677887439727783,0.31460487842559814,-1.4893321990966797,1.2656911611557007,0.004584785550832748,-0.07952354103326797,0.3165381848812103
1.187804937362671,0.3203202188014984,-1.4852157831192017,1.2945506572723389,-0.003601651405915618,-0.09643778204917908,0.3182366192340851
1.2080130577087402,0.3224341571331024,-1.4823437929153442,1.309484601020813,-0.008160780183970928,-0.10561668872833252,0.31896501779556274
1.2280235290527344,0.32319241762161255,-1.4753055572509766,1.3387755155563354,-0.016873614862561226,-0.12609462440013885,0.32001230120658875
1.2480971813201904,0.3210580050945282,-1.4709951877593994,1.3532413244247437,-0.020743032917380333,-0.13777394592761993,0.32022908329963684
1.2682383060455322,0.3104842007160187,-1.4622071981430054,1.3803865909576416,-0.02604558691382408,-0.16361838579177856,0.3203515410423279
1.2885518074035645,0.28781014680862427,-1.4560389518737793,1.4038150310516357,-0.02585832215845585,-0.19167110323905945,0.3206401467323303
1.30867600440979,0.2719481289386749,-1.4548486471176147,1.4138668775558472,-0.02333098091185093,-0.20553776621818542,0.3210116922855377
1.3288476467132568,0.23198796808719635,-1.456801176071167,1.4288296699523926,-0.013524279929697514,-0.23098652064800262,0.3223941922187805
1.3488926887512207,0.20969976484775543,-1.4594571590423584,1.4328632354736328,-0.00702303322032094,-0.24152980744838715,0.32341548800468445
1.3689630031585693,0.16431066393852234,-1.466607689857483,1.432005524635315,0.00714823929592967,-0.25667253136634827,0.32598111033439636
1.3890740871429443,0.14247234165668488,-1.470475435256958,1.4261692762374878,0.014185858890414238,-0.2609803080558777,0.3274173438549042
1.4091472625732422,0.10554321110248566,-1.47685706615448,1.4089733362197876,0.026859406381845474,-0.2642248570919037,0.33016395568847656
1.4301295280456543,0.081097811460495,-1.4805221557617188,1.3902359008789062,0.03688554838299751,-0.2619365453720093,0.33256396651268005
1.450221300125122,0.07351111620664597,-1.4810383319854736,1.3830502033233643,0.04102843254804611,-0.2598288655281067,0.33358803391456604
1.4703121185302734,0.06834281980991364,-1.4795260429382324,1.3752697706222534,0.04755386337637901,-0.25422364473342896,0.3352254033088684
1.4904043674468994,0.07016338407993317,-1.4777172803878784,1.3743512630462646,0.05005395784974098,-0.2507433593273163,0.33582937717437744
1.5104689598083496,0.07908780127763748,-1.47269606590271,1.37740159034729,0.05419172719120979,-0.24348846077919006,0.3365841805934906
1.5306353569030762,0.09341885149478912,-1.466707706451416,1.3848974704742432,0.057407815009355545,-0.2356056571006775,0.33671537041664124
1.5507137775421143,0.10160118341445923,-1.4637410640716553,1.3894789218902588,0.058868423104286194,-0.23152802884578705,0.3365628719329834
1.5708117485046387,0.11894239485263824,-1.4586049318313599,1.3981609344482422,0.06164911761879921,-0.2225351631641388,0.33589959144592285
1.590954303741455,0.1279803067445755,-1.456596851348877,1.4016975164413452,0.06300317496061325,-0.2174789160490036,0.3354107439517975
1.6109931468963623,0.1460050791501999,-1.4538357257843018,1.406617283821106,0.06575140357017517,-0.20647014677524567,0.33413243293762207
1.6311299800872803,0.16505300998687744,-1.452340841293335,1.4089200496673584,0.06827694177627563,-0.19389435648918152,0.3324643075466156
1.6512093544006348,0.17482179403305054,-1.4520525932312012,1.4091379642486572,0.06950383633375168,-0.187046617269516,0.33148446679115295
1.6712687015533447,0.19618964195251465,-1.4520684480667114,1.407389521598816,0.0715041384100914,-0.17140333354473114,0.3292292356491089
1.6914787292480469,0.2074379026889801,-1.452373743057251,1.4055278301239014,0.07232557237148285,-0.16278815269470215,0.32793885469436646
1.7114901542663574,0.23010465502738953,-1.4534879922866821,1.400334358215332,0.07356784492731094,-0.14422546327114105,0.3250225782394409
1.7316021919250488,0.24092313647270203,-1.4542744159698486,1.397404432296753,0.07405964285135269,-0.13469411432743073,0.32339274883270264
1.7518815994262695,0.261483758687973,-1.4560750722885132,1.3898725509643555,0.07390128821134567,-0.11427652835845947,0.3197830617427826
1.771946668624878,0.2759246528148651,-1.4589036703109741,1.3807995319366455,0.0738949403166771,-0.094712033867836,0.31573715806007385
1.7920567989349365,0.27971890568733215,-1.4607064723968506,1.3758571147918701,0.07389847189188004,-0.08590707927942276,0.31357094645500183
1.8121123313903809,0.27860456705093384,-1.4651274681091309,1.3657596111297607,0.07443492859601974,-0.07154771685600281,0.3091557025909424
1.8323814868927002,0.26435747742652893,-1.4700404405593872,1.357622504234314,0.07624182105064392,-0.06390544027090073,0.3049889802932739
1.852475881576538,0.2529654800891876,-1.4723527431488037,1.3545044660568237,0.07763700932264328,-0.06266459077596664,0.30317777395248413
1.872549295425415,0.2222403734922409,-1.476359248161316,1.3519378900527954,0.08277666568756104,-0.06763507425785065,0.30038028955459595
1.8926687240600586,0.20493291318416595,-1.477726936340332,1.3524914979934692,0.08589114993810654,-0.07323119044303894,0.2994726300239563
1.912778377532959,0.1721329241991043,-1.47868013381958,1.3579269647598267,0.09280024468898773,-0.08897509425878525,0.29881665110588074
1.932943344116211,0.15929080545902252,-1.478177785873413,1.362483024597168,0.09620074927806854,-0.09785258024930954,0.29907816648483276
1.953019618988037,0.14352329075336456,-1.4756125211715698,1.3732874393463135,0.10172607749700546,-0.11497315764427185,0.30047687888145447
1.9730873107910156,0.143387109041214,-1.4716823101043701,1.3831508159637451,0.10512714087963104,-0.12763550877571106,0.3026411831378937
1.993173599243164,0.1497199684381485,-1.4695132970809937,1.3862509727478027,0.10551432520151138,-0.13050970435142517,0.3037589192390442
2.0132436752319336,0.1741003543138504,-1.4649760723114014,1.386828899383545,0.10274992138147354,-0.12714353203773499,0.3055940270423889
2.0333189964294434,0.19023391604423523,-1.4628639221191406,1.384232759475708,0.1000426635146141,-0.1211475357413292,0.30624276399612427
2.053393840789795,0.22379668056964874,-1.459334135055542,1.374778151512146,0.09273616224527359,-0.10358238965272903,0.3068195879459381
2.073892831802368,0.25421133637428284,-1.456476092338562,1.36067795753479,0.08412779867649078,-0.08034559339284897,0.3064897358417511
2.093996286392212,0.26621824502944946,-1.4553725719451904,1.3534631729125977,0.08029938489198685,-0.068559430539608,0.30601200461387634
2.114109754562378,0.28119930624961853,-1.453957438468933,1.341529130935669,0.07462908327579498,-0.04779820889234543,0.30462273955345154
2.1341938972473145,0.28203463554382324,-1.453940987586975,1.3379781246185303,0.07361852377653122,-0.04068133980035782,0.303785502910614
2.154261827468872,0.2663959264755249,-1.4555732011795044,1.3382128477096558,0.07678674906492233,-0.03755779564380646,0.30211344361305237
2.1743431091308594,0.25089728832244873,-1.4566936492919922,1.3416614532470703,0.08059760183095932,-0.04158144071698189,0.301438570022583
2.194432497024536,0.20834879577159882,-1.458356499671936,1.3542721271514893,0.09256359934806824,-0.06050795316696167,0.30075687170028687
2.2145771980285645,0.16022132337093353,-1.4579628705978394,1.3705995082855225,0.10759125649929047,-0.08949930965900421,0.3011455535888672
2.2346582412719727,0.13806001842021942,-1.4570989608764648,1.378596544265747,0.1153593584895134,-0.10502089560031891,0.3018362820148468
2.2547292709350586,0.10303622484207153,-1.4545812606811523,1.3924130201339722,0.13041330873966217,-0.13450713455677032,0.30414214730262756
2.274862766265869,0.09301719814538956,-1.453466773033142,1.3972949981689453,0.13713058829307556,-0.14638595283031464,0.30570051074028015
2.294938802719116,0.0933883860707283,-1.4526081085205078,1.4005236625671387,0.14664606750011444,-0.1588802933692932,0.3091637194156647
2.315185546875,0.10401493310928345,-1.4524585008621216,1.3978943824768066,0.14890781044960022,-0.15834881365299225,0.31077730655670166
2.3353848457336426,0.1414703130722046,-1.4516857862472534,1.3838307857513428,0.14823800325393677,-0.14431916177272797,0.31329119205474854
2.3556578159332275,0.16620007157325745,-1.4505703449249268,1.373138427734375,0.14536529779434204,-0.13151463866233826,0.3140941858291626
2.3757638931274414,0.2170381397008896,-1.4471166133880615,1.3503645658493042,0.1361832171678543,-0.10090824216604233,0.31438976526260376
2.396017551422119,0.2646397054195404,-1.4417457580566406,1.3286420106887817,0.12325788289308548,-0.06620709598064423,0.3130017817020416
2.4161152839660645,0.28501754999160767,-1.4387389421463013,1.3199976682662964,0.116448312997818,-0.04917863756418228,0.31171780824661255
2.436170816421509,0.31426572799682617,-1.433555006980896,1.309782862663269,0.10401072353124619,-0.019313083961606026,0.3081745207309723
2.4563357830047607,0.32025980949401855,-1.432161569595337,1.3093831539154053,0.09937082231044769,-0.008705821819603443,0.3059964179992676
2.4763669967651367,0.3063074052333832,-1.4330259561538696,1.3179699182510376,0.0957057774066925,-0.00216497341170907,0.3013134300708771
2.496561050415039,0.28526413440704346,-1.434686541557312,1.3259073495864868,0.09728655219078064,-0.007224710658192635,0.29909276962280273
2.5167205333709717,0.22015759348869324,-1.4378489255905151,1.3462070226669312,0.10659221559762955,-0.03311008960008621,0.29562991857528687
2.537315845489502,0.14027804136276245,-1.4382658004760742,1.3677867650985718,0.1216077208518982,-0.07394134253263474,0.2941283583641052
2.557408571243286,0.10043535381555557,-1.436800479888916,1.3778393268585205,0.1305692493915558,-0.09750361740589142,0.29418686032295227
2.5776140689849854,0.027562791481614113,-1.4312180280685425,1.3945974111557007,0.1502029150724411,-0.14584827423095703,0.2959093153476715
2.5976884365081787,-0.0015163049101829529,-1.4285298585891724,1.4009822607040405,0.16001516580581665,-0.16758809983730316,0.2975480854511261
2.617772102355957,-0.029402216896414757,-1.4267332553863525,1.4076473712921143,0.17613482475280762,-0.19777728617191315,0.3020535707473755
2.6378872394561768,-0.025561802089214325,-1.427435040473938,1.4068806171417236,0.18153655529022217,-0.2043100744485855,0.30459994077682495
2.657982349395752,0.008508557453751564,-1.4299834966659546,1.3962429761886597,0.18544113636016846,-0.20097078382968903,0.30905255675315857
2.678466320037842,0.06659622490406036,-1.4314382076263428,1.3758608102798462,0.1806764006614685,-0.17854706943035126,0.3122025430202484
2.6986029148101807,0.10132218897342682,-1.4307317733764648,1.362605094909668,0.17501261830329895,-0.16119752824306488,0.313171923160553
2.7186646461486816,0.17556490004062653,-1.4257217645645142,1.3318945169448853,0.15899457037448883,-0.11737857758998871,0.31337571144104004
2.738769769668579,0.2108953893184662,-1.4220845699310303,1.3181631565093994,0.1501440405845642,-0.09459792077541351,0.3125806748867035
2.7588603496551514,0.27334266901016235,-1.414015293121338,1.297703742980957,0.1335071176290512,-0.05110373720526695,0.3094898760318756
2.7789247035980225,0.2991505265235901,-1.4102917909622192,1.291273832321167,0.12616710364818573,-0.03126559406518936,0.3073166608810425
2.79911208152771,0.3350054621696472,-1.4060109853744507,1.287265419960022,0.11484207957983017,0.0008695954456925392,0.30198946595191956
2.819171190261841,0.3417297303676605,-1.4076850414276123,1.2947510480880737,0.1101270467042923,0.017131876200437546,0.2957274913787842
2.8393032550811768,0.3278345465660095,-1.4107420444488525,1.3025811910629272,0.11140946298837662,0.015881450846791267,0.2924771010875702
2.8593525886535645,0.2736719846725464,-1.418136477470398,1.3220607042312622,0.12008145451545715,-0.0026937825605273247,0.28693822026252747
2.879502534866333,0.23658913373947144,-1.4215768575668335,1.332808256149292,0.12654359638690948,-0.018775098025798798,0.2849620580673218
2.8995985984802246,0.15085655450820923,-1.4257628917694092,1.3543076515197754,0.14187155663967133,-0.061673954129219055,0.28286588191986084
2.919996500015259,0.07042282819747925,-1.426571011543274,1.3740665912628174,0.1584567427635193,-0.10926444828510284,0.28329965472221375
2.940084218978882,0.03668588772416115,-1.4261547327041626,1.3826494216918945,0.16654324531555176,-0.13206613063812256,0.2843584418296814
2.9601595401763916,-0.009546221233904362,-1.4260046482086182,1.3954575061798096,0.18155436217784882,-0.169745534658432,0.28794193267822266
2.980320930480957,-0.01917838864028454,-1.4269007444381714,1.3990468978881836,0.18736262619495392,-0.18271732330322266,0.29021480679512024
3.000347375869751,-0.007209057919681072,-1.429864525794983,1.3981891870498657,0.1935226172208786,-0.19272348284721375,0.29500582814216614
3.0204246044158936,0.012192968279123306,-1.4311288595199585,1.3932584524154663,0.19320560991764069,-0.18939261138439178,0.2972031235694885
3.0405020713806152,0.06642316281795502,-1.4318972826004028,1.3764616250991821,0.1869315356016159,-0.16983044147491455,0.3007085919380188
3.0608272552490234,0.13356077671051025,-1.428733468055725,1.3516826629638672,0.1743088662624359,-0.13576503098011017,0.30268070101737976
3.0809378623962402,0.16863900423049927,-1.4257086515426636,1.3377516269683838,0.16632165014743805,-0.11518970131874084,0.3028736412525177
3.1010375022888184,0.2334924042224884,-1.4184670448303223,1.3137723207473755,0.15041305124759674,-0.07376430928707123,0.3016236424446106
3.1211049556732178,0.2614441215991974,-1.414940357208252,1.3047994375228882,0.1432606428861618,-0.05427693575620651,0.3002704083919525
3.141240358352661,0.30495235323905945,-1.409912109375,1.294241189956665,0.13207614421844482,-0.0206559207290411,0.29641565680503845
3.161330461502075,0.3190016448497772,-1.408907175064087,1.2927467823028564,0.12819495797157288,-0.007527519948780537,0.2940058708190918
3.1814887523651123,0.324627548456192,-1.4108752012252808,1.2977408170700073,0.12509599328041077,0.00689219543710351,0.28850823640823364
3.2017359733581543,0.2864007353782654,-1.4175900220870972,1.3125007152557373,0.1303023397922516,-0.0018838681280612946,0.2829399108886719
3.2218315601348877,0.25355735421180725,-1.4212760925292969,1.3221529722213745,0.135360449552536,-0.014247752726078033,0.28064826130867004
3.241891622543335,0.17103949189186096,-1.42671537399292,1.3432468175888062,0.14827793836593628,-0.05132380872964859,0.27768832445144653
3.261976957321167,0.12995825707912445,-1.4281351566314697,1.3536099195480347,0.15544775128364563,-0.07264897972345352,0.2771604359149933
3.2821271419525146,0.05630599707365036,-1.4280281066894531,1.3721840381622314,0.17113664746284485,-0.11757461726665497,0.2778348922729492
3.302178144454956,0.02615743689239025,-1.4270882606506348,1.3800287246704102,0.17943109571933746,-0.1390233188867569,0.27899637818336487
3.3222997188568115,-0.01239837147295475,-1.4260941743850708,1.3909697532653809,0.19481422007083893,-0.17386838793754578,0.28263935446739197
3.34233021736145,-0.015791693702340126,-1.4269174337387085,1.3931082487106323,0.20069244503974915,-0.18424786627292633,0.2849077880382538
3.3625874519348145,0.0069754840806126595,-1.4298728704452515,1.3888444900512695,0.20616188645362854,-0.18860918283462524,0.28937020897865295
3.382647752761841,0.0570891797542572,-1.4320327043533325,1.3741834163665771,0.2034052610397339,-0.17372021079063416,0.2928418517112732
3.402757167816162,0.08820022642612457,-1.4320135116577148,1.3640036582946777,0.19916872680187225,-0.16043822467327118,0.2940661311149597
3.4232282638549805,0.1584288626909256,-1.428260326385498,1.3373456001281738,0.18540538847446442,-0.12309014052152634,0.29498204588890076
3.443420648574829,0.1932096630334854,-1.4249606132507324,1.3238681554794312,0.1770065277814865,-0.10202397406101227,0.2945563793182373
3.4634315967559814,0.22629262506961823,-1.4209935665130615,1.3115495443344116,0.1682405173778534,-0.08061587065458298,0.29355403780937195
3.4835076332092285,0.28305044770240784,-1.4130065441131592,1.2937257289886475,0.15242169797420502,-0.04042757302522659,0.29012417793273926
3.5035860538482666,0.3050840497016907,-1.4098381996154785,1.288705587387085,0.14590053260326385,-0.022797193378210068,0.28780439496040344
3.523660182952881,0.331792950630188,-1.4070559740066528,1.2874219417572021,0.1365315020084381,0.00390658900141716,0.28216052055358887
3.5437443256378174,0.33318188786506653,-1.408156394958496,1.2915923595428467,0.13461314141750336,0.010483809746801853,0.27904558181762695
3.5638227462768555,0.29657691717147827,-1.4147053956985474,1.3086252212524414,0.13795655965805054,0.003176318947225809,0.2729035019874573
3.583904504776001,0.26097333431243896,-1.4185998439788818,1.319657802581787,0.14251235127449036,-0.009934595786035061,0.27038198709487915
3.603989601135254,0.17447209358215332,-1.4240145683288574,1.342023491859436,0.15463632345199585,-0.048209935426712036,0.2673072814941406
3.624082088470459,0.131076380610466,-1.4249529838562012,1.3518831729888916,0.16120445728302002,-0.07001128047704697,0.26677870750427246
3.644153118133545,0.046086836606264114,-1.4241771697998047,1.3702952861785889,0.17537669837474823,-0.11726947873830795,0.2673425078392029
3.664433002471924,-0.03406938910484314,-1.4215831756591797,1.3874770402908325,0.19130343198776245,-0.16758780181407928,0.2702382206916809
3.6845245361328125,-0.06345618516206741,-1.420881748199463,1.3943086862564087,0.1983766257762909,-0.18901562690734863,0.2724968492984772
3.704589366912842,-0.09068499505519867,-1.4218353033065796,1.4021401405334473,0.20834407210350037,-0.2181541919708252,0.2779909670352936
3.72467303276062,-0.08851215243339539,-1.4230555295944214,1.402454137802124,0.21097031235694885,-0.22538311779499054,0.28092312812805176
3.7448103427886963,-0.06242986395955086,-1.4255775213241577,1.3967198133468628,0.2108418196439743,-0.2271757274866104,0.2864542603492737
3.7650961875915527,-0.01797870360314846,-1.4270979166030884,1.3847875595092773,0.2035818099975586,-0.21489755809307098,0.2911415696144104
3.7851459980010986,0.009033577516674995,-1.4269213676452637,1.37685227394104,0.19738370180130005,-0.20416295528411865,0.29310309886932373
3.805204153060913,0.06962612271308899,-1.4242405891418457,1.3578128814697266,0.1814851462841034,-0.1751067340373993,0.29614657163619995
3.8252923488616943,0.10107894986867905,-1.4221152067184448,1.3477908372879028,0.17315199971199036,-0.15844373404979706,0.2970937490463257
3.845367670059204,0.16099607944488525,-1.4179415702819824,1.3302574157714844,0.15904361009597778,-0.12554094195365906,0.2976513206958771
3.8656504154205322,0.18805238604545593,-1.4163320064544678,1.323347806930542,0.15366889536380768,-0.11030727624893188,0.29726138710975647
3.885741949081421,0.23442235589027405,-1.4144062995910645,1.3132100105285645,0.14577361941337585,-0.08276764303445816,0.29537633061408997
3.9057977199554443,0.26702094078063965,-1.4148951768875122,1.3093100786209106,0.1423422396183014,-0.06157277524471283,0.29231446981430054
3.925886392593384,0.27677857875823975,-1.4162050485610962,1.3097928762435913,0.14216752350330353,-0.054224900901317596,0.29044339060783386
3.94596004486084,0.278867244720459,-1.4207382202148438,1.316282868385315,0.14530543982982635,-0.048585910350084305,0.2862931489944458
3.96602725982666,0.25519803166389465,-1.4268739223480225,1.328734278678894,0.1513727307319641,-0.05555006489157677,0.2822696268558502
3.98612904548645,0.23604342341423035,-1.4299672842025757,1.3364098072052002,0.15485602617263794,-0.06276801973581314,0.28061848878860474
4.006176948547363,0.191707581281662,-1.4353673458099365,1.3528720140457153,0.1626823991537094,-0.08280716091394424,0.2783592939376831
4.026309967041016,0.16716399788856506,-1.4374783039093018,1.3613686561584473,0.16722020506858826,-0.0957975685596466,0.27774959802627563
4.046362400054932,0.12602132558822632,-1.4406182765960693,1.3753255605697632,0.17607462406158447,-0.12116263061761856,0.27778610587120056
4.066528558731079,0.10294636338949203,-1.4430606365203857,1.3831787109375,0.18394029140472412,-0.14094001054763794,0.2792811095714569
4.086628675460815,0.09953989088535309,-1.444081425666809,1.3844887018203735,0.18723160028457642,-0.14754518866539001,0.2803705632686615
4.106744050979614,0.10994303226470947,-1.4459559917449951,1.3810412883758545,0.19093333184719086,-0.15140564739704132,0.28265950083732605
4.126833438873291,0.12276052683591843,-1.4466321468353271,1.3763962984085083,0.1910446584224701,-0.14832675457000732,0.2836191654205322
4.146874189376831,0.1614479273557663,-1.4465563297271729,1.3605388402938843,0.18737366795539856,-0.13142569363117218,0.28486955165863037
4.16698694229126,0.1841563582420349,-1.4457509517669678,1.3506903648376465,0.1841244101524353,-0.11911752074956894,0.2850724458694458
4.187130928039551,0.22917580604553223,-1.4426652193069458,1.331863284111023,0.17537103593349457,-0.09108489751815796,0.28442925214767456
4.207191705703735,0.2692728042602539,-1.4376477003097534,1.3166085481643677,0.16472652554512024,-0.061041541397571564,0.2824622392654419
4.227315425872803,0.28548985719680786,-1.4350130558013916,1.311525583267212,0.15930142998695374,-0.0469498410820961,0.2809971570968628
4.24746036529541,0.30508658289909363,-1.430821180343628,1.3081048727035522,0.14987675845623016,-0.02382868155837059,0.27739304304122925
4.267529487609863,0.3052149713039398,-1.4300593137741089,1.3108816146850586,0.14648006856441498,-0.017048129811882973,0.2753647267818451
4.287625074386597,0.280012845993042,-1.4315948486328125,1.324721097946167,0.1441296488046646,-0.017564676702022552,0.2712544798851013
4.307710409164429,0.25557899475097656,-1.4331902265548706,1.3346307277679443,0.14551040530204773,-0.0251298975199461,0.26941585540771484
4.327845096588135,0.1846490055322647,-1.4360640048980713,1.3573983907699585,0.1533212661743164,-0.05581989884376526,0.2665654420852661
4.347890377044678,0.14489668607711792,-1.4365878105163574,1.3683637380599976,0.159075066447258,-0.07584371417760849,0.26582038402557373
4.367962121963501,0.06993940472602844,-1.4351906776428223,1.3868366479873657,0.17311632633209229,-0.11914528906345367,0.2659526467323303
4.388014316558838,0.007593043148517609,-1.4306648969650269,1.3992455005645752,0.18961574137210846,-0.16216620802879333,0.2681509256362915
4.408169746398926,-0.014314199797809124,-1.4289400577545166,1.402783989906311,0.197610005736351,-0.1800588220357895,0.26995643973350525
4.42824387550354,-0.028412066400051117,-1.428537130355835,1.4040930271148682,0.21009115874767303,-0.20267407596111298,0.274362713098526
4.448307991027832,-0.02053922414779663,-1.4294884204864502,1.4013137817382812,0.21348096430301666,-0.2062973976135254,0.27658528089523315
4.468481063842773,0.01644895412027836,-1.4318597316741943,1.3895442485809326,0.21384230256080627,-0.1994428187608719,0.2803643047809601
4.488576173782349,0.0721544548869133,-1.4322483539581299,1.3709824085235596,0.2062324434518814,-0.17663738131523132,0.28300657868385315
4.508668422698975,0.10513871908187866,-1.4306968450546265,1.3588265180587769,0.19937856495380402,-0.15953615307807922,0.28379273414611816
4.528925180435181,0.17477919161319733,-1.424210548400879,1.3316566944122314,0.18225811421871185,-0.11803017556667328,0.28378742933273315
4.549049139022827,0.20781129598617554,-1.420082926750183,1.3195955753326416,0.1736551970243454,-0.09652797132730484,0.2829839289188385
4.569131135940552,0.2649109959602356,-1.4122886657714844,1.3021903038024902,0.1589907556772232,-0.05660690367221832,0.27998390793800354
4.589191436767578,0.28764989972114563,-1.4093431234359741,1.2972288131713867,0.15334582328796387,-0.0392480231821537,0.27787208557128906
4.60929012298584,0.31760767102241516,-1.4068745374679565,1.2949111461639404,0.14590232074260712,-0.012396439909934998,0.27270346879959106
4.6296491622924805,0.3160640597343445,-1.4102152585983276,1.303781509399414,0.14568902552127838,-0.0029371753334999084,0.26667705178260803
4.6497557163238525,0.2977753281593323,-1.4137821197509766,1.3118525743484497,0.14864829182624817,-0.007137975189834833,0.2636978328227997
4.669883966445923,0.23092135787010193,-1.421854853630066,1.3323101997375488,0.15890197455883026,-0.03199511766433716,0.25887173414230347
4.689992189407349,0.18853192031383514,-1.4251329898834229,1.3433095216751099,0.16528312861919403,-0.05058775842189789,0.25731903314590454
4.710063934326172,0.10387130826711655,-1.429125189781189,1.3646713495254517,0.17941921949386597,-0.09307841956615448,0.2562077045440674
4.730245113372803,0.06456077843904495,-1.4297252893447876,1.3746156692504883,0.18695147335529327,-0.11563300341367722,0.25655388832092285
4.750370025634766,-0.0016448982059955597,-1.4290248155593872,1.3917193412780762,0.20223867893218994,-0.1586858332157135,0.2588355839252472
4.770596981048584,-0.03815685212612152,-1.428605079650879,1.4021106958389282,0.2159574180841446,-0.19128215312957764,0.2628991901874542
4.790687084197998,-0.040913816541433334,-1.429419755935669,1.4038972854614258,0.2208639532327652,-0.20082883536815643,0.2653252184391022
4.8107640743255615,-0.018017690628767014,-1.4319254159927368,1.399138331413269,0.22466807067394257,-0.2046387493610382,0.27011317014694214
4.831047058105469,0.003134043887257576,-1.4331092834472656,1.3931729793548584,0.223612442612648,-0.20000477135181427,0.2722291946411133
4.851169586181641,0.05635283142328262,-1.4341522455215454,1.376434564590454,0.21641960740089417,-0.18065528571605682,0.2756195068359375
4.871609210968018,0.12188336253166199,-1.4310693740844727,1.3521054983139038,0.2016328126192093,-0.14746592938899994,0.27752748131752014
4.891732454299927,0.15644143521785736,-1.427942156791687,1.338485598564148,0.19261136651039124,-0.1273345947265625,0.2777157127857208
4.911834955215454,0.22236454486846924,-1.4203991889953613,1.3135212659835815,0.1749916821718216,-0.08565825968980789,0.2764371633529663
4.931880474090576,0.2513321042060852,-1.416809320449829,1.3041751384735107,0.1674622744321823,-0.06618306040763855,0.275058388710022
4.952021360397339,0.2986346185207367,-1.411260724067688,1.2929236888885498,0.15593920648097992,-0.03206546604633331,0.27107539772987366
4.97244930267334,0.32671523094177246,-1.4094712734222412,1.291680097579956,0.14902140200138092,-0.007093221880495548,0.26578426361083984
4.992558002471924,0.33108705282211304,-1.4104448556900024,1.2948641777038574,0.14787998795509338,0.00020053330808877945,0.26282745599746704
5.012622117996216,0.3070538640022278,-1.416457176208496,1.3096412420272827,0.1516764909029007,-0.0021481576841324568,0.2568654417991638
5.03273868560791,0.27857694029808044,-1.4205567836761475,1.3201357126235962,0.15594662725925446,-0.011637156829237938,0.25429344177246094
5.052834987640381,0.1988193243741989,-1.4278491735458374,1.3440409898757935,0.16724421083927155,-0.044214703142642975,0.25075817108154297
5.072962284088135,0.15601858496665955,-1.430412769317627,1.355922818183899,0.17359404265880585,-0.06436648964881897,0.24995332956314087
5.093184232711792,0.07651030272245407,-1.4327430725097656,1.3773744106292725,0.18764372169971466,-0.10810259729623795,0.2501717209815979
5.113307952880859,0.04216523841023445,-1.4326852560043335,1.386330246925354,0.19503630697727203,-0.12990806996822357,0.2511192858219147
5.133349657058716,-0.006313946098089218,-1.4319391250610352,1.398866057395935,0.21030735969543457,-0.167555570602417,0.2545393705368042
5.153451442718506,-0.015134934335947037,-1.4323265552520752,1.4016878604888916,0.21665005385875702,-0.1803155094385147,0.2568015158176422
5.173633337020874,0.0003743339329957962,-1.434602975845337,1.398391604423523,0.22373747825622559,-0.1890968233346939,0.26147785782814026
5.193731307983398,0.021510815247893333,-1.4357452392578125,1.3921093940734863,0.2240600883960724,-0.18519574403762817,0.26351311802864075
5.213801383972168,0.07991883158683777,-1.436254858970642,1.3725476264953613,0.2188672423362732,-0.16371087729930878,0.26646241545677185
5.233869314193726,0.11452008783817291,-1.4348737001419067,1.3597081899642944,0.21342866122722626,-0.14689628779888153,0.2672591507434845
5.25395131111145,0.1861068159341812,-1.4287149906158447,1.331813097000122,0.1983141005039215,-0.10625993460416794,0.2670176327228546
5.2740538120269775,0.22039024531841278,-1.4242095947265625,1.3185226917266846,0.1895849108695984,-0.08427940309047699,0.2660033404827118
5.294124126434326,0.28039512038230896,-1.4148268699645996,1.2979189157485962,0.17387720942497253,-0.042163994163274765,0.2625347673892975
5.314915418624878,0.32394567131996155,-1.407701015472412,1.2874072790145874,0.16195528209209442,-0.006310724653303623,0.25745710730552673
5.33500862121582,0.3372986316680908,-1.4060947895050049,1.28667414188385,0.15784800052642822,0.007404820993542671,0.25440916419029236
5.355067014694214,0.3394722044467926,-1.4083263874053955,1.2946455478668213,0.15504637360572815,0.02088816463947296,0.24783110618591309
5.375344514846802,0.32305479049682617,-1.4119179248809814,1.3029457330703735,0.1573619842529297,0.017993826419115067,0.24460354447364807
5.395451307296753,0.26176461577415466,-1.4205272197723389,1.3238941431045532,0.16750659048557281,-0.004744314588606358,0.23933851718902588
5.4155988693237305,0.17614062130451202,-1.4268310070037842,1.3462952375411987,0.1809331178665161,-0.043997570872306824,0.23646171391010284
5.435684442520142,0.13320894539356232,-1.4283629655838013,1.3566973209381104,0.1880483776330948,-0.0662575289607048,0.23602662980556488
5.455740690231323,0.049531351774930954,-1.4290796518325806,1.3769958019256592,0.20342232286930084,-0.11467630416154861,0.23690660297870636
5.475854158401489,0.011330433189868927,-1.428764820098877,1.3866462707519531,0.21170802414417267,-0.13927969336509705,0.23822887241840363
5.4959094524383545,-0.04075484722852707,-1.4288350343704224,1.401258945465088,0.22652147710323334,-0.17946359515190125,0.24227355420589447
5.515996932983398,-0.05105212330818176,-1.4299261569976807,1.405465006828308,0.23210111260414124,-0.19285964965820312,0.24475009739398956
5.5360846519470215,-0.038001034408807755,-1.4331237077713013,1.4055061340332031,0.23784196376800537,-0.20334263145923615,0.24992181360721588
5.556145429611206,0.0066854096949100494,-1.4357050657272339,1.394256591796875,0.23524241149425507,-0.19410616159439087,0.2544718086719513
5.576238632202148,0.0354410856962204,-1.4361765384674072,1.3856416940689087,0.2310798019170761,-0.18376098573207855,0.2562922239303589
5.596291780471802,0.10321733355522156,-1.4334279298782349,1.3617818355560303,0.21687182784080505,-0.15157726407051086,0.2588399648666382
5.616412401199341,0.13962393999099731,-1.4301596879959106,1.3473765850067139,0.20763720571994781,-0.1311669498682022,0.2593221664428711
5.636454343795776,0.20881153643131256,-1.4219905138015747,1.3204957246780396,0.1891840100288391,-0.08844848722219467,0.25857293605804443
5.656599521636963,0.23951971530914307,-1.4179258346557617,1.3098578453063965,0.1812315732240677,-0.06804994493722916,0.25743141770362854
5.676669597625732,0.29047122597694397,-1.4113497734069824,1.2958682775497437,0.1689891815185547,-0.03188431262969971,0.2537917196750641
5.696751594543457,0.3094155490398407,-1.4093717336654663,1.2927188873291016,0.16459141671657562,-0.01689312607049942,0.25139230489730835
5.716909408569336,0.32941675186157227,-1.409221887588501,1.294481873512268,0.160211443901062,0.003643305040895939,0.24570654332637787
5.736950159072876,0.3128426671028137,-1.414625644683838,1.3069278001785278,0.16320738196372986,0.00494648702442646,0.23967717587947845
5.7570390701293945,0.2885877788066864,-1.4186649322509766,1.3163937330245972,0.16721460223197937,-0.0026039285585284233,0.23699449002742767
5.777165651321411,0.21631012856960297,-1.4267644882202148,1.3385868072509766,0.17806553840637207,-0.03151446580886841,0.23307210206985474
5.797757387161255,0.17312029004096985,-1.4300087690353394,1.3502215147018433,0.18406404554843903,-0.05077686160802841,0.23201987147331238
5.8179357051849365,0.09171602129936218,-1.4341875314712524,1.3723310232162476,0.1964656263589859,-0.09219598770141602,0.2318141758441925
5.837914228439331,0.0251966193318367,-1.4354305267333984,1.3908683061599731,0.20934681594371796,-0.13334083557128906,0.23375749588012695
5.858027696609497,0.00031405501067638397,-1.435492753982544,1.3982338905334473,0.21583911776542664,-0.15161791443824768,0.23539073765277863
5.8780927658081055,-0.022383257746696472,-1.4362318515777588,1.4065320491790771,0.226661816239357,-0.17762483656406403,0.2396223396062851
5.898204326629639,-0.01904989965260029,-1.436988115310669,1.406935691833496,0.2301371991634369,-0.18399843573570251,0.24195854365825653
5.9183104038238525,0.014390163123607635,-1.4381827116012573,1.398870587348938,0.2310996651649475,-0.18112066388130188,0.2463831901550293
5.938357591629028,0.06807465106248856,-1.437699317932129,1.3821667432785034,0.2249726802110672,-0.16233406960964203,0.24973101913928986
5.958446979522705,0.09981724619865417,-1.4360942840576172,1.370941400527954,0.21929456293582916,-0.14760641753673553,0.2508544623851776
5.978521823883057,0.16832588613033295,-1.4296095371246338,1.343711256980896,0.20386672019958496,-0.10958979278802872,0.25160425901412964
5.998602390289307,0.20127779245376587,-1.4254062175750732,1.3302395343780518,0.1952088326215744,-0.08894295990467072,0.2511633336544037
6.018709421157837,0.25998902320861816,-1.4165648221969604,1.3083393573760986,0.1793125420808792,-0.04880715534090996,0.248885840177536
6.038747549057007,0.3042064607143402,-1.4095228910446167,1.295566439628601,0.16700352728366852,-0.014032485894858837,0.24495309591293335
6.05890417098999,0.31958305835723877,-1.4072773456573486,1.2927672863006592,0.16245818138122559,0.00038771890103816986,0.2425069957971573
6.078947305679321,0.32868510484695435,-1.4073596000671387,1.2965885400772095,0.15791141986846924,0.01783183217048645,0.2369319349527359
6.099015712738037,0.3168274462223053,-1.4099583625793457,1.3030952215194702,0.15870705246925354,0.018113646656274796,0.23409786820411682
6.119171857833862,0.2658398449420929,-1.417406678199768,1.321613073348999,0.16546881198883057,0.003049837425351143,0.22930613160133362
6.1393115520477295,0.18638943135738373,-1.4244924783706665,1.3441649675369263,0.17686516046524048,-0.03078213892877102,0.2263781875371933
6.15941047668457,0.1442541778087616,-1.4269070625305176,1.355648398399353,0.18341489136219025,-0.05169069766998291,0.22580260038375854
6.17983865737915,0.10421950370073318,-1.4282608032226562,1.3665282726287842,0.19056344032287598,-0.07413525879383087,0.22581791877746582
6.19987678527832,0.03380332887172699,-1.4278851747512817,1.385500192642212,0.20639875531196594,-0.12011325359344482,0.22751542925834656
6.220123291015625,0.005240509286522865,-1.4272032976150513,1.3931150436401367,0.21440915763378143,-0.1412143111228943,0.22907766699790955
6.240291118621826,-0.020179152488708496,-1.4277477264404297,1.402060866355896,0.22767026722431183,-0.17036671936511993,0.2332175076007843
6.26054048538208,0.00039366167038679123,-1.4299789667129517,1.3994866609573364,0.2338208109140396,-0.17710353434085846,0.2376868575811386
6.280679941177368,0.02561730518937111,-1.4305791854858398,1.392544150352478,0.23301711678504944,-0.1708492487668991,0.23965780436992645
6.300755500793457,0.08853453397750854,-1.429713249206543,1.3722102642059326,0.22628822922706604,-0.14648503065109253,0.24241796135902405
6.320916414260864,0.1244271919131279,-1.4276068210601807,1.3588889837265015,0.22013922035694122,-0.12860733270645142,0.24301786720752716
6.341017007827759,0.1973372995853424,-1.420418381690979,1.3294970989227295,0.20411629974842072,-0.08635707199573517,0.24225664138793945
6.361055374145508,0.2312043160200119,-1.4159623384475708,1.3166661262512207,0.19591544568538666,-0.06484413146972656,0.241008922457695
6.3811328411102295,0.28992360830307007,-1.4068609476089478,1.2971166372299194,0.18146900832653046,-0.0239716786891222,0.23714572191238403
6.401193857192993,0.31354644894599915,-1.4028812646865845,1.2907814979553223,0.17555436491966248,-0.0054701343178749084,0.2346007376909256
6.421276330947876,0.3443102538585663,-1.3987411260604858,1.2869013547897339,0.167219340801239,0.023752361536026,0.22834859788417816
6.441341876983643,0.3422037363052368,-1.4018994569778442,1.2952824831008911,0.16565635800361633,0.035486433655023575,0.22146795690059662
6.461452007293701,0.3246919512748718,-1.4057345390319824,1.3033195734024048,0.1680235117673874,0.03252982720732689,0.21825559437274933
6.481610059738159,0.26729217171669006,-1.4147727489471436,1.323367714881897,0.17730048298835754,0.012235740199685097,0.2131757140159607
6.501690864562988,0.22806544601917267,-1.4190641641616821,1.3346190452575684,0.1833738088607788,-0.004778350703418255,0.21144549548625946
6.521729946136475,0.1421697437763214,-1.4249402284622192,1.3572331666946411,0.19732758402824402,-0.04806212708353996,0.2099292129278183
6.541800260543823,0.06269776821136475,-1.4275248050689697,1.378183126449585,0.21255090832710266,-0.09550762176513672,0.21099290251731873
6.561890125274658,0.0297809187322855,-1.4280928373336792,1.3873406648635864,0.22015072405338287,-0.11789632588624954,0.21237139403820038
6.5819480419158936,-0.011393645778298378,-1.4296786785125732,1.4004639387130737,0.2338268905878067,-0.15340369939804077,0.21636956930160522
6.60205340385437,-0.01608140952885151,-1.431098461151123,1.4035478830337524,0.23895145952701569,-0.16429385542869568,0.2187645137310028
6.622253656387329,0.004620930179953575,-1.434139370918274,1.4010686874389648,0.24363556504249573,-0.17035946249961853,0.22361992299556732
6.642263174057007,0.02746698632836342,-1.4351342916488647,1.3950690031051636,0.24264606833457947,-0.16537775099277496,0.22582316398620605
6.662396430969238,0.08879448473453522,-1.434289813041687,1.375131607055664,0.23449966311454773,-0.14196042716503143,0.22919924557209015
6.683169841766357,0.15906979143619537,-1.429065465927124,1.3485429286956787,0.22024206817150116,-0.1062183752655983,0.23046672344207764
6.703262567520142,0.19352078437805176,-1.4252862930297852,1.3349689245224,0.21185077726840973,-0.08616364747285843,0.23018380999565125
6.723319053649902,0.25524377822875977,-1.4167883396148682,1.3121981620788574,0.19527502357959747,-0.046345923095941544,0.22802181541919708
6.743404388427734,0.2813294231891632,-1.4128503799438477,1.3037971258163452,0.18809181451797485,-0.027802426367998123,0.22624653577804565
6.763474702835083,0.32001829147338867,-1.407319188117981,1.2948062419891357,0.176904559135437,0.00373968668282032,0.22145819664001465
6.783563852310181,0.3302391469478607,-1.406432867050171,1.2947697639465332,0.1731717884540558,0.015190324746072292,0.21853883564472198
6.8036487102508545,0.3248545527458191,-1.4094727039337158,1.3030869960784912,0.17127801477909088,0.024551820009946823,0.2125215083360672
6.8238420486450195,0.27928730845451355,-1.4172006845474243,1.3207817077636719,0.17730559408664703,0.01184925064444542,0.20738893747329712
6.84393048286438,0.24431200325489044,-1.4214251041412354,1.3316302299499512,0.18252620100975037,-0.002082706429064274,0.20550715923309326
6.864057779312134,0.15999552607536316,-1.428032398223877,1.354339838027954,0.1949731707572937,-0.04100897163152695,0.20351696014404297
6.884103775024414,0.11706730723381042,-1.429632544517517,1.3649506568908691,0.20162852108478546,-0.06331861019134521,0.20344701409339905
6.90427565574646,0.03292398899793625,-1.4302066564559937,1.3849056959152222,0.21586422622203827,-0.11141982674598694,0.20502051711082458
6.9244420528411865,-0.006366990506649017,-1.429661750793457,1.3943880796432495,0.2235877811908722,-0.1360548734664917,0.20672035217285156
6.94443154335022,-0.0660451352596283,-1.4285061359405518,1.4095706939697266,0.2376982718706131,-0.17839133739471436,0.21137644350528717
6.964632511138916,-0.08748065680265427,-1.4291912317276,1.4170622825622559,0.2472926676273346,-0.2045975774526596,0.21704170107841492
6.984738349914551,-0.08305532485246658,-1.4299825429916382,1.4171522855758667,0.24998605251312256,-0.2108013927936554,0.21996289491653442
7.005026578903198,-0.05374130606651306,-1.4316825866699219,1.4110113382339478,0.2501799464225769,-0.21115317940711975,0.225343257188797
7.025115728378296,-0.03209743648767471,-1.4322357177734375,1.4055299758911133,0.2476733922958374,-0.20613248646259308,0.2276841551065445
7.045171022415161,0.022230807691812515,-1.431488275527954,1.3896490335464478,0.23703989386558533,-0.18621622025966644,0.23154011368751526
7.065259695053101,0.05293003097176552,-1.4299533367156982,1.3798506259918213,0.2294912487268448,-0.17230243980884552,0.23297710716724396
7.08533501625061,0.11596125364303589,-1.4253376722335815,1.3591694831848145,0.21363620460033417,-0.14023073017597198,0.2346605509519577
7.105404853820801,0.1465122401714325,-1.422864317893982,1.3495526313781738,0.20660483837127686,-0.12367154657840729,0.23483315110206604
7.1255247592926025,0.20231939852237701,-1.418668270111084,1.3333561420440674,0.19499576091766357,-0.0920850932598114,0.23381300270557404
7.1457250118255615,0.24791887402534485,-1.4161276817321777,1.3217628002166748,0.18693432211875916,-0.06395013630390167,0.2311861515045166
7.165887832641602,0.26475587487220764,-1.4160622358322144,1.3188351392745972,0.18454955518245697,-0.052754104137420654,0.22932647168636322
7.185940980911255,0.284453809261322,-1.4182140827178955,1.318014144897461,0.18280336260795593,-0.03690973296761513,0.22494196891784668
7.206026792526245,0.28559988737106323,-1.42034113407135,1.3203219175338745,0.18353909254074097,-0.033298999071121216,0.2225804179906845
7.226125717163086,0.2644411325454712,-1.4266178607940674,1.3306365013122559,0.18768635392189026,-0.037180621176958084,0.2180970311164856
7.246200084686279,0.21598850190639496,-1.4338176250457764,1.34696364402771,0.19399860501289368,-0.05426578223705292,0.21485374867916107
7.266268253326416,0.18622814118862152,-1.4370274543762207,1.3564293384552002,0.1977284550666809,-0.06677117943763733,0.21391671895980835
7.286397457122803,0.1237126961350441,-1.4417095184326172,1.3757672309875488,0.2060782015323639,-0.09703889489173889,0.21346718072891235
7.306820631027222,0.07088162004947662,-1.4437977075576782,1.3920156955718994,0.21540018916130066,-0.12876765429973602,0.2147989422082901
7.326915264129639,0.05088317394256592,-1.4441204071044922,1.3981401920318604,0.22017993032932281,-0.1433762162923813,0.21602612733840942
7.3469672203063965,0.029711440205574036,-1.444288969039917,1.4054782390594482,0.22949543595314026,-0.16602195799350739,0.2193284034729004
7.3670737743377686,0.031209368258714676,-1.4445085525512695,1.4057891368865967,0.23281137645244598,-0.17201867699623108,0.22122254967689514
7.387178659439087,0.05324985086917877,-1.4453691244125366,1.3996376991271973,0.23534215986728668,-0.1725742518901825,0.22484293580055237
7.407276391983032,0.07245903462171555,-1.4455276727676392,1.3932844400405884,0.23423106968402863,-0.16699352860450745,0.22638334333896637
7.4274070262908936,0.12337979674339294,-1.4439480304718018,1.3741393089294434,0.22752022743225098,-0.14481349289417267,0.22863097488880157
7.447637319564819,0.18219289183616638,-1.439197301864624,1.349465250968933,0.21585237979888916,-0.11195218563079834,0.22922877967357635
7.467700004577637,0.21031206846237183,-1.4361306428909302,1.3373711109161377,0.20889168977737427,-0.09402567893266678,0.228804349899292
7.487787246704102,0.2609284222126007,-1.4290111064910889,1.3164688348770142,0.1945391297340393,-0.057829033583402634,0.22670625150203705
7.50795578956604,0.2816689908504486,-1.4257164001464844,1.3091557025909424,0.18803486227989197,-0.041243575513362885,0.2250768393278122
7.5279541015625,0.3101828992366791,-1.4207693338394165,1.3021661043167114,0.17728617787361145,-0.013581990264356136,0.22096110880374908
7.548048973083496,0.31495901942253113,-1.4199750423431396,1.303239345550537,0.17352433502674103,-0.004346667788922787,0.2186102420091629
7.568109035491943,0.29670053720474243,-1.4225176572799683,1.3146525621414185,0.1709054708480835,-0.00022682937560603023,0.21398518979549408
7.588218927383423,0.2736952602863312,-1.4252629280090332,1.324255108833313,0.1724434196949005,-0.006164848804473877,0.21201026439666748
7.60836124420166,0.2049112617969513,-1.431289553642273,1.3475526571273804,0.18002986907958984,-0.03308761864900589,0.20922408998012543
7.62861442565918,0.12466932833194733,-1.4349665641784668,1.371079444885254,0.19211135804653168,-0.0728585422039032,0.20856758952140808
7.648733854293823,0.08591901510953903,-1.4354510307312012,1.3816924095153809,0.19928473234176636,-0.094944067299366,0.20908844470977783
7.668912172317505,0.016830088570713997,-1.4336316585540771,1.399275779724121,0.21525074541568756,-0.13963408768177032,0.21165940165519714
7.689070463180542,-0.009967709891498089,-1.4324489831924438,1.4057397842407227,0.22320258617401123,-0.15946698188781738,0.2136221081018448
7.70909309387207,-0.0327887199819088,-1.4320021867752075,1.4121302366256714,0.2362067997455597,-0.1862509548664093,0.21849073469638824
7.729180574417114,-0.027870582416653633,-1.4325761795043945,1.4115304946899414,0.2401164323091507,-0.19183269143104553,0.2210463285446167
7.749265909194946,0.005837034434080124,-1.43406081199646,1.4024848937988281,0.24152109026908875,-0.18824511766433716,0.22568964958190918
7.769601583480835,0.06069484353065491,-1.4337575435638428,1.3846783638000488,0.23442240059375763,-0.1678982973098755,0.22913475334644318
7.789729356765747,0.09314095228910446,-1.4321088790893555,1.372950792312622,0.2280317097902298,-0.15232884883880615,0.23024927079677582
7.809762477874756,0.1633499264717102,-1.4253978729248047,1.3452445268630981,0.21110780537128448,-0.11289865523576736,0.23076589405536652
7.8298914432525635,0.19717004895210266,-1.4212496280670166,1.3322443962097168,0.202464759349823,-0.09207001328468323,0.23012946546077728
7.849937200546265,0.25736376643180847,-1.4129912853240967,1.3114633560180664,0.1873953938484192,-0.052091509103775024,0.22730141878128052
7.8701136112213135,0.28245285153388977,-1.4095754623413086,1.3042771816253662,0.18141619861125946,-0.03407495096325874,0.2252073436975479
7.890223741531372,0.31822434067726135,-1.4058001041412354,1.2978019714355469,0.1730586588382721,-0.004701085388660431,0.219913050532341
7.910318851470947,0.3260413706302643,-1.4060039520263672,1.2988100051879883,0.17109504342079163,0.00499785365536809,0.21681322157382965
7.9303977489471436,0.3132564425468445,-1.4109665155410767,1.3085861206054688,0.17285911738872528,0.009620283730328083,0.21061056852340698
7.950477123260498,0.2564065158367157,-1.4197841882705688,1.3270457983016968,0.1807933747768402,-0.008012546226382256,0.2056340128183365
7.9705469608306885,0.21627557277679443,-1.424052119255066,1.3381307125091553,0.18611575663089752,-0.023749925196170807,0.20400644838809967
7.990663290023804,0.12861701846122742,-1.4300063848495483,1.361009955406189,0.19814114272594452,-0.06383338570594788,0.20276367664337158
8.010780334472656,0.0860520452260971,-1.431359887123108,1.372322916984558,0.2048013061285019,-0.08650436997413635,0.20304101705551147
8.030837059020996,0.009075496345758438,-1.4311155080795288,1.3934186697006226,0.21947360038757324,-0.13346369564533234,0.20533379912376404
8.051086902618408,-0.04230409860610962,-1.4295365810394287,1.408825397491455,0.2341238111257553,-0.17287088930606842,0.20953483879566193
8.071205854415894,-0.05363011360168457,-1.429419755935669,1.4134244918823242,0.24011726677417755,-0.1868179440498352,0.2120722532272339
8.091318607330322,-0.041085369884967804,-1.4308924674987793,1.413665771484375,0.24691100418567657,-0.19795812666416168,0.21741901338100433
8.111352682113647,-0.022160466760396957,-1.4318640232086182,1.4094555377960205,0.24723127484321594,-0.19588875770568848,0.21991108357906342
8.131426572799683,0.02925306186079979,-1.4330856800079346,1.394744634628296,0.2426319420337677,-0.18033671379089355,0.22411228716373444
8.151474475860596,0.0948924720287323,-1.430536150932312,1.3712565898895264,0.22986435890197754,-0.14958800375461578,0.2269570529460907
8.171570301055908,0.13053971529006958,-1.4273247718811035,1.357096791267395,0.22113439440727234,-0.12983238697052002,0.22764815390110016
8.191641092300415,0.19889280200004578,-1.4192492961883545,1.3303735256195068,0.20302647352218628,-0.08818851411342621,0.22735899686813354
8.211743831634521,0.2292545735836029,-1.4152616262435913,1.319777488708496,0.19481591880321503,-0.06835673749446869,0.22644315659999847
8.231810092926025,0.2786637544631958,-1.409247636795044,1.30595862865448,0.18215906620025635,-0.033666692674160004,0.22335566580295563
8.252548217773438,0.3089471459388733,-1.4073588848114014,1.3022781610488892,0.17449375987052917,-0.008455762639641762,0.2188802808523178
8.272701740264893,0.3136880099773407,-1.408549189567566,1.3046579360961914,0.17310184240341187,-0.0015746168792247772,0.21628497540950775
8.292752742767334,0.29190418124198914,-1.4151227474212646,1.3171231746673584,0.1764475405216217,-0.004134160000830889,0.21114511787891388
8.312989234924316,0.2629571557044983,-1.4197978973388672,1.3265889883041382,0.1805776208639145,-0.014360524713993073,0.20896245539188385
8.333233118057251,0.18480314314365387,-1.4281455278396606,1.3481814861297607,0.19197574257850647,-0.047563012689352036,0.20623314380645752
8.353543519973755,0.09990902245044708,-1.4329004287719727,1.3705971240997314,0.20511317253112793,-0.09022626280784607,0.20594361424446106
8.373704195022583,0.060657985508441925,-1.4337431192398071,1.38113272190094,0.21211957931518555,-0.11272101104259491,0.20666754245758057
8.393747568130493,-0.006241463124752045,-1.4333399534225464,1.3995728492736816,0.2264866828918457,-0.15585793554782867,0.2095600962638855
8.413828611373901,-0.029118062928318977,-1.4329748153686523,1.4065744876861572,0.2331460863351822,-0.17381598055362701,0.21160706877708435
8.433879852294922,-0.04588952660560608,-1.433654546737671,1.4141778945922852,0.24285221099853516,-0.19722144305706024,0.21637536585330963
8.453959465026855,-0.039597515016794205,-1.4344819784164429,1.4142218828201294,0.24530655145645142,-0.20184484124183655,0.21883392333984375
8.47409462928772,-0.0036189723759889603,-1.4359089136123657,1.405970573425293,0.24442176520824432,-0.19671319425106049,0.2233472764492035
8.494135856628418,0.02188904955983162,-1.4360051155090332,1.3984495401382446,0.2410944402217865,-0.18808260560035706,0.22525432705879211
8.514257192611694,0.08244837820529938,-1.4335123300552368,1.3775415420532227,0.22861307859420776,-0.16050028800964355,0.228043332695961
8.534475088119507,0.15030625462532043,-1.4266135692596436,1.350702166557312,0.21041525900363922,-0.12207000702619553,0.22901363670825958
8.55456829071045,0.18295642733573914,-1.4224605560302734,1.3379231691360474,0.20121373236179352,-0.10173806548118591,0.2286984920501709
8.574631214141846,0.24061976373195648,-1.4148986339569092,1.3177950382232666,0.18564756214618683,-0.06345532089471817,0.22668038308620453
8.594704866409302,0.26414161920547485,-1.4121065139770508,1.3113144636154175,0.17975690960884094,-0.04673611372709274,0.22506208717823029
8.614802122116089,0.29743102192878723,-1.4094887971878052,1.3052321672439575,0.17169037461280823,-0.01991080306470394,0.22080117464065552
8.634851932525635,0.3051106929779053,-1.411711573600769,1.3092323541641235,0.17021332681179047,-0.006784713827073574,0.21574674546718597
8.655033111572266,0.29514774680137634,-1.4146912097930908,1.3149462938308716,0.17225952446460724,-0.007475192192941904,0.21324746310710907
8.675030946731567,0.24318678677082062,-1.4230186939239502,1.3323991298675537,0.18096384406089783,-0.02495947852730751,0.20920632779598236
8.695125818252563,0.205588698387146,-1.4269763231277466,1.3430044651031494,0.18663784861564636,-0.04034246504306793,0.20791377127170563
8.715253353118896,0.12917889654636383,-1.432637095451355,1.3642187118530273,0.19905702769756317,-0.07683472335338593,0.2070615142583847
8.735250234603882,0.06333501636981964,-1.434736728668213,1.3834853172302246,0.2124924659729004,-0.11590977758169174,0.2083302140235901
8.75533390045166,0.03590463474392891,-1.4347165822982788,1.3916395902633667,0.21979546546936035,-0.1349213570356369,0.20966602861881256
8.77539324760437,0.003595286048948765,-1.4345537424087524,1.4024500846862793,0.23373758792877197,-0.16510295867919922,0.21346572041511536
8.795470237731934,0.002282132860273123,-1.4350630044937134,1.4044960737228394,0.23912987112998962,-0.17377954721450806,0.215705007314682
8.815606594085693,0.02688562497496605,-1.4367053508758545,1.4001009464263916,0.2441433072090149,-0.17601194977760315,0.22004972398281097
8.83568549156189,0.04992225021123886,-1.437285304069519,1.3935999870300293,0.24347922205924988,-0.16976116597652435,0.22189748287200928
8.85581088066101,0.10925689339637756,-1.436147928237915,1.3733669519424438,0.23659780621528625,-0.14490526914596558,0.2245326042175293
8.87596082687378,0.14279882609844208,-1.4340527057647705,1.3603159189224243,0.230495423078537,-0.12739698588848114,0.22509132325649261
8.896040439605713,0.20993170142173767,-1.426952838897705,1.3322021961212158,0.21412548422813416,-0.08686082065105438,0.2243024706840515
8.91628384590149,0.2693153917789459,-1.4177590608596802,1.308546543121338,0.196856290102005,-0.04543659836053848,0.22132837772369385
8.936379671096802,0.2942112386226654,-1.4133816957473755,1.299906849861145,0.18924421072006226,-0.02611459046602249,0.2191653549671173
8.956428527832031,0.33100825548171997,-1.4065356254577637,1.2902355194091797,0.17701657116413116,0.007464363239705563,0.2136877477169037
8.97667908668518,0.34044039249420166,-1.4051170349121094,1.2899096012115479,0.17275650799274445,0.019939348101615906,0.21043875813484192
8.996701002120972,0.3308131992816925,-1.408055305480957,1.2993996143341064,0.17015431821346283,0.02959432825446129,0.20389331877231598
9.016868829727173,0.3100186884403229,-1.4116356372833252,1.3081493377685547,0.17227892577648163,0.025595152750611305,0.20097915828227997
9.036948680877686,0.24398578703403473,-1.4200845956802368,1.3296605348587036,0.1816067099571228,0.00231920275837183,0.19662821292877197
9.056973218917847,0.15696081519126892,-1.426635503768921,1.3529080152511597,0.19425949454307556,-0.03691389784216881,0.19473958015441895
9.07706356048584,0.11415889859199524,-1.4281854629516602,1.3635916709899902,0.20121310651302338,-0.059343792498111725,0.19474215805530548
9.097135543823242,0.031145263463258743,-1.4285277128219604,1.3842337131500244,0.21692389249801636,-0.10861260443925858,0.19655534625053406
9.117364406585693,-0.004873158410191536,-1.4278109073638916,1.3935025930404663,0.22530525922775269,-0.13276945054531097,0.19833584129810333
9.137389898300171,-0.051393382251262665,-1.4272347688674927,1.407189130783081,0.2403925657272339,-0.17111074924468994,0.20311826467514038
9.157877445220947,-0.057429514825344086,-1.4278919696807861,1.4106875658035278,0.24610060453414917,-0.1829698085784912,0.20588313043117523
9.177978038787842,-0.036525581032037735,-1.4300397634506226,1.4087754487991333,0.2516680657863617,-0.1899968385696411,0.2113972157239914
9.198040008544922,0.014171170070767403,-1.431265950202942,1.3955180644989014,0.24828088283538818,-0.17682062089443207,0.21608856320381165
9.218178272247314,0.04582054167985916,-1.430783748626709,1.3855592012405396,0.24339139461517334,-0.16427984833717346,0.21792063117027283
9.238256216049194,0.1175299733877182,-1.4258930683135986,1.358851432800293,0.22808563709259033,-0.12837806344032288,0.22019062936306
9.258378028869629,0.15434278547763824,-1.4220129251480103,1.3440494537353516,0.2189180850982666,-0.1072918102145195,0.22040003538131714
9.278467178344727,0.22224661707878113,-1.4132978916168213,1.317813754081726,0.20114488899707794,-0.06490255892276764,0.2190345823764801
9.2987060546875,0.2774064540863037,-1.405722975730896,1.3007793426513672,0.18732582032680511,-0.027210574597120285,0.21568408608436584
9.318817615509033,0.29902952909469604,-1.4031070470809937,1.2958970069885254,0.18210339546203613,-0.01104902196675539,0.21338121592998505
9.339004278182983,0.3265121281147003,-1.4015644788742065,1.2940375804901123,0.17572253942489624,0.013178698718547821,0.20779913663864136
9.359034299850464,0.329182893037796,-1.403085470199585,1.2972480058670044,0.1751040369272232,0.019369563087821007,0.20473667979240417
9.379249811172485,0.30369362235069275,-1.409980058670044,1.3110321760177612,0.1789311319589615,0.016448786482214928,0.19895485043525696
9.399255752563477,0.24294668436050415,-1.419235110282898,1.331735610961914,0.18800537288188934,-0.005905810743570328,0.19480232894420624
9.419346332550049,0.20331133902072906,-1.4235013723373413,1.3433960676193237,0.19354000687599182,-0.023069556802511215,0.19356787204742432
9.439422130584717,0.12132623791694641,-1.4296773672103882,1.366735577583313,0.20597320795059204,-0.06391988694667816,0.19299784302711487
9.459505319595337,0.08289768546819687,-1.4314236640930176,1.3776192665100098,0.21259252727031708,-0.08590706437826157,0.19358249008655548
9.479626655578613,0.019452383741736412,-1.432697057723999,1.3962066173553467,0.22645573318004608,-0.12779775261878967,0.19633382558822632
9.499848365783691,-0.0022780001163482666,-1.4328557252883911,1.4030306339263916,0.23337942361831665,-0.14563080668449402,0.19837132096290588
9.51992416381836,-0.018197715282440186,-1.43391752243042,1.409697413444519,0.24512821435928345,-0.16985084116458893,0.20331189036369324
9.540276050567627,0.00542614609003067,-1.4358512163162231,1.404845118522644,0.25039929151535034,-0.17414362728595734,0.20842421054840088
9.560397624969482,0.027476424351334572,-1.4366775751113892,1.398640513420105,0.2501039206981659,-0.16941292583942413,0.2106485515832901
9.580468893051147,0.08651676774024963,-1.4360905885696411,1.378814458847046,0.24353331327438354,-0.14691706001758575,0.2140740156173706
9.60057806968689,0.12081532180309296,-1.4341427087783813,1.3656383752822876,0.23756326735019684,-0.13014180958271027,0.2150810956954956
9.620698928833008,0.18975332379341125,-1.4275448322296143,1.3377535343170166,0.22147423028945923,-0.09124093502759933,0.21518036723136902
9.640775203704834,0.22274483740329742,-1.4230289459228516,1.3242329359054565,0.21219328045845032,-0.07027711719274521,0.21435724198818207
9.660913705825806,0.28071340918540955,-1.413705825805664,1.3027698993682861,0.19522684812545776,-0.030038554221391678,0.2112675905227661
9.680999517440796,0.3043241798877716,-1.4096893072128296,1.2955914735794067,0.18807904422283173,-0.011824174784123898,0.20906466245651245
9.701151609420776,0.33849653601646423,-1.404302954673767,1.2888836860656738,0.1772632896900177,0.018633728846907616,0.20356450974941254
9.721192121505737,0.347689151763916,-1.404723882675171,1.293629765510559,0.17247600853443146,0.03569445013999939,0.19712239503860474
9.741262197494507,0.33966895937919617,-1.4071707725524902,1.299816370010376,0.17312154173851013,0.03722304478287697,0.19403019547462463
9.761335134506226,0.30019065737724304,-1.4146445989608765,1.3169394731521606,0.18010301887989044,0.026228509843349457,0.18878507614135742
9.781445264816284,0.2707619071006775,-1.41896653175354,1.3271435499191284,0.18555797636508942,0.01434552762657404,0.18684585392475128
9.801629066467285,0.19143617153167725,-1.4269264936447144,1.350438117980957,0.19855432212352753,-0.021982109174132347,0.18464449048042297
9.821694135665894,0.10623599588871002,-1.4317004680633545,1.3728350400924683,0.21286991238594055,-0.06680266559123993,0.1849304735660553
9.841822862625122,0.06791619956493378,-1.4331995248794556,1.3832002878189087,0.220096156001091,-0.0893969014286995,0.18598107993602753
9.861926794052124,0.006731711328029633,-1.434967041015625,1.4007017612457275,0.23373307287693024,-0.13019463419914246,0.1894717961549759
9.881961584091187,-0.014350125566124916,-1.4355573654174805,1.4073705673217773,0.2400013655424118,-0.14730660617351532,0.19171206653118134
9.902043104171753,-0.02490437962114811,-1.4371610879898071,1.4134564399719238,0.2494189292192459,-0.1684100180864334,0.1968117654323578
9.92211389541626,-0.014911970123648643,-1.4379791021347046,1.4121633768081665,0.25181499123573303,-0.17163702845573425,0.1994296908378601
9.94218635559082,0.02763729728758335,-1.4386497735977173,1.4011435508728027,0.2504253387451172,-0.16361205279827118,0.2041453868150711
9.962262153625488,0.08943559229373932,-1.4363646507263184,1.3804141283035278,0.24144524335861206,-0.13913366198539734,0.2075938582420349
9.982367038726807,0.1236029863357544,-1.4339207410812378,1.3674354553222656,0.23517966270446777,-0.12252005934715271,0.20860089361667633
10.002429246902466,0.19208168983459473,-1.4272229671478271,1.339171290397644,0.22066040337085724,-0.08434418588876724,0.20876793563365936
10.022674560546875,0.22343605756759644,-1.4235230684280396,1.3267878293991089,0.21360298991203308,-0.0651775449514389,0.20795892179012299
10.042736053466797,0.277588814496994,-1.4161784648895264,1.3071129322052002,0.20085152983665466,-0.028573203831911087,0.2048645317554474
10.06294059753418,0.29906585812568665,-1.4132179021835327,1.3004668951034546,0.19561681151390076,-0.012192348949611187,0.2026701122522354
10.083063840866089,0.32753944396972656,-1.4097800254821777,1.2940562963485718,0.18765179812908173,0.014612982049584389,0.19722811877727509
10.103105068206787,0.3266163468360901,-1.4117974042892456,1.2990761995315552,0.18466679751873016,0.027067340910434723,0.19127552211284637
10.123197317123413,0.30985233187675476,-1.4149906635284424,1.3062360286712646,0.18565982580184937,0.025181027129292488,0.18852876126766205
10.143286943435669,0.2508609890937805,-1.4231338500976562,1.3261531591415405,0.1917685717344284,0.007024956867098808,0.18442438542842865
10.163435935974121,0.21077445149421692,-1.4271223545074463,1.3379732370376587,0.1964382827281952,-0.009036741219460964,0.18319542706012726
10.183473348617554,0.12394227087497711,-1.4326595067977905,1.3623557090759277,0.20779669284820557,-0.05026763677597046,0.18258385360240936
10.203577995300293,0.04083361104130745,-1.4339967966079712,1.3851710557937622,0.22127296030521393,-0.09811300039291382,0.1842784881591797
10.223686933517456,0.0027335546910762787,-1.4332834482192993,1.3954576253890991,0.22878757119178772,-0.1226608008146286,0.18594127893447876
10.243744373321533,-0.053391873836517334,-1.431339144706726,1.4117075204849243,0.24330538511276245,-0.16513118147850037,0.19058246910572052
10.263845920562744,-0.0674835592508316,-1.4310109615325928,1.4169402122497559,0.24922719597816467,-0.18068572878837585,0.19333148002624512
10.283915281295776,-0.06354744732379913,-1.4318510293960571,1.419924020767212,0.2564181983470917,-0.19679144024848938,0.19907011091709137
10.304059982299805,-0.026654135435819626,-1.4332221746444702,1.4121021032333374,0.2559875249862671,-0.19381023943424225,0.2043086737394333
10.324164628982544,-0.00109904445707798,-1.4334832429885864,1.4050790071487427,0.2529357671737671,-0.18642878532409668,0.2065521776676178
10.344215393066406,0.06075515225529671,-1.4314182996749878,1.3846378326416016,0.24043872952461243,-0.16071699559688568,0.2100544273853302
10.364304065704346,0.0953642725944519,-1.4286106824874878,1.3715226650238037,0.23166877031326294,-0.14304617047309875,0.211189866065979
10.384365797042847,0.16445907950401306,-1.42108952999115,1.344362497329712,0.21341529488563538,-0.10360398143529892,0.211841881275177
10.404451370239258,0.19628974795341492,-1.4172618389129639,1.3322677612304688,0.20529614388942719,-0.08392754197120667,0.21133887767791748
10.424528360366821,0.25071701407432556,-1.4109070301055908,1.3144532442092896,0.19285307824611664,-0.0482487753033638,0.20890448987483978
10.444602489471436,0.27212679386138916,-1.408888578414917,1.3089549541473389,0.1885087490081787,-0.03309386223554611,0.2070491909980774
10.464715957641602,0.29913070797920227,-1.4082242250442505,1.3056068420410156,0.1839158982038498,-0.010853365063667297,0.2023269385099411
10.48484182357788,0.29613354802131653,-1.412401795387268,1.312183141708374,0.1861504465341568,-0.004105105064809322,0.19704948365688324
10.50495433807373,0.2783505618572235,-1.4162346124649048,1.3192111253738403,0.18946149945259094,-0.008604492992162704,0.19458818435668945
10.52505874633789,0.21714238822460175,-1.4248836040496826,1.3386836051940918,0.19846518337726593,-0.03100629895925522,0.19100680947303772
10.545132875442505,0.17801497876644135,-1.4287080764770508,1.350000023841858,0.20363350212574005,-0.04761219024658203,0.19003988802433014
10.565219640731812,0.10285412520170212,-1.4339969158172607,1.3725593090057373,0.21414591372013092,-0.08449031412601471,0.1898551881313324
10.585274457931519,0.04193274676799774,-1.435835361480713,1.3922489881515503,0.22554324567317963,-0.1222994402050972,0.19172406196594238
10.605362176895142,0.019436560571193695,-1.4356858730316162,1.39995539188385,0.2319747805595398,-0.13979294896125793,0.1933472454547882
10.625437259674072,-0.0015139488968998194,-1.4352763891220093,1.4093866348266602,0.24396969377994537,-0.16604916751384735,0.1975523829460144
10.64553189277649,0.0025053992867469788,-1.4355943202972412,1.410172462463379,0.248353511095047,-0.17266155779361725,0.19989627599716187
10.665631294250488,0.03777739778161049,-1.4366223812103271,1.4019837379455566,0.2511972188949585,-0.16982536017894745,0.2042982578277588
10.686269521713257,0.09403187036514282,-1.4365270137786865,1.383538842201233,0.24722042679786682,-0.15001241862773895,0.2074396163225174
10.706373691558838,0.127202570438385,-1.4353307485580444,1.370896816253662,0.2429295927286148,-0.13443803787231445,0.20834572613239288
10.726408243179321,0.1942632794380188,-1.4304817914962769,1.3434044122695923,0.22965192794799805,-0.09722381830215454,0.20826712250709534
10.746567964553833,0.22633370757102966,-1.4266462326049805,1.3293366432189941,0.2209109514951706,-0.07655789703130722,0.20731042325496674
10.766590595245361,0.28229936957359314,-1.4179763793945312,1.305899977684021,0.2036404311656952,-0.03596998006105423,0.20400716364383698
10.786682605743408,0.3048279285430908,-1.4137428998947144,1.297417402267456,0.1958143711090088,-0.01706341654062271,0.20175260305404663
10.806758642196655,0.33425167202949524,-1.4080021381378174,1.2895456552505493,0.18350738286972046,0.013894112780690193,0.19619087874889374
10.826955556869507,0.33804693818092346,-1.4076941013336182,1.2909657955169678,0.1794416904449463,0.023780230432748795,0.19313980638980865
10.846946954727173,0.3097308278083801,-1.4131404161453247,1.3051143884658813,0.1778673231601715,0.02475781925022602,0.18748129904270172
10.867020606994629,0.2808329463005066,-1.4174213409423828,1.315760850906372,0.18045397102832794,0.01630922220647335,0.18524958193302155
10.887093305587769,0.19755110144615173,-1.4256285429000854,1.3407827615737915,0.1904853731393814,-0.017065413296222687,0.182512566447258
10.907325267791748,0.11077666282653809,-1.4289498329162598,1.3628453016281128,0.20256273448467255,-0.05973302945494652,0.18226996064186096
10.927441835403442,0.06822505593299866,-1.4289439916610718,1.372956395149231,0.2092360556125641,-0.08301747590303421,0.18292444944381714
10.947508811950684,-0.014812085777521133,-1.4268317222595215,1.3923134803771973,0.22442828118801117,-0.13284635543823242,0.18593436479568481
10.96758246421814,-0.0546511635184288,-1.4257826805114746,1.4020415544509888,0.23289208114147186,-0.15923261642456055,0.18854135274887085
10.987659931182861,-0.10156223177909851,-1.4255623817443848,1.4160215854644775,0.2464187741279602,-0.19831326603889465,0.19479933381080627
11.007735013961792,-0.10662182420492172,-1.4262704849243164,1.4194129705429077,0.2508319616317749,-0.20982851088047028,0.1981879621744156
11.027930974960327,-0.08711583912372589,-1.4280710220336914,1.4177541732788086,0.2539212107658386,-0.21759919822216034,0.20472000539302826
11.047950506210327,-0.04372408241033554,-1.4289535284042358,1.4071944952011108,0.2481120526790619,-0.20882022380828857,0.21026216447353363
11.068136215209961,-0.01599731296300888,-1.4284335374832153,1.3988910913467407,0.24178174138069153,-0.1990445852279663,0.21258391439914703
11.088158369064331,0.047165583819150925,-1.424692988395691,1.377716302871704,0.22418102622032166,-0.17053139209747314,0.21625611186027527
11.108270406723022,0.08002196252346039,-1.4219685792922974,1.3664822578430176,0.2146449089050293,-0.15386433899402618,0.21749216318130493
11.128398418426514,0.1433769166469574,-1.4165294170379639,1.3459584712982178,0.19807055592536926,-0.11998024582862854,0.21856775879859924
11.148544788360596,0.19870342314243317,-1.4127708673477173,1.3306190967559814,0.18654975295066833,-0.08929852396249771,0.21773022413253784
11.16865587234497,0.22241632640361786,-1.4117553234100342,1.3248467445373535,0.18261364102363586,-0.0755925327539444,0.2166849672794342
11.18872618675232,0.25825461745262146,-1.4121493101119995,1.3184765577316284,0.17912070453166962,-0.05346893519163132,0.21364593505859375
11.208889484405518,0.26973724365234375,-1.4134708642959595,1.3176308870315552,0.17923392355442047,-0.045335203409194946,0.21176090836524963
11.22901201248169,0.2760283946990967,-1.4181239604949951,1.320834755897522,0.1825832724571228,-0.03706146776676178,0.2075512558221817
11.249015092849731,0.2689930200576782,-1.4213578701019287,1.3250470161437988,0.18576236069202423,-0.03778854012489319,0.2054726630449295
11.269141435623169,0.23566597700119019,-1.4287395477294922,1.337579369544983,0.1934875100851059,-0.04797572270035744,0.2021150290966034
11.289190530776978,0.19058632850646973,-1.435594081878662,1.3535597324371338,0.20173129439353943,-0.06614270806312561,0.20044749975204468
11.309283971786499,0.16695892810821533,-1.4384642839431763,1.3621947765350342,0.20612075924873352,-0.07760753482580185,0.20027104020118713
11.329385757446289,0.12465640157461166,-1.4427673816680908,1.3780425786972046,0.21520952880382538,-0.10222236812114716,0.20111913979053497
11.349606275558472,0.10906117409467697,-1.4442583322525024,1.3841053247451782,0.21985295414924622,-0.11374588310718536,0.20210811495780945
11.369747877120972,0.09373241662979126,-1.4464728832244873,1.3913896083831787,0.22806629538536072,-0.13160566985607147,0.20487995445728302
11.389800310134888,0.10301841050386429,-1.4482157230377197,1.390429973602295,0.23278652131557465,-0.13784803450107574,0.20806941390037537
11.409895658493042,0.11592508852481842,-1.4489216804504395,1.3862926959991455,0.2331838607788086,-0.13575907051563263,0.20955605804920197
11.43003511428833,0.15358991920948029,-1.4493601322174072,1.3715274333953857,0.23000577092170715,-0.12183637171983719,0.2118181586265564
11.45012617111206,0.17589059472084045,-1.448927402496338,1.3617626428604126,0.22670592367649078,-0.11099584400653839,0.2124532163143158
11.470244884490967,0.22104640305042267,-1.4463839530944824,1.341909646987915,0.21696843206882477,-0.08499316871166229,0.21249645948410034
11.490349054336548,0.2422134429216385,-1.4443063735961914,1.332773208618164,0.21099473536014557,-0.07079139351844788,0.21191591024398804
11.510536432266235,0.2778743803501129,-1.439094066619873,1.3193187713623047,0.19783756136894226,-0.043082915246486664,0.20960691571235657
11.531221389770508,0.29912102222442627,-1.4343105554580688,1.31467866897583,0.18558350205421448,-0.020249171182513237,0.20627237856388092
11.5513916015625,0.3008062541484833,-1.4330625534057617,1.316889762878418,0.18063615262508392,-0.013001352548599243,0.2044154852628708
11.571407794952393,0.2788936495780945,-1.4337387084960938,1.3306238651275635,0.17554280161857605,-0.011925374157726765,0.20082518458366394
11.59154748916626,0.2556537091732025,-1.4352564811706543,1.3409152030944824,0.1757585108280182,-0.01866137981414795,0.19929471611976624
11.61158561706543,0.1901562660932541,-1.4387916326522827,1.3645527362823486,0.18151932954788208,-0.04569388926029205,0.19724932312965393
11.63169527053833,0.15422695875167847,-1.4399737119674683,1.3760600090026855,0.18657661974430084,-0.06353234499692917,0.1969374418258667
11.65178632736206,0.08379003405570984,-1.4402376413345337,1.3961395025253296,0.19991491734981537,-0.10373425483703613,0.19781680405139923
11.671935319900513,0.02317691780626774,-1.4375269412994385,1.4107882976531982,0.21602913737297058,-0.14470511674880981,0.20054250955581665
11.692030191421509,0.0025871358811855316,-1.4362719058990479,1.4153159856796265,0.22411684691905975,-0.16160312294960022,0.20255333185195923
11.712117910385132,-0.007018791977316141,-1.435732126235962,1.4173353910446167,0.23644250631332397,-0.1815057396888733,0.20723994076251984
11.732202768325806,0.004059141967445612,-1.4360929727554321,1.414138674736023,0.2394222915172577,-0.1830674558877945,0.20957587659358978
11.75230598449707,0.04851122200489044,-1.4362245798110962,1.399617314338684,0.2382296919822693,-0.17085802555084229,0.21356773376464844
11.772444009780884,0.07809967547655106,-1.435246229171753,1.3889511823654175,0.23454156517982483,-0.15835805237293243,0.215051531791687
11.792523384094238,0.14584089815616608,-1.4301742315292358,1.3617560863494873,0.2219025194644928,-0.1227874830365181,0.21650393307209015
11.812640190124512,0.21413083374500275,-1.4214732646942139,1.3323026895523071,0.20539486408233643,-0.07971122115850449,0.2155010849237442
11.832823991775513,0.24555924534797668,-1.4163442850112915,1.3193566799163818,0.19738289713859558,-0.057888131588697433,0.21419617533683777
11.852819442749023,0.29905909299850464,-1.4064782857894897,1.3001611232757568,0.18411898612976074,-0.01730639860033989,0.2101770043373108
11.872900485992432,0.3199431896209717,-1.4023354053497314,1.2941974401474,0.17904482781887054,0.0006961347535252571,0.20753027498722076
11.892997741699219,0.3462296724319458,-1.3979495763778687,1.2908108234405518,0.17267411947250366,0.028669659048318863,0.20110905170440674
11.913141012191772,0.34255602955818176,-1.4005067348480225,1.2992238998413086,0.17305748164653778,0.03962402045726776,0.1942170113325119
11.933233976364136,0.3274253010749817,-1.4038660526275635,1.306754469871521,0.17600883543491364,0.037398241460323334,0.19107097387313843
11.953309535980225,0.2755460739135742,-1.41258704662323,1.3259309530258179,0.18592426180839539,0.01902756467461586,0.18605946004390717
11.973390102386475,0.24128973484039307,-1.4170470237731934,1.3368780612945557,0.19200102984905243,0.004030159674584866,0.1843825727701187
11.993509769439697,0.1581479012966156,-1.4241513013839722,1.3602699041366577,0.20587968826293945,-0.03749038651585579,0.18282844126224518
12.013904094696045,0.07964139431715012,-1.4284615516662598,1.3819670677185059,0.22035175561904907,-0.08292558789253235,0.18383681774139404
12.033994436264038,0.04768257960677147,-1.429924726486206,1.3912782669067383,0.22726958990097046,-0.10395828634500504,0.18516749143600464
12.05407190322876,0.02313924953341484,-1.4310970306396484,1.3988912105560303,0.2340511977672577,-0.12258194386959076,0.18695557117462158
12.074190616607666,0.00474338186904788,-1.4339121580123901,1.406511902809143,0.2453710436820984,-0.1469901204109192,0.19145062565803528
12.094375848770142,0.012247001752257347,-1.4353020191192627,1.4056577682495117,0.24896204471588135,-0.15143342316150665,0.19388800859451294
12.114382266998291,0.05513855814933777,-1.4366334676742554,1.392937183380127,0.24923449754714966,-0.14299017190933228,0.1983427256345749
12.134457111358643,0.08706031739711761,-1.4356589317321777,1.3813809156417847,0.24602991342544556,-0.13075728714466095,0.20004190504550934
12.154580354690552,0.15833714604377747,-1.4312547445297241,1.352715253829956,0.2361755669116974,-0.09668924659490585,0.20156574249267578
12.1746244430542,0.1937280148267746,-1.4281690120697021,1.3379932641983032,0.23027625679969788,-0.077233225107193,0.20126911997795105
12.1947021484375,0.25937017798423767,-1.4196252822875977,1.3111660480499268,0.21671520173549652,-0.03636343777179718,0.19886454939842224
12.214820146560669,0.28812819719314575,-1.4145833253860474,1.300156831741333,0.2098645716905594,-0.016107434406876564,0.19693632423877716
12.234926700592041,0.335194855928421,-1.4041589498519897,1.2845041751861572,0.1972305178642273,0.022081244736909866,0.191942036151886
12.254998683929443,0.36062273383140564,-1.3983831405639648,1.281182050704956,0.18836671113967896,0.05070961266756058,0.1853196918964386
12.275115489959717,0.3615587055683136,-1.3985353708267212,1.2844668626785278,0.18600942194461823,0.059074558317661285,0.18176566064357758
12.295183420181274,0.33847901225090027,-1.403698205947876,1.2986466884613037,0.1863749623298645,0.06124504283070564,0.1754128485918045
12.31528615951538,0.3151226043701172,-1.407914638519287,1.3086034059524536,0.18925818800926208,0.054621223360300064,0.17278671264648438
12.335360288619995,0.2507709860801697,-1.4170963764190674,1.3313697576522827,0.1991383135318756,0.027895566076040268,0.16914957761764526
12.355419158935547,0.16593611240386963,-1.4243366718292236,1.354932427406311,0.21232405304908752,-0.014924457296729088,0.16798818111419678
12.375509262084961,0.12389577925205231,-1.4268672466278076,1.3660694360733032,0.21933092176914215,-0.03843867778778076,0.16838836669921875
12.395764827728271,0.05068935826420784,-1.4308239221572876,1.3872846364974976,0.2339334934949875,-0.08550804853439331,0.17103102803230286
12.41584587097168,0.025671951472759247,-1.4324840307235718,1.395767092704773,0.2405848503112793,-0.10512307286262512,0.17304016649723053
12.43590521812439,0.004263819195330143,-1.4355323314666748,1.406151533126831,0.251588374376297,-0.132585346698761,0.17787902057170868
12.455997228622437,0.009284228086471558,-1.4369573593139648,1.4073292016983032,0.2550782561302185,-0.13916325569152832,0.18043102324008942
12.47606897354126,0.052614398300647736,-1.4377962350845337,1.3968291282653809,0.2541196048259735,-0.1321333348751068,0.1852487027645111
12.496195316314697,0.12106776237487793,-1.4339238405227661,1.3716634511947632,0.2445773333311081,-0.1047489196062088,0.18851423263549805
12.516346216201782,0.1570805311203003,-1.4310505390167236,1.356967806816101,0.23828496038913727,-0.08728311955928802,0.1891530305147171
12.536383152008057,0.22567471861839294,-1.4234296083450317,1.3276557922363281,0.2236279994249344,-0.04871588945388794,0.1884412169456482
12.556440830230713,0.2567636966705322,-1.418746829032898,1.3143094778060913,0.21594861149787903,-0.028778444975614548,0.1872616410255432
12.576629638671875,0.30936020612716675,-1.4088220596313477,1.2929260730743408,0.20137165486812592,0.009678123518824577,0.1835690438747406
12.596749305725098,0.32991138100624084,-1.4043127298355103,1.285906434059143,0.19521678984165192,0.027059607207775116,0.1811327338218689
12.61696457862854,0.3540126085281372,-1.3993421792984009,1.2817339897155762,0.18638727068901062,0.05369308590888977,0.17508161067962646
12.636972427368164,0.3462270498275757,-1.401925802230835,1.2909585237503052,0.184159517288208,0.06309033930301666,0.16876809298992157
12.657145977020264,0.3306969106197357,-1.4051446914672852,1.2989457845687866,0.18589071929454803,0.06060947850346565,0.16601724922657013
12.677190065383911,0.28074410557746887,-1.4136117696762085,1.3190321922302246,0.19411973655223846,0.04194578155875206,0.16181109845638275
12.69736361503601,0.24552395939826965,-1.4181169271469116,1.3306796550750732,0.20028966665267944,0.02530689537525177,0.16051597893238068
12.71747875213623,0.16207775473594666,-1.4250134229660034,1.354079008102417,0.21442562341690063,-0.018669601529836655,0.15974222123622894
12.737695455551147,0.08077555149793625,-1.429098129272461,1.376359462738037,0.2295219451189041,-0.06729860603809357,0.1614903211593628
12.75778079032898,0.04696405678987503,-1.4306532144546509,1.3865511417388916,0.2368318885564804,-0.09012168645858765,0.16317102313041687
12.777865409851074,0.0034664077684283257,-1.43361496925354,1.402251958847046,0.2493901550769806,-0.12629880011081696,0.1676056981086731
12.797940731048584,-0.0037131912540644407,-1.435079574584961,1.4069035053253174,0.25413835048675537,-0.1379847675561905,0.17014774680137634
12.81803035736084,0.014025292359292507,-1.4372408390045166,1.4070347547531128,0.25841036438941956,-0.14536282420158386,0.17529554665088654
12.838202714920044,0.037572916597127914,-1.437140941619873,1.4013935327529907,0.2568812370300293,-0.14004239439964294,0.17768606543540955
12.858232498168945,0.10128706693649292,-1.4335696697235107,1.380002498626709,0.24746917188167572,-0.11547622829675674,0.18135611712932587
12.878413200378418,0.13641324639320374,-1.4304614067077637,1.3661329746246338,0.24080422520637512,-0.09857866913080215,0.18233036994934082
12.898492813110352,0.20375071465969086,-1.4226239919662476,1.3376232385635376,0.22595548629760742,-0.06084855645895004,0.18230313062667847
12.91866397857666,0.22342698276042938,-1.4079608917236328,1.3025754690170288,0.2118510603904724,-0.049063798040151596,0.1640911102294922
12.938676118850708,0.2624267041683197,-1.377814769744873,1.2333300113677979,0.18360163271427155,-0.0249717365950346,0.1267271339893341
12.958775520324707,0.2811525762081146,-1.362107515335083,1.1989445686340332,0.1694992184638977,-0.012988205999135971,0.10729057341814041
12.978892803192139,0.312688946723938,-1.3288829326629639,1.1296894550323486,0.14077043533325195,0.00897294282913208,0.06499139964580536
12.998967409133911,0.32130229473114014,-1.3112492561340332,1.0943546295166016,0.12581679224967957,0.017603466287255287,0.041154082864522934
13.019051790237427,0.31497156620025635,-1.2735466957092285,1.0257505178451538,0.09576896578073502,0.025598792359232903,-0.011278476566076279
13.039184331893921,0.27617329359054565,-1.2347341775894165,0.9718627333641052,0.07086975872516632,0.01539537962526083,-0.06321616470813751
13.059287309646606,0.24757800996303558,-1.2164314985275269,0.9541134834289551,0.06197823956608772,0.0032800743356347084,-0.08555708825588226
13.079367876052856,0.1749809980392456,-1.180802822113037,0.9354726672172546,0.049515917897224426,-0.03368240222334862,-0.12355122715234756
13.09944224357605,0.1357330083847046,-1.1649478673934937,0.9335823059082031,0.04551932215690613,-0.055309608578681946,-0.13841499388217926
13.119543313980103,0.057547908276319504,-1.1360242366790771,0.9415398240089417,0.03744006156921387,-0.10170525312423706,-0.1657143086194992
13.139817953109741,-0.011113615706562996,-1.1137696504592896,0.9633350372314453,0.028339587152004242,-0.14620038866996765,-0.18822361528873444
13.159942150115967,-0.038492120802402496,-1.1051183938980103,0.9772574305534363,0.023267492651939392,-0.1657032072544098,-0.19773544371128082
13.180152654647827,-0.07549983263015747,-1.0917719602584839,1.0066720247268677,0.011333292350172997,-0.19607257843017578,-0.21381719410419464
13.200207948684692,-0.08222321420907974,-1.0863169431686401,1.019502878189087,0.004410497844219208,-0.20556211471557617,-0.22066085040569305
13.22030258178711,-0.07500046491622925,-1.076054334640503,1.0366694927215576,-0.011251959949731827,-0.213959738612175,-0.23234625160694122
13.240353107452393,-0.06348300725221634,-1.0710647106170654,1.0401438474655151,-0.019159283488988876,-0.2141161412000656,-0.23724539577960968
13.260480165481567,-0.022964319214224815,-1.0619471073150635,1.0339361429214478,-0.03489498794078827,-0.20556415617465973,-0.24520431458950043
13.280542850494385,0.029894180595874786,-1.0561896562576294,1.0126705169677734,-0.04844284430146217,-0.1896413266658783,-0.25050899386405945
13.300606966018677,0.058029815554618835,-1.0551635026931763,0.9979366064071655,-0.05423504859209061,-0.17986738681793213,-0.25227561593055725
13.32068681716919,0.10941188037395477,-1.057276964187622,0.9642354249954224,-0.06324142217636108,-0.16008038818836212,-0.25456303358078003
13.340837955474854,0.13176365196704865,-1.0599257946014404,0.9466782808303833,-0.06658477336168289,-0.15062525868415833,-0.2553131580352783
13.360876083374023,0.16901898384094238,-1.0674701929092407,0.9123153686523438,-0.07138346880674362,-0.13306476175785065,-0.25640448927879333
13.38117241859436,0.1959785521030426,-1.0757402181625366,0.88216632604599,-0.07372839748859406,-0.11881180107593536,-0.2574484646320343
13.401330709457397,0.2064804583787918,-1.0798780918121338,0.8692249655723572,-0.07441133260726929,-0.11257002502679825,-0.2580362558364868
13.421355247497559,0.22126901149749756,-1.0877985954284668,0.8481916785240173,-0.0749194324016571,-0.10218754410743713,-0.2594515383243561
13.44143295288086,0.2260129749774933,-1.0915786027908325,0.8400380611419678,-0.0748462975025177,-0.09789233654737473,-0.2602662444114685
13.461523532867432,0.23102734982967377,-1.0988883972167969,0.828142523765564,-0.07399256527423859,-0.09078768640756607,-0.2620270252227783
13.481796503067017,0.23203827440738678,-1.1023852825164795,0.8237162828445435,-0.07346449047327042,-0.08767026662826538,-0.26293912529945374
13.501948595046997,0.23229125142097473,-1.1090950965881348,0.8177460432052612,-0.07302486896514893,-0.08190488070249557,-0.2648487687110901
13.521993160247803,0.2324906885623932,-1.1150522232055664,0.8143426179885864,-0.07333974540233612,-0.07613310217857361,-0.26682308316230774
13.542089223861694,0.23230889439582825,-1.1177281141281128,0.813737690448761,-0.07356670498847961,-0.07348161190748215,-0.2678380310535431
13.56225872039795,0.2324240654706955,-1.1219242811203003,0.814795196056366,-0.07467145472764969,-0.06850927323102951,-0.2699912190437317
13.582334280014038,0.2339351773262024,-1.1241034269332886,0.8180575966835022,-0.07649749517440796,-0.06431961059570312,-0.27234089374542236
13.602429866790771,0.23477597534656525,-1.1245477199554443,0.8208155035972595,-0.07751111686229706,-0.06271547079086304,-0.27358877658843994
13.622558116912842,0.2365432232618332,-1.124412178993225,0.828016459941864,-0.07944352924823761,-0.06033709645271301,-0.27614879608154297
13.642579555511475,0.23720665276050568,-1.1238473653793335,0.8327670693397522,-0.08036664873361588,-0.059702251106500626,-0.2774713933467865
13.662649393081665,0.23869650065898895,-1.1212074756622314,0.843385636806488,-0.0821450874209404,-0.05946426838636398,-0.28019800782203674
13.682794094085693,0.23981010913848877,-1.119057536125183,0.8484724164009094,-0.08299259096384048,-0.059844598174095154,-0.2815844416618347
13.702892303466797,0.24221061170101166,-1.1140499114990234,0.8584520816802979,-0.08453183621168137,-0.06104325130581856,-0.28426817059516907
13.72297978401184,0.245515838265419,-1.107871174812317,0.866909384727478,-0.08595488220453262,-0.06264832615852356,-0.2868174612522125
13.74307131767273,0.24772411584854126,-1.10429847240448,0.8701001405715942,-0.08657321333885193,-0.06359516829252243,-0.28802964091300964
13.763148784637451,0.2541058361530304,-1.096577525138855,0.8728891611099243,-0.08796212822198868,-0.06518569588661194,-0.2902320623397827
13.783230066299438,0.257994681596756,-1.0926440954208374,0.8723598718643188,-0.0885949432849884,-0.06594279408454895,-0.29120057821273804
13.803332805633545,0.2668420076370239,-1.0853787660598755,0.8671711683273315,-0.08997267484664917,-0.06687623262405396,-0.29277142882347107
13.823376893997192,0.27668872475624084,-1.0798228979110718,0.8567860722541809,-0.09112720936536789,-0.06660718470811844,-0.29380232095718384
13.843446731567383,0.2816135287284851,-1.0778311491012573,0.8498787879943848,-0.09151501208543777,-0.06605560332536697,-0.29413357377052307
13.863579034805298,0.2907920777797699,-1.075528860092163,0.8336796760559082,-0.09206978976726532,-0.06407369673252106,-0.294528603553772
13.883922338485718,0.2982863783836365,-1.0752003192901611,0.815279483795166,-0.09212680160999298,-0.061257991939783096,-0.29467663168907166
13.904015302658081,0.30132976174354553,-1.0754965543746948,0.8059666752815247,-0.09189751744270325,-0.059644915163517,-0.29472634196281433
13.924072742462158,0.3061475157737732,-1.0764899253845215,0.788313090801239,-0.09099297970533371,-0.05637632682919502,-0.29492953419685364
13.944171905517578,0.30810368061065674,-1.076890230178833,0.7804980874061584,-0.09059195220470428,-0.05494686961174011,-0.29515501856803894
13.964251279830933,0.31145355105400085,-1.0774834156036377,0.7671312689781189,-0.09004352986812592,-0.05245601385831833,-0.29585403203964233
13.984303712844849,0.3143572211265564,-1.0774846076965332,0.7575960159301758,-0.08984331041574478,-0.050743114203214645,-0.2969185709953308
14.004397869110107,0.31579992175102234,-1.0771864652633667,0.7543447017669678,-0.08994170278310776,-0.050168514251708984,-0.29758957028388977
14.024475812911987,0.318947434425354,-1.076027512550354,0.7504109144210815,-0.09059511125087738,-0.04955430328845978,-0.29917463660240173
14.044549465179443,0.3207171559333801,-1.0752403736114502,0.7495982646942139,-0.09145140647888184,-0.04940184950828552,-0.30008453130722046
14.064639568328857,0.32387828826904297,-1.0733840465545654,0.7502819895744324,-0.09355150908231735,-0.049628715962171555,-0.3021080493927002
14.08469271659851,0.3262900710105896,-1.070913314819336,0.7539099454879761,-0.09606145322322845,-0.050764840096235275,-0.3043855130672455
14.104799509048462,0.32705044746398926,-1.069486141204834,0.7563762664794922,-0.09750065207481384,-0.05161457508802414,-0.3055945634841919
14.124857664108276,0.32713282108306885,-1.0664293766021729,0.7618744373321533,-0.10052087903022766,-0.05393020063638687,-0.3080972731113434
14.144882440567017,0.32640737295150757,-1.064847469329834,0.7647519111633301,-0.10198023170232773,-0.0553855262696743,-0.3093624711036682
14.164974689483643,0.3226502537727356,-1.0617820024490356,0.7696767449378967,-0.10449671000242233,-0.058873534202575684,-0.31181249022483826
14.185033559799194,0.31655657291412354,-1.0589052438735962,0.772519052028656,-0.1064893826842308,-0.06272822618484497,-0.3140336275100708
14.205196857452393,0.31260475516319275,-1.0576227903366089,0.7726856470108032,-0.10738397389650345,-0.06466498970985413,-0.31502199172973633
14.22523021697998,0.303660124540329,-1.0555412769317627,0.77071613073349,-0.10856103152036667,-0.0682586207985878,-0.3167044222354889
14.245307683944702,0.2986440658569336,-1.0546098947525024,0.7685900926589966,-0.10883046686649323,-0.07006976753473282,-0.31741100549697876
14.265401601791382,0.2878318130970001,-1.0529887676239014,0.7623892426490784,-0.1091754212975502,-0.07368742674589157,-0.3186166286468506
14.285841941833496,0.2770126461982727,-1.0516061782836914,0.7544792294502258,-0.10932290554046631,-0.07701150327920914,-0.3196386694908142
14.305935144424438,0.27168598771095276,-1.0508885383605957,0.7503868937492371,-0.10905337333679199,-0.07866432517766953,-0.3201157748699188
14.326006889343262,0.2623409032821655,-1.0494745969772339,0.7424872517585754,-0.10814756155014038,-0.08136234432458878,-0.32106485962867737
14.346080541610718,0.25847193598747253,-1.0487172603607178,0.7389069199562073,-0.10742168128490448,-0.08245807886123657,-0.32155877351760864
14.366203784942627,0.25451698899269104,-1.0474822521209717,0.7326551079750061,-0.1063506156206131,-0.08309831470251083,-0.3226361870765686
14.386445999145508,0.255424827337265,-1.046769618988037,0.7277741432189941,-0.10576028376817703,-0.08172177523374557,-0.323860228061676
14.40654468536377,0.2580435872077942,-1.0466402769088745,0.7258090376853943,-0.10584487020969391,-0.08016935735940933,-0.3245404362678528
14.426605463027954,0.26734206080436707,-1.0466545820236206,0.7227927446365356,-0.10653935372829437,-0.07568514347076416,-0.3260701894760132
14.446964502334595,0.2740708589553833,-1.0468158721923828,0.7218073010444641,-0.1071661114692688,-0.07273264229297638,-0.3269224464893341
14.467050790786743,0.29003509879112244,-1.0471266508102417,0.7207680940628052,-0.1093672662973404,-0.06615816801786423,-0.3288988173007965
14.487110376358032,0.3083292543888092,-1.0473296642303467,0.7205181121826172,-0.11275915801525116,-0.058885544538497925,-0.3312145173549652
14.507242918014526,0.3177477717399597,-1.04731023311615,0.7205650210380554,-0.1147875115275383,-0.05510500818490982,-0.33249568939208984
14.527321338653564,0.3347793221473694,-1.046407699584961,0.720615804195404,-0.11883248388767242,-0.04836519807577133,-0.3353581130504608
14.547501564025879,0.34132498502731323,-1.045470118522644,0.7206735014915466,-0.12066511064767838,-0.04574540629982948,-0.33695316314697266
14.567583560943604,0.3483024835586548,-1.0426112413406372,0.7200766801834106,-0.12407446652650833,-0.04258434846997261,-0.34042927622795105
