liuyurong129/humanoid-gym/humanoid/data/target_q_20250521-032801.csv
timestamp,joint_1,joint_2,joint_3,joint_4,joint_5,joint_6
0.00013828277587890625,0.0,0.0,0.0,0.0,0.0,0.0
0.020216703414916992,0.0,0.0,0.0,0.0,0.0,0.0
0.04033041000366211,0.0,0.0,0.0,0.0,0.0,0.0
0.06038379669189453,0.0,0.0,0.0,0.0,0.0,0.0
0.08046197891235352,0.0,0.0,0.0,0.0,0.0,0.0
0.10056281089782715,-0.3271552324295044,-1.838886022567749,0.37273576855659485,-0.3021240830421448,-0.04897744208574295,-0.12068291753530502
0.12137675285339355,-0.3449541926383972,-1.5611698627471924,0.4313683807849884,-0.4068520665168762,-0.03887978941202164,-0.1726057231426239
0.14146685600280762,-0.3449541926383972,-1.5611698627471924,0.4313683807849884,-0.4068520665168762,-0.03887978941202164,-0.1726057231426239
0.16152238845825195,-0.36341148614883423,-1.6471681594848633,0.484101802110672,-0.4134749174118042,-0.04951295256614685,-0.1714039444923401
0.18161487579345703,-0.36341148614883423,-1.6471681594848633,0.484101802110672,-0.4134749174118042,-0.04951295256614685,-0.1714039444923401
0.20168137550354004,-0.3660579323768616,-1.6354609727859497,0.5225948691368103,-0.4132046699523926,-0.05731010437011719,-0.17165681719779968
0.22179841995239258,-0.3660579323768616,-1.6354609727859497,0.5225948691368103,-0.4132046699523926,-0.05731010437011719,-0.17165681719779968
0.2418808937072754,-0.3469567894935608,-1.6334826946258545,0.5419301390647888,-0.41053491830825806,-0.0554129034280777,-0.16948959231376648
0.26192617416381836,-0.32757729291915894,-1.6361439228057861,0.5676853060722351,-0.4107170104980469,-0.055270060896873474,-0.16869816184043884
0.28201842308044434,-0.32757729291915894,-1.6361439228057861,0.5676853060722351,-0.4107170104980469,-0.055270060896873474,-0.16869816184043884
0.30207014083862305,-0.3046567440032959,-1.6402512788772583,0.6102972626686096,-0.40877431631088257,-0.05943752080202103,-0.1679801642894745
0.32218122482299805,-0.3046567440032959,-1.6402512788772583,0.6102972626686096,-0.40877431631088257,-0.05943752080202103,-0.1679801642894745
0.3422577381134033,-0.29277992248535156,-1.6401028633117676,0.642357587814331,-0.4044644236564636,-0.06163397431373596,-0.16601680219173431
0.3623385429382324,-0.29277992248535156,-1.6401028633117676,0.642357587814331,-0.4044644236564636,-0.06163397431373596,-0.16601680219173431
0.382415771484375,-0.281185120344162,-1.6312366724014282,0.6688289642333984,-0.403129518032074,-0.06154283881187439,-0.16545996069908142
0.4024684429168701,-0.26304882764816284,-1.6305183172225952,0.7052963376045227,-0.3984737992286682,-0.06429308652877808,-0.16348198056221008
0.4225749969482422,-0.26304882764816284,-1.6305183172225952,0.7052963376045227,-0.3984737992286682,-0.06429308652877808,-0.16348198056221008
0.4426307678222656,-0.2526276111602783,-1.6241545677185059,0.7424011826515198,-0.3933418393135071,-0.06833511590957642,-0.16133636236190796
0.4627187252044678,-0.2526276111602783,-1.6241545677185059,0.7424011826515198,-0.3933418393135071,-0.06833511590957642,-0.16133636236190796
0.48279261589050293,-0.24761392176151276,-1.618627667427063,0.7749312520027161,-0.3864697813987732,-0.07025431096553802,-0.158494234085083
0.5028622150421143,-0.24761392176151276,-1.618627667427063,0.7749312520027161,-0.3864697813987732,-0.07025431096553802,-0.158494234085083
0.5229442119598389,-0.22806359827518463,-1.6062910556793213,0.8131318688392639,-0.3816659450531006,-0.07205939292907715,-0.15838277339935303
0.5430257320404053,-0.208740234375,-1.5990663766860962,0.8548216819763184,-0.3714345097541809,-0.07434151321649551,-0.1561487317085266
0.5631160736083984,-0.208740234375,-1.5990663766860962,0.8548216819763184,-0.3714345097541809,-0.07434151321649551,-0.1561487317085266
0.5831754207611084,-0.18340414762496948,-1.5858283042907715,0.9012314081192017,-0.361413836479187,-0.07546050101518631,-0.1546534150838852
0.6032669544219971,-0.18340414762496948,-1.5858283042907715,0.9012314081192017,-0.361413836479187,-0.07546050101518631,-0.1546534150838852
0.6233434677124023,-0.16892096400260925,-1.5716687440872192,0.9462084174156189,-0.35328781604766846,-0.07789167761802673,-0.15344001352787018
0.6433959007263184,-0.16892096400260925,-1.5716687440872192,0.9462084174156189,-0.35328781604766846,-0.07789167761802673,-0.15344001352787018
0.6634743213653564,-0.14660269021987915,-1.5537370443344116,0.9991372227668762,-0.3370361924171448,-0.07760698348283768,-0.15180005133152008
0.6835072040557861,-0.1285504400730133,-1.5291519165039062,1.0523478984832764,-0.32337450981140137,-0.07807636260986328,-0.15082234144210815
0.7035975456237793,-0.1285504400730133,-1.5291519165039062,1.0523478984832764,-0.32337450981140137,-0.07807636260986328,-0.15082234144210815
0.7236471176147461,-0.1113407090306282,-1.499200463294983,1.1020238399505615,-0.3087679147720337,-0.07783515006303787,-0.14850544929504395
0.7437307834625244,-0.1113407090306282,-1.499200463294983,1.1020238399505615,-0.3087679147720337,-0.07783515006303787,-0.14850544929504395
0.7638041973114014,-0.1010376513004303,-1.456784725189209,1.1531589031219482,-0.29915136098861694,-0.07642947882413864,-0.1449286937713623
0.7838680744171143,-0.1010376513004303,-1.456784725189209,1.1531589031219482,-0.29915136098861694,-0.07642947882413864,-0.1449286937713623
0.8039488792419434,-0.09181765466928482,-1.4103304147720337,1.2011343240737915,-0.29124903678894043,-0.07436792552471161,-0.1412387490272522
0.8239970207214355,-0.10371201485395432,-1.3539340496063232,1.2441552877426147,-0.291681706905365,-0.07402197271585464,-0.1363004446029663
0.8440911769866943,-0.10371201485395432,-1.3539340496063232,1.2441552877426147,-0.291681706905365,-0.07402197271585464,-0.1363004446029663
0.8641402721405029,-0.11272037029266357,-1.29845130443573,1.2822515964508057,-0.3011431097984314,-0.07141969352960587,-0.13245132565498352
0.8842251300811768,-0.11272037029266357,-1.29845130443573,1.2822515964508057,-0.3011431097984314,-0.07141969352960587,-0.13245132565498352
0.9043552875518799,-0.12078077346086502,-1.2633782625198364,1.3123927116394043,-0.308250367641449,-0.07299719750881195,-0.12887515127658844
0.9244160652160645,-0.12078077346086502,-1.2633782625198364,1.3123927116394043,-0.308250367641449,-0.07299719750881195,-0.12887515127658844
0.9444828033447266,-0.11967562139034271,-1.2491308450698853,1.3309434652328491,-0.31602150201797485,-0.07126900553703308,-0.12712258100509644
0.9645333290100098,-0.12117516249418259,-1.248776912689209,1.3407553434371948,-0.3215411305427551,-0.0689762756228447,-0.12650683522224426
0.9846301078796387,-0.12117516249418259,-1.248776912689209,1.3407553434371948,-0.3215411305427551,-0.0689762756228447,-0.12650683522224426
1.0046827793121338,-0.11079229414463043,-1.2529776096343994,1.3436466455459595,-0.3256887197494507,-0.06388287246227264,-0.1267222762107849
1.0247726440429688,-0.11079229414463043,-1.2529776096343994,1.3436466455459595,-0.3256887197494507,-0.06388287246227264,-0.1267222762107849
1.044844627380371,-0.11201611906290054,-1.2618684768676758,1.3447941541671753,-0.3278704881668091,-0.06151510775089264,-0.12634119391441345
1.0649232864379883,-0.11201611906290054,-1.2618684768676758,1.3447941541671753,-0.3278704881668091,-0.06151510775089264,-0.12634119391441345
1.085031270980835,-0.10453984141349792,-1.2658157348632812,1.3423110246658325,-0.33131635189056396,-0.05739447474479675,-0.12780429422855377
1.1050682067871094,-0.10491055250167847,-1.2707476615905762,1.344422459602356,-0.33305686712265015,-0.05683809518814087,-0.1289098858833313
1.125166893005371,-0.10491055250167847,-1.2707476615905762,1.344422459602356,-0.33305686712265015,-0.05683809518814087,-0.1289098858833313
1.145226240158081,-0.09705345332622528,-1.2748769521713257,1.341779351234436,-0.3330099582672119,-0.05269130319356918,-0.12931613624095917
1.1653156280517578,-0.09705345332622528,-1.2748769521713257,1.341779351234436,-0.3330099582672119,-0.05269130319356918,-0.12931613624095917
1.1854019165039062,-0.09787845611572266,-1.2796118259429932,1.3410407304763794,-0.3353273272514343,-0.05132576823234558,-0.13082610070705414
1.2054665088653564,-0.09787845611572266,-1.2796118259429932,1.3410407304763794,-0.3353273272514343,-0.05132576823234558,-0.13082610070705414
1.2255654335021973,-0.09873877465724945,-1.282659649848938,1.3417612314224243,-0.3334415555000305,-0.050352469086647034,-0.13087430596351624
1.2456188201904297,-0.09711377322673798,-1.2842265367507935,1.3394250869750977,-0.33639127016067505,-0.046880997717380524,-0.132783904671669
1.2657089233398438,-0.09711377322673798,-1.2842265367507935,1.3394250869750977,-0.33639127016067505,-0.046880997717380524,-0.132783904671669
1.2857739925384521,-0.09379296004772186,-1.2888931035995483,1.3379615545272827,-0.3352978825569153,-0.044263504445552826,-0.13265718519687653
1.3058555126190186,-0.09379296004772186,-1.2888931035995483,1.3379615545272827,-0.3352978825569153,-0.044263504445552826,-0.13265718519687653
1.3259382247924805,-0.09157887101173401,-1.2905879020690918,1.3386813402175903,-0.3384416699409485,-0.0426405668258667,-0.1342102438211441
1.346006155014038,-0.09157887101173401,-1.2905879020690918,1.3386813402175903,-0.3384416699409485,-0.0426405668258667,-0.1342102438211441
1.3660855293273926,-0.08489252626895905,-1.2968862056732178,1.3366187810897827,-0.339907169342041,-0.03936263173818588,-0.13493724167346954
1.3861398696899414,-0.0848691388964653,-1.2984596490859985,1.3385846614837646,-0.3400833010673523,-0.03833368420600891,-0.13613754510879517
1.4062292575836182,-0.0848691388964653,-1.2984596490859985,1.3385846614837646,-0.3400833010673523,-0.03833368420600891,-0.13613754510879517
1.4262974262237549,-0.07295431196689606,-1.301072120666504,1.3379360437393188,-0.34286725521087646,-0.03332318365573883,-0.1378767490386963
1.446380853652954,-0.07295431196689606,-1.301072120666504,1.3379360437393188,-0.34286725521087646,-0.03332318365573883,-0.1378767490386963
1.466458797454834,-0.07518136501312256,-1.3055670261383057,1.3389843702316284,-0.34287816286087036,-0.03257274627685547,-0.1392631232738495
1.4865407943725586,-0.07518136501312256,-1.3055670261383057,1.3389843702316284,-0.34287816286087036,-0.03257274627685547,-0.1392631232738495
1.5066075325012207,-0.07550519704818726,-1.3096966743469238,1.3388786315917969,-0.34515172243118286,-0.02926354855298996,-0.140544131398201
1.526660442352295,-0.06280877441167831,-1.3101086616516113,1.3416945934295654,-0.34553349018096924,-0.02560415118932724,-0.1414240449666977
1.5467517375946045,-0.06280877441167831,-1.3101086616516113,1.3416945934295654,-0.34553349018096924,-0.02560415118932724,-0.1414240449666977
1.5668163299560547,-0.06659029424190521,-1.3132047653198242,1.339709758758545,-0.34623557329177856,-0.023628853261470795,-0.14342917501926422
1.5869040489196777,-0.06659029424190521,-1.3132047653198242,1.339709758758545,-0.34623557329177856,-0.023628853261470795,-0.14342917501926422
1.6069884300231934,-0.0701373964548111,-1.3162362575531006,1.339694857597351,-0.344555139541626,-0.02078632265329361,-0.1441647708415985
1.6270616054534912,-0.0701373964548111,-1.3162362575531006,1.339694857597351,-0.344555139541626,-0.02078632265329361,-0.1441647708415985
1.6471407413482666,-0.06848995387554169,-1.3175055980682373,1.342759132385254,-0.34786492586135864,-0.018253758549690247,-0.14558398723602295
1.6671948432922363,-0.06493368744850159,-1.318691372871399,1.3443433046340942,-0.3477640748023987,-0.015418276190757751,-0.14644233882427216
1.687291145324707,-0.06493368744850159,-1.318691372871399,1.3443433046340942,-0.3477640748023987,-0.015418276190757751,-0.14644233882427216
1.7073614597320557,-0.058949992060661316,-1.3234179019927979,1.3461464643478394,-0.3520064353942871,-0.011903874576091766,-0.14813022315502167
1.7274503707885742,-0.058949992060661316,-1.3234179019927979,1.3461464643478394,-0.3520064353942871,-0.011903874576091766,-0.14813022315502167
1.7475242614746094,-0.05366313457489014,-1.3309216499328613,1.345782995223999,-0.3545891046524048,-0.008504480123519897,-0.15021605789661407
1.767599105834961,-0.05366313457489014,-1.3309216499328613,1.345782995223999,-0.3545891046524048,-0.008504480123519897,-0.15021605789661407
1.7876918315887451,-0.0498460978269577,-1.3298674821853638,1.348238229751587,-0.3554588556289673,-0.007276035845279694,-0.15114736557006836
1.8077375888824463,-0.04812034219503403,-1.330305814743042,1.350594401359558,-0.3558422327041626,-0.005217254161834717,-0.15228140354156494
1.8278257846832275,-0.04812034219503403,-1.330305814743042,1.350594401359558,-0.3558422327041626,-0.005217254161834717,-0.15228140354156494
1.8478825092315674,-0.046071164309978485,-1.3347558975219727,1.3528691530227661,-0.35198962688446045,-0.0033677667379379272,-0.15313372015953064
1.8679754734039307,-0.046071164309978485,-1.3347558975219727,1.3528691530227661,-0.35198962688446045,-0.0033677667379379272,-0.15313372015953064
1.8880481719970703,-0.04346833378076553,-1.3360215425491333,1.3536490201950073,-0.35177063941955566,-0.000464119017124176,-0.15340232849121094
1.9081249237060547,-0.04346833378076553,-1.3360215425491333,1.3536490201950073,-0.35177063941955566,-0.000464119017124176,-0.15340232849121094
1.928206443786621,-0.04068604111671448,-1.3367853164672852,1.3548656702041626,-0.35409921407699585,0.0024803057312965393,-0.1549185812473297
1.9482591152191162,-0.0368814542889595,-1.338928461074829,1.3568874597549438,-0.3588678240776062,0.005012698471546173,-0.15630275011062622
1.9683558940887451,-0.0368814542889595,-1.338928461074829,1.3568874597549438,-0.3588678240776062,0.005012698471546173,-0.15630275011062622
1.9884541034698486,-0.029209308326244354,-1.3462728261947632,1.3521310091018677,-0.35934925079345703,0.011693522334098816,-0.15723970532417297
2.0085411071777344,-0.029209308326244354,-1.3462728261947632,1.3521310091018677,-0.35934925079345703,0.011693522334098816,-0.15723970532417297
2.0286173820495605,-0.0361536368727684,-1.346342921257019,1.3525294065475464,-0.3615038990974426,0.011626504361629486,-0.15748639404773712
2.0486907958984375,-0.0361536368727684,-1.346342921257019,1.3525294065475464,-0.3615038990974426,0.011626504361629486,-0.15748639404773712
2.0687718391418457,-0.03893246501684189,-1.3473355770111084,1.3538752794265747,-0.36268848180770874,0.012120600789785385,-0.15691721439361572
2.0888092517852783,-0.041534945368766785,-1.3492313623428345,1.3538057804107666,-0.3634546399116516,0.012517154216766357,-0.15655289590358734
2.1089022159576416,-0.041534945368766785,-1.3492313623428345,1.3538057804107666,-0.3634546399116516,0.012517154216766357,-0.15655289590358734
2.1289756298065186,-0.040106385946273804,-1.3503262996673584,1.354862093925476,-0.3652297258377075,0.013267669826745987,-0.1553509682416916
2.1490490436553955,-0.040106385946273804,-1.3503262996673584,1.354862093925476,-0.3652297258377075,0.013267669826745987,-0.1553509682416916
2.1691226959228516,-0.02853376418352127,-1.351381540298462,1.3536542654037476,-0.3666313886642456,0.01574723795056343,-0.15457868576049805
2.189302444458008,-0.02853376418352127,-1.351381540298462,1.3536542654037476,-0.3666313886642456,0.01574723795056343,-0.15457868576049805
2.2093935012817383,-0.023366644978523254,-1.3605574369430542,1.3453713655471802,-0.3694329857826233,0.017850417643785477,-0.1544012874364853
2.2294344902038574,-0.005238369107246399,-1.3621563911437988,1.3405554294586182,-0.3761138319969177,0.023427896201610565,-0.15399350225925446
2.2495241165161133,-0.005238369107246399,-1.3621563911437988,1.3405554294586182,-0.3761138319969177,0.023427896201610565,-0.15399350225925446
2.2695910930633545,-0.01014477014541626,-1.3612866401672363,1.3327981233596802,-0.380434513092041,0.02322359010577202,-0.15306530892848969
2.2896668910980225,-0.01014477014541626,-1.3612866401672363,1.3327981233596802,-0.380434513092041,0.02322359010577202,-0.15306530892848969
2.3097474575042725,-0.0068807899951934814,-1.3723376989364624,1.3239504098892212,-0.38131868839263916,0.028691932559013367,-0.15237762033939362
2.3297948837280273,-0.0068807899951934814,-1.3723376989364624,1.3239504098892212,-0.38131868839263916,0.028691932559013367,-0.15237762033939362
2.3498871326446533,-0.021350912749767303,-1.3713130950927734,1.3152018785476685,-0.3801254630088806,0.026115238666534424,-0.14895235002040863
2.369941234588623,-0.0280410498380661,-1.3811544179916382,1.2980730533599854,-0.37921732664108276,0.026043884456157684,-0.1425590068101883
2.3900370597839355,-0.0280410498380661,-1.3811544179916382,1.2980730533599854,-0.37921732664108276,0.026043884456157684,-0.1425590068101883
2.410109519958496,-0.03737048804759979,-1.3858227729797363,1.2830179929733276,-0.38218599557876587,0.02320915460586548,-0.135156512260437
2.4301955699920654,-0.03737048804759979,-1.3858227729797363,1.2830179929733276,-0.38218599557876587,0.02320915460586548,-0.135156512260437
2.450273275375366,-0.053403668105602264,-1.3991268873214722,1.2578428983688354,-0.38258373737335205,0.01941189169883728,-0.1227203831076622
2.4712159633636475,-0.07276567071676254,-1.4181112051010132,1.2541708946228027,-0.39355480670928955,0.013953328132629395,-0.10862506181001663
2.4913454055786133,-0.07276567071676254,-1.4181112051010132,1.2541708946228027,-0.39355480670928955,0.013953328132629395,-0.10862506181001663
2.5351548194885254,-0.04207191616296768,-1.4059618711471558,1.285278558731079,-0.4039299488067627,0.006132371723651886,-0.09568783640861511
2.555238962173462,-0.04207191616296768,-1.4059618711471558,1.285278558731079,-0.4039299488067627,0.006132371723651886,-0.09568783640861511
2.5752904415130615,-0.04010307043790817,-1.400678277015686,1.3190332651138306,-0.41774260997772217,0.009944580495357513,-0.08469635993242264
2.595386266708374,-0.04010307043790817,-1.400678277015686,1.3190332651138306,-0.41774260997772217,0.009944580495357513,-0.08469635993242264
2.6154558658599854,-0.08691665530204773,-1.4178428649902344,1.275927186012268,-0.4067005515098572,0.025201234966516495,-0.08268124610185623
2.6355338096618652,-0.08691665530204773,-1.4178428649902344,1.275927186012268,-0.4067005515098572,0.025201234966516495,-0.08268124610185623
2.6556177139282227,-0.06360571831464767,-1.429609775543213,1.2819690704345703,-0.4130275845527649,0.0355750173330307,-0.07760942727327347
2.6758298873901367,-0.07699083536863327,-1.4318300485610962,1.2911373376846313,-0.42206519842147827,0.028146103024482727,-0.07168744504451752
2.695930242538452,-0.07699083536863327,-1.4318300485610962,1.2911373376846313,-0.42206519842147827,0.028146103024482727,-0.07168744504451752
2.7159810066223145,-0.07462657988071442,-1.400018334388733,1.3190490007400513,-0.42551058530807495,0.019712679088115692,-0.061340540647506714
2.736079454421997,-0.07462657988071442,-1.400018334388733,1.3190490007400513,-0.42551058530807495,0.019712679088115692,-0.061340540647506714
2.7561328411102295,-0.08480820804834366,-1.415562391281128,1.3069535493850708,-0.42181605100631714,0.024899892508983612,-0.054839104413986206
2.7762210369110107,-0.08480820804834366,-1.415562391281128,1.3069535493850708,-0.42181605100631714,0.024899892508983612,-0.054839104413986206
2.796297550201416,-0.057603366672992706,-1.4435663223266602,1.286218523979187,-0.43856608867645264,0.04665680229663849,-0.054282039403915405
2.8169479370117188,-0.06794273108243942,-1.4475417137145996,1.292962908744812,-0.44159990549087524,0.04078007489442825,-0.053576141595840454
2.837043285369873,-0.06794273108243942,-1.4475417137145996,1.292962908744812,-0.44159990549087524,0.04078007489442825,-0.053576141595840454
2.8571014404296875,-0.07275015115737915,-1.4194358587265015,1.3099579811096191,-0.4434804916381836,0.03059612214565277,-0.04576560854911804
2.877192974090576,-0.07275015115737915,-1.4194358587265015,1.3099579811096191,-0.4434804916381836,0.03059612214565277,-0.04576560854911804
2.8972668647766113,-0.08472935855388641,-1.3939623832702637,1.328011393547058,-0.4439142942428589,0.01958785206079483,-0.03554286062717438
2.9173755645751953,-0.08472935855388641,-1.3939623832702637,1.328011393547058,-0.4439142942428589,0.01958785206079483,-0.03554286062717438
2.937443256378174,-0.10245978087186813,-1.419071912765503,1.3067015409469604,-0.42528921365737915,0.02430763840675354,-0.02847971022129059
2.9574897289276123,-0.06376902759075165,-1.4633610248565674,1.2734662294387817,-0.45014429092407227,0.05417183041572571,-0.02978343516588211
2.977581262588501,-0.06376902759075165,-1.4633610248565674,1.2734662294387817,-0.45014429092407227,0.05417183041572571,-0.02978343516588211
2.9976370334625244,-0.06662247329950333,-1.4536277055740356,1.3000593185424805,-0.4692308306694031,0.03995009511709213,-0.03039287030696869
3.017728328704834,-0.06662247329950333,-1.4536277055740356,1.3000593185424805,-0.4692308306694031,0.03995009511709213,-0.03039287030696869
3.037813901901245,-0.056436195969581604,-1.4284285306930542,1.3058834075927734,-0.46709883213043213,0.03750576823949814,-0.027439981698989868
3.0578887462615967,-0.056436195969581604,-1.4284285306930542,1.3058834075927734,-0.46709883213043213,0.03750576823949814,-0.027439981698989868
3.0779664516448975,-0.08538106828927994,-1.3928554058074951,1.3326749801635742,-0.45459336042404175,0.016787372529506683,-0.01804644614458084
3.098015308380127,-0.1147426888346672,-1.382361888885498,1.3153728246688843,-0.42895251512527466,0.011388309299945831,-0.006176315248012543
3.1181085109710693,-0.1147426888346672,-1.382361888885498,1.3153728246688843,-0.42895251512527466,0.011388309299945831,-0.006176315248012543
3.138162612915039,-0.07147593796253204,-1.4568201303482056,1.2673406600952148,-0.45082980394363403,0.05375199019908905,-0.008920282125473022
3.158257246017456,-0.07147593796253204,-1.4568201303482056,1.2673406600952148,-0.45082980394363403,0.05375199019908905,-0.008920282125473022
3.1783175468444824,-0.07983845472335815,-1.4819567203521729,1.2736233472824097,-0.4690043330192566,0.04688091576099396,-0.01174214482307434
3.198408365249634,-0.07983845472335815,-1.4819567203521729,1.2736233472824097,-0.4690043330192566,0.04688091576099396,-0.01174214482307434
3.2184972763061523,-0.05691797286272049,-1.404725432395935,1.3348238468170166,-0.48283565044403076,0.024026870727539062,-0.006962157785892487
3.238556146621704,-0.07068867981433868,-1.4432973861694336,1.2893260717391968,-0.4652212858200073,0.03803452104330063,-0.009523957967758179
3.258646011352539,-0.07068867981433868,-1.4432973861694336,1.2893260717391968,-0.4652212858200073,0.03803452104330063,-0.009523957967758179
3.278701066970825,-0.10282790660858154,-1.3581547737121582,1.3472503423690796,-0.45686864852905273,0.0032630935311317444,0.004390552639961243
3.2988009452819824,-0.10282790660858154,-1.3581547737121582,1.3472503423690796,-0.45686864852905273,0.0032630935311317444,0.004390552639961243
3.3188772201538086,-0.09448660910129547,-1.4008418321609497,1.3261168003082275,-0.45510977506637573,0.021519023925065994,0.010063610970973969
3.3389556407928467,-0.09448660910129547,-1.4008418321609497,1.3261168003082275,-0.45510977506637573,0.021519023925065994,0.010063610970973969
3.3590338230133057,-0.08274964243173599,-1.4845961332321167,1.2455025911331177,-0.45684683322906494,0.05676499754190445,0.0016554445028305054
3.3790836334228516,-0.06644116342067719,-1.446305751800537,1.2925945520401,-0.4844663739204407,0.038481324911117554,0.003211773931980133
3.3991734981536865,-0.06644116342067719,-1.446305751800537,1.2925945520401,-0.4844663739204407,0.038481324911117554,0.003211773931980133
3.4192495346069336,-0.06812649965286255,-1.43900728225708,1.298845648765564,-0.4797624945640564,0.03315900266170502,0.0031304731965065002
3.439337730407715,-0.06812649965286255,-1.43900728225708,1.298845648765564,-0.4797624945640564,0.03315900266170502,0.0031304731965065002
3.4593863487243652,-0.0581880584359169,-1.4063704013824463,1.3219000101089478,-0.4764252305030823,0.02426236867904663,0.007411934435367584
3.4794607162475586,-0.0581880584359169,-1.4063704013824463,1.3219000101089478,-0.4764252305030823,0.02426236867904663,0.007411934435367584
3.499574661254883,-0.12073232978582382,-1.3647630214691162,1.3339985609054565,-0.44863563776016235,0.001803230494260788,0.01871003955602646
3.519625186920166,-0.09483520686626434,-1.4073952436447144,1.3045095205307007,-0.468126118183136,0.030406855046749115,0.02124076336622238
3.539714813232422,-0.09483520686626434,-1.4073952436447144,1.3045095205307007,-0.468126118183136,0.030406855046749115,0.02124076336622238
3.5597991943359375,-0.08371630311012268,-1.5165477991104126,1.226988434791565,-0.46968603134155273,0.0612577348947525,0.009532392024993896
3.5798914432525635,-0.08371630311012268,-1.5165477991104126,1.226988434791565,-0.46968603134155273,0.0612577348947525,0.009532392024993896
3.599975824356079,-0.06737660616636276,-1.5003479719161987,1.235280156135559,-0.48940831422805786,0.05694573372602463,0.007862009108066559
3.620053768157959,-0.06737660616636276,-1.5003479719161987,1.235280156135559,-0.48940831422805786,0.05694573372602463,0.007862009108066559
3.6401402950286865,-0.06227106228470802,-1.4439418315887451,1.293263554573059,-0.49490392208099365,0.029198408126831055,0.013152539730072021
3.660187005996704,-0.06742614507675171,-1.3973174095153809,1.3185818195343018,-0.4860842823982239,0.015392959117889404,0.018837936222553253
3.680276870727539,-0.06742614507675171,-1.3973174095153809,1.3185818195343018,-0.4860842823982239,0.015392959117889404,0.018837936222553253
3.70035982131958,-0.10811996459960938,-1.3680505752563477,1.3281538486480713,-0.46340686082839966,0.0012396089732646942,0.02735339105129242
3.720458507537842,-0.10811996459960938,-1.3680505752563477,1.3281538486480713,-0.46340686082839966,0.0012396089732646942,0.02735339105129242
3.7405333518981934,-0.0823361724615097,-1.4012372493743896,1.3052045106887817,-0.4707455635070801,0.026796646416187286,0.03061145544052124
3.7606141567230225,-0.0823361724615097,-1.4012372493743896,1.3052045106887817,-0.4707455635070801,0.026796646416187286,0.03061145544052124
3.780733823776245,-0.07643327116966248,-1.5487935543060303,1.1920057535171509,-0.4736045002937317,0.07190223038196564,0.011479131877422333
3.8007683753967285,-0.06502163410186768,-1.5346735715866089,1.1851269006729126,-0.48954349756240845,0.07052841782569885,0.008324705064296722
3.820875644683838,-0.06502163410186768,-1.5346735715866089,1.1851269006729126,-0.48954349756240845,0.07052841782569885,0.008324705064296722
3.8409271240234375,-0.05351816117763519,-1.5129570960998535,1.2246086597442627,-0.5011863112449646,0.049901776015758514,0.009387552738189697
3.8610126972198486,-0.05351816117763519,-1.5129570960998535,1.2246086597442627,-0.5011863112449646,0.049901776015758514,0.009387552738189697
3.8810927867889404,-0.034180402755737305,-1.4682037830352783,1.27908456325531,-0.5044881105422974,0.026845291256904602,0.013613402843475342
3.901169538497925,-0.034180402755737305,-1.4682037830352783,1.27908456325531,-0.5044881105422974,0.026845291256904602,0.013613402843475342
3.921285629272461,-0.08592402189970016,-1.3694310188293457,1.3351651430130005,-0.49059534072875977,-0.01047922670841217,0.022581584751605988
3.94132924079895,-0.062130484730005264,-1.399010181427002,1.30046546459198,-0.4781297445297241,0.015616640448570251,0.02608511596918106
3.961406946182251,-0.062130484730005264,-1.399010181427002,1.30046546459198,-0.4781297445297241,0.015616640448570251,0.02608511596918106
3.9814701080322266,-0.08218619227409363,-1.423643708229065,1.2895680665969849,-0.48040252923965454,0.02096915990114212,0.027752988040447235
4.001556396484375,-0.08218619227409363,-1.423643708229065,1.2895680665969849,-0.48040252923965454,0.02096915990114212,0.027752988040447235
4.021639347076416,-0.07336975634098053,-1.5083816051483154,1.2065593004226685,-0.48001784086227417,0.05177578330039978,0.017648085951805115
4.041705131530762,-0.07336975634098053,-1.5083816051483154,1.2065593004226685,-0.48001784086227417,0.05177578330039978,0.017648085951805115
4.061783075332642,-0.051655106246471405,-1.5043669939041138,1.2115851640701294,-0.49992138147354126,0.04936070740222931,0.01378137618303299
4.081827402114868,-0.0437571257352829,-1.4676434993743896,1.2562919855117798,-0.5070281028747559,0.02638372778892517,0.016049794852733612
4.101921558380127,-0.0437571257352829,-1.4676434993743896,1.2562919855117798,-0.5070281028747559,0.02638372778892517,0.016049794852733612
4.122020721435547,-0.05961732938885689,-1.3921748399734497,1.3173304796218872,-0.49833452701568604,-0.005065219476819038,0.02245592325925827
4.142111778259277,-0.05961732938885689,-1.3921748399734497,1.3173304796218872,-0.49833452701568604,-0.005065219476819038,0.02245592325925827
4.162198543548584,-0.08324982225894928,-1.372490644454956,1.3052045106887817,-0.47901564836502075,-0.0049513112753629684,0.028409764170646667
4.182278633117676,-0.08324982225894928,-1.372490644454956,1.3052045106887817,-0.47901564836502075,-0.0049513112753629684,0.028409764170646667
4.202478885650635,-0.08590525388717651,-1.3895248174667358,1.2964937686920166,-0.47350025177001953,0.007574789226055145,0.03320907801389694
4.222449064254761,-0.06468305736780167,-1.5258243083953857,1.1882755756378174,-0.4740840792655945,0.06105537712574005,0.015623927116394043
4.242537975311279,-0.06468305736780167,-1.5258243083953857,1.1882755756378174,-0.4740840792655945,0.06105537712574005,0.015623927116394043
4.262616157531738,-0.051181524991989136,-1.530089020729065,1.1736347675323486,-0.4921872019767761,0.06491140276193619,0.010815933346748352
4.282692193984985,-0.051181524991989136,-1.530089020729065,1.1736347675323486,-0.4921872019767761,0.06491140276193619,0.010815933346748352
4.3027684688568115,-0.035011157393455505,-1.5193825960159302,1.1887810230255127,-0.5042328238487244,0.057849228382110596,0.00979643315076828
4.322842597961426,-0.035011157393455505,-1.5193825960159302,1.1887810230255127,-0.5042328238487244,0.057849228382110596,0.00979643315076828
4.342918872833252,-0.03398518264293671,-1.4810973405838013,1.2274032831192017,-0.5026463866233826,0.03630216419696808,0.013955920934677124
4.362972021102905,-0.054209478199481964,-1.4065779447555542,1.30032217502594,-0.49732524156570435,-0.002590388059616089,0.02279503643512726
4.383056640625,-0.054209478199481964,-1.4065779447555542,1.30032217502594,-0.49732524156570435,-0.002590388059616089,0.02279503643512726
4.4031853675842285,-0.098537877202034,-1.3683128356933594,1.297150731086731,-0.47617441415786743,-0.007885601371526718,0.032756827771663666
4.423228025436401,-0.098537877202034,-1.3683128356933594,1.297150731086731,-0.47617441415786743,-0.007885601371526718,0.032756827771663666
4.443367004394531,-0.08829953521490097,-1.4325857162475586,1.2575300931930542,-0.4656486511230469,0.019994132220745087,0.034723274409770966
4.463857650756836,-0.08829953521490097,-1.4325857162475586,1.2575300931930542,-0.4656486511230469,0.019994132220745087,0.034723274409770966
4.483951568603516,-0.04832296073436737,-1.4777464866638184,1.2446403503417969,-0.4960101246833801,0.03961934894323349,0.026633940637111664
4.50400185585022,-0.04310889542102814,-1.4303548336029053,1.2837960720062256,-0.506706714630127,0.01918446272611618,0.02617209404706955
4.524097919464111,-0.04310889542102814,-1.4303548336029053,1.2837960720062256,-0.506706714630127,0.01918446272611618,0.02617209404706955
4.544178247451782,-0.04765870422124863,-1.4132025241851807,1.2965260744094849,-0.5053037405014038,0.013440053910017014,0.025990046560764313
4.564258337020874,-0.04765870422124863,-1.4132025241851807,1.2965260744094849,-0.5053037405014038,0.013440053910017014,0.025990046560764313
4.584341526031494,-0.1011444553732872,-1.3587396144866943,1.3116310834884644,-0.47992801666259766,-0.011803697794675827,0.03620731085538864
4.604719638824463,-0.07404160499572754,-1.4012528657913208,1.2916287183761597,-0.4649125933647156,0.008315987884998322,0.04069779813289642
4.624809741973877,-0.07404160499572754,-1.4012528657913208,1.2916287183761597,-0.4649125933647156,0.008315987884998322,0.04069779813289642
4.644861698150635,-0.07710785418748856,-1.5121182203292847,1.2102607488632202,-0.48156750202178955,0.0487864688038826,0.02595508098602295
4.664957761764526,-0.07710785418748856,-1.5121182203292847,1.2102607488632202,-0.48156750202178955,0.0487864688038826,0.02595508098602295
4.685016870498657,-0.06751825660467148,-1.4991291761398315,1.213165044784546,-0.4980565309524536,0.044358715415000916,0.02414441853761673
4.705097198486328,-0.06751825660467148,-1.4991291761398315,1.213165044784546,-0.4980565309524536,0.044358715415000916,0.02414441853761673
4.725201368331909,-0.0431002676486969,-1.4796884059906006,1.2413934469223022,-0.5100258588790894,0.03397596627473831,0.02306428551673889
4.745396852493286,-0.028919421136379242,-1.4133549928665161,1.3098737001419067,-0.5126073360443115,0.00518789142370224,0.02776361256837845
4.76548171043396,-0.028919421136379242,-1.4133549928665161,1.3098737001419067,-0.5126073360443115,0.00518789142370224,0.02776361256837845
4.785537004470825,-0.08794112503528595,-1.379103183746338,1.3068970441818237,-0.48620086908340454,-0.010158458724617958,0.034485749900341034
4.805631399154663,-0.08794112503528595,-1.379103183746338,1.3068970441818237,-0.48620086908340454,-0.010158458724617958,0.034485749900341034
4.825719118118286,-0.09655812382698059,-1.3343379497528076,1.3234844207763672,-0.4716026782989502,-0.016011197119951248,0.04523056000471115
4.845795631408691,-0.09655812382698059,-1.3343379497528076,1.3234844207763672,-0.4716026782989502,-0.016011197119951248,0.04523056000471115
4.8658740520477295,-0.07266709208488464,-1.4652531147003174,1.2455099821090698,-0.4788503050804138,0.033292755484580994,0.03490360081195831
4.88593316078186,-0.07164467126131058,-1.447824239730835,1.2807708978652954,-0.497658908367157,0.015977613627910614,0.03617395460605621
4.9060304164886475,-0.07164467126131058,-1.447824239730835,1.2807708978652954,-0.497658908367157,0.015977613627910614,0.03617395460605621
4.926087379455566,-0.046062126755714417,-1.4353041648864746,1.2761982679367065,-0.5037828087806702,0.023990251123905182,0.03243193030357361
4.946183919906616,-0.046062126755714417,-1.4353041648864746,1.2761982679367065,-0.5037828087806702,0.023990251123905182,0.03243193030357361
4.966246128082275,-0.0734211876988411,-1.3851159811019897,1.318503499031067,-0.49666810035705566,-0.004645565524697304,0.03728751838207245
4.986316680908203,-0.0734211876988411,-1.3851159811019897,1.318503499031067,-0.49666810035705566,-0.004645565524697304,0.03728751838207245
5.0064568519592285,-0.09150919318199158,-1.3740010261535645,1.3095383644104004,-0.4765033721923828,-0.0037584472447633743,0.04356830567121506
5.026505947113037,-0.08964785188436508,-1.369823694229126,1.312393069267273,-0.47570568323135376,0.004990909248590469,0.04893261939287186
5.046618461608887,-0.08964785188436508,-1.369823694229126,1.312393069267273,-0.47570568323135376,0.004990909248590469,0.04893261939287186
5.066674470901489,-0.07712210714817047,-1.5206546783447266,1.1824091672897339,-0.46888232231140137,0.06350420415401459,0.02978699654340744
5.086795330047607,-0.07712210714817047,-1.5206546783447266,1.1824091672897339,-0.46888232231140137,0.06350420415401459,0.02978699654340744
5.106878757476807,-0.07546118646860123,-1.5222852230072021,1.161019206047058,-0.4844467043876648,0.068926602602005,0.02520660310983658
5.126954555511475,-0.07546118646860123,-1.5222852230072021,1.161019206047058,-0.4844467043876648,0.068926602602005,0.02520660310983658
5.147039890289307,-0.056689321994781494,-1.5142563581466675,1.1861652135849,-0.5027063488960266,0.060219161212444305,0.02341848611831665
5.167096138000488,-0.038589924573898315,-1.4817500114440918,1.2336853742599487,-0.5050891041755676,0.04007063806056976,0.02732004225254059
5.187189817428589,-0.038589924573898315,-1.4817500114440918,1.2336853742599487,-0.5050891041755676,0.04007063806056976,0.02732004225254059
5.207249402999878,-0.06510630995035172,-1.4003111124038696,1.3189009428024292,-0.4965267777442932,-0.0044433921575546265,0.03609847277402878
5.227348804473877,-0.06510630995035172,-1.4003111124038696,1.3189009428024292,-0.4965267777442932,-0.0044433921575546265,0.03609847277402878
5.247390985488892,-0.10957027971744537,-1.3778355121612549,1.3017100095748901,-0.47656506299972534,-0.0012483075261116028,0.0448954775929451
5.267465114593506,-0.10957027971744537,-1.3778355121612549,1.3017100095748901,-0.47656506299972534,-0.0012483075261116028,0.0448954775929451
5.287543773651123,-0.08408461511135101,-1.432535171508789,1.270342230796814,-0.4852004647254944,0.027452852576971054,0.0435662716627121
5.307596683502197,-0.06331056356430054,-1.4880032539367676,1.2403113842010498,-0.49672502279281616,0.04471380263566971,0.03448256850242615
5.327701807022095,-0.06331056356430054,-1.4880032539367676,1.2403113842010498,-0.49672502279281616,0.04471380263566971,0.03448256850242615
5.347756624221802,-0.04884795844554901,-1.4431443214416504,1.2783626317977905,-0.5105305910110474,0.02824239432811737,0.032377131283283234
5.367850065231323,-0.04884795844554901,-1.4431443214416504,1.2783626317977905,-0.5105305910110474,0.02824239432811737,0.032377131283283234
5.387925386428833,-0.05551426112651825,-1.4092800617218018,1.3079639673233032,-0.5078737139701843,0.013110771775245667,0.033761776983737946
5.40799880027771,-0.05551426112651825,-1.4092800617218018,1.3079639673233032,-0.5078737139701843,0.013110771775245667,0.033761776983737946
5.428081274032593,-0.0776546448469162,-1.3851792812347412,1.3172434568405151,-0.49276435375213623,0.0003416500985622406,0.039040662348270416
5.448135852813721,-0.0929022803902626,-1.3916900157928467,1.3068912029266357,-0.4653317928314209,0.0024146847426891327,0.04715108871459961
5.4682395458221436,-0.0929022803902626,-1.3916900157928467,1.3068912029266357,-0.4653317928314209,0.0024146847426891327,0.04715108871459961
5.488290548324585,-0.0683436319231987,-1.4925352334976196,1.220666766166687,-0.4807182550430298,0.05098085105419159,0.0340549573302269
5.50839900970459,-0.0683436319231987,-1.4925352334976196,1.220666766166687,-0.4807182550430298,0.05098085105419159,0.0340549573302269
5.528479814529419,-0.06396006047725677,-1.4834260940551758,1.2319890260696411,-0.49806565046310425,0.041040316224098206,0.03317156434059143
5.548556804656982,-0.06396006047725677,-1.4834260940551758,1.2319890260696411,-0.49806565046310425,0.041040316224098206,0.03317156434059143
5.5686562061309814,-0.047943033277988434,-1.4444456100463867,1.2714906930923462,-0.5113030672073364,0.024041607975959778,0.03297550231218338
5.588711977005005,-0.05813334137201309,-1.3976579904556274,1.3088866472244263,-0.5014948844909668,0.0021440833806991577,0.03700902312994003
5.60880970954895,-0.05813334137201309,-1.3976579904556274,1.3088866472244263,-0.5014948844909668,0.0021440833806991577,0.03700902312994003
5.628867864608765,-0.10347557067871094,-1.3564825057983398,1.317395806312561,-0.4787791967391968,-0.01310981810092926,0.04546353220939636
5.648956060409546,-0.10347557067871094,-1.3564825057983398,1.317395806312561,-0.4787791967391968,-0.01310981810092926,0.04546353220939636
5.669036149978638,-0.08628970384597778,-1.3550500869750977,1.3211640119552612,-0.47072964906692505,-0.004236597567796707,0.05363284796476364
5.6891114711761475,-0.08628970384597778,-1.3550500869750977,1.3211640119552612,-0.47072964906692505,-0.004236597567796707,0.05363284796476364
5.709187984466553,-0.0715867355465889,-1.4763299226760864,1.2297881841659546,-0.47397786378860474,0.04590000957250595,0.03891667723655701
5.729239463806152,-0.08039113879203796,-1.4695918560028076,1.253383994102478,-0.49163007736206055,0.02925167977809906,0.03829085826873779
5.749330759048462,-0.08039113879203796,-1.4695918560028076,1.253383994102478,-0.49163007736206055,0.02925167977809906,0.03829085826873779
5.76938271522522,-0.0542663037776947,-1.4190449714660645,1.2958738803863525,-0.5085829496383667,0.018742188811302185,0.03695235401391983
5.789478540420532,-0.0542663037776947,-1.4190449714660645,1.2958738803863525,-0.5085829496383667,0.018742188811302185,0.03695235401391983
5.809593200683594,-0.08195334672927856,-1.3890522718429565,1.307697057723999,-0.4859738349914551,0.0027665942907333374,0.04029382765293121
5.829646587371826,-0.08195334672927856,-1.3890522718429565,1.307697057723999,-0.4859738349914551,0.0027665942907333374,0.04029382765293121
5.84972357749939,-0.10273312777280807,-1.3595595359802246,1.3202310800552368,-0.474431574344635,-0.0032551921904087067,0.04758625477552414
5.869779109954834,-0.09604789316654205,-1.3639172315597534,1.32099449634552,-0.4802345633506775,0.008996844291687012,0.052488163113594055
5.8898725509643555,-0.09604789316654205,-1.3639172315597534,1.32099449634552,-0.4802345633506775,0.008996844291687012,0.052488163113594055
5.909943342208862,-0.08440154790878296,-1.5127503871917725,1.1974753141403198,-0.47132110595703125,0.06403283774852753,0.0354309007525444
5.930033206939697,-0.08440154790878296,-1.5127503871917725,1.1974753141403198,-0.47132110595703125,0.06403283774852753,0.0354309007525444
5.950125217437744,-0.0700109452009201,-1.5136594772338867,1.1831742525100708,-0.4926326274871826,0.06945245712995529,0.030243419110774994
5.970196962356567,-0.0700109452009201,-1.5136594772338867,1.1831742525100708,-0.4926326274871826,0.06945245712995529,0.030243419110774994
5.990294933319092,-0.05894221365451813,-1.5029360055923462,1.2125800848007202,-0.5061955451965332,0.056482866406440735,0.027416102588176727
6.010324001312256,-0.049424052238464355,-1.4567248821258545,1.2621320486068726,-0.5020660758018494,0.033546969294548035,0.032163843512535095
6.030415773391724,-0.049424052238464355,-1.4567248821258545,1.2621320486068726,-0.5020660758018494,0.033546969294548035,0.032163843512535095
6.050471544265747,-0.10297232866287231,-1.3745300769805908,1.3367319107055664,-0.4936563968658447,-0.007709382101893425,0.04074905812740326
6.070562362670898,-0.10297232866287231,-1.3745300769805908,1.3367319107055664,-0.4936563968658447,-0.007709382101893425,0.04074905812740326
6.09066104888916,-0.07242991030216217,-1.391145944595337,1.3200316429138184,-0.4847767949104309,0.014540914446115494,0.04572306573390961
6.110714912414551,-0.07242991030216217,-1.391145944595337,1.3200316429138184,-0.4847767949104309,0.014540914446115494,0.04572306573390961
6.130836248397827,-0.11445343494415283,-1.3633179664611816,1.3374745845794678,-0.48823684453964233,0.0038172490894794464,0.052070558071136475
6.150863409042358,-0.07546339184045792,-1.5248738527297974,1.197135090827942,-0.48197025060653687,0.06793386489152908,0.03165449947118759
6.170960187911987,-0.07546339184045792,-1.5248738527297974,1.197135090827942,-0.48197025060653687,0.06793386489152908,0.03165449947118759
6.19102668762207,-0.06827178597450256,-1.531150221824646,1.1618362665176392,-0.4921923875808716,0.07567121088504791,0.023719854652881622
6.211108446121216,-0.06827178597450256,-1.531150221824646,1.1618362665176392,-0.4921923875808716,0.07567121088504791,0.023719854652881622
6.231184005737305,-0.04228819161653519,-1.5229146480560303,1.1902753114700317,-0.5135802626609802,0.06506101787090302,0.018440864980220795
6.251269817352295,-0.04228819161653519,-1.5229146480560303,1.1902753114700317,-0.5135802626609802,0.06506101787090302,0.018440864980220795
6.271365165710449,-0.04529671370983124,-1.4862756729125977,1.2338756322860718,-0.5074244141578674,0.038406774401664734,0.023647725582122803
6.2913572788238525,-0.06688098609447479,-1.4126397371292114,1.3095147609710693,-0.501093864440918,-0.0021403469145298004,0.03192310780286789
6.311446189880371,-0.06688098609447479,-1.4126397371292114,1.3095147609710693,-0.501093864440918,-0.0021403469145298004,0.03192310780286789
6.331516981124878,-0.10892870277166367,-1.3633413314819336,1.3053385019302368,-0.4801556468009949,-0.00753389298915863,0.04290080815553665
6.351597785949707,-0.10892870277166367,-1.3633413314819336,1.3053385019302368,-0.4801556468009949,-0.00753389298915863,0.04290080815553665
6.3716721534729,-0.08288775384426117,-1.4215329885482788,1.2786937952041626,-0.4837338328361511,0.020042642951011658,0.04364870488643646
6.391741514205933,-0.08288775384426117,-1.4215329885482788,1.2786937952041626,-0.4837338328361511,0.020042642951011658,0.04364870488643646
6.411809682846069,-0.05550507456064224,-1.5031709671020508,1.2292968034744263,-0.49507373571395874,0.049040257930755615,0.030897371470928192
6.431853294372559,-0.038405515253543854,-1.4738168716430664,1.2525099515914917,-0.5122258067131042,0.0388798862695694,0.027345366775989532
6.451944828033447,-0.038405515253543854,-1.4738168716430664,1.2525099515914917,-0.5122258067131042,0.0388798862695694,0.027345366775989532
6.472005367279053,-0.029806524515151978,-1.4304465055465698,1.2941139936447144,-0.516087532043457,0.020609892904758453,0.027281858026981354
6.492079496383667,-0.029806524515151978,-1.4304465055465698,1.2941139936447144,-0.516087532043457,0.020609892904758453,0.027281858026981354
6.512154579162598,-0.08085522055625916,-1.3960957527160645,1.3010791540145874,-0.4983656406402588,0.0008913017809391022,0.0321694016456604
6.532224893569946,-0.08085522055625916,-1.3960957527160645,1.3010791540145874,-0.4983656406402588,0.0008913017809391022,0.0321694016456604
6.552334308624268,-0.1032528281211853,-1.3633610010147095,1.2986153364181519,-0.46713340282440186,-0.007543357089161873,0.043611690402030945
6.5723559856414795,-0.09577520191669464,-1.4148728847503662,1.2775050401687622,-0.47785329818725586,0.016781501471996307,0.045261695981025696
6.592442750930786,-0.09577520191669464,-1.4148728847503662,1.2775050401687622,-0.47785329818725586,0.016781501471996307,0.045261695981025696
6.6124982833862305,-0.04681628197431564,-1.5053627490997314,1.2205476760864258,-0.49167001247406006,0.053189218044281006,0.031086184084415436
6.632577419281006,-0.04681628197431564,-1.5053627490997314,1.2205476760864258,-0.49167001247406006,0.053189218044281006,0.031086184084415436
6.652653932571411,-0.03229658305644989,-1.4864726066589355,1.239848017692566,-0.508091926574707,0.045052669942379,0.026060432195663452
6.672717571258545,-0.03229658305644989,-1.4864726066589355,1.239848017692566,-0.508091926574707,0.045052669942379,0.026060432195663452
6.692790269851685,-0.010893605649471283,-1.4341751337051392,1.2923842668533325,-0.5176572203636169,0.025662396103143692,0.026454366743564606
6.712844371795654,-0.10094603896141052,-1.3765482902526855,1.3086696863174438,-0.4945971965789795,-0.007344964891672134,0.03355599194765091
6.732954025268555,-0.10094603896141052,-1.3765482902526855,1.3086696863174438,-0.4945971965789795,-0.007344964891672134,0.03355599194765091
6.753016471862793,-0.069412961602211,-1.361711025238037,1.3060575723648071,-0.4797131419181824,0.0008421428501605988,0.04184681922197342
6.773094654083252,-0.069412961602211,-1.361711025238037,1.3060575723648071,-0.4797131419181824,0.0008421428501605988,0.04184681922197342
6.793210744857788,-0.07799457013607025,-1.4219365119934082,1.2820744514465332,-0.48312908411026,0.02106519043445587,0.04029861092567444
6.8132712841033936,-0.07799457013607025,-1.4219365119934082,1.2820744514465332,-0.48312908411026,0.02106519043445587,0.04029861092567444
6.833354234695435,-0.0642150416970253,-1.5339031219482422,1.1726734638214111,-0.48131632804870605,0.06638412177562714,0.02322736382484436
6.8534018993377686,-0.05075642466545105,-1.5291459560394287,1.169365644454956,-0.502752423286438,0.0652284026145935,0.01850607991218567
6.873495101928711,-0.05075642466545105,-1.5291459560394287,1.169365644454956,-0.502752423286438,0.0652284026145935,0.01850607991218567
6.893554210662842,-0.03982304781675339,-1.5178210735321045,1.1914269924163818,-0.5089377164840698,0.05230102688074112,0.018665798008441925
6.913644552230835,-0.03982304781675339,-1.5178210735321045,1.1914269924163818,-0.5089377164840698,0.05230102688074112,0.018665798008441925
6.933717727661133,-0.04698246717453003,-1.4750380516052246,1.2368180751800537,-0.5056547522544861,0.026447828859090805,0.024262212216854095
6.953798532485962,-0.04698246717453003,-1.4750380516052246,1.2368180751800537,-0.5056547522544861,0.026447828859090805,0.024262212216854095
6.973876714706421,-0.06658802926540375,-1.3943703174591064,1.3109358549118042,-0.5009002685546875,-0.01029970869421959,0.03314978629350662
6.99409818649292,-0.09925361722707748,-1.4019323587417603,1.2685898542404175,-0.47518718242645264,0.0017645061016082764,0.039795003831386566
7.01419734954834,-0.09925361722707748,-1.4019323587417603,1.2685898542404175,-0.47518718242645264,0.0017645061016082764,0.039795003831386566
7.034258842468262,-0.05620443448424339,-1.4584546089172363,1.250357985496521,-0.4946209192276001,0.030592292547225952,0.03428473323583603
7.054351568222046,-0.05620443448424339,-1.4584546089172363,1.250357985496521,-0.4946209192276001,0.030592292547225952,0.03428473323583603
7.0744147300720215,-0.054273247718811035,-1.4416464567184448,1.276364803314209,-0.5065761804580688,0.017692670226097107,0.03171146661043167
7.0945045948028564,-0.054273247718811035,-1.4416464567184448,1.276364803314209,-0.5065761804580688,0.017692670226097107,0.03171146661043167
7.114592790603638,-0.0369393527507782,-1.4168453216552734,1.2964402437210083,-0.507850706577301,0.013372309505939484,0.03153239190578461
7.135023355484009,-0.07352954149246216,-1.3835744857788086,1.3062041997909546,-0.49378883838653564,-0.003513908013701439,0.03619762510061264
7.155115365982056,-0.07352954149246216,-1.3835744857788086,1.3062041997909546,-0.49378883838653564,-0.003513908013701439,0.03619762510061264
7.175173997879028,-0.09972552210092545,-1.3760852813720703,1.2925467491149902,-0.46974390745162964,-0.005000855773687363,0.04328843206167221
7.195275068283081,-0.09972552210092545,-1.3760852813720703,1.2925467491149902,-0.46974390745162964,-0.005000855773687363,0.04328843206167221
7.215360164642334,-0.06922884285449982,-1.4830806255340576,1.2222464084625244,-0.481772243976593,0.042713090777397156,0.03409761190414429
7.235441207885742,-0.06922884285449982,-1.4830806255340576,1.2222464084625244,-0.481772243976593,0.042713090777397156,0.03409761190414429
7.255523443222046,-0.06014309823513031,-1.4670063257217407,1.2435734272003174,-0.49746429920196533,0.03175295144319534,0.03289470076560974
7.275594472885132,-0.06014309823513031,-1.4670063257217407,1.2435734272003174,-0.49746429920196533,0.03175295144319534,0.03289470076560974
7.2956929206848145,-0.06388968229293823,-1.4141933917999268,1.2900773286819458,-0.5027653574943542,0.00789160281419754,0.035624802112579346
7.31572699546814,-0.04386092722415924,-1.4189146757125854,1.2879124879837036,-0.49479806423187256,0.014559216797351837,0.03594363480806351
7.335829973220825,-0.04386092722415924,-1.4189146757125854,1.2879124879837036,-0.49479806423187256,0.014559216797351837,0.03594363480806351
7.355896949768066,-0.0981212854385376,-1.350027084350586,1.3296390771865845,-0.48220837116241455,-0.016370495781302452,0.0445401668548584
7.375980615615845,-0.0981212854385376,-1.350027084350586,1.3296390771865845,-0.48220837116241455,-0.016370495781302452,0.0445401668548584
7.396056175231934,-0.093059241771698,-1.3748741149902344,1.3102580308914185,-0.4732730984687805,-0.0005967691540718079,0.05042428523302078
7.416151762008667,-0.093059241771698,-1.3748741149902344,1.3102580308914185,-0.4732730984687805,-0.0005967691540718079,0.05042428523302078
7.436236143112183,-0.08174862712621689,-1.4956424236297607,1.209562063217163,-0.4733204245567322,0.04667729139328003,0.036600224673748016
7.456300497055054,-0.06508778035640717,-1.4741734266281128,1.2359861135482788,-0.4978516101837158,0.03786090761423111,0.03456517308950424
7.476389646530151,-0.06508778035640717,-1.4741734266281128,1.2359861135482788,-0.4978516101837158,0.03786090761423111,0.03456517308950424
7.496450185775757,-0.06373223662376404,-1.432403802871704,1.2832945585250854,-0.5058409571647644,0.015496067702770233,0.036180220544338226
7.516556024551392,-0.06373223662376404,-1.432403802871704,1.2832945585250854,-0.5058409571647644,0.015496067702770233,0.036180220544338226
7.536634206771851,-0.06990856677293777,-1.3911088705062866,1.3148432970046997,-0.49442458152770996,0.001999523490667343,0.03967919945716858
7.556703090667725,-0.06990856677293777,-1.3911088705062866,1.3148432970046997,-0.49442458152770996,0.001999523490667343,0.03967919945716858
7.576805591583252,-0.05513562262058258,-1.3507885932922363,1.3558831214904785,-0.49189168214797974,-0.010022368282079697,0.04280081391334534
7.597031831741333,-0.07773697376251221,-1.3994600772857666,1.3130511045455933,-0.4822343587875366,0.012497134506702423,0.04625042527914047
7.617120265960693,-0.07773697376251221,-1.3994600772857666,1.3130511045455933,-0.4822343587875366,0.012497134506702423,0.04625042527914047
7.637176036834717,-0.08270759880542755,-1.492945909500122,1.221949815750122,-0.48452192544937134,0.04979792237281799,0.033213578164577484
7.657259941101074,-0.08270759880542755,-1.492945909500122,1.221949815750122,-0.48452192544937134,0.04979792237281799,0.033213578164577484
7.67733359336853,-0.06265413016080856,-1.4719188213348389,1.2436400651931763,-0.5036991834640503,0.03843765705823898,0.03095237910747528
7.697404623031616,-0.06265413016080856,-1.4719188213348389,1.2436400651931763,-0.5036991834640503,0.03843765705823898,0.03095237910747528
7.717498779296875,-0.06489749997854233,-1.419053316116333,1.2974424362182617,-0.50547194480896,0.010440200567245483,0.035153284668922424
7.7380828857421875,-0.06489749997854233,-1.419053316116333,1.2974424362182617,-0.50547194480896,0.010440200567245483,0.035153284668922424
7.758169889450073,-0.05848274379968643,-1.4079440832138062,1.2983838319778442,-0.4896261692047119,0.010461583733558655,0.03677268326282501
7.778218507766724,-0.11061608046293259,-1.3597406148910522,1.3158318996429443,-0.46717017889022827,-0.008687995374202728,0.0458085834980011
7.798311233520508,-0.11061608046293259,-1.3597406148910522,1.3158318996429443,-0.46717017889022827,-0.008687995374202728,0.0458085834980011
7.81839656829834,-0.10113728046417236,-1.4027923345565796,1.2904917001724243,-0.4748386740684509,0.015180803835391998,0.0471857413649559
7.83847713470459,-0.10113728046417236,-1.4027923345565796,1.2904917001724243,-0.4748386740684509,0.015180803835391998,0.0471857413649559
7.858585357666016,-0.05837659537792206,-1.5031245946884155,1.2269001007080078,-0.48772913217544556,0.05374957621097565,0.03452581167221069
7.878650903701782,-0.05837659537792206,-1.5031245946884155,1.2269001007080078,-0.48772913217544556,0.05374957621097565,0.03452581167221069
7.8987226486206055,-0.051181450486183167,-1.470053791999817,1.2571765184402466,-0.503533124923706,0.03860114514827728,0.03180977702140808
7.918789625167847,-0.04540494829416275,-1.4077187776565552,1.3150683641433716,-0.5096525549888611,0.013496726751327515,0.035067372024059296
7.938868761062622,-0.04540494829416275,-1.4077187776565552,1.3150683641433716,-0.5096525549888611,0.013496726751327515,0.035067372024059296
7.958945274353027,-0.07862070202827454,-1.3983148336410522,1.303721308708191,-0.49183231592178345,0.007413715124130249,0.037200815975666046
7.97903299331665,-0.07862070202827454,-1.3983148336410522,1.303721308708191,-0.49183231592178345,0.007413715124130249,0.037200815975666046
7.999110460281372,-0.12121620774269104,-1.3483481407165527,1.3174413442611694,-0.45940959453582764,-0.011185390874743462,0.05105035752058029
8.019185304641724,-0.12121620774269104,-1.3483481407165527,1.3174413442611694,-0.45940959453582764,-0.011185390874743462,0.05105035752058029
8.039267539978027,-0.09245387464761734,-1.4354792833328247,1.2718756198883057,-0.47774428129196167,0.027886755764484406,0.04489099979400635
8.059328556060791,-0.06627419590950012,-1.47451651096344,1.2595365047454834,-0.49682068824768066,0.03855958580970764,0.03966379910707474
8.07939863204956,-0.06627419590950012,-1.47451651096344,1.2595365047454834,-0.49682068824768066,0.03855958580970764,0.03966379910707474
8.099436044692993,-0.06912709772586823,-1.3937660455703735,1.3216677904129028,-0.5057724714279175,0.007035993039608002,0.04164605587720871
8.119528770446777,-0.06912709772586823,-1.3937660455703735,1.3216677904129028,-0.5057724714279175,0.007035993039608002,0.04164605587720871
8.139602422714233,-0.04316135495901108,-1.4372293949127197,1.286169409751892,-0.4990035891532898,0.03022889792919159,0.03610091656446457
8.159681797027588,-0.04316135495901108,-1.4372293949127197,1.286169409751892,-0.4990035891532898,0.03022889792919159,0.03610091656446457
8.179765462875366,-0.11341610550880432,-1.3588762283325195,1.3233829736709595,-0.476742148399353,-0.008453121408820152,0.04584241658449173
8.200589895248413,-0.09249338507652283,-1.3998863697052002,1.3068886995315552,-0.48257654905319214,0.011723626405000687,0.049044132232666016
8.220730781555176,-0.09249338507652283,-1.3998863697052002,1.3068886995315552,-0.48257654905319214,0.011723626405000687,0.049044132232666016
8.240776300430298,-0.08460788428783417,-1.4887281656265259,1.230257272720337,-0.4815852642059326,0.04501499980688095,0.03952114284038544
8.260868787765503,-0.08460788428783417,-1.4887281656265259,1.230257272720337,-0.4815852642059326,0.04501499980688095,0.03952114284038544
8.280930280685425,-0.0548829510807991,-1.4547901153564453,1.2673505544662476,-0.5066415667533875,0.03357790410518646,0.0369279682636261
8.301016330718994,-0.0548829510807991,-1.4547901153564453,1.2673505544662476,-0.5066415667533875,0.03357790410518646,0.0369279682636261
8.321101903915405,-0.08763792365789413,-1.4073569774627686,1.3103018999099731,-0.5003527402877808,0.005436554551124573,0.04090634733438492
8.341413736343384,-0.05219168961048126,-1.4076597690582275,1.3037561178207397,-0.4970208406448364,0.01782720535993576,0.04077896475791931
8.361489295959473,-0.05219168961048126,-1.4076597690582275,1.3037561178207397,-0.4970208406448364,0.01782720535993576,0.04077896475791931
8.381549835205078,-0.11598838120698929,-1.3741428852081299,1.3132461309432983,-0.46543753147125244,-0.0042938608676195145,0.049692392349243164
8.401647090911865,-0.11598838120698929,-1.3741428852081299,1.3132461309432983,-0.46543753147125244,-0.0042938608676195145,0.049692392349243164
8.421741724014282,-0.08068902790546417,-1.4445549249649048,1.2625070810317993,-0.4844176173210144,0.03578852117061615,0.043693333864212036
8.441799640655518,-0.08068902790546417,-1.4445549249649048,1.2625070810317993,-0.4844176173210144,0.03578852117061615,0.043693333864212036
8.461880683898926,-0.07098217308521271,-1.4635688066482544,1.2676488161087036,-0.49906450510025024,0.0320870578289032,0.04013438522815704
8.481972217559814,-0.07098217308521271,-1.4635688066482544,1.2676488161087036,-0.49906450510025024,0.0320870578289032,0.04013438522815704
8.502042770385742,-0.06417308002710342,-1.4050837755203247,1.310605525970459,-0.5034115314483643,0.010968558490276337,0.042287640273571014
8.522085428237915,-0.07392989099025726,-1.4151543378829956,1.301613211631775,-0.4942564368247986,0.010947417467832565,0.04239886999130249
8.542168617248535,-0.07392989099025726,-1.4151543378829956,1.301613211631775,-0.4942564368247986,0.010947417467832565,0.04239886999130249
8.562243700027466,-0.08640199899673462,-1.3818597793579102,1.3081103563308716,-0.4763990044593811,0.002182934433221817,0.04821605980396271
8.582313537597656,-0.08640199899673462,-1.3818597793579102,1.3081103563308716,-0.4763990044593811,0.002182934433221817,0.04821605980396271
8.602398872375488,-0.07749796658754349,-1.4153103828430176,1.2883353233337402,-0.48857665061950684,0.025486595928668976,0.04613129049539566
8.622451543807983,-0.07749796658754349,-1.4153103828430176,1.2883353233337402,-0.48857665061950684,0.025486595928668976,0.04613129049539566
8.642544746398926,-0.05596470832824707,-1.4920368194580078,1.2380353212356567,-0.4980504512786865,0.05132748931646347,0.03481496870517731
8.66258978843689,-0.0744922086596489,-1.4520763158798218,1.2632701396942139,-0.5046047568321228,0.027972519397735596,0.03442288190126419
8.682680130004883,-0.0744922086596489,-1.4520763158798218,1.2632701396942139,-0.5046047568321228,0.027972519397735596,0.03442288190126419
8.702752590179443,-0.05113053321838379,-1.4068984985351562,1.3142648935317993,-0.5096180438995361,0.008824586868286133,0.03762861341238022
8.722826480865479,-0.05113053321838379,-1.4068984985351562,1.3142648935317993,-0.5096180438995361,0.008824586868286133,0.03762861341238022
8.742913246154785,-0.07889997959136963,-1.4024754762649536,1.3000770807266235,-0.4917556643486023,0.005691520869731903,0.04079703241586685
8.763145446777344,-0.09247580170631409,-1.3829638957977295,1.315276861190796,-0.4677785038948059,-0.0038136281073093414,0.05044364929199219
8.783234119415283,-0.09247580170631409,-1.3829638957977295,1.315276861190796,-0.4677785038948059,-0.0038136281073093414,0.05044364929199219
8.803285121917725,-0.06048152595758438,-1.4848403930664062,1.2322301864624023,-0.48359572887420654,0.04898852854967117,0.036561019718647
8.823376417160034,-0.06048152595758438,-1.4848403930664062,1.2322301864624023,-0.48359572887420654,0.04898852854967117,0.036561019718647
8.843446016311646,-0.0575561448931694,-1.4577558040618896,1.2666059732437134,-0.5049777626991272,0.02860775589942932,0.0359036847949028
8.863534927368164,-0.0575561448931694,-1.4577558040618896,1.2666059732437134,-0.5049777626991272,0.02860775589942932,0.0359036847949028
8.883728504180908,-0.07134540379047394,-1.4109305143356323,1.2990707159042358,-0.5071269273757935,0.007402427494525909,0.03841439634561539
8.903790950775146,-0.07134540379047394,-1.4109305143356323,1.2990707159042358,-0.5071269273757935,0.007402427494525909,0.03841439634561539
8.92389965057373,-0.06263147294521332,-1.3985919952392578,1.3001130819320679,-0.4940148591995239,0.005560252815485001,0.04211333394050598
8.943942070007324,-0.09806541353464127,-1.359484076499939,1.3176432847976685,-0.479408860206604,-0.010794952511787415,0.048379085958004
8.964045524597168,-0.09806541353464127,-1.359484076499939,1.3176432847976685,-0.479408860206604,-0.010794952511787415,0.048379085958004
8.984111785888672,-0.08636966347694397,-1.3929734230041504,1.2972816228866577,-0.47970741987228394,0.010456040501594543,0.05053648352622986
9.004192590713501,-0.08636966347694397,-1.3929734230041504,1.2972816228866577,-0.47970741987228394,0.010456040501594543,0.05053648352622986
9.024252891540527,-0.06595413386821747,-1.525935411453247,1.1950234174728394,-0.48771268129348755,0.06129086762666702,0.03160611540079117
9.044522523880005,-0.05157000571489334,-1.517164707183838,1.1967108249664307,-0.5027489066123962,0.05808516591787338,0.027275651693344116
9.064610719680786,-0.05157000571489334,-1.517164707183838,1.1967108249664307,-0.5027489066123962,0.05808516591787338,0.027275651693344116
9.084660291671753,-0.04412004351615906,-1.499550700187683,1.2192809581756592,-0.5122194290161133,0.04484732449054718,0.0251779705286026
9.104746103286743,-0.04412004351615906,-1.499550700187683,1.2192809581756592,-0.5122194290161133,0.04484732449054718,0.0251779705286026
9.124809741973877,-0.03855340927839279,-1.4374744892120361,1.2797118425369263,-0.5082708597183228,0.015610098838806152,0.030915826559066772
9.144885540008545,-0.03855340927839279,-1.4374744892120361,1.2797118425369263,-0.5082708597183228,0.015610098838806152,0.030915826559066772
9.164962530136108,-0.09850500524044037,-1.3676464557647705,1.322628378868103,-0.49419039487838745,-0.01559494435787201,0.03892229497432709
9.18534517288208,-0.06559689342975616,-1.385664463043213,1.30055570602417,-0.4811563491821289,0.0042200833559036255,0.04433871805667877
9.205434083938599,-0.06559689342975616,-1.385664463043213,1.30055570602417,-0.4811563491821289,0.0042200833559036255,0.04433871805667877
9.225483179092407,-0.09934159368276596,-1.4250013828277588,1.278570532798767,-0.48677825927734375,0.014419034123420715,0.041931502521038055
9.245574712753296,-0.09934159368276596,-1.4250013828277588,1.278570532798767,-0.48677825927734375,0.014419034123420715,0.041931502521038055
9.265643119812012,-0.051512423902750015,-1.5122318267822266,1.2095948457717896,-0.49147772789001465,0.05356984585523605,0.02958739548921585
9.285708665847778,-0.051512423902750015,-1.5122318267822266,1.2095948457717896,-0.49147772789001465,0.05356984585523605,0.02958739548921585
9.305787563323975,-0.023246854543685913,-1.498548150062561,1.225455403327942,-0.5106289982795715,0.05013705790042877,0.023401670157909393
9.325862884521484,-0.007510274648666382,-1.4619934558868408,1.2609803676605225,-0.5134492516517639,0.035778194665908813,0.023932673037052155
9.345955848693848,-0.007510274648666382,-1.4619934558868408,1.2609803676605225,-0.5134492516517639,0.035778194665908813,0.023932673037052155
9.366010189056396,-0.06112786382436752,-1.3869273662567139,1.3119722604751587,-0.5014219284057617,-0.00251644104719162,0.03102383017539978
9.38610291481018,-0.06112786382436752,-1.3869273662567139,1.3119722604751587,-0.5014219284057617,-0.00251644104719162,0.03102383017539978
9.406189918518066,-0.08567281067371368,-1.362370491027832,1.3003231287002563,-0.48149555921554565,-0.004766581580042839,0.03928472101688385
9.426284074783325,-0.08567281067371368,-1.362370491027832,1.3003231287002563,-0.48149555921554565,-0.004766581580042839,0.03928472101688385
9.446364402770996,-0.088693767786026,-1.4059081077575684,1.277509331703186,-0.4737040400505066,0.011667124927043915,0.0426303893327713
9.466410160064697,-0.05341797322034836,-1.5364164113998413,1.186773419380188,-0.4860932230949402,0.062439464032649994,0.024221718311309814
9.486518859863281,-0.05341797322034836,-1.5364164113998413,1.186773419380188,-0.4860932230949402,0.062439464032649994,0.024221718311309814
9.506560325622559,-0.03364352136850357,-1.5258640050888062,1.1910051107406616,-0.50491863489151,0.0613928884267807,0.01901906728744507
9.52671504020691,-0.03364352136850357,-1.5258640050888062,1.1910051107406616,-0.50491863489151,0.0613928884267807,0.01901906728744507
9.54680323600769,-0.020794905722141266,-1.5049951076507568,1.2228983640670776,-0.5150503516197205,0.04562878608703613,0.018713630735874176
9.56686544418335,-0.020794905722141266,-1.5049951076507568,1.2228983640670776,-0.5150503516197205,0.04562878608703613,0.018713630735874176
9.586950540542603,-0.02917514741420746,-1.4508171081542969,1.2637263536453247,-0.5085645318031311,0.020167142152786255,0.024166464805603027
9.606992244720459,-0.07271076738834381,-1.3504900932312012,1.3300917148590088,-0.4980084300041199,-0.01844613626599312,0.033418115228414536
9.62708330154419,-0.07271076738834381,-1.3504900932312012,1.3300917148590088,-0.4980084300041199,-0.01844613626599312,0.033418115228414536
9.647133111953735,-0.06310035288333893,-1.4045963287353516,1.2835975885391235,-0.4858114719390869,0.00860399380326271,0.03627122938632965
9.667239427566528,-0.06310035288333893,-1.4045963287353516,1.2835975885391235,-0.4858114719390869,0.00860399380326271,0.03627122938632965
9.68733549118042,-0.10194002091884613,-1.4200496673583984,1.2741926908493042,-0.48048239946365356,0.006451364606618881,0.03838097304105759
9.707388401031494,-0.10194002091884613,-1.4200496673583984,1.2741926908493042,-0.48048239946365356,0.006451364606618881,0.03838097304105759
9.727451801300049,-0.03837645798921585,-1.4877572059631348,1.2244876623153687,-0.4943925738334656,0.04326033592224121,0.02920009195804596
9.747498512268066,-0.02736230194568634,-1.4602246284484863,1.254391074180603,-0.5089144706726074,0.03086678683757782,0.025585375726222992
9.76758337020874,-0.02736230194568634,-1.4602246284484863,1.254391074180603,-0.5089144706726074,0.03086678683757782,0.025585375726222992
9.78763723373413,-0.02886376529932022,-1.40415358543396,1.3076698780059814,-0.51385897397995,0.008226394653320312,0.02792639285326004
9.807735681533813,-0.02886376529932022,-1.40415358543396,1.3076698780059814,-0.51385897397995,0.008226394653320312,0.02792639285326004
9.827819108963013,-0.06909120082855225,-1.4153943061828613,1.2794229984283447,-0.4934329390525818,0.007641643285751343,0.03038640320301056
9.847936868667603,-0.06909120082855225,-1.4153943061828613,1.2794229984283447,-0.4934329390525818,0.007641643285751343,0.03038640320301056
9.867991924285889,-0.10645735263824463,-1.3401219844818115,1.3147425651550293,-0.47119730710983276,-0.01942818984389305,0.045628733932971954
9.888050556182861,-0.09138075262308121,-1.4547309875488281,1.2482709884643555,-0.46989572048187256,0.02237600088119507,0.03910685330629349
9.908134460449219,-0.09138075262308121,-1.4547309875488281,1.2482709884643555,-0.46989572048187256,0.02237600088119507,0.03910685330629349
9.928189277648926,-0.05268731713294983,-1.4278589487075806,1.2885183095932007,-0.49966222047805786,0.015234187245368958,0.04046284407377243
9.948284387588501,-0.05268731713294983,-1.4278589487075806,1.2885183095932007,-0.49966222047805786,0.015234187245368958,0.04046284407377243
9.96834921836853,-0.06746315211057663,-1.4234983921051025,1.287052035331726,-0.497528076171875,0.008717548102140427,0.038104526698589325
9.988425254821777,-0.06746315211057663,-1.4234983921051025,1.287052035331726,-0.497528076171875,0.008717548102140427,0.038104526698589325
10.0085289478302,-0.058321185410022736,-1.3965615034103394,1.3101164102554321,-0.49985790252685547,0.0034283846616744995,0.040301740169525146
10.028576135635376,-0.09536119550466537,-1.369109869003296,1.3071110248565674,-0.4772692322731018,-0.007164832204580307,0.04634524881839752
10.048668384552002,-0.09536119550466537,-1.369109869003296,1.3071110248565674,-0.4772692322731018,-0.007164832204580307,0.04634524881839752
10.068722486495972,-0.05813954770565033,-1.4245078563690186,1.277978777885437,-0.4875667095184326,0.026206612586975098,0.04326225072145462
10.08881139755249,-0.05813954770565033,-1.4245078563690186,1.277978777885437,-0.4875667095184326,0.026206612586975098,0.04326225072145462
10.108886480331421,-0.0693250298500061,-1.4899070262908936,1.2356902360916138,-0.4928717613220215,0.03784623742103577,0.03347806632518768
10.128968954086304,-0.0693250298500061,-1.4899070262908936,1.2356902360916138,-0.4928717613220215,0.03784623742103577,0.03347806632518768
10.149040222167969,-0.06792353838682175,-1.4330554008483887,1.2779395580291748,-0.5067764520645142,0.013115175068378448,0.03685814142227173
10.169089555740356,-0.06905825436115265,-1.4099164009094238,1.2963287830352783,-0.4976005554199219,0.002938065677881241,0.040412694215774536
10.189179182052612,-0.06905825436115265,-1.4099164009094238,1.2963287830352783,-0.4976005554199219,0.002938065677881241,0.040412694215774536
10.209232807159424,-0.06690141558647156,-1.3983485698699951,1.3150726556777954,-0.49392420053482056,-0.002458415925502777,0.04220988601446152
10.22931981086731,-0.06690141558647156,-1.3983485698699951,1.3150726556777954,-0.49392420053482056,-0.002458415925502777,0.04220988601446152
10.249411344528198,-0.08503733575344086,-1.389436960220337,1.307752251625061,-0.4755409359931946,0.0003631487488746643,0.04777824133634567
10.269487857818604,-0.08503733575344086,-1.389436960220337,1.307752251625061,-0.4755409359931946,0.0003631487488746643,0.04777824133634567
10.289574384689331,-0.055032484233379364,-1.4807090759277344,1.2298026084899902,-0.4855111837387085,0.04989248514175415,0.03440295159816742
10.309630632400513,-0.06600058078765869,-1.460385799407959,1.2506412267684937,-0.49715912342071533,0.030166007578372955,0.03453367203474045
10.32972240447998,-0.06600058078765869,-1.460385799407959,1.2506412267684937,-0.49715912342071533,0.030166007578372955,0.03453367203474045
10.349774837493896,-0.0826813206076622,-1.4094431400299072,1.2957816123962402,-0.504341721534729,0.0032040029764175415,0.03718926012516022
10.36986780166626,-0.0826813206076622,-1.4094431400299072,1.2957816123962402,-0.504341721534729,0.0032040029764175415,0.03718926012516022
10.389964818954468,-0.08864989876747131,-1.3890368938446045,1.2927114963531494,-0.4839312434196472,-0.0010302364826202393,0.04373999685049057
10.41002607345581,-0.08864989876747131,-1.3890368938446045,1.2927114963531494,-0.4839312434196472,-0.0010302364826202393,0.04373999685049057
10.430112361907959,-0.08710293471813202,-1.37820303440094,1.3096176385879517,-0.47937917709350586,-0.002077721059322357,0.047755710780620575
10.45022702217102,-0.05852716416120529,-1.4065606594085693,1.2934397459030151,-0.4879734516143799,0.023753881454467773,0.04579880088567734
10.4703528881073,-0.05852716416120529,-1.4065606594085693,1.2934397459030151,-0.4879734516143799,0.023753881454467773,0.04579880088567734
10.49039363861084,-0.05367080122232437,-1.5320947170257568,1.1971266269683838,-0.49339258670806885,0.06687922030687332,0.02562057226896286
10.510482549667358,-0.05367080122232437,-1.5320947170257568,1.1971266269683838,-0.49339258670806885,0.06687922030687332,0.02562057226896286
10.53054165840149,-0.06533242017030716,-1.516686201095581,1.1918469667434692,-0.49957579374313354,0.05698271840810776,0.023694224655628204
10.55062484741211,-0.06533242017030716,-1.516686201095581,1.1918469667434692,-0.49957579374313354,0.05698271840810776,0.023694224655628204
10.570717334747314,-0.07028813660144806,-1.4916033744812012,1.217331051826477,-0.510556161403656,0.03760106861591339,0.024679861962795258
10.591048955917358,-0.07743725180625916,-1.4278780221939087,1.274875521659851,-0.5058504939079285,0.0028308629989624023,0.03459814935922623
10.611137628555298,-0.07743725180625916,-1.4278780221939087,1.274875521659851,-0.5058504939079285,0.0028308629989624023,0.03459814935922623
10.631190538406372,-0.07418522983789444,-1.3880243301391602,1.3041329383850098,-0.4971141815185547,-0.009089000523090363,0.040783338248729706
10.651285886764526,-0.07418522983789444,-1.3880243301391602,1.3041329383850098,-0.4971141815185547,-0.009089000523090363,0.040783338248729706
10.671376705169678,0.2514244318008423,-1.1989121437072754,1.4002708196640015,-0.9818708300590515,-0.005252957344055176,-0.4061039090156555
10.69145131111145,0.2514244318008423,-1.1989121437072754,1.4002708196640015,-0.9818708300590515,-0.005252957344055176,-0.4061039090156555
10.711540460586548,0.357943594455719,-1.4075212478637695,1.3603721857070923,-1.0185863971710205,0.06676871329545975,-0.47966647148132324
10.731581687927246,0.3648720979690552,-1.4638077020645142,1.3297282457351685,-1.0256555080413818,0.08958554267883301,-0.4981845021247864
10.751670360565186,0.3648720979690552,-1.4638077020645142,1.3297282457351685,-1.0256555080413818,0.08958554267883301,-0.4981845021247864
10.771722555160522,0.34720635414123535,-1.4423565864562988,1.335797667503357,-1.025640606880188,0.07637028396129608,-0.4989841878414154
10.791811466217041,0.34720635414123535,-1.4423565864562988,1.335797667503357,-1.025640606880188,0.07637028396129608,-0.4989841878414154
10.811911344528198,0.3379870653152466,-1.4215972423553467,1.353266716003418,-1.0256677865982056,0.057287588715553284,-0.4944379925727844
10.831973791122437,0.3379870653152466,-1.4215972423553467,1.353266716003418,-1.0256677865982056,0.057287588715553284,-0.4944379925727844
10.852055549621582,0.31767964363098145,-1.392007827758789,1.3765114545822144,-1.020200490951538,0.033840835094451904,-0.4871983826160431
10.872105836868286,0.3034587502479553,-1.409910798072815,1.3714642524719238,-1.0167807340621948,0.034598350524902344,-0.4834643006324768
10.89220666885376,0.3034587502479553,-1.409910798072815,1.3714642524719238,-1.0167807340621948,0.034598350524902344,-0.4834643006324768
10.912263631820679,0.28669798374176025,-1.425213098526001,1.3523637056350708,-1.0209022760391235,0.04097671061754227,-0.48431065678596497
10.932394742965698,0.28669798374176025,-1.425213098526001,1.3523637056350708,-1.0209022760391235,0.04097671061754227,-0.48431065678596497
10.95243525505066,0.26868534088134766,-1.417673110961914,1.3551870584487915,-1.0231411457061768,0.0267304927110672,-0.4796036183834076
10.97254991531372,0.26868534088134766,-1.417673110961914,1.3551870584487915,-1.0231411457061768,0.0267304927110672,-0.4796036183834076
10.992714166641235,0.2628929615020752,-1.412684679031372,1.3599382638931274,-1.0217151641845703,0.014551937580108643,-0.4755314886569977
11.012788772583008,0.24758906662464142,-1.4110772609710693,1.3623827695846558,-1.0209211111068726,0.0035812556743621826,-0.471807062625885
11.0328848361969,0.24758906662464142,-1.4110772609710693,1.3623827695846558,-1.0209211111068726,0.0035812556743621826,-0.471807062625885
11.052939653396606,0.23812921345233917,-1.4205482006072998,1.353837251663208,-1.023325800895691,0.0024011805653572083,-0.47025713324546814
11.073019742965698,0.23812921345233917,-1.4205482006072998,1.353837251663208,-1.023325800895691,0.0024011805653572083,-0.47025713324546814
11.093126773834229,0.22304295003414154,-1.4199455976486206,1.3522051572799683,-1.0198839902877808,-0.007247917354106903,-0.46757322549819946
11.113181829452515,0.22304295003414154,-1.4199455976486206,1.3522051572799683,-1.0198839902877808,-0.007247917354106903,-0.46757322549819946
11.133255004882812,0.214680477976799,-1.4206011295318604,1.3539515733718872,-1.0191645622253418,-0.01804891973733902,-0.46405863761901855
11.15330457687378,0.20505915582180023,-1.4295549392700195,1.3539292812347412,-1.0165691375732422,-0.026418089866638184,-0.4602029323577881
11.17340087890625,0.20505915582180023,-1.4295549392700195,1.3539292812347412,-1.0165691375732422,-0.026418089866638184,-0.4602029323577881
11.193461656570435,0.1948682963848114,-1.4311413764953613,1.3502165079116821,-1.0197538137435913,-0.032737597823143005,-0.4576259255409241
11.213536977767944,0.1948682963848114,-1.4311413764953613,1.3502165079116821,-1.0197538137435913,-0.032737597823143005,-0.4576259255409241
11.233608484268188,0.1855553835630417,-1.435275673866272,1.345032811164856,-1.0189718008041382,-0.03791378438472748,-0.45410579442977905
11.253678560256958,0.1855553835630417,-1.435275673866272,1.345032811164856,-1.0189718008041382,-0.03791378438472748,-0.45410579442977905
11.273874282836914,0.17621895670890808,-1.4358339309692383,1.3439503908157349,-1.016520380973816,-0.04617583006620407,-0.45119962096214294
11.293886423110962,0.16466030478477478,-1.4325348138809204,1.344093918800354,-1.0156041383743286,-0.05640244483947754,-0.4465780556201935
11.313973903656006,0.16466030478477478,-1.4325348138809204,1.344093918800354,-1.0156041383743286,-0.05640244483947754,-0.4465780556201935
11.33402132987976,0.15717826783657074,-1.4351463317871094,1.3431675434112549,-1.0179282426834106,-0.06264175474643707,-0.4426456093788147
11.354115962982178,0.15717826783657074,-1.4351463317871094,1.3431675434112549,-1.0179282426834106,-0.06264175474643707,-0.4426456093788147
11.374175548553467,0.15534654259681702,-1.4449963569641113,1.3365426063537598,-1.019088864326477,-0.06473273783922195,-0.4407922625541687
11.394251823425293,0.15534654259681702,-1.4449963569641113,1.3365426063537598,-1.019088864326477,-0.06473273783922195,-0.4407922625541687
11.414336919784546,0.15226490795612335,-1.4481027126312256,1.337210774421692,-1.0161813497543335,-0.07310405373573303,-0.4373845160007477
11.43437933921814,0.13916344940662384,-1.4400768280029297,1.3372764587402344,-1.0163187980651855,-0.08070783317089081,-0.433452308177948
11.454490900039673,0.13916344940662384,-1.4400768280029297,1.3372764587402344,-1.0163187980651855,-0.08070783317089081,-0.433452308177948
11.474512338638306,0.13116157054901123,-1.4414407014846802,1.3330827951431274,-1.0164589881896973,-0.08377673476934433,-0.4304685592651367
11.494614124298096,0.13116157054901123,-1.4414407014846802,1.3330827951431274,-1.0164589881896973,-0.08377673476934433,-0.4304685592651367
11.514694213867188,0.12316541373729706,-1.4343078136444092,1.3354238271713257,-1.0175683498382568,-0.09309712797403336,-0.4273870289325714
11.534759998321533,0.12316541373729706,-1.4343078136444092,1.3354238271713257,-1.0175683498382568,-0.09309712797403336,-0.4273870289325714
11.554868698120117,0.11558748781681061,-1.432421326637268,1.3383318185806274,-1.013716459274292,-0.10227248817682266,-0.4231448173522949
11.574898719787598,0.10749810934066772,-1.435211181640625,1.3339290618896484,-1.0108579397201538,-0.10466163605451584,-0.4210927188396454
11.59499454498291,0.10749810934066772,-1.435211181640625,1.3339290618896484,-1.0108579397201538,-0.10466163605451584,-0.4210927188396454
11.615057706832886,0.10267721116542816,-1.4388070106506348,1.3296159505844116,-1.009757399559021,-0.10624190419912338,-0.4188997745513916
11.635152339935303,0.10267721116542816,-1.4388070106506348,1.3296159505844116,-1.009757399559021,-0.10624190419912338,-0.4188997745513916
11.655226707458496,0.10283772647380829,-1.4433434009552002,1.3266737461090088,-1.0085610151290894,-0.10855583101511002,-0.4156492352485657
11.675304412841797,0.10283772647380829,-1.4433434009552002,1.3266737461090088,-1.0085610151290894,-0.10855583101511002,-0.4156492352485657
11.69539189338684,0.09933318197727203,-1.4452178478240967,1.3233132362365723,-1.013035774230957,-0.11008001863956451,-0.41329580545425415
11.715440511703491,0.09884531795978546,-1.4501352310180664,1.3199125528335571,-1.0124047994613647,-0.11207184940576553,-0.41024500131607056
11.7355318069458,0.09884531795978546,-1.4501352310180664,1.3199125528335571,-1.0124047994613647,-0.11207184940576553,-0.41024500131607056
11.755582809448242,0.10371902585029602,-1.4499316215515137,1.3225356340408325,-1.014951229095459,-0.11578269302845001,-0.4063209891319275
11.77567434310913,0.10371902585029602,-1.4499316215515137,1.3225356340408325,-1.014951229095459,-0.11578269302845001,-0.4063209891319275
11.79575228691101,0.11381728947162628,-1.4613208770751953,1.3202158212661743,-1.0144202709197998,-0.11450117826461792,-0.4026392102241516
11.815828800201416,0.11381728947162628,-1.4613208770751953,1.3202158212661743,-1.0144202709197998,-0.11450117826461792,-0.4026392102241516
11.835894584655762,0.11740437150001526,-1.4646422863006592,1.321129560470581,-1.0180575847625732,-0.11634782701730728,-0.399311900138855
11.85594367980957,0.12050965428352356,-1.4644572734832764,1.3205705881118774,-1.0222969055175781,-0.11493489891290665,-0.3957865834236145
11.876037359237671,0.12050965428352356,-1.4644572734832764,1.3205705881118774,-1.0222969055175781,-0.11493489891290665,-0.3957865834236145
11.896090984344482,0.12041081488132477,-1.453473448753357,1.326900601387024,-1.0260560512542725,-0.11959733068943024,-0.39089974761009216
11.916203737258911,0.12041081488132477,-1.453473448753357,1.326900601387024,-1.0260560512542725,-0.11959733068943024,-0.39089974761009216
11.936280727386475,0.12461578845977783,-1.4492461681365967,1.3303223848342896,-1.0242468118667603,-0.1222313791513443,-0.38713526725769043
11.956355094909668,0.12461578845977783,-1.4492461681365967,1.3303223848342896,-1.0242468118667603,-0.1222313791513443,-0.38713526725769043
11.976420879364014,0.12694241106510162,-1.448967456817627,1.3295762538909912,-1.0288819074630737,-0.12020867317914963,-0.3836645483970642
11.996472597122192,0.1295120269060135,-1.4420230388641357,1.3320003747940063,-1.025506854057312,-0.12371742725372314,-0.3806755840778351
12.016567468643188,0.1295120269060135,-1.4420230388641357,1.3320003747940063,-1.025506854057312,-0.12371742725372314,-0.3806755840778351
12.03663420677185,0.13357971608638763,-1.4413892030715942,1.330534815788269,-1.028071403503418,-0.12155967205762863,-0.3780626654624939
12.056712865829468,0.13357971608638763,-1.4413892030715942,1.330534815788269,-1.028071403503418,-0.12155967205762863,-0.3780626654624939
12.076791524887085,0.13826608657836914,-1.440833568572998,1.3298941850662231,-1.0251061916351318,-0.12194164097309113,-0.3747664988040924
12.096866369247437,0.13826608657836914,-1.440833568572998,1.3298941850662231,-1.0251061916351318,-0.12194164097309113,-0.3747664988040924
12.116973876953125,0.14630451798439026,-1.446558952331543,1.3249624967575073,-1.0245531797409058,-0.11830063164234161,-0.3722752630710602
12.13702917098999,0.1440652459859848,-1.4418799877166748,1.32325279712677,-1.0255569219589233,-0.1195075735449791,-0.3689458668231964
12.157122611999512,0.1440652459859848,-1.4418799877166748,1.32325279712677,-1.0255569219589233,-0.1195075735449791,-0.3689458668231964
12.177183389663696,0.14655837416648865,-1.4442695379257202,1.3183187246322632,-1.0245356559753418,-0.11929821223020554,-0.36493727564811707
12.197263956069946,0.14655837416648865,-1.4442695379257202,1.3183187246322632,-1.0245356559753418,-0.11929821223020554,-0.36493727564811707
12.21735167503357,0.14287494122982025,-1.4389020204544067,1.3163846731185913,-1.0255142450332642,-0.12393375486135483,-0.3586980998516083
12.237418413162231,0.14287494122982025,-1.4389020204544067,1.3163846731185913,-1.0255142450332642,-0.12393375486135483,-0.3586980998516083
12.257496356964111,0.14616848528385162,-1.4391266107559204,1.3097949028015137,-1.028481125831604,-0.12494342774152756,-0.3527604341506958
12.27755069732666,0.14771200716495514,-1.4416683912277222,1.2974988222122192,-1.0344818830490112,-0.12173600494861603,-0.3477470576763153
12.29764199256897,0.14771200716495514,-1.4416683912277222,1.2974988222122192,-1.0344818830490112,-0.12173600494861603,-0.3477470576763153
12.317707300186157,0.15859390795230865,-1.4366273880004883,1.2953803539276123,-1.0479036569595337,-0.12389756739139557,-0.34018033742904663
12.337788343429565,0.15859390795230865,-1.4366273880004883,1.2953803539276123,-1.0479036569595337,-0.12389756739139557,-0.34018033742904663
12.35787582397461,0.14405520260334015,-1.419466495513916,1.290556788444519,-1.0452038049697876,-0.13112178444862366,-0.3328460454940796
12.378039598464966,0.14405520260334015,-1.419466495513916,1.290556788444519,-1.0452038049697876,-0.13112178444862366,-0.3328460454940796
12.398136854171753,0.14954237639904022,-1.4210243225097656,1.280302882194519,-1.046599268913269,-0.12965430319309235,-0.3257748782634735
12.418216228485107,0.1476851850748062,-1.4264556169509888,1.2735027074813843,-1.0532712936401367,-0.12880772352218628,-0.32035407423973083
12.438305377960205,0.1476851850748062,-1.4264556169509888,1.2735027074813843,-1.0532712936401367,-0.12880772352218628,-0.32035407423973083
12.458363771438599,0.15375950932502747,-1.4184646606445312,1.2730058431625366,-1.0628389120101929,-0.13180959224700928,-0.3145894408226013
12.478490829467773,0.15375950932502747,-1.4184646606445312,1.2730058431625366,-1.0628389120101929,-0.13180959224700928,-0.3145894408226013
12.498567342758179,0.15460829436779022,-1.4177165031433105,1.2703443765640259,-1.0658533573150635,-0.13470469415187836,-0.3088606595993042
12.519303560256958,0.1442636102437973,-1.4004194736480713,1.2722221612930298,-1.0680140256881714,-0.14237409830093384,-0.30151212215423584
12.539385557174683,0.1442636102437973,-1.4004194736480713,1.2722221612930298,-1.0680140256881714,-0.14237409830093384,-0.30151212215423584
12.559434413909912,0.15408633649349213,-1.4216164350509644,1.2516764402389526,-1.0687620639801025,-0.13036832213401794,-0.29944437742233276
12.579529762268066,0.15408633649349213,-1.4216164350509644,1.2516764402389526,-1.0687620639801025,-0.13036832213401794,-0.29944437742233276
12.599598407745361,0.1553744524717331,-1.4210063219070435,1.2514196634292603,-1.0716725587844849,-0.13075228035449982,-0.2980209290981293
12.619673252105713,0.1553744524717331,-1.4210063219070435,1.2514196634292603,-1.0716725587844849,-0.13075228035449982,-0.2980209290981293
12.639750242233276,0.15538527071475983,-1.4007434844970703,1.2612093687057495,-1.084429144859314,-0.14256322383880615,-0.28956711292266846
12.659798860549927,0.15256093442440033,-1.3943595886230469,1.2612932920455933,-1.078365445137024,-0.14836284518241882,-0.28277331590652466
12.679893970489502,0.15256093442440033,-1.3943595886230469,1.2612932920455933,-1.078365445137024,-0.14836284518241882,-0.28277331590652466
12.699906587600708,0.15469782054424286,-1.4177427291870117,1.2424150705337524,-1.0778979063034058,-0.13606752455234528,-0.28167444467544556
12.719992399215698,0.15469782054424286,-1.4177427291870117,1.2424150705337524,-1.0778979063034058,-0.13606752455234528,-0.28167444467544556
12.740064144134521,0.16353483498096466,-1.4325027465820312,1.2414140701293945,-1.0947436094284058,-0.13234102725982666,-0.2801356613636017
12.76013708114624,0.16353483498096466,-1.4325027465820312,1.2414140701293945,-1.0947436094284058,-0.13234102725982666,-0.2801356613636017
12.780219316482544,0.16268466413021088,-1.4051737785339355,1.2559806108474731,-1.0993531942367554,-0.14785657823085785,-0.27376681566238403
12.800271034240723,0.14515577256679535,-1.3750330209732056,1.2562344074249268,-1.0833359956741333,-0.16093769669532776,-0.26616987586021423
12.820366144180298,0.14515577256679535,-1.3750330209732056,1.2562344074249268,-1.0833359956741333,-0.16093769669532776,-0.26616987586021423
12.840419054031372,0.143152117729187,-1.3902164697647095,1.2426273822784424,-1.079158902168274,-0.1526312530040741,-0.2631910443305969
12.860507249832153,0.143152117729187,-1.3902164697647095,1.2426273822784424,-1.079158902168274,-0.1526312530040741,-0.2631910443305969
12.880580186843872,0.16744865477085114,-1.443538784980774,1.2191258668899536,-1.095432996749878,-0.12715157866477966,-0.26741963624954224
12.900660991668701,0.16744865477085114,-1.443538784980774,1.2191258668899536,-1.095432996749878,-0.12715157866477966,-0.26741963624954224
12.920740365982056,0.1733044981956482,-1.4051291942596436,1.263148307800293,-1.1198137998580933,-0.15504175424575806,-0.2623131275177002
12.94079041481018,0.15430991351604462,-1.3836917877197266,1.2292958498001099,-1.0929031372070312,-0.1499289870262146,-0.2589300274848938
12.960883378982544,0.15430991351604462,-1.3836917877197266,1.2292958498001099,-1.0929031372070312,-0.1499289870262146,-0.2589300274848938
12.980938196182251,0.14653067290782928,-1.3644216060638428,1.2505518198013306,-1.0871938467025757,-0.16829414665699005,-0.2520434856414795
13.001027345657349,0.14653067290782928,-1.3644216060638428,1.2505518198013306,-1.0871938467025757,-0.16829414665699005,-0.2520434856414795
13.02110481262207,0.14784209430217743,-1.400838017463684,1.2325387001037598,-1.08582603931427,-0.15215067565441132,-0.2508762776851654
13.041182518005371,0.14784209430217743,-1.400838017463684,1.2325387001037598,-1.08582603931427,-0.15215067565441132,-0.2508762776851654
13.061260461807251,0.16892845928668976,-1.437276005744934,1.2223910093307495,-1.111800193786621,-0.1345442533493042,-0.25535863637924194
13.08130955696106,0.17687921226024628,-1.4099184274673462,1.2494721412658691,-1.1209005117416382,-0.15401296317577362,-0.25251829624176025
13.101398706436157,0.17687921226024628,-1.4099184274673462,1.2494721412658691,-1.1209005117416382,-0.15401296317577362,-0.25251829624176025
13.121483087539673,0.15604324638843536,-1.3637102842330933,1.2439548969268799,-1.106038212776184,-0.16480128467082977,-0.2477996051311493
13.14157247543335,0.15604324638843536,-1.3637102842330933,1.2439548969268799,-1.106038212776184,-0.16480128467082977,-0.2477996051311493
13.161650657653809,0.15027788281440735,-1.3722853660583496,1.2419832944869995,-1.0860466957092285,-0.16819362342357635,-0.2430824339389801
13.181729793548584,0.15027788281440735,-1.3722853660583496,1.2419832944869995,-1.0860466957092285,-0.16819362342357635,-0.2430824339389801
13.20182728767395,0.15282319486141205,-1.4205029010772705,1.2222336530685425,-1.0947250127792358,-0.1464221328496933,-0.2448611557483673
13.221879720687866,0.17949797213077545,-1.434779167175293,1.2265408039093018,-1.1243842840194702,-0.13884982466697693,-0.24785807728767395
13.24197793006897,0.17949797213077545,-1.434779167175293,1.2265408039093018,-1.1243842840194702,-0.13884982466697693,-0.24785807728767395
13.262037515640259,0.17323432862758636,-1.3979265689849854,1.2438013553619385,-1.119608998298645,-0.16077442467212677,-0.24428632855415344
13.282124519348145,0.17323432862758636,-1.3979265689849854,1.2438013553619385,-1.119608998298645,-0.16077442467212677,-0.24428632855415344
13.302210092544556,0.1636206954717636,-1.3624862432479858,1.2500498294830322,-1.1084641218185425,-0.1726370006799698,-0.2400246262550354
13.322282791137695,0.1636206954717636,-1.3624862432479858,1.2500498294830322,-1.1084641218185425,-0.1726370006799698,-0.2400246262550354
13.342350006103516,0.1403851956129074,-1.356332778930664,1.2385197877883911,-1.0855332612991333,-0.17239893972873688,-0.2355675846338272
13.362401962280273,0.16139842569828033,-1.4420645236968994,1.2014321088790894,-1.0971674919128418,-0.1343800127506256,-0.242769256234169
13.38248586654663,0.16139842569828033,-1.4420645236968994,1.2014321088790894,-1.0971674919128418,-0.1343800127506256,-0.242769256234169
13.402540922164917,0.17647376656532288,-1.4214820861816406,1.240691065788269,-1.132691502571106,-0.1527794897556305,-0.24132591485977173
13.422619104385376,0.17647376656532288,-1.4214820861816406,1.240691065788269,-1.132691502571106,-0.1527794897556305,-0.24132591485977173
13.442697286605835,0.16767774522304535,-1.3950047492980957,1.2329570055007935,-1.1200634241104126,-0.16144055128097534,-0.2397451400756836
13.462764978408813,0.16767774522304535,-1.3950047492980957,1.2329570055007935,-1.1200634241104126,-0.16144055128097534,-0.2397451400756836
13.482834100723267,0.17085878551006317,-1.3684877157211304,1.24666166305542,-1.115587592124939,-0.17371337115764618,-0.23478174209594727
13.502886772155762,0.11713533103466034,-1.3147146701812744,1.2387593984603882,-1.0673609972000122,-0.18786756694316864,-0.22616046667099
13.522992134094238,0.11713533103466034,-1.3147146701812744,1.2387593984603882,-1.0673609972000122,-0.18786756694316864,-0.22616046667099
13.543049812316895,0.13622276484966278,-1.4064605236053467,1.206618070602417,-1.0867692232131958,-0.14865842461585999,-0.23163726925849915
13.563146114349365,0.13622276484966278,-1.4064605236053467,1.206618070602417,-1.0867692232131958,-0.14865842461585999,-0.23163726925849915
13.583253145217896,0.18143920600414276,-1.4640662670135498,1.2136322259902954,-1.1262036561965942,-0.13152670860290527,-0.237978994846344
13.603342294692993,0.18143920600414276,-1.4640662670135498,1.2136322259902954,-1.1262036561965942,-0.13152670860290527,-0.237978994846344
13.623379945755005,0.1653529405593872,-1.3787102699279785,1.2650073766708374,-1.136349081993103,-0.17463618516921997,-0.23267465829849243
13.643429040908813,0.1747771054506302,-1.4040132761001587,1.209343433380127,-1.1118379831314087,-0.14316628873348236,-0.23708534240722656
13.663525581359863,0.1747771054506302,-1.4040132761001587,1.209343433380127,-1.1118379831314087,-0.14316628873348236,-0.23708534240722656
13.68358325958252,0.13190142810344696,-1.3250553607940674,1.2632461786270142,-1.089556336402893,-0.1933237612247467,-0.22543512284755707
13.70367980003357,0.13190142810344696,-1.3250553607940674,1.2632461786270142,-1.089556336402893,-0.1933237612247467,-0.22543512284755707
13.723756551742554,0.1400071680545807,-1.374533772468567,1.2488700151443481,-1.0946780443191528,-0.17322155833244324,-0.22530710697174072
13.744140386581421,0.1400071680545807,-1.374533772468567,1.2488700151443481,-1.0946780443191528,-0.17322155833244324,-0.22530710697174072
13.764230012893677,0.15140171349048615,-1.4447237253189087,1.1993037462234497,-1.0976319313049316,-0.13413149118423462,-0.2333284318447113
13.784286975860596,0.18542906641960144,-1.4163799285888672,1.2662767171859741,-1.1428529024124146,-0.16154253482818604,-0.23116381466388702
13.8043794631958,0.18542906641960144,-1.4163799285888672,1.2662767171859741,-1.1428529024124146,-0.16154253482818604,-0.23116381466388702
13.824444770812988,0.16935886442661285,-1.3949261903762817,1.2208317518234253,-1.115705132484436,-0.1517549604177475,-0.2341468781232834
13.844527959823608,0.16935886442661285,-1.3949261903762817,1.2208317518234253,-1.115705132484436,-0.1517549604177475,-0.2341468781232834
13.864614963531494,0.16129833459854126,-1.3609975576400757,1.2561553716659546,-1.1150740385055542,-0.17569081485271454,-0.2295297384262085
13.885337591171265,0.13717398047447205,-1.375653624534607,1.2333931922912598,-1.0847859382629395,-0.16700120270252228,-0.2280070185661316
13.90545392036438,0.13717398047447205,-1.375653624534607,1.2333931922912598,-1.0847859382629395,-0.16700120270252228,-0.2280070185661316
13.925511121749878,0.15369394421577454,-1.4403345584869385,1.206628680229187,-1.1042720079421997,-0.1367439329624176,-0.234122633934021
13.945600748062134,0.15369394421577454,-1.4403345584869385,1.206628680229187,-1.1042720079421997,-0.1367439329624176,-0.234122633934021
13.965684175491333,0.19039051234722137,-1.4298498630523682,1.2461378574371338,-1.1413205862045288,-0.14889483153820038,-0.23442374169826508
13.98575735092163,0.19039051234722137,-1.4298498630523682,1.2461378574371338,-1.1413205862045288,-0.14889483153820038,-0.23442374169826508
14.005847930908203,0.1726120114326477,-1.3926098346710205,1.2318387031555176,-1.122017741203308,-0.15846899151802063,-0.23407313227653503
14.025897979736328,0.165715292096138,-1.3617066144943237,1.2569524049758911,-1.116395354270935,-0.17965863645076752,-0.22925980389118195
14.0459885597229,0.165715292096138,-1.3617066144943237,1.2569524049758911,-1.116395354270935,-0.17965863645076752,-0.22925980389118195
14.066051959991455,0.1288783699274063,-1.343356966972351,1.2396092414855957,-1.0783292055130005,-0.18067876994609833,-0.22380667924880981
14.086142778396606,0.1288783699274063,-1.343356966972351,1.2396092414855957,-1.0783292055130005,-0.18067876994609833,-0.22380667924880981
14.10624647140503,0.1469394713640213,-1.4303680658340454,1.2075620889663696,-1.0954681634902954,-0.14320167899131775,-0.22968237102031708
14.12632417678833,0.1469394713640213,-1.4303680658340454,1.2075620889663696,-1.0954681634902954,-0.14320167899131775,-0.22968237102031708
14.146422147750854,0.18529753386974335,-1.4518442153930664,1.222072958946228,-1.1345784664154053,-0.13607922196388245,-0.2335740327835083
14.166475772857666,0.16422683000564575,-1.380750298500061,1.2525744438171387,-1.1358758211135864,-0.1703672856092453,-0.23058000206947327
14.186564445495605,0.16422683000564575,-1.380750298500061,1.2525744438171387,-1.1358758211135864,-0.1703672856092453,-0.23058000206947327
14.206620454788208,0.18818117678165436,-1.3914711475372314,1.235739827156067,-1.117993712425232,-0.1614045947790146,-0.23087376356124878
14.22671627998352,0.18818117678165436,-1.3914711475372314,1.235739827156067,-1.117993712425232,-0.1614045947790146,-0.23087376356124878
14.246771812438965,0.10889363288879395,-1.2962017059326172,1.2448139190673828,-1.0685725212097168,-0.19561322033405304,-0.2204173356294632
14.266867637634277,0.10889363288879395,-1.2962017059326172,1.2448139190673828,-1.0685725212097168,-0.19561322033405304,-0.2204173356294632
14.286944150924683,0.13078318536281586,-1.3658528327941895,1.2387562990188599,-1.0944507122039795,-0.17215637862682343,-0.22093640267848969
14.307000875473022,0.15587298572063446,-1.4757046699523926,1.1828094720840454,-1.0934356451034546,-0.126755952835083,-0.23091168701648712
14.327092409133911,0.15587298572063446,-1.4757046699523926,1.1828094720840454,-1.0934356451034546,-0.126755952835083,-0.23091168701648712
14.347164630889893,0.17154838144779205,-1.427762746810913,1.2355459928512573,-1.135776162147522,-0.1503996104001999,-0.2292616069316864
14.367247581481934,0.17154838144779205,-1.427762746810913,1.2355459928512573,-1.135776162147522,-0.1503996104001999,-0.2292616069316864
14.387362480163574,0.16502580046653748,-1.3927475214004517,1.2485276460647583,-1.1286543607711792,-0.16546179354190826,-0.2271306812763214
14.40737533569336,0.16502580046653748,-1.3927475214004517,1.2485276460647583,-1.1286543607711792,-0.16546179354190826,-0.2271306812763214
