liuyurong129/humanoid-gym/humanoid/data/target_q_20250523-024723.csv
timestamp,joint_1,joint_2,joint_3,joint_4,joint_5,joint_6
9.226799011230469e-05,0.0,0.0,0.0,0.0,0.0,0.0
0.020159006118774414,0.0,0.0,0.0,0.0,0.0,0.0
0.04024696350097656,0.0,0.0,0.0,0.0,0.0,0.0
0.06031513214111328,0.5688692331314087,-0.6385184526443481,0.34115734696388245,-0.33552026748657227,0.21387527883052826,-0.25020352005958557
0.08036613464355469,0.34010592103004456,-1.6915737390518188,0.44267362356185913,-0.17146119475364685,0.06371694803237915,-0.19576825201511383
0.10044717788696289,0.3297598361968994,-2.0654146671295166,0.5163220167160034,-0.13530316948890686,0.025642141699790955,-0.1651514768600464
0.12054800987243652,0.3376512825489044,-2.581294298171997,0.5858160257339478,-0.11112330853939056,-0.059013113379478455,-0.16445378959178925
0.1406080722808838,0.3440849781036377,-2.8522493839263916,0.6197986602783203,-0.09345416724681854,-0.10575023293495178,-0.16309843957424164
0.16064453125,0.3498344123363495,-2.96,0.6331390738487244,-0.08000167459249496,-0.1275751143693924,-0.16310586035251617
0.18079161643981934,0.35286039113998413,-2.96,0.6416419744491577,-0.07085178047418594,-0.1442929059267044,-0.165151447057724
0.2009422779083252,0.35400351881980896,-2.96,0.6430732011795044,-0.07234811782836914,-0.14451366662979126,-0.1616402417421341
0.2209925651550293,0.3558698892593384,-2.96,0.6457804441452026,-0.06572842597961426,-0.15061305463314056,-0.16558878123760223
0.24102115631103516,0.35665765404701233,-2.96,0.6444897651672363,-0.06754681468009949,-0.1488448530435562,-0.16357183456420898
0.2611091136932373,0.35643959045410156,-2.96,0.6475557088851929,-0.06434381008148193,-0.1547042429447174,-0.16379396617412567
0.2812306880950928,0.35656970739364624,-2.96,0.6489666700363159,-0.06489913910627365,-0.15631863474845886,-0.16626815497875214
0.30147838592529297,0.35724493861198425,-2.96,0.6517259478569031,-0.06799614429473877,-0.15384691953659058,-0.16760043799877167
0.32140016555786133,0.3556259870529175,-2.96,0.6481316685676575,-0.0727267786860466,-0.14985567331314087,-0.16165795922279358
0.3418312072753906,0.3572216331958771,-2.96,0.6491184234619141,-0.06418947875499725,-0.15405729413032532,-0.16870827972888947
0.36195802688598633,0.3566865622997284,-2.96,0.6470496654510498,-0.06807738542556763,-0.14992891252040863,-0.16358301043510437
0.3820335865020752,0.3547545373439789,-2.96,0.6483819484710693,-0.06571420282125473,-0.15519466996192932,-0.16204430162906647
0.4020540714263916,0.3550501763820648,-2.96,0.6526850461959839,-0.06558281928300858,-0.15861164033412933,-0.1655309945344925
0.42214393615722656,0.35774484276771545,-2.96,0.6524183750152588,-0.06949102133512497,-0.15370996296405792,-0.16431373357772827
0.4422333240509033,0.35729822516441345,-2.96,0.653332531452179,-0.06741625815629959,-0.15764185786247253,-0.16718018054962158
0.46231698989868164,0.3580179214477539,-2.96,0.6510845422744751,-0.060472846031188965,-0.1616196483373642,-0.17098736763000488
0.4824037551879883,0.35809454321861267,-2.96,0.6495885848999023,-0.06733643263578415,-0.15219947695732117,-0.16574756801128387
0.5024816989898682,0.3563564717769623,-2.96,0.6537666320800781,-0.07009923458099365,-0.155706986784935,-0.16532962024211884
0.522608757019043,0.35866841673851013,-2.96,0.6534137725830078,-0.06777642667293549,-0.1539994478225708,-0.16832077503204346
0.5426995754241943,0.3582821786403656,-2.96,0.6505356431007385,-0.06833776086568832,-0.1526363492012024,-0.16541865468025208
0.5628058910369873,0.3588202893733978,-2.96,0.6515808701515198,-0.06811576336622238,-0.15492399036884308,-0.16744965314865112
0.5829274654388428,0.35839545726776123,-2.96,0.654716968536377,-0.06270723044872284,-0.16016793251037598,-0.1707315593957901
0.6029963493347168,0.3586260676383972,-2.96,0.653346598148346,-0.06659145653247833,-0.15583501756191254,-0.16887414455413818
0.6229798793792725,0.35863134264945984,-2.96,0.6520987749099731,-0.06817582994699478,-0.1528634876012802,-0.16581586003303528
0.6431069374084473,0.35742518305778503,-2.96,0.654758870601654,-0.06920769065618515,-0.1565159112215042,-0.1652955859899521
0.6631441116333008,0.3589642345905304,-2.96,0.6547488570213318,-0.06657040864229202,-0.15729914605617523,-0.16811387240886688
0.6832046508789062,0.35777562856674194,-2.96,0.6540905237197876,-0.07378603518009186,-0.15219759941101074,-0.16308768093585968
0.7032995223999023,0.3574848175048828,-2.96,0.6544662714004517,-0.07090397924184799,-0.15454861521720886,-0.16433855891227722
0.7233502864837646,0.3580348491668701,-2.96,0.654849648475647,-0.0712224617600441,-0.15410223603248596,-0.16382648050785065
0.7434804439544678,0.3586346209049225,-2.96,0.6567379236221313,-0.06960073858499527,-0.15651445090770721,-0.1676846444606781
0.7636034488677979,0.3589184284210205,-2.96,0.6548463106155396,-0.06914952397346497,-0.15524782240390778,-0.1666593998670578
0.7836828231811523,0.359790176153183,-2.96,0.6568089723587036,-0.06921252608299255,-0.15620923042297363,-0.16876660287380219
0.8037295341491699,0.35841453075408936,-2.96,0.6554058194160461,-0.07374198734760284,-0.15355826914310455,-0.16367971897125244
0.8238861560821533,0.3585321307182312,-2.96,0.6587076187133789,-0.07252926379442215,-0.15604883432388306,-0.1655358374118805
0.8439476490020752,0.3587491810321808,-2.96,0.658901572227478,-0.07143139094114304,-0.15724574029445648,-0.16767223179340363
0.8639974594116211,0.3594934046268463,-2.96,0.656979501247406,-0.06983918696641922,-0.1559283286333084,-0.16832235455513
0.8843898773193359,0.3578689992427826,-2.96,0.6575192213058472,-0.07405029982328415,-0.15483425557613373,-0.16337241232395172
0.904498815536499,0.3593938946723938,-2.96,0.6594277620315552,-0.06886591017246246,-0.1586388647556305,-0.16844168305397034
0.9246017932891846,0.3543272316455841,-2.96,0.658164381980896,-0.058773837983608246,-0.16682963073253632,-0.16897039115428925
0.9447817802429199,0.35560670495033264,-2.96,0.6624224185943604,-0.07729196548461914,-0.15869958698749542,-0.16246706247329712
0.9649524688720703,0.3596116304397583,-2.96,0.66192626953125,-0.07333431392908096,-0.1609850525856018,-0.1680605560541153
0.9850399494171143,0.36052754521369934,-2.96,0.6590055823326111,-0.06954121589660645,-0.15781299769878387,-0.1690840870141983
1.0050828456878662,0.358502060174942,-2.96,0.661986231803894,-0.07190711796283722,-0.1611141413450241,-0.16788339614868164
1.025172472000122,0.35943636298179626,-2.96,0.660324215888977,-0.06941752135753632,-0.16004350781440735,-0.16905467212200165
1.0451855659484863,0.35973474383354187,-2.96,0.6601194739341736,-0.0710672065615654,-0.1572229564189911,-0.16842444241046906
1.0652499198913574,0.35936933755874634,-2.96,0.6598143577575684,-0.07319264858961105,-0.15607775747776031,-0.16504405438899994
1.0853731632232666,0.3596189022064209,-2.96,0.6617591977119446,-0.07212354987859726,-0.15808312594890594,-0.1679738163948059
1.1054441928863525,0.3599622845649719,-2.96,0.6627463102340698,-0.07144930958747864,-0.1596829742193222,-0.16926933825016022
1.1255793571472168,0.3600349724292755,-2.96,0.661378026008606,-0.07112383842468262,-0.15928591787815094,-0.16903436183929443
1.1463086605072021,0.3615449070930481,-2.96,0.6629307270050049,-0.0673154816031456,-0.16295889019966125,-0.1730058789253235
1.166445255279541,0.3590760827064514,-2.96,0.6642201542854309,-0.08135218173265457,-0.15526986122131348,-0.1640949845314026
1.1865661144256592,0.3586479723453522,-2.96,0.6627883911132812,-0.0782671570777893,-0.1561339646577835,-0.16342324018478394
1.2065849304199219,0.35901904106140137,-2.96,0.6618183851242065,-0.0745212584733963,-0.15700896084308624,-0.1637156903743744
1.2273027896881104,0.3594129979610443,-2.96,0.6655759215354919,-0.07944199442863464,-0.1566629409790039,-0.16438069939613342
1.2474536895751953,0.36262276768684387,-2.96,0.6660527586936951,-0.06623244285583496,-0.16436289250850677,-0.17578928172588348
1.2674810886383057,0.36213064193725586,-2.96,0.6625112891197205,-0.07174185663461685,-0.1560637503862381,-0.17062437534332275
1.2875676155090332,0.35982266068458557,-2.96,0.6630154252052307,-0.07701601088047028,-0.15551580488681793,-0.16529488563537598
1.3077027797698975,0.36142686009407043,-2.96,0.666306734085083,-0.07044807821512222,-0.16203397512435913,-0.17320051789283752
1.3277227878570557,0.36245712637901306,-2.96,0.6661221385002136,-0.06778863072395325,-0.16274365782737732,-0.1751355081796646
1.3478410243988037,0.36148354411125183,-2.96,0.6610674858093262,-0.07486587017774582,-0.15336748957633972,-0.16741809248924255
1.3679709434509277,0.3616137206554413,-2.96,0.6623287200927734,-0.07697060704231262,-0.15493321418762207,-0.16638176143169403
1.388078212738037,0.3612779378890991,-2.96,0.6641359925270081,-0.07420080900192261,-0.15773619711399078,-0.16821128129959106
1.4081957340240479,0.36195769906044006,-2.96,0.6636252403259277,-0.07690256088972092,-0.15627500414848328,-0.16711542010307312
1.4282464981079102,0.35924383997917175,-2.96,0.6667554378509521,-0.07513359934091568,-0.16040156781673431,-0.16630354523658752
1.448272705078125,0.3595563471317291,-2.96,0.6718240976333618,-0.08159538358449936,-0.15949127078056335,-0.16743093729019165
1.4683811664581299,0.3616965115070343,-2.96,0.6677833795547485,-0.07135892659425735,-0.16124939918518066,-0.17023123800754547
1.4884421825408936,0.3612959086894989,-2.96,0.6691396236419678,-0.07953111827373505,-0.1583634465932846,-0.1684948205947876
1.5085372924804688,0.36109310388565063,-2.96,0.6668225526809692,-0.07653147727251053,-0.15942785143852234,-0.16733165085315704
1.5285933017730713,0.3616187274456024,-2.96,0.6710718870162964,-0.07516337186098099,-0.1623179316520691,-0.17071600258350372
1.5486741065979004,0.36082056164741516,-2.96,0.667760968208313,-0.08035517483949661,-0.157033309340477,-0.16481395065784454
1.5687484741210938,0.35962799191474915,-2.96,0.6702708005905151,-0.08437898755073547,-0.15733565390110016,-0.1635528802871704
1.5887928009033203,0.3605676591396332,-2.96,0.670957088470459,-0.08215291798114777,-0.15890885889530182,-0.16532452404499054
1.608875036239624,0.36373406648635864,-2.96,0.6711972951889038,-0.07111125439405441,-0.16413623094558716,-0.17651934921741486
1.6289398670196533,0.3631327152252197,-2.96,0.6698802709579468,-0.0751364529132843,-0.16008493304252625,-0.17305758595466614
1.6490118503570557,0.3627289831638336,-2.96,0.6713886260986328,-0.07203146815299988,-0.16446782648563385,-0.17533011734485626
1.6691246032714844,0.36345764994621277,-2.96,0.6702768802642822,-0.07252524048089981,-0.16215234994888306,-0.17392094433307648
1.689225435256958,0.36110347509384155,-2.96,0.6693251729011536,-0.08137194812297821,-0.1592479646205902,-0.16496971249580383
1.7092773914337158,0.3606293201446533,-2.96,0.6702991127967834,-0.08445944637060165,-0.15804767608642578,-0.16450080275535583
1.7294631004333496,0.3612481653690338,-2.96,0.6742687225341797,-0.07814100384712219,-0.1629658043384552,-0.1697048544883728
1.7495527267456055,0.3615761399269104,-2.96,0.6714578866958618,-0.07989753782749176,-0.1594192534685135,-0.16645318269729614
1.7696237564086914,0.3614153563976288,-2.96,0.6724372506141663,-0.08173542469739914,-0.16083352267742157,-0.16554082930088043
1.7896883487701416,0.3615836799144745,-2.96,0.674954891204834,-0.079640232026577,-0.16387207806110382,-0.16942255198955536
1.809774398803711,0.3629412353038788,-2.96,0.6727402210235596,-0.08013425767421722,-0.15928120911121368,-0.16939640045166016
1.8298404216766357,0.36181536316871643,-2.96,0.6729475855827332,-0.08331117033958435,-0.1581050008535385,-0.16553895175457
1.8499035835266113,0.3613620698451996,-2.96,0.6754132509231567,-0.0825996994972229,-0.16095352172851562,-0.16735267639160156
1.8699967861175537,0.3631417453289032,-2.96,0.6732927560806274,-0.07779476791620255,-0.16101320087909698,-0.16998092830181122
1.8901779651641846,0.3639689087867737,-2.96,0.6734006404876709,-0.08362902700901031,-0.15771329402923584,-0.16979476809501648
1.9103026390075684,0.3636048436164856,-2.96,0.6772936582565308,-0.07681407779455185,-0.16595394909381866,-0.1736127883195877
1.930337905883789,0.3617628514766693,-2.96,0.6766716837882996,-0.07220552116632462,-0.1673203408718109,-0.17385855317115784
1.950408935546875,0.360617071390152,-2.96,0.6779941320419312,-0.08482034504413605,-0.162575364112854,-0.16615568101406097
1.970595359802246,0.3617330491542816,-2.96,0.6775851249694824,-0.08724697679281235,-0.1612822413444519,-0.1651916801929474
1.9905731678009033,0.36145415902137756,-2.96,0.675868034362793,-0.0855429470539093,-0.15968748927116394,-0.1654406487941742
2.0108962059020996,0.3634796142578125,-2.96,0.6743593811988831,-0.07858024537563324,-0.16070562601089478,-0.16946417093276978
2.030979633331299,0.3644614517688751,-2.96,0.6792144775390625,-0.07462567090988159,-0.16855965554714203,-0.17507152259349823
2.0510480403900146,0.3657839298248291,-2.96,0.6768302917480469,-0.07423249632120132,-0.1649055778980255,-0.17616106569766998
2.0711541175842285,0.36668622493743896,-2.96,0.6744260787963867,-0.07661446183919907,-0.1607847958803177,-0.17463421821594238
2.091221570968628,0.3624890446662903,-2.96,0.6768975257873535,-0.08396778255701065,-0.16181360185146332,-0.16674496233463287
2.1112849712371826,0.363912433385849,-2.96,0.680605947971344,-0.07981522381305695,-0.16629892587661743,-0.17203934490680695
2.131354808807373,0.36508357524871826,-2.96,0.679719090461731,-0.0740845799446106,-0.16841578483581543,-0.17531482875347137
2.1514084339141846,0.3651350736618042,-2.96,0.6769688129425049,-0.08272761106491089,-0.15812663733959198,-0.16975195705890656
2.1715047359466553,0.3645593822002411,-2.96,0.6803354024887085,-0.07829999923706055,-0.1662222445011139,-0.17392022907733917
2.191563844680786,0.36401939392089844,-2.96,0.6783371567726135,-0.07960446923971176,-0.16289591789245605,-0.17092996835708618
2.211637020111084,0.36422017216682434,-2.96,0.6790604591369629,-0.08507350832223892,-0.16057175397872925,-0.16838671267032623
2.2316787242889404,0.36569279432296753,-2.96,0.6806936264038086,-0.08014791458845139,-0.16485393047332764,-0.17498020827770233
2.252091884613037,0.36497706174850464,-2.96,0.6795449256896973,-0.08398209512233734,-0.16169621050357819,-0.1704663336277008
2.272178888320923,0.36379578709602356,-2.96,0.6815162897109985,-0.0869235247373581,-0.16239455342292786,-0.16959089040756226
2.2922935485839844,0.36314791440963745,-2.96,0.6814451813697815,-0.0884704664349556,-0.16161507368087769,-0.1684606820344925
2.312361717224121,0.36268168687820435,-2.96,0.6803529858589172,-0.08784514665603638,-0.16092489659786224,-0.16662302613258362
2.33241605758667,0.3662654757499695,-2.96,0.6808042526245117,-0.07977040857076645,-0.16242873668670654,-0.17531992495059967
2.3524887561798096,0.36552947759628296,-2.96,0.6832993030548096,-0.08439121395349503,-0.16232530772686005,-0.1731976717710495
2.3727242946624756,0.36419832706451416,-2.96,0.6814202070236206,-0.08825854957103729,-0.16036584973335266,-0.16818639636039734
2.392657995223999,0.3637760281562805,-2.96,0.6813372373580933,-0.08675406128168106,-0.16202899813652039,-0.16740421950817108
2.412743091583252,0.3664633333683014,-2.96,0.6806739568710327,-0.08365882188081741,-0.16039077937602997,-0.17376689612865448
2.4328064918518066,0.36455801129341125,-2.96,0.6837560534477234,-0.08758693933486938,-0.16247045993804932,-0.16956251859664917
2.4529922008514404,0.3639523684978485,-2.96,0.6844998598098755,-0.0893554538488388,-0.1628754436969757,-0.1689821183681488
2.4729983806610107,0.363814115524292,-2.96,0.6836398839950562,-0.08768055588006973,-0.1623626947402954,-0.16867314279079437
2.493084669113159,0.3662838041782379,-2.96,0.6850541830062866,-0.07941889017820358,-0.16730377078056335,-0.1764693260192871
2.513230562210083,0.36748549342155457,-2.96,0.6853414177894592,-0.07619233429431915,-0.16999319195747375,-0.17936553061008453
2.5332417488098145,0.36784860491752625,-2.96,0.686915934085846,-0.07849583029747009,-0.16719813644886017,-0.18058595061302185
2.553506851196289,0.3679499924182892,-2.96,0.6854375600814819,-0.07805377244949341,-0.16662952303886414,-0.17934729158878326
2.573683738708496,0.3634500205516815,-2.96,0.6873396635055542,-0.09179487079381943,-0.16321925818920135,-0.16767926514148712
2.5937066078186035,0.3647167682647705,-2.96,0.6866145133972168,-0.08907154947519302,-0.16378669440746307,-0.16917802393436432
2.613844156265259,0.3639918863773346,-2.96,0.6884232759475708,-0.09279494732618332,-0.16335737705230713,-0.16845735907554626
2.6339352130889893,0.3682904541492462,-2.96,0.6873928904533386,-0.07896372675895691,-0.16820864379405975,-0.17952583730220795
2.6540143489837646,0.36760255694389343,-2.96,0.6872376203536987,-0.07857443392276764,-0.16834591329097748,-0.1792382001876831
2.6740872859954834,0.3678704798221588,-2.96,0.6900231242179871,-0.0794220119714737,-0.16997766494750977,-0.18015456199645996
2.6941585540771484,0.36406102776527405,-2.96,0.6915336847305298,-0.09000561386346817,-0.1695920079946518,-0.17104500532150269
2.7142746448516846,0.36520764231681824,-2.96,0.6863239407539368,-0.08593422174453735,-0.16497837007045746,-0.17103630304336548
2.7343244552612305,0.362964391708374,-2.96,0.6889970898628235,-0.09119863063097,-0.16349248588085175,-0.16649389266967773
2.7543797492980957,0.36346158385276794,-2.96,0.6917597651481628,-0.09197714924812317,-0.16586212813854218,-0.16703304648399353
2.77445650100708,0.36777475476264954,-2.96,0.6898799538612366,-0.07959806174039841,-0.1708185076713562,-0.17685101926326752
2.794635057449341,0.36930596828460693,-2.96,0.6900930404663086,-0.0797376036643982,-0.16977620124816895,-0.1790972352027893
2.8146448135375977,0.36852532625198364,-2.96,0.6888843774795532,-0.08363115787506104,-0.16541488468647003,-0.17667697370052338
2.834831476211548,0.36792367696762085,-2.96,0.6925054788589478,-0.08286893367767334,-0.16927875578403473,-0.1773335039615631
2.85498046875,0.36544615030288696,-2.96,0.692810595035553,-0.09508319944143295,-0.16283050179481506,-0.16872572898864746
2.8751015663146973,0.36508962512016296,-2.96,0.6921674013137817,-0.09347418695688248,-0.16440272331237793,-0.1679263412952423
2.895129680633545,0.3651420474052429,-2.96,0.6922178864479065,-0.09307720512151718,-0.16466249525547028,-0.16857090592384338
2.915712594985962,0.3681566119194031,-2.96,0.69326251745224,-0.08383265137672424,-0.1691788136959076,-0.17803721129894257
2.9358022212982178,0.36800017952919006,-2.96,0.6936814188957214,-0.08450878411531448,-0.169349804520607,-0.17786985635757446
2.9558746814727783,0.36912456154823303,-2.9524431228637695,0.6948164105415344,-0.08192166686058044,-0.1730029582977295,-0.1811491847038269
2.976011037826538,0.3654286861419678,-2.96,0.6952893733978271,-0.09784242510795593,-0.163987934589386,-0.1688198745250702
2.9960567951202393,0.36576834321022034,-2.96,0.6942030191421509,-0.09233551472425461,-0.16640299558639526,-0.17059041559696198
3.0161845684051514,0.3663942813873291,-2.96,0.6942270994186401,-0.09234480559825897,-0.16548623144626617,-0.17040562629699707
3.0362470149993896,0.36728736758232117,-2.96,0.6942364573478699,-0.09332381933927536,-0.1643204689025879,-0.17081549763679504
3.056307315826416,0.3688618242740631,-2.96,0.6935130953788757,-0.08794301003217697,-0.16606801748275757,-0.17546144127845764
3.076381206512451,0.36873188614845276,-2.9562947750091553,0.6993858814239502,-0.08665453642606735,-0.17183394730091095,-0.17888103425502777
3.0964224338531494,0.36761409044265747,-2.96,0.6929095983505249,-0.09164001792669296,-0.1647786796092987,-0.17085425555706024
3.116595506668091,0.36716559529304504,-2.96,0.6967399716377258,-0.08920420706272125,-0.16930870711803436,-0.17348310351371765
3.136676073074341,0.36743706464767456,-2.96,0.6970241069793701,-0.09315330535173416,-0.16597770154476166,-0.1718064844608307
3.1567609310150146,0.36845117807388306,-2.96,0.6982396841049194,-0.08816343545913696,-0.1708833873271942,-0.17559251189231873
3.176804304122925,0.37017014622688293,-2.951226234436035,0.6997132897377014,-0.08566070348024368,-0.17249682545661926,-0.17974379658699036
3.1968863010406494,0.36689627170562744,-2.959981679916382,0.6973289847373962,-0.09627537429332733,-0.16611725091934204,-0.16950958967208862
3.217003345489502,0.36526837944984436,-2.96,0.6976504921913147,-0.09721142798662186,-0.16706901788711548,-0.16862288117408752
3.237114667892456,0.365608274936676,-2.945756196975708,0.7022921442985535,-0.09898447245359421,-0.17036595940589905,-0.17031194269657135
3.257148265838623,0.3682268559932709,-2.9430744647979736,0.7002580165863037,-0.08945205807685852,-0.17333786189556122,-0.176758274435997
3.277320384979248,0.3692375719547272,-2.9538114070892334,0.6961377859115601,-0.09698671847581863,-0.16303163766860962,-0.17213431000709534
3.2974889278411865,0.3668299913406372,-2.9501137733459473,0.6994344592094421,-0.09659130126237869,-0.16834871470928192,-0.17060209810733795
3.317505359649658,0.36814868450164795,-2.9350321292877197,0.7018822431564331,-0.09577573835849762,-0.17053425312042236,-0.17311273515224457
3.3375582695007324,0.3676694631576538,-2.952012300491333,0.6979493498802185,-0.09293224662542343,-0.1670842319726944,-0.1718236654996872
3.3577077388763428,0.3695525825023651,-2.9390721321105957,0.7025178074836731,-0.08796355873346329,-0.17425255477428436,-0.1793830692768097
3.3777713775634766,0.3712822198867798,-2.9330251216888428,0.701971173286438,-0.08633067458868027,-0.1735878586769104,-0.181473508477211
3.397860527038574,0.3705967366695404,-2.935718059539795,0.6986594200134277,-0.09700957685709,-0.16289760172367096,-0.17352426052093506
3.4179630279541016,0.36856237053871155,-2.928270101547241,0.7024679183959961,-0.0965418741106987,-0.17029842734336853,-0.17440372705459595
3.438059091567993,0.36914822459220886,-2.9403316974639893,0.6974934935569763,-0.09270685911178589,-0.1667710840702057,-0.17374852299690247
3.4581234455108643,0.36932235956192017,-2.9469077587127686,0.7012898921966553,-0.09132785350084305,-0.170695960521698,-0.17626726627349854
3.478163957595825,0.3698517680168152,-2.956430196762085,0.6987287998199463,-0.08964085578918457,-0.1698187291622162,-0.17540526390075684
3.4982683658599854,0.36991336941719055,-2.9422173500061035,0.7062629461288452,-0.09188302606344223,-0.17465117573738098,-0.1793389767408371
3.5183324813842773,0.3706526458263397,-2.9342613220214844,0.7028377652168274,-0.08924795687198639,-0.17374391853809357,-0.17861276865005493
3.5384273529052734,0.37196215987205505,-2.9264602661132812,0.7055305242538452,-0.08674922585487366,-0.17586073279380798,-0.18301203846931458
3.558448076248169,0.3704950213432312,-2.9307749271392822,0.7004929780960083,-0.09434176236391068,-0.16746053099632263,-0.17464986443519592
3.5785305500030518,0.3708210587501526,-2.9120571613311768,0.7085804343223572,-0.09011594206094742,-0.17765812575817108,-0.18323580920696259
3.5985989570617676,0.36550062894821167,-2.9306132793426514,0.7036644816398621,-0.0889352560043335,-0.17520152032375336,-0.17601945996284485
3.6187057495117188,0.3714025616645813,-2.9285812377929688,0.7046377062797546,-0.0915219783782959,-0.17298591136932373,-0.17708688974380493
3.6387362480163574,0.3699909448623657,-2.934852361679077,0.7014975547790527,-0.0977439284324646,-0.16737380623817444,-0.17264483869075775
3.658811569213867,0.3717012107372284,-2.9179036617279053,0.7057610750198364,-0.08663718402385712,-0.17829716205596924,-0.1827421635389328
3.6789913177490234,0.3707678020000458,-2.927561044692993,0.7033684849739075,-0.09528297930955887,-0.16931851208209991,-0.17620551586151123
3.6990549564361572,0.3710036277770996,-2.9200732707977295,0.7066991329193115,-0.09128884226083755,-0.17596042156219482,-0.17857950925827026
3.719106674194336,0.3718947768211365,-2.913928747177124,0.710289716720581,-0.09088114649057388,-0.17683321237564087,-0.18208037316799164
3.73921799659729,0.3694153130054474,-2.926923990249634,0.7061866521835327,-0.10118529200553894,-0.16875092685222626,-0.17065443098545074
3.7593491077423096,0.3680228292942047,-2.9168765544891357,0.7078406810760498,-0.10537025332450867,-0.17002545297145844,-0.16904520988464355
3.77934193611145,0.36903247237205505,-2.9169838428497314,0.7082112431526184,-0.1012503132224083,-0.17174875736236572,-0.17193235456943512
3.7994072437286377,0.3735925853252411,-2.9031383991241455,0.7095316648483276,-0.09050344675779343,-0.17645862698554993,-0.1839381456375122
3.8194739818573,0.3719714283943176,-2.9080615043640137,0.7077540159225464,-0.09068111330270767,-0.1764155626296997,-0.18124772608280182
3.839527130126953,0.3732788562774658,-2.8965084552764893,0.7122746706008911,-0.09018291532993317,-0.17975357174873352,-0.1848534792661667
3.8597679138183594,0.37203124165534973,-2.911763906478882,0.7075239419937134,-0.09462431818246841,-0.17109712958335876,-0.17773503065109253
3.879882335662842,0.37036725878715515,-2.9062235355377197,0.7122495174407959,-0.09588004648685455,-0.17795176804065704,-0.1779177486896515
3.8999197483062744,0.3725619614124298,-2.9028165340423584,0.7139963507652283,-0.09312891960144043,-0.17801141738891602,-0.18257416784763336
3.919987916946411,0.37311628460884094,-2.9076366424560547,0.7117132544517517,-0.09512576460838318,-0.1729080080986023,-0.17992982268333435
3.940058946609497,0.37097641825675964,-2.9102463722229004,0.7103853225708008,-0.09818591922521591,-0.17405566573143005,-0.17426294088363647
3.9601497650146484,0.3707923889160156,-2.9078683853149414,0.712207555770874,-0.1037600189447403,-0.17118602991104126,-0.17341139912605286
3.9802095890045166,0.3705974221229553,-2.8960115909576416,0.7124139070510864,-0.11026229709386826,-0.16888996958732605,-0.17398348450660706
4.000310897827148,0.3714005947113037,-2.9083540439605713,0.7091707587242126,-0.09678883850574493,-0.16872915625572205,-0.17685134708881378
4.0203704833984375,0.37227946519851685,-2.9047367572784424,0.7142946124076843,-0.09683211892843246,-0.17694362998008728,-0.1785668581724167
4.040399074554443,0.37236976623535156,-2.910116672515869,0.7140980362892151,-0.10022265464067459,-0.17176112532615662,-0.1768110990524292
4.060482740402222,0.37148866057395935,-2.915675640106201,0.7131310105323792,-0.09823282063007355,-0.1745501160621643,-0.17584186792373657
4.080598592758179,0.3738870918750763,-2.8970754146575928,0.718890905380249,-0.09531400352716446,-0.180502787232399,-0.18297269940376282
4.100638151168823,0.3725427985191345,-2.903198719024658,0.7106264233589172,-0.10011265426874161,-0.17096558213233948,-0.17471806704998016
4.12070894241333,0.37206441164016724,-2.8980319499969482,0.714735209941864,-0.10362712293863297,-0.17171570658683777,-0.17377477884292603
4.1407530307769775,0.3725445568561554,-2.8818271160125732,0.7193900346755981,-0.10318224877119064,-0.17682041227817535,-0.178817018866539
4.160879850387573,0.3741091787815094,-2.886920690536499,0.7155892848968506,-0.10217734426259995,-0.17079970240592957,-0.17862801253795624
4.180921792984009,0.37298068404197693,-2.8893399238586426,0.7155327796936035,-0.10517781972885132,-0.1698160171508789,-0.1762421578168869
4.201019287109375,0.3715130090713501,-2.88059663772583,0.7200866937637329,-0.10882358253002167,-0.17335279285907745,-0.17678573727607727
4.221216440200806,0.37228718400001526,-2.902261972427368,0.7118302583694458,-0.10369312763214111,-0.1694173961877823,-0.17568302154541016
4.24137020111084,0.37458816170692444,-2.888198137283325,0.7177051305770874,-0.09495280683040619,-0.1787290722131729,-0.1842557042837143
4.261415958404541,0.3751351237297058,-2.8782012462615967,0.7192623019218445,-0.09778423607349396,-0.1776028275489807,-0.1840299367904663
4.281482219696045,0.37386569380760193,-2.8755781650543213,0.7186001539230347,-0.100435271859169,-0.176654651761055,-0.18117690086364746
4.301513195037842,0.3734993040561676,-2.882571220397949,0.7188905477523804,-0.09615098685026169,-0.17920103669166565,-0.18243032693862915
4.321601629257202,0.3720705211162567,-2.8921053409576416,0.7195989489555359,-0.10773538053035736,-0.1719987690448761,-0.17516343295574188
4.341698408126831,0.37264612317085266,-2.888399362564087,0.7212307453155518,-0.10443846881389618,-0.17583145201206207,-0.17695899307727814
4.361767053604126,0.3747916519641876,-2.8672540187835693,0.724579930305481,-0.1017509177327156,-0.18135970830917358,-0.18348926305770874
4.38180685043335,0.37611129879951477,-2.863762855529785,0.7210268378257751,-0.09721957892179489,-0.1797812581062317,-0.18614427745342255
4.4018988609313965,0.37367045879364014,-2.868126392364502,0.7209089994430542,-0.10715489834547043,-0.1743740439414978,-0.17732179164886475
4.422066688537598,0.37084004282951355,-2.871096134185791,0.7224655151367188,-0.09717131406068802,-0.18382108211517334,-0.1804361790418625
4.442068338394165,0.37441354990005493,-2.885071277618408,0.7209247946739197,-0.09849638491868973,-0.1769186109304428,-0.1801401674747467
4.4621422290802,0.3739422857761383,-2.8802757263183594,0.7209345102310181,-0.09908071905374527,-0.1812869906425476,-0.17909793555736542
4.482328414916992,0.3761274218559265,-2.8657524585723877,0.724345862865448,-0.09977508336305618,-0.1806367039680481,-0.18251541256904602
4.50234055519104,0.3736734688282013,-2.869443416595459,0.7206375598907471,-0.10684516280889511,-0.1738876849412918,-0.17701007425785065
4.522421836853027,0.3756227195262909,-2.8616483211517334,0.7244040966033936,-0.1004304364323616,-0.17981725931167603,-0.1846412867307663
4.542510032653809,0.3762686848640442,-2.84871506690979,0.7256112098693848,-0.10267695039510727,-0.18041734397411346,-0.18480922281742096
4.563255786895752,0.3761657476425171,-2.8464114665985107,0.7252693772315979,-0.10582005977630615,-0.17643506824970245,-0.18264956772327423
4.583311319351196,0.3754129111766815,-2.8493974208831787,0.7237522006034851,-0.10483626276254654,-0.17668744921684265,-0.18062062561511993
4.603404521942139,0.37662822008132935,-2.84521746635437,0.725065290927887,-0.10548301041126251,-0.17738309502601624,-0.1821718066930771
4.623653888702393,0.3756257891654968,-2.834627628326416,0.7271480560302734,-0.10211773216724396,-0.18410955369472504,-0.1836322546005249
4.6437201499938965,0.3759254515171051,-2.832770586013794,0.7279950976371765,-0.10614605993032455,-0.18088115751743317,-0.18279828131198883
4.663815975189209,0.37626346945762634,-2.837691068649292,0.7274596095085144,-0.101193867623806,-0.1820055991411209,-0.18484415113925934
4.6838719844818115,0.37701377272605896,-2.8457443714141846,0.7261106967926025,-0.10454925149679184,-0.17652475833892822,-0.18198317289352417
4.703965663909912,0.375065416097641,-2.853959798812866,0.7257168292999268,-0.10759365558624268,-0.17604097723960876,-0.1778230220079422
4.724053621292114,0.37457215785980225,-2.8551876544952393,0.7300331592559814,-0.10730940103530884,-0.18006880581378937,-0.1808892786502838
4.744126796722412,0.3749542534351349,-2.859543800354004,0.7290694713592529,-0.10331105440855026,-0.18195253610610962,-0.1819433569908142
4.7641870975494385,0.37659910321235657,-2.8527305126190186,0.7295970320701599,-0.09880363196134567,-0.18567901849746704,-0.1851424127817154
4.784321069717407,0.3778269588947296,-2.840440511703491,0.7313294410705566,-0.10039926320314407,-0.18580742180347443,-0.18694114685058594
4.804547071456909,0.37566298246383667,-2.846045732498169,0.7291619181632996,-0.10992325097322464,-0.17873387038707733,-0.17754945158958435
4.824581146240234,0.37525954842567444,-2.8315417766571045,0.7303873896598816,-0.1128428652882576,-0.1796906739473343,-0.17738722264766693
4.844623565673828,0.37499257922172546,-2.834777593612671,0.7295903563499451,-0.1115303710103035,-0.1785317063331604,-0.17781998217105865
4.864726781845093,0.37832483649253845,-2.8243203163146973,0.7330101728439331,-0.1030651181936264,-0.18403473496437073,-0.18767812848091125
4.8848936557769775,0.3788650631904602,-2.814584732055664,0.735038161277771,-0.1009625792503357,-0.18785591423511505,-0.19009141623973846
4.904953479766846,0.3795612156391144,-2.818464517593384,0.732454240322113,-0.1017920970916748,-0.18354915082454681,-0.18977707624435425
4.9249560832977295,0.3782893121242523,-2.8268375396728516,0.7304184436798096,-0.1107298880815506,-0.17481030523777008,-0.18123413622379303
4.945116281509399,0.37685975432395935,-2.8230860233306885,0.7331173419952393,-0.10451523959636688,-0.18431079387664795,-0.18341585993766785
4.965248107910156,0.3769749402999878,-2.839503049850464,0.7312197685241699,-0.11074388772249222,-0.17522919178009033,-0.17907068133354187
4.9853675365448,0.37719836831092834,-2.842982530593872,0.73415207862854,-0.11036263406276703,-0.17836666107177734,-0.1798875629901886
5.005470514297485,0.37959960103034973,-2.82936692237854,0.7377409934997559,-0.1047392189502716,-0.1855471283197403,-0.18734858930110931
5.02546763420105,0.37829113006591797,-2.842547655105591,0.7304574251174927,-0.11646608263254166,-0.17238061130046844,-0.17781394720077515
5.045563697814941,0.37704208493232727,-2.821044921875,0.7397934198379517,-0.1153230369091034,-0.18150946497917175,-0.18076004087924957
5.065675735473633,0.37776055932044983,-2.8204119205474854,0.7356418967247009,-0.11002501100301743,-0.18119284510612488,-0.18183130025863647
5.085730791091919,0.3778594434261322,-2.8082785606384277,0.7399471998214722,-0.11556071043014526,-0.180029034614563,-0.18239644169807434
5.105928897857666,0.3792753517627716,-2.816927433013916,0.7332872748374939,-0.11043591052293777,-0.17574161291122437,-0.1813858449459076
5.126081705093384,0.37822580337524414,-2.8190674781799316,0.7366969585418701,-0.11382220685482025,-0.1780949980020523,-0.182292178273201
5.146233797073364,0.3784022033214569,-2.8155219554901123,0.738884449005127,-0.10625015199184418,-0.18688763678073883,-0.1871919482946396
5.166237115859985,0.3807751536369324,-2.8163836002349854,0.7358444929122925,-0.10590577870607376,-0.1828497052192688,-0.18867500126361847
5.1863486766815186,0.3768613934516907,-2.818453073501587,0.7370889782905579,-0.11116915941238403,-0.18258850276470184,-0.1809752881526947
5.206532716751099,0.3769930303096771,-2.800893783569336,0.7428997755050659,-0.11736077070236206,-0.1854509860277176,-0.1831292062997818
5.22661280632019,0.37833449244499207,-2.7851436138153076,0.7412492632865906,-0.1161738708615303,-0.18470750749111176,-0.18342019617557526
5.246681213378906,0.38123783469200134,-2.7706520557403564,0.7425450086593628,-0.10600525140762329,-0.19048619270324707,-0.19179780781269073
5.2667505741119385,0.37940818071365356,-2.777123212814331,0.7402442693710327,-0.10800964385271072,-0.1874067485332489,-0.1876462996006012
5.2868101596832275,0.379781574010849,-2.7889890670776367,0.7377790808677673,-0.11581897735595703,-0.17744459211826324,-0.18230848014354706
5.306927919387817,0.3798600137233734,-2.784597158432007,0.7396333813667297,-0.10675735771656036,-0.18798145651817322,-0.18758998811244965
5.327060222625732,0.38131365180015564,-2.7957615852355957,0.7386346459388733,-0.10897136479616165,-0.1810712218284607,-0.18580250442028046
5.347103595733643,0.3800271451473236,-2.8070452213287354,0.7390323281288147,-0.10918763279914856,-0.18250194191932678,-0.1839110553264618
5.367143630981445,0.3796321153640747,-2.8103041648864746,0.7402533888816833,-0.11254589259624481,-0.1812618374824524,-0.18206162750720978
5.387230396270752,0.38052770495414734,-2.795442581176758,0.744894802570343,-0.1070648580789566,-0.19167478382587433,-0.189077228307724
5.407285690307617,0.38035479187965393,-2.785400152206421,0.745376706123352,-0.10729152709245682,-0.19158720970153809,-0.1891230195760727
5.427379846572876,0.3817390203475952,-2.7716050148010254,0.7472681403160095,-0.10798294842243195,-0.19303032755851746,-0.19171424210071564
5.447447299957275,0.38038530945777893,-2.760645627975464,0.7502133250236511,-0.11510230600833893,-0.19338133931159973,-0.18805019557476044
5.4675164222717285,0.38087502121925354,-2.7644433975219727,0.7447195649147034,-0.10765860229730606,-0.19246499240398407,-0.18937432765960693
5.487636089324951,0.38113775849342346,-2.777653932571411,0.7410427927970886,-0.1139039397239685,-0.1813890039920807,-0.18298542499542236
5.507693290710449,0.3796371519565582,-2.7883002758026123,0.7434337139129639,-0.11757489293813705,-0.18179574608802795,-0.1809203326702118
5.527785301208496,0.3825172185897827,-2.7715485095977783,0.748062014579773,-0.10757618397474289,-0.1942843198776245,-0.19213733077049255
5.547894477844238,0.38059526681900024,-2.7845284938812256,0.742076575756073,-0.11444880068302155,-0.1821025311946869,-0.18243408203125
5.567910671234131,0.3804638087749481,-2.7721028327941895,0.7492583990097046,-0.11655379086732864,-0.1902397722005844,-0.1845347285270691
5.588403940200806,0.38022634387016296,-2.7815849781036377,0.7464722394943237,-0.11814762651920319,-0.18347924947738647,-0.18280646204948425
5.608552932739258,0.38158464431762695,-2.77445387840271,0.750874400138855,-0.11139489710330963,-0.19357416033744812,-0.18895643949508667
5.628701210021973,0.38279595971107483,-2.763287305831909,0.7511756420135498,-0.11521691083908081,-0.1901966780424118,-0.18900856375694275
5.648696660995483,0.38201817870140076,-2.7658562660217285,0.7479705214500427,-0.11836154013872147,-0.18620194494724274,-0.18445248901844025
5.668785095214844,0.3815000653266907,-2.7606217861175537,0.7502040863037109,-0.11127112805843353,-0.19400425255298615,-0.1873207986354828
5.688876152038574,0.3827708959579468,-2.766300916671753,0.74937504529953,-0.11949774622917175,-0.18234965205192566,-0.18429537117481232
5.7089197635650635,0.38118603825569153,-2.759114980697632,0.7501439452171326,-0.12214142084121704,-0.18594327569007874,-0.18227122724056244
5.729007959365845,0.3821817636489868,-2.755647897720337,0.7509951591491699,-0.11265601962804794,-0.19238334894180298,-0.18841329216957092
5.749070882797241,0.3821567893028259,-2.7534468173980713,0.7515178918838501,-0.10898387432098389,-0.19622483849525452,-0.18906375765800476
5.769161939620972,0.3788285553455353,-2.7497634887695312,0.7554671168327332,-0.10940038412809372,-0.2002885341644287,-0.1885247677564621
5.789207935333252,0.3847621977329254,-2.741044282913208,0.753838062286377,-0.10773863643407822,-0.19956570863723755,-0.19215905666351318
5.809296607971191,0.3802167773246765,-2.7577850818634033,0.7502312660217285,-0.1268426775932312,-0.18504571914672852,-0.1793990284204483
5.829374313354492,0.382578045129776,-2.7728450298309326,0.748203456401825,-0.12156584113836288,-0.18340037763118744,-0.1828080117702484
5.849506378173828,0.3834672272205353,-2.755943536758423,0.7558754086494446,-0.12139856070280075,-0.19054152071475983,-0.1859077364206314
5.869569301605225,0.38529717922210693,-2.7563705444335938,0.7497889399528503,-0.116618812084198,-0.18804793059825897,-0.1868654489517212
5.8896636962890625,0.3833029270172119,-2.73722243309021,0.7581064701080322,-0.12625478208065033,-0.18860113620758057,-0.18576017022132874
5.909755229949951,0.3816358745098114,-2.743619918823242,0.757771372795105,-0.12092332541942596,-0.19132079184055328,-0.18661107122898102
5.929837703704834,0.3806505501270294,-2.7381083965301514,0.7592999935150146,-0.113070048391819,-0.19973793625831604,-0.18883918225765228
5.949905633926392,0.3863009810447693,-2.7240636348724365,0.7598945498466492,-0.11273252218961716,-0.1989598423242569,-0.19298817217350006
5.969965696334839,0.38579997420310974,-2.7141337394714355,0.7579333782196045,-0.11840476095676422,-0.19545531272888184,-0.1914036124944687
5.9904491901397705,0.38414502143859863,-2.729665994644165,0.7521343231201172,-0.12089645862579346,-0.18702048063278198,-0.18587225675582886
6.010540008544922,0.3841029107570648,-2.729353666305542,0.7582799792289734,-0.12136344611644745,-0.19084888696670532,-0.18951083719730377
6.030635356903076,0.3838842809200287,-2.733985662460327,0.7554001212120056,-0.12566465139389038,-0.18611928820610046,-0.18457092344760895
6.0507378578186035,0.38350018858909607,-2.749821901321411,0.755458414554596,-0.12226616591215134,-0.18681980669498444,-0.18554642796516418
6.070782661437988,0.38457682728767395,-2.7282650470733643,0.7625535726547241,-0.12459855526685715,-0.1938200145959854,-0.18831272423267365
6.090871095657349,0.38507989048957825,-2.7365646362304688,0.7576128840446472,-0.12469828873872757,-0.18545272946357727,-0.18653133511543274
6.110946416854858,0.384478360414505,-2.7279067039489746,0.7596229314804077,-0.12559930980205536,-0.1895904541015625,-0.18554551899433136
6.1310646533966064,0.3837997615337372,-2.728466510772705,0.7583246827125549,-0.12412717938423157,-0.19011762738227844,-0.18472129106521606
6.151080131530762,0.3853789269924164,-2.699225664138794,0.765754222869873,-0.12773412466049194,-0.19656214118003845,-0.18874229490756989
6.171116352081299,0.38765525817871094,-2.704439401626587,0.7573883533477783,-0.12236591428518295,-0.18951743841171265,-0.1905309557914734
6.191209554672241,0.38536980748176575,-2.7201988697052,0.7589046359062195,-0.12426001578569412,-0.18909594416618347,-0.18933597207069397
6.2112860679626465,0.3853488564491272,-2.7213170528411865,0.7640435099601746,-0.12390456348657608,-0.19317525625228882,-0.1902122050523758
6.23131537437439,0.3871125280857086,-2.7090401649475098,0.7651715874671936,-0.1158008873462677,-0.20251241326332092,-0.19456559419631958
6.251402854919434,0.38521137833595276,-2.710034132003784,0.764238715171814,-0.1276623010635376,-0.1944519728422165,-0.18735633790493011
6.271465063095093,0.38558176159858704,-2.709862470626831,0.7668725252151489,-0.12038261443376541,-0.1983271837234497,-0.19266477227210999
6.291529417037964,0.3829001486301422,-2.713815450668335,0.7661541700363159,-0.1265329271554947,-0.19447903335094452,-0.18698866665363312
6.311587810516357,0.38586321473121643,-2.7068850994110107,0.7653701305389404,-0.12227654457092285,-0.1984999179840088,-0.18877199292182922
6.331693887710571,0.38550716638565063,-2.7139623165130615,0.7634248733520508,-0.12689468264579773,-0.19138282537460327,-0.18698465824127197
6.3519127368927,0.38642188906669617,-2.7034659385681152,0.7681748270988464,-0.11862077564001083,-0.20430997014045715,-0.1931861937046051
6.37187123298645,0.38707369565963745,-2.703711748123169,0.7655377984046936,-0.11789697408676147,-0.19975444674491882,-0.19193528592586517
6.392040252685547,0.38598257303237915,-2.696843385696411,0.7688871622085571,-0.12508660554885864,-0.20161283016204834,-0.19087117910385132
6.4120588302612305,0.3861243426799774,-2.7015984058380127,0.763709545135498,-0.12704212963581085,-0.19170016050338745,-0.18653738498687744
6.432129621505737,0.38558268547058105,-2.6930501461029053,0.7681514024734497,-0.13238133490085602,-0.19273023307323456,-0.1857430785894394
6.452188730239868,0.38518133759498596,-2.694345235824585,0.7660365700721741,-0.12762272357940674,-0.19616173207759857,-0.1861588954925537
6.472313642501831,0.38717004656791687,-2.6914708614349365,0.7687541842460632,-0.1242976114153862,-0.19776785373687744,-0.19183795154094696
6.492490768432617,0.3868924677371979,-2.6770641803741455,0.7721427083015442,-0.11513146013021469,-0.21260450780391693,-0.19641274213790894
6.5124125480651855,0.3854454457759857,-2.690216541290283,0.7671642899513245,-0.12998288869857788,-0.19426994025707245,-0.18855859339237213
6.53244948387146,0.38669553399086,-2.6946375370025635,0.7674753069877625,-0.13062241673469543,-0.19436413049697876,-0.18641197681427002
6.552534341812134,0.38667944073677063,-2.6872828006744385,0.7722853422164917,-0.12218094617128372,-0.20353470742702484,-0.19201382994651794
6.572671413421631,0.38846948742866516,-2.683759927749634,0.7720314860343933,-0.11868926882743835,-0.206739142537117,-0.19439604878425598
6.5927112102508545,0.39181196689605713,-2.673567056655884,0.7723485827445984,-0.11975157260894775,-0.2055424451828003,-0.19893190264701843
6.612829685211182,0.38997551798820496,-2.666388511657715,0.7749105095863342,-0.12107927352190018,-0.20613771677017212,-0.19746409356594086
6.632976770401001,0.3867819011211395,-2.6702418327331543,0.7744510769844055,-0.1353307068347931,-0.19766932725906372,-0.18705742061138153
6.653020620346069,0.38645878434181213,-2.6733877658843994,0.7734124064445496,-0.13097010552883148,-0.19879615306854248,-0.18756519258022308
6.673119306564331,0.3875845670700073,-2.6730797290802,0.7741618752479553,-0.12952840328216553,-0.19952420890331268,-0.18897630274295807
6.693288564682007,0.38884446024894714,-2.6590754985809326,0.7769226431846619,-0.1231430247426033,-0.21051710844039917,-0.19647309184074402
6.713371515274048,0.38650304079055786,-2.6575767993927,0.7773224711418152,-0.11718063801527023,-0.21434183418750763,-0.1962561011314392
6.733464002609253,0.3909634053707123,-2.6561853885650635,0.7760224938392639,-0.12276048213243484,-0.20571446418762207,-0.1951989084482193
6.753498554229736,0.38921090960502625,-2.6639792919158936,0.7709861993789673,-0.1320267915725708,-0.19421741366386414,-0.1877562552690506
6.773544073104858,0.38749462366104126,-2.6663758754730225,0.7739497423171997,-0.12724998593330383,-0.20132660865783691,-0.18939286470413208
6.793654441833496,0.3883138597011566,-2.6705193519592285,0.7750759720802307,-0.13479521870613098,-0.19442735612392426,-0.18719613552093506
6.813730955123901,0.38967713713645935,-2.6541645526885986,0.781006932258606,-0.13701626658439636,-0.20012959837913513,-0.1906006932258606
6.833850145339966,0.38974514603614807,-2.6580026149749756,0.7745954990386963,-0.13593338429927826,-0.19476982951164246,-0.1890835016965866
6.854212284088135,0.39069753885269165,-2.6463563442230225,0.7822828888893127,-0.12993958592414856,-0.20461559295654297,-0.1965167373418808
6.874387979507446,0.39146724343299866,-2.6380159854888916,0.7821252346038818,-0.12920421361923218,-0.2064339518547058,-0.19712650775909424
6.894396781921387,0.39196711778640747,-2.635345697402954,0.7808868885040283,-0.1278662085533142,-0.2051435112953186,-0.19658926129341125
6.914518117904663,0.3923923075199127,-2.632000207901001,0.7805724143981934,-0.12951461970806122,-0.20519156754016876,-0.19725508987903595
6.934600591659546,0.39057207107543945,-2.6265013217926025,0.780916690826416,-0.1320626586675644,-0.2075197398662567,-0.19350402057170868
6.954641342163086,0.3895810842514038,-2.633209705352783,0.7783050537109375,-0.13745015859603882,-0.19771899282932281,-0.1898035854101181
6.9748005867004395,0.3889061510562897,-2.63094162940979,0.7796456813812256,-0.1408962607383728,-0.19851566851139069,-0.18811465799808502
6.994791269302368,0.3887197971343994,-2.6373674869537354,0.7809054851531982,-0.13995859026908875,-0.1979084312915802,-0.18874888122081757
7.01493763923645,0.3873254954814911,-2.638350248336792,0.7828003764152527,-0.1260511428117752,-0.20936644077301025,-0.19430199265480042
7.035003185272217,0.3934345841407776,-2.638793706893921,0.7824869155883789,-0.12876421213150024,-0.20573769509792328,-0.197363018989563
7.0551347732543945,0.39269113540649414,-2.622187376022339,0.7852686047554016,-0.13267511129379272,-0.20861604809761047,-0.196669340133667
7.0751588344573975,0.3915208876132965,-2.626568078994751,0.7817366123199463,-0.13615411520004272,-0.2016577124595642,-0.19324757158756256
7.095232963562012,0.39153075218200684,-2.6298043727874756,0.7851565480232239,-0.13982218503952026,-0.19820038974285126,-0.19200929999351501
7.115294456481934,0.391960471868515,-2.6337358951568604,0.7834986448287964,-0.13762274384498596,-0.1999536156654358,-0.19181805849075317
7.1353631019592285,0.3909324109554291,-2.629150867462158,0.785011887550354,-0.13968653976917267,-0.20067378878593445,-0.19066813588142395
7.155432939529419,0.3927498459815979,-2.606657028198242,0.788194477558136,-0.13975650072097778,-0.20788925886154175,-0.19429121911525726
7.175562858581543,0.39269059896469116,-2.6036605834960938,0.786860466003418,-0.1340329349040985,-0.20865820348262787,-0.19563265144824982
7.195660352706909,0.39297059178352356,-2.610464096069336,0.7808701992034912,-0.13915042579174042,-0.19851192831993103,-0.1910952627658844
7.215690612792969,0.3919963836669922,-2.6030995845794678,0.7895846962928772,-0.14141683280467987,-0.20629987120628357,-0.19393020868301392
7.235772371292114,0.39229151606559753,-2.595423936843872,0.7897696495056152,-0.13569670915603638,-0.2123768925666809,-0.19601990282535553
7.255920886993408,0.38851019740104675,-2.606891393661499,0.7855671644210815,-0.13448630273342133,-0.20930111408233643,-0.19149614870548248
7.275930643081665,0.3937322497367859,-2.6023123264312744,0.7887108325958252,-0.13498686254024506,-0.20951619744300842,-0.19472135603427887
7.295984745025635,0.3933284282684326,-2.60343337059021,0.7883075475692749,-0.1371787190437317,-0.2059829980134964,-0.19366995990276337
7.316418170928955,0.39370298385620117,-2.5985097885131836,0.7895193696022034,-0.134832963347435,-0.21130500733852386,-0.19580398499965668
7.336543321609497,0.3931543231010437,-2.596677303314209,0.7931875586509705,-0.1361779272556305,-0.21240530908107758,-0.19723720848560333
7.356669187545776,0.3959808051586151,-2.571620225906372,0.7980126142501831,-0.13093522191047668,-0.22531428933143616,-0.20351970195770264
7.376775026321411,0.3968789279460907,-2.562833786010742,0.7931589484214783,-0.1348874866962433,-0.21567793190479279,-0.20104163885116577
7.396905183792114,0.39455053210258484,-2.5666663646698,0.7899804711341858,-0.14255432784557343,-0.20995251834392548,-0.19455349445343018
7.417025327682495,0.3941962420940399,-2.5669057369232178,0.7930976152420044,-0.14116239547729492,-0.210211843252182,-0.19492071866989136
7.4370505809783936,0.39515140652656555,-2.5695271492004395,0.7931782007217407,-0.1405300498008728,-0.20986706018447876,-0.19556429982185364
7.457200050354004,0.392973393201828,-2.5779781341552734,0.7933213710784912,-0.14313293993473053,-0.2065691202878952,-0.19316062331199646
7.477276086807251,0.39266398549079895,-2.5736501216888428,0.7960214614868164,-0.13338616490364075,-0.21945129334926605,-0.1979377269744873
7.497340202331543,0.3958108127117157,-2.5743653774261475,0.7962623834609985,-0.1367100030183792,-0.2141219973564148,-0.1977853924036026
7.517405986785889,0.395281046628952,-2.582631826400757,0.7919127941131592,-0.14022649824619293,-0.2071325182914734,-0.19382937252521515
7.537454605102539,0.39568477869033813,-2.572364568710327,0.7976464629173279,-0.14014829695224762,-0.2145290970802307,-0.19641131162643433
7.557647705078125,0.3954876959323883,-2.577361583709717,0.7947873473167419,-0.14490631222724915,-0.20725063979625702,-0.1945105791091919
7.577656507492065,0.39647209644317627,-2.5565459728240967,0.7972143888473511,-0.15182261168956757,-0.2084452509880066,-0.19537971913814545
7.597775936126709,0.39562496542930603,-2.548372983932495,0.7990952730178833,-0.14511549472808838,-0.2146628201007843,-0.19615493714809418
7.618072748184204,0.39663973450660706,-2.5416977405548096,0.8044919967651367,-0.14022690057754517,-0.22054098546504974,-0.2004353255033493
7.638182163238525,0.3958755433559418,-2.551637649536133,0.7994507551193237,-0.15197160840034485,-0.20497015118598938,-0.1935274451971054
7.658334970474243,0.39623555541038513,-2.529715061187744,0.8007287979125977,-0.14902926981449127,-0.2177194207906723,-0.19643844664096832
7.678355693817139,0.39606359601020813,-2.5278823375701904,0.8060303926467896,-0.14974963665008545,-0.2174501121044159,-0.19945606589317322
7.698471784591675,0.3968297243118286,-2.5361671447753906,0.8016550540924072,-0.14072081446647644,-0.21906523406505585,-0.19943241775035858
7.7185633182525635,0.39545488357543945,-2.5458908081054688,0.8002530932426453,-0.15050232410430908,-0.20773151516914368,-0.19301916658878326
7.738602638244629,0.39681002497673035,-2.5380585193634033,0.7975547909736633,-0.15277832746505737,-0.20935454964637756,-0.19322387874126434
7.7586798667907715,0.3967863619327545,-2.5342507362365723,0.8022626042366028,-0.1481606364250183,-0.21447157859802246,-0.1956103891134262
7.779106616973877,0.3978528380393982,-2.526214838027954,0.8037492036819458,-0.15024255216121674,-0.21432390809059143,-0.19699840247631073
7.799238681793213,0.4001351594924927,-2.5160603523254395,0.8050495982170105,-0.14238396286964417,-0.22253748774528503,-0.20308591425418854
7.819273948669434,0.3964788317680359,-2.50689435005188,0.8071933388710022,-0.1383056342601776,-0.23037932813167572,-0.20184016227722168
7.839330673217773,0.39838579297065735,-2.4961788654327393,0.8068274259567261,-0.14194509387016296,-0.22778543829917908,-0.200816810131073
7.859447002410889,0.3993861973285675,-2.501389741897583,0.8079577684402466,-0.14135722815990448,-0.22614941000938416,-0.20321230590343475
7.879621267318726,0.39819464087486267,-2.510535955429077,0.8055393695831299,-0.15601712465286255,-0.212205171585083,-0.19646213948726654
7.899653673171997,0.39681440591812134,-2.515108346939087,0.8056676983833313,-0.15062972903251648,-0.21665354073047638,-0.19556285440921783
7.919722557067871,0.39850011467933655,-2.5164191722869873,0.8054840564727783,-0.15392151474952698,-0.21188950538635254,-0.19528181850910187
7.93976902961731,0.39940664172172546,-2.518806219100952,0.805570125579834,-0.14933902025222778,-0.21665805578231812,-0.1980348825454712
7.959949016571045,0.39880308508872986,-2.523989677429199,0.8052880167961121,-0.15044376254081726,-0.21266070008277893,-0.1967969685792923
7.979961156845093,0.3968055248260498,-2.510197401046753,0.8108150959014893,-0.14847365021705627,-0.2257932424545288,-0.19821886718273163
8.000039100646973,0.39738813042640686,-2.5081465244293213,0.8177577257156372,-0.1534830927848816,-0.22532185912132263,-0.20173905789852142
8.020080089569092,0.40214136242866516,-2.488179922103882,0.8159845471382141,-0.1443750262260437,-0.23459304869174957,-0.20576795935630798
8.040169954299927,0.4016050398349762,-2.488234758377075,0.8120127320289612,-0.15773864090442657,-0.21932238340377808,-0.19991318881511688
8.060242891311646,0.4017737805843353,-2.47365403175354,0.8143292665481567,-0.14954127371311188,-0.23024116456508636,-0.20292425155639648
8.080302715301514,0.40145930647850037,-2.460650682449341,0.8205459117889404,-0.14221112430095673,-0.2422119826078415,-0.20905685424804688
8.100452661514282,0.40185031294822693,-2.4599175453186035,0.8187713027000427,-0.1436401605606079,-0.234880730509758,-0.206951305270195
8.120542526245117,0.3968329131603241,-2.4716250896453857,0.8125810027122498,-0.1549873650074005,-0.22483336925506592,-0.19536302983760834
8.140611171722412,0.39931774139404297,-2.4835283756256104,0.8124628067016602,-0.1541803926229477,-0.21764647960662842,-0.1949569433927536
8.160654306411743,0.39980366826057434,-2.487795114517212,0.8147627711296082,-0.15255028009414673,-0.2222996950149536,-0.1975099742412567
8.180779695510864,0.4043862521648407,-2.480335235595703,0.8151935935020447,-0.1520267128944397,-0.2244010865688324,-0.20403200387954712
8.200865268707275,0.4032945930957794,-2.4709599018096924,0.814578115940094,-0.1500220000743866,-0.22845256328582764,-0.20316465198993683
8.221008062362671,0.40168800950050354,-2.46954607963562,0.8155367374420166,-0.15654194355010986,-0.2193128764629364,-0.19808004796504974
8.241001605987549,0.4012106955051422,-2.464634656906128,0.8167312145233154,-0.16021138429641724,-0.21960538625717163,-0.19732360541820526
8.261084794998169,0.40321579575538635,-2.454299211502075,0.8184735774993896,-0.14586427807807922,-0.23416312038898468,-0.20328089594841003
8.281150102615356,0.4038952887058258,-2.4578306674957275,0.8159312605857849,-0.15007399022579193,-0.2271226942539215,-0.2027023434638977
8.301210165023804,0.4026905596256256,-2.4561045169830322,0.8192427158355713,-0.1514703333377838,-0.22915013134479523,-0.20135661959648132
8.32125210762024,0.39948177337646484,-2.4596540927886963,0.8187320828437805,-0.15317054092884064,-0.22896215319633484,-0.19918198883533478
8.341527223587036,0.39843061566352844,-2.4680051803588867,0.8179739117622375,-0.15221042931079865,-0.22738134860992432,-0.1979924589395523
8.361504077911377,0.4028940200805664,-2.4632434844970703,0.8207809329032898,-0.15538740158081055,-0.2258060872554779,-0.19887186586856842
8.381559371948242,0.4037055969238281,-2.4510385990142822,0.8210369348526001,-0.15453284978866577,-0.2301718294620514,-0.2005583494901657
8.401577234268188,0.4026447534561157,-2.456820249557495,0.817420482635498,-0.160456120967865,-0.21892684698104858,-0.19704031944274902
8.421676635742188,0.4042089581489563,-2.4530045986175537,0.8224053382873535,-0.155360609292984,-0.22546377778053284,-0.20171956717967987
8.441737413406372,0.4037967026233673,-2.4478113651275635,0.822679877281189,-0.1541348695755005,-0.23126384615898132,-0.20171236991882324
8.46189546585083,0.4035108685493469,-2.4482929706573486,0.8208876252174377,-0.15946592390537262,-0.22271165251731873,-0.19853147864341736
8.4819176197052,0.4031450152397156,-2.4405903816223145,0.8240805268287659,-0.15434971451759338,-0.2340518981218338,-0.20095549523830414
8.502088785171509,0.4026385247707367,-2.4360318183898926,0.826455295085907,-0.1556616723537445,-0.23518696427345276,-0.20135696232318878
8.522113561630249,0.4028572142124176,-2.432157039642334,0.8260119557380676,-0.1548910140991211,-0.23651976883411407,-0.20191456377506256
8.54218602180481,0.4063793122768402,-2.4295260906219482,0.8237701058387756,-0.15546748042106628,-0.2319093942642212,-0.20316092669963837
8.562226057052612,0.40469303727149963,-2.431278944015503,0.8233310580253601,-0.1557604819536209,-0.22926771640777588,-0.2000829577445984
8.58232831954956,0.4053070843219757,-2.4273836612701416,0.8266527652740479,-0.15904775261878967,-0.232240691781044,-0.202989399433136
8.6024329662323,0.4043397605419159,-2.4306154251098633,0.8239154815673828,-0.15883785486221313,-0.22713316977024078,-0.1988338977098465
8.622482538223267,0.40413427352905273,-2.42043137550354,0.8302677869796753,-0.1579669713973999,-0.23780418932437897,-0.20247909426689148
8.642525434494019,0.40247246623039246,-2.4227449893951416,0.8297450542449951,-0.15572497248649597,-0.23832562565803528,-0.20234927535057068
8.662792921066284,0.40463125705718994,-2.4162893295288086,0.8324597477912903,-0.15980909764766693,-0.23792284727096558,-0.20299294590950012
8.68289828300476,0.4076184332370758,-2.406519651412964,0.829827070236206,-0.15902554988861084,-0.23622040450572968,-0.203848734498024
8.703094720840454,0.4071170389652252,-2.408217430114746,0.8260559439659119,-0.16376081109046936,-0.2281942367553711,-0.20186085999011993
8.723007440567017,0.4057236611843109,-2.4002623558044434,0.8304998874664307,-0.16426442563533783,-0.2337237447500229,-0.20160163938999176
8.743224859237671,0.40669557452201843,-2.3965370655059814,0.8296546936035156,-0.1567828357219696,-0.24006225168704987,-0.20429597795009613
8.763282775878906,0.4058014154434204,-2.3931517601013184,0.8332837224006653,-0.15655651688575745,-0.24348898231983185,-0.2047877460718155
8.783318758010864,0.40624433755874634,-2.3904755115509033,0.8362208604812622,-0.15593430399894714,-0.24539457261562347,-0.20544736087322235
8.803512334823608,0.40928980708122253,-2.382709264755249,0.8326982259750366,-0.15844252705574036,-0.24123361706733704,-0.20571400225162506
8.823731660842896,0.4069066345691681,-2.376575469970703,0.8360306024551392,-0.1641424596309662,-0.2431948333978653,-0.20422615110874176
8.843743801116943,0.40874525904655457,-2.36594295501709,0.8366485238075256,-0.1653953343629837,-0.24117620289325714,-0.20505723357200623
8.863802671432495,0.409166544675827,-2.363297700881958,0.8348444700241089,-0.16400547325611115,-0.23960234224796295,-0.20506025850772858
8.883890628814697,0.41021236777305603,-2.3760902881622314,0.8281232118606567,-0.16783681511878967,-0.22834649682044983,-0.20433127880096436
8.904009103775024,0.40595540404319763,-2.3642425537109375,0.8392491936683655,-0.15722326934337616,-0.2499503344297409,-0.20398296415805817
8.924139499664307,0.40430179238319397,-2.3637547492980957,0.8389442563056946,-0.15846414864063263,-0.24911902844905853,-0.20254884660243988
8.944180250167847,0.41043388843536377,-2.3538315296173096,0.8393676280975342,-0.16567856073379517,-0.24283359944820404,-0.20499582588672638
8.964750528335571,0.4115772545337677,-2.3486764430999756,0.8363208174705505,-0.1677396148443222,-0.23903441429138184,-0.20647679269313812
8.984875917434692,0.4086592495441437,-2.3469202518463135,0.8386881947517395,-0.1667303740978241,-0.24179194867610931,-0.20367269217967987
9.00494909286499,0.41048040986061096,-2.3404338359832764,0.8390918374061584,-0.16858357191085815,-0.24063561856746674,-0.20461095869541168
9.0249764919281,0.40923604369163513,-2.346299886703491,0.8356590270996094,-0.1663786917924881,-0.2390906661748886,-0.20257878303527832
9.045062780380249,0.4067229926586151,-2.3497798442840576,0.842436671257019,-0.1678110957145691,-0.2416098713874817,-0.2026454359292984
9.065192937850952,0.4104548394680023,-2.3538572788238525,0.8365580439567566,-0.1665239781141281,-0.24006816744804382,-0.20642922818660736
9.085324764251709,0.4126603305339813,-2.3390543460845947,0.8399726152420044,-0.16848783195018768,-0.2443414032459259,-0.2066013365983963
9.105314016342163,0.4115543067455292,-2.3286802768707275,0.841079592704773,-0.1706448495388031,-0.24283820390701294,-0.20538699626922607
9.125515222549438,0.4150679409503937,-2.3280441761016846,0.8379723429679871,-0.17221523821353912,-0.23916561901569366,-0.20961153507232666
9.145532131195068,0.41169512271881104,-2.3149702548980713,0.8433242440223694,-0.16272903978824615,-0.2576587498188019,-0.20992518961429596
9.165637731552124,0.40990713238716125,-2.3106915950775146,0.8484432101249695,-0.16898325085639954,-0.2524923086166382,-0.2078607827425003
9.185746431350708,0.4129128158092499,-2.3101327419281006,0.8457069396972656,-0.1740989089012146,-0.24089129269123077,-0.20601317286491394
9.205921411514282,0.41354653239250183,-2.307353973388672,0.8444749116897583,-0.1719350814819336,-0.2461792528629303,-0.2084895521402359
9.226011753082275,0.41345274448394775,-2.3009231090545654,0.846163809299469,-0.17414213716983795,-0.24457691609859467,-0.20657680928707123
9.246449947357178,0.4100571572780609,-2.293048858642578,0.8501094579696655,-0.17070212960243225,-0.2542860507965088,-0.20615099370479584
9.26653790473938,0.41225573420524597,-2.2881276607513428,0.852509617805481,-0.1753668189048767,-0.2514954209327698,-0.208513543009758
9.286654949188232,0.41045477986335754,-2.2913100719451904,0.846880316734314,-0.1751079559326172,-0.24659904837608337,-0.20552276074886322
9.30671739578247,0.4111115038394928,-2.2854926586151123,0.8518955707550049,-0.1718205213546753,-0.2550351917743683,-0.2066202610731125
9.326801538467407,0.4129891097545624,-2.282466173171997,0.851112961769104,-0.1747300922870636,-0.25177890062332153,-0.20700621604919434
9.346854448318481,0.41240066289901733,-2.2923450469970703,0.8462031483650208,-0.17646990716457367,-0.24128954112529755,-0.20494002103805542
9.3669593334198,0.41024598479270935,-2.3013508319854736,0.8482509851455688,-0.17626433074474335,-0.2426963448524475,-0.20537115633487701
9.386981964111328,0.4147145748138428,-2.3060202598571777,0.8515043258666992,-0.17996805906295776,-0.2329477220773697,-0.20553162693977356
9.40706491470337,0.41226691007614136,-2.3089511394500732,0.8460524678230286,-0.17010833323001862,-0.24537882208824158,-0.20416678488254547
9.427122354507446,0.41097497940063477,-2.312335252761841,0.8475830554962158,-0.17529569566249847,-0.24389566481113434,-0.20670388638973236
9.447196006774902,0.41385817527770996,-2.314603090286255,0.8494778275489807,-0.1748364418745041,-0.23872257769107819,-0.20540180802345276
9.467270374298096,0.4109368920326233,-2.3162639141082764,0.8478713035583496,-0.1740371584892273,-0.24490986764431,-0.20565737783908844
9.487388610839844,0.4121737778186798,-2.316964626312256,0.8513033986091614,-0.17944619059562683,-0.23858268558979034,-0.206303671002388
9.507452964782715,0.411869615316391,-2.316671133041382,0.8488795757293701,-0.1742364764213562,-0.24323467910289764,-0.20531336963176727
9.527544498443604,0.4113897383213043,-2.3171374797821045,0.8492213487625122,-0.1749815046787262,-0.24321742355823517,-0.2050178349018097
9.547563552856445,0.41164711117744446,-2.3177008628845215,0.8492152690887451,-0.1744367629289627,-0.24301238358020782,-0.20498065650463104
9.56778073310852,0.41169753670692444,-2.3179240226745605,0.8492047190666199,-0.17438970506191254,-0.24292609095573425,-0.2050088495016098
9.587758302688599,0.41168564558029175,-2.318220853805542,0.8492379188537598,-0.17437012493610382,-0.24297146499156952,-0.204995259642601
9.607825994491577,0.4116843342781067,-2.318403482437134,0.8492554426193237,-0.17435559630393982,-0.24298740923404694,-0.20498983561992645
9.628056764602661,0.41168412566185,-2.3185160160064697,0.8492658734321594,-0.17434683442115784,-0.24299627542495728,-0.20498766005039215
9.648208379745483,0.4116840362548828,-2.318554639816284,0.8492695093154907,-0.17434388399124146,-0.24299941956996918,-0.20498670637607574
9.668304443359375,0.4116840064525604,-2.3186087608337402,0.849274218082428,-0.1743396669626236,-0.2430034875869751,-0.20498599112033844
9.688333511352539,0.41168418526649475,-2.318641424179077,0.8492771983146667,-0.17433711886405945,-0.24300603568553925,-0.2049856036901474
9.708422422409058,0.4116840660572052,-2.3186614513397217,0.84927898645401,-0.17433565855026245,-0.243007630109787,-0.20498530566692352
9.728477478027344,0.4116840660572052,-2.3186686038970947,0.8492796421051025,-0.1743350476026535,-0.2430080622434616,-0.20498517155647278
9.748550415039062,0.4116840660572052,-2.318678617477417,0.849280595779419,-0.17433427274227142,-0.2430088371038437,-0.20498500764369965
9.76862359046936,0.4116840660572052,-2.3186848163604736,0.8492812514305115,-0.1743338406085968,-0.2430092841386795,-0.2049849033355713
9.788684606552124,0.41168412566185,-2.31868839263916,0.8492814302444458,-0.1743335723876953,-0.24300964176654816,-0.2049848884344101
9.808842897415161,0.4116840958595276,-2.3186895847320557,0.8492816090583801,-0.17433340847492218,-0.24300970137119293,-0.20498494803905487
9.82892894744873,0.41168412566185,-2.3186914920806885,0.8492816686630249,-0.1743333339691162,-0.24300985038280487,-0.2049848586320877
9.849043369293213,0.41168412566185,-2.318692922592163,0.849281907081604,-0.17433318495750427,-0.24300995469093323,-0.2049848586320877
9.869130373001099,0.41168421506881714,-2.3186933994293213,0.849281907081604,-0.1743331253528595,-0.2430099993944168,-0.2049848437309265
9.889163255691528,0.4116840660572052,-2.3186938762664795,0.8492819666862488,-0.1743331104516983,-0.24301005899906158,-0.2049848586320877
9.909252882003784,0.41168418526649475,-2.3186943531036377,0.8492820858955383,-0.1743330955505371,-0.2430099993944168,-0.2049848586320877
9.929319143295288,0.4116840660572052,-2.318694591522217,0.8492819666862488,-0.17433303594589233,-0.24301007390022278,-0.2049848735332489
9.94939661026001,0.4116840958595276,-2.318694591522217,0.8492821455001831,-0.1743330955505371,-0.24301005899906158,-0.2049848437309265
9.96945333480835,0.4116840660572052,-2.318694591522217,0.8492820262908936,-0.1743330955505371,-0.24301010370254517,-0.2049848586320877
9.98952841758728,0.4116840660572052,-2.318694591522217,0.8492820858955383,-0.17433308064937592,-0.24301005899906158,-0.20498479902744293
10.009632349014282,0.41168412566185,-2.318694829940796,0.8492820858955383,-0.17433305084705353,-0.24301011860370636,-0.20498481392860413
10.02969765663147,0.41168412566185,-2.318694829940796,0.8492820262908936,-0.17433305084705353,-0.24301011860370636,-0.20498482882976532
10.049749374389648,0.41168418526649475,-2.318694829940796,0.8492820262908936,-0.17433305084705353,-0.24301005899906158,-0.2049848884344101
10.069868803024292,0.4116840958595276,-2.318694829940796,0.8492820858955383,-0.1743330955505371,-0.24301010370254517,-0.20498481392860413
10.089943408966064,0.41168418526649475,-2.318694829940796,0.8492820858955383,-0.1743330955505371,-0.24301010370254517,-0.20498482882976532
10.109992980957031,0.41168421506881714,-2.318694829940796,0.8492820262908936,-0.17433306574821472,-0.24301011860370636,-0.20498482882976532
10.130034923553467,0.41168412566185,-2.318694829940796,0.8492820858955383,-0.17433306574821472,-0.24301011860370636,-0.20498482882976532
10.150118350982666,0.41168418526649475,-2.318694829940796,0.8492820262908936,-0.17433302104473114,-0.24301013350486755,-0.2049848437309265
10.170187711715698,0.41168412566185,-2.318694829940796,0.8492820262908936,-0.17433303594589233,-0.24301013350486755,-0.20498479902744293
10.19033670425415,0.41168418526649475,-2.318694829940796,0.8492820262908936,-0.1743330955505371,-0.24301013350486755,-0.2049848586320877
10.210329294204712,0.41168412566185,-2.318694829940796,0.8492820858955383,-0.17433308064937592,-0.24301005899906158,-0.20498481392860413
10.230633020401001,0.41168418526649475,-2.318694829940796,0.8492820262908936,-0.17433305084705353,-0.24301011860370636,-0.20498482882976532
10.250629186630249,0.41168412566185,-2.318694829940796,0.8492820262908936,-0.17433306574821472,-0.24301013350486755,-0.2049848437309265
10.270663976669312,0.41168412566185,-2.318694829940796,0.8492820858955383,-0.17433308064937592,-0.24301008880138397,-0.20498482882976532
10.29085636138916,0.41168412566185,-2.318694829940796,0.8492820858955383,-0.17433306574821472,-0.24301011860370636,-0.20498482882976532
10.310970306396484,0.41168415546417236,-2.318694829940796,0.8492819666862488,-0.17433306574821472,-0.24301008880138397,-0.20498479902744293
10.331028938293457,0.41168418526649475,-2.318694829940796,0.8492820858955383,-0.17433306574821472,-0.24301008880138397,-0.2049848586320877
10.351079225540161,0.41168412566185,-2.318694829940796,0.8492820262908936,-0.17433305084705353,-0.24301008880138397,-0.20498482882976532
10.371235370635986,0.41168412566185,-2.318694829940796,0.8492820858955383,-0.17433308064937592,-0.24301005899906158,-0.20498481392860413
10.391456842422485,0.41168418526649475,-2.318694829940796,0.8492820858955383,-0.1743330955505371,-0.24301010370254517,-0.20498482882976532
10.411475419998169,0.41168421506881714,-2.318694829940796,0.8492820262908936,-0.17433306574821472,-0.24301011860370636,-0.20498482882976532
10.431565046310425,0.41168412566185,-2.318694829940796,0.8492820858955383,-0.17433306574821472,-0.24301011860370636,-0.20498482882976532
10.45169472694397,0.41168418526649475,-2.318694829940796,0.8492820262908936,-0.17433302104473114,-0.24301013350486755,-0.2049848437309265
10.47184443473816,0.41168412566185,-2.318694829940796,0.8492820262908936,-0.17433303594589233,-0.24301013350486755,-0.20498479902744293
10.491840839385986,0.41168418526649475,-2.318694829940796,0.8492820262908936,-0.1743330955505371,-0.24301013350486755,-0.2049848586320877
10.511887788772583,0.41168412566185,-2.318694829940796,0.8492820858955383,-0.17433308064937592,-0.24301005899906158,-0.20498481392860413
10.531976699829102,0.41168418526649475,-2.318694829940796,0.8492820262908936,-0.17433305084705353,-0.24301011860370636,-0.20498482882976532
10.552039384841919,0.41168412566185,-2.318694829940796,0.8492820262908936,-0.17433306574821472,-0.24301013350486755,-0.2049848437309265
10.572179555892944,0.41168412566185,-2.318694829940796,0.8492820858955383,-0.17433308064937592,-0.24301008880138397,-0.20498482882976532
10.592171907424927,0.41168418526649475,-2.318694829940796,0.8492820262908936,-0.17433302104473114,-0.24301013350486755,-0.2049848437309265
10.612261295318604,0.41168415546417236,-2.318694829940796,0.8492819666862488,-0.17433306574821472,-0.24301008880138397,-0.20498479902744293
10.63237476348877,0.41168418526649475,-2.318694829940796,0.8492820858955383,-0.17433306574821472,-0.24301008880138397,-0.2049848586320877
10.652418851852417,0.41168412566185,-2.318694829940796,0.8492820262908936,-0.17433305084705353,-0.24301008880138397,-0.20498482882976532
10.672444820404053,0.41168418526649475,-2.318694829940796,0.8492820262908936,-0.17433305084705353,-0.24301011860370636,-0.20498482882976532
10.692531824111938,0.41168418526649475,-2.318694829940796,0.8492820858955383,-0.1743330955505371,-0.24301010370254517,-0.20498482882976532
10.712597131729126,0.41168421506881714,-2.318694829940796,0.8492820262908936,-0.17433306574821472,-0.24301011860370636,-0.20498482882976532
10.73265790939331,0.41168412566185,-2.318694829940796,0.8492820858955383,-0.17433306574821472,-0.24301011860370636,-0.20498482882976532
10.752769708633423,0.41168415546417236,-2.318694829940796,0.8492819666862488,-0.17433306574821472,-0.24301008880138397,-0.20498479902744293
10.772845268249512,0.41168412566185,-2.318694829940796,0.8492820262908936,-0.17433303594589233,-0.24301013350486755,-0.20498479902744293
10.792952299118042,0.41168418526649475,-2.318694829940796,0.8492820262908936,-0.1743330955505371,-0.24301013350486755,-0.2049848586320877
10.812988519668579,0.41168412566185,-2.318694829940796,0.8492820858955383,-0.17433308064937592,-0.24301005899906158,-0.20498481392860413
10.833173513412476,0.41168418526649475,-2.318694829940796,0.8492820262908936,-0.17433305084705353,-0.24301011860370636,-0.20498482882976532
10.853265523910522,0.41168412566185,-2.318694829940796,0.8492820262908936,-0.17433306574821472,-0.24301013350486755,-0.2049848437309265
10.873505353927612,0.41168412566185,-2.318694829940796,0.8492820858955383,-0.17433308064937592,-0.24301008880138397,-0.20498482882976532
10.893454790115356,0.41168418526649475,-2.318694829940796,0.8492820262908936,-0.17433302104473114,-0.24301013350486755,-0.2049848437309265
10.91352915763855,0.41168415546417236,-2.318694829940796,0.8492819666862488,-0.17433306574821472,-0.24301008880138397,-0.20498479902744293
10.933627367019653,0.41168418526649475,-2.318694829940796,0.8492820858955383,-0.17433306574821472,-0.24301008880138397,-0.2049848586320877
10.95366644859314,0.41168412566185,-2.318694829940796,0.8492820262908936,-0.17433305084705353,-0.24301008880138397,-0.20498482882976532
10.973783016204834,0.41168412566185,-2.318694829940796,0.8492820858955383,-0.17433308064937592,-0.24301005899906158,-0.20498481392860413
10.993896961212158,0.41168418526649475,-2.318694829940796,0.8492820858955383,-0.1743330955505371,-0.24301010370254517,-0.20498482882976532
11.01396918296814,0.41168421506881714,-2.318694829940796,0.8492820262908936,-0.17433306574821472,-0.24301011860370636,-0.20498482882976532
11.033987045288086,0.41168412566185,-2.318694829940796,0.8492820858955383,-0.17433306574821472,-0.24301011860370636,-0.20498482882976532
11.05413269996643,0.41168418526649475,-2.318694829940796,0.8492820262908936,-0.17433302104473114,-0.24301013350486755,-0.2049848437309265
11.074334144592285,0.41168412566185,-2.318694829940796,0.8492820262908936,-0.17433303594589233,-0.24301013350486755,-0.20498479902744293
11.094303369522095,0.41168418526649475,-2.318694829940796,0.8492820262908936,-0.1743330955505371,-0.24301013350486755,-0.2049848586320877
11.114407777786255,0.41168412566185,-2.318694829940796,0.8492820858955383,-0.17433308064937592,-0.24301005899906158,-0.20498481392860413
11.134530782699585,0.41168418526649475,-2.318694829940796,0.8492820262908936,-0.17433305084705353,-0.24301011860370636,-0.20498482882976532
11.154633283615112,0.41168412566185,-2.318694829940796,0.8492820262908936,-0.17433306574821472,-0.24301013350486755,-0.2049848437309265
11.174672365188599,0.41168412566185,-2.318694829940796,0.8492820858955383,-0.17433308064937592,-0.24301008880138397,-0.20498482882976532
11.194729566574097,0.41168418526649475,-2.318694829940796,0.8492820262908936,-0.17433302104473114,-0.24301013350486755,-0.2049848437309265
11.21492075920105,0.41168415546417236,-2.318694829940796,0.8492819666862488,-0.17433306574821472,-0.24301008880138397,-0.20498479902744293
11.234941959381104,0.41168418526649475,-2.318694829940796,0.8492820858955383,-0.17433306574821472,-0.24301008880138397,-0.2049848586320877
11.255021810531616,0.41168412566185,-2.318694829940796,0.8492820262908936,-0.17433305084705353,-0.24301008880138397,-0.20498482882976532
11.27512788772583,0.41168418526649475,-2.318694829940796,0.8492820262908936,-0.17433305084705353,-0.24301011860370636,-0.20498482882976532
11.295191764831543,0.41168418526649475,-2.318694829940796,0.8492820858955383,-0.1743330955505371,-0.24301010370254517,-0.20498482882976532
11.315268278121948,0.41168421506881714,-2.318694829940796,0.8492820262908936,-0.17433306574821472,-0.24301011860370636,-0.20498482882976532
11.335375308990479,0.41168412566185,-2.318694829940796,0.8492820858955383,-0.17433306574821472,-0.24301011860370636,-0.20498482882976532
11.355464696884155,0.41168415546417236,-2.318694829940796,0.8492819666862488,-0.17433306574821472,-0.24301008880138397,-0.20498479902744293
11.375568151473999,0.41168412566185,-2.318694829940796,0.8492820262908936,-0.17433303594589233,-0.24301013350486755,-0.20498479902744293
11.395670890808105,0.41168418526649475,-2.318694829940796,0.8492820262908936,-0.1743330955505371,-0.24301013350486755,-0.2049848586320877
11.415768384933472,0.41168412566185,-2.318694829940796,0.8492820858955383,-0.17433308064937592,-0.24301005899906158,-0.20498481392860413
11.435761451721191,0.41168418526649475,-2.318694829940796,0.8492820858955383,-0.1743330955505371,-0.24301010370254517,-0.20498482882976532
11.4558687210083,0.41168412566185,-2.318694829940796,0.8492820262908936,-0.17433306574821472,-0.24301013350486755,-0.2049848437309265
11.475929260253906,0.41168412566185,-2.318694829940796,0.8492820858955383,-0.17433308064937592,-0.24301008880138397,-0.20498482882976532
11.49600100517273,0.41168418526649475,-2.318694829940796,0.8492820262908936,-0.17433302104473114,-0.24301013350486755,-0.2049848437309265
11.51679539680481,0.41168412566185,-2.318694829940796,0.8492820262908936,-0.17433303594589233,-0.24301013350486755,-0.20498479902744293
11.536908864974976,0.41168418526649475,-2.318694829940796,0.8492820858955383,-0.17433306574821472,-0.24301008880138397,-0.2049848586320877
11.557005882263184,0.41168412566185,-2.318694829940796,0.8492820262908936,-0.17433305084705353,-0.24301008880138397,-0.20498482882976532
11.577135562896729,0.41168418526649475,-2.318694829940796,0.8492820262908936,-0.17433305084705353,-0.24301011860370636,-0.20498482882976532
11.598125457763672,0.41168412566185,-2.318694829940796,0.8492820262908936,-0.17433306574821472,-0.24301013350486755,-0.2049848437309265
11.618290901184082,0.41168421506881714,-2.318694829940796,0.8492820262908936,-0.17433306574821472,-0.24301011860370636,-0.20498482882976532
11.63829755783081,0.41168412566185,-2.318694829940796,0.8492820858955383,-0.17433306574821472,-0.24301011860370636,-0.20498482882976532
11.658341884613037,0.4013369083404541,-2.0181596279144287,1.0239840745925903,-0.21063290536403656,-0.345965713262558,-0.3026011288166046
11.678434610366821,0.42932114005088806,-1.7570335865020752,1.0038262605667114,-0.2514607906341553,-0.32953840494155884,-0.29067739844322205
11.698493719100952,0.44307562708854675,-1.3189855813980103,0.9684960842132568,-0.27177560329437256,-0.33996880054473877,-0.3088899552822113
11.718562841415405,0.4702552855014801,-0.9184973239898682,0.9464690089225769,-0.29293182492256165,-0.35784924030303955,-0.3204825818538666
11.73863434791565,0.512908935546875,-0.5353200435638428,0.9298988580703735,-0.31431809067726135,-0.38827526569366455,-0.32475849986076355
11.75874400138855,0.5408834218978882,-0.348564088344574,0.9240638017654419,-0.32602930068969727,-0.409379243850708,-0.32362034916877747
11.778828382492065,0.6095242500305176,0.017182644456624985,0.911011815071106,-0.35159486532211304,-0.47552406787872314,-0.3145979940891266
11.798876523971558,0.687611997127533,0.17,0.8992681503295898,-0.38004064559936523,-0.5667024254798889,-0.3003661334514618
11.818955898284912,0.7161598205566406,0.17,0.9064810276031494,-0.3900153636932373,-0.6056479811668396,-0.2925786077976227
11.83902621269226,0.7377063035964966,0.17,0.9140739440917969,-0.396644651889801,-0.6480863690376282,-0.2865685522556305
11.859107732772827,0.7401540279388428,0.17,0.9155210256576538,-0.39746540784835815,-0.6574589610099792,-0.2859111726284027
11.879164934158325,0.7404077053070068,0.17,0.9156889319419861,-0.39755821228027344,-0.6585434079170227,-0.28583529591560364
11.899333238601685,0.7405353784561157,0.17,0.9157842397689819,-0.39760565757751465,-0.6591288447380066,-0.28580647706985474
11.919392347335815,0.740554690361023,0.17,0.9157981872558594,-0.3976128101348877,-0.6592161655426025,-0.2858025133609772
11.939422845840454,0.7405574917793274,0.17,0.9158005714416504,-0.3976139426231384,-0.6592290997505188,-0.28580203652381897
11.95950436592102,0.7405577898025513,0.17,0.9158006906509399,-0.3976139426231384,-0.6592304706573486,-0.2858019471168518
11.979569911956787,0.7405579686164856,0.17,0.9158008098602295,-0.397614061832428,-0.6592311859130859,-0.2858019173145294
11.99962306022644,0.7405579090118408,0.17,0.9158007502555847,-0.3976140022277832,-0.6592313051223755,-0.2858019173145294
12.019683122634888,0.7405579090118408,0.17,0.9158006906509399,-0.3976140022277832,-0.6592312455177307,-0.2858019173145294
12.039773941040039,0.7405579686164856,0.17,0.9158008098602295,-0.397614061832428,-0.6592312455177307,-0.2858019471168518
12.059895992279053,0.7405579090118408,0.17,0.9158007502555847,-0.397614061832428,-0.6592313647270203,-0.2858019769191742
12.079931735992432,0.7405579686164856,0.17,0.9158008694648743,-0.397614061832428,-0.6592313647270203,-0.28580188751220703
12.0999915599823,0.7405579686164856,0.17,0.9158008098602295,-0.397614061832428,-0.6592313647270203,-0.2858019173145294
12.120093584060669,0.7405579686164856,0.17,0.9158007502555847,-0.3976140022277832,-0.6592313051223755,-0.2858019769191742
12.140165090560913,0.7405579090118408,0.17,0.9158008098602295,-0.397614061832428,-0.6592313051223755,-0.2858019769191742
12.160238265991211,0.7405580282211304,0.17,0.9158007502555847,-0.3976140022277832,-0.6592313647270203,-0.2858019471168518
12.180288791656494,0.7405579686164856,0.17,0.9158006906509399,-0.3976140022277832,-0.6592313051223755,-0.2858019769191742
12.200360536575317,0.7405579090118408,0.17,0.9158008098602295,-0.3976140022277832,-0.6592313051223755,-0.2858019173145294
12.22040057182312,0.7405579090118408,0.17,0.9158007502555847,-0.3976140022277832,-0.6592313647270203,-0.2858019173145294
12.240472316741943,0.7405579090118408,0.17,0.9158008694648743,-0.397614061832428,-0.6592313051223755,-0.2858019471168518
12.260516881942749,0.7405579686164856,0.17,0.9158007502555847,-0.3976140022277832,-0.6592313051223755,-0.2858019173145294
12.280734539031982,0.7405579686164856,0.17,0.9158008098602295,-0.397614061832428,-0.6592313647270203,-0.2858019173145294
12.300894737243652,0.7405579090118408,0.17,0.9158007502555847,-0.397614061832428,-0.6592313647270203,-0.2858019173145294
12.32090711593628,0.7405579686164856,0.17,0.9158008098602295,-0.397614061832428,-0.6592313647270203,-0.28580188751220703
12.340953350067139,0.7405579686164856,0.17,0.9158008694648743,-0.397614061832428,-0.659231424331665,-0.2858019173145294
12.361041069030762,0.7405579686164856,0.17,0.9158007502555847,-0.397614061832428,-0.6592313647270203,-0.2858019173145294
12.381119728088379,0.7405580282211304,0.17,0.9158008098602295,-0.3976140022277832,-0.6592313647270203,-0.2858019173145294
12.401395082473755,0.7405580282211304,0.17,0.9158007502555847,-0.3976140022277832,-0.6592313647270203,-0.2858019471168518
12.421382904052734,0.7405579686164856,0.17,0.9158006906509399,-0.3976140022277832,-0.6592313051223755,-0.2858019769191742
12.441426753997803,0.7405579090118408,0.17,0.9158008098602295,-0.3976140022277832,-0.6592313051223755,-0.2858019173145294
12.46149492263794,0.7405579090118408,0.17,0.9158007502555847,-0.3976140022277832,-0.6592313647270203,-0.2858019173145294
12.48157262802124,0.7405579090118408,0.17,0.9158008694648743,-0.397614061832428,-0.6592313051223755,-0.2858019471168518
12.501614809036255,0.7405579686164856,0.17,0.9158007502555847,-0.3976140022277832,-0.6592313051223755,-0.2858019173145294
12.521759510040283,0.7405579686164856,0.17,0.9158008098602295,-0.397614061832428,-0.6592313647270203,-0.2858019173145294
12.54180908203125,0.7405579090118408,0.17,0.9158007502555847,-0.397614061832428,-0.6592313647270203,-0.2858019173145294
12.561884641647339,0.7405579686164856,0.17,0.9158008098602295,-0.397614061832428,-0.6592313647270203,-0.28580188751220703
12.582046031951904,0.7405579686164856,0.17,0.9158008098602295,-0.3976140022277832,-0.6592313647270203,-0.2858019769191742
12.60211968421936,0.7405579686164856,0.17,0.9158007502555847,-0.397614061832428,-0.6592313647270203,-0.2858019173145294
12.622133255004883,0.7405580282211304,0.17,0.9158008098602295,-0.3976140022277832,-0.6592313647270203,-0.2858019173145294
12.64225697517395,0.7405579686164856,0.17,0.9158008098602295,-0.397614061832428,-0.6592313647270203,-0.2858019173145294
12.662339687347412,0.7405579090118408,0.17,0.9158008694648743,-0.397614061832428,-0.6592313051223755,-0.2858019173145294
12.682392120361328,0.7405579090118408,0.17,0.9158008098602295,-0.3976140022277832,-0.6592313051223755,-0.2858019173145294
12.70258641242981,0.7405579090118408,0.17,0.9158007502555847,-0.3976140022277832,-0.6592313647270203,-0.2858019173145294
12.722705841064453,0.7405579090118408,0.17,0.9158008098602295,-0.3976140022277832,-0.6592313647270203,-0.2858019471168518
12.742852449417114,0.7405580282211304,0.17,0.9158008098602295,-0.397614061832428,-0.6592313051223755,-0.2858019173145294
12.762851476669312,0.7405579686164856,0.17,0.9158008098602295,-0.397614061832428,-0.6592313647270203,-0.2858019173145294
12.78294038772583,0.7405580282211304,0.17,0.9158007502555847,-0.3976140022277832,-0.6592313051223755,-0.2858019769191742
12.803071022033691,0.7405579090118408,0.17,0.9158007502555847,-0.397614061832428,-0.6592312455177307,-0.2858019769191742
12.82311224937439,0.7405579686164856,0.17,0.9158008098602295,-0.3976140022277832,-0.6592313647270203,-0.2858019769191742
12.843163251876831,0.7405579686164856,0.17,0.9158007502555847,-0.397614061832428,-0.6592313647270203,-0.2858019173145294
12.86324405670166,0.7405579686164856,0.17,0.9158008098602295,-0.3976140022277832,-0.6592313647270203,-0.2858019769191742
12.883331537246704,0.7405579686164856,0.17,0.9158008098602295,-0.397614061832428,-0.6592313647270203,-0.2858019173145294
12.90350341796875,0.7405579090118408,0.17,0.9158008694648743,-0.397614061832428,-0.6592313051223755,-0.2858019173145294
12.923487424850464,0.7405579090118408,0.17,0.9158008098602295,-0.3976140022277832,-0.6592313051223755,-0.2858019173145294
12.943669080734253,0.7405579686164856,0.17,0.9158008098602295,-0.397614061832428,-0.6592313647270203,-0.2858019769191742
12.963786840438843,0.7405579090118408,0.17,0.9158008098602295,-0.3976140022277832,-0.6592313647270203,-0.2858019471168518
12.983776092529297,0.7405580282211304,0.17,0.9158008098602295,-0.397614061832428,-0.6592313051223755,-0.2858019173145294
13.003854036331177,0.7405579686164856,0.17,0.9158008098602295,-0.397614061832428,-0.6592313647270203,-0.2858019173145294
13.023962259292603,0.7405580282211304,0.17,0.9158007502555847,-0.3976140022277832,-0.6592313051223755,-0.2858019769191742
13.044005870819092,0.7405579090118408,0.17,0.9158007502555847,-0.397614061832428,-0.6592312455177307,-0.2858019769191742
13.064075231552124,0.7405579686164856,0.17,0.9158008098602295,-0.3976140022277832,-0.6592313647270203,-0.2858019769191742
13.084214448928833,0.7405579686164856,0.17,0.9158007502555847,-0.397614061832428,-0.6592313647270203,-0.2858019173145294
13.104371786117554,0.7405579686164856,0.17,0.9158008098602295,-0.3976140022277832,-0.6592313647270203,-0.2858019769191742
13.12442135810852,0.7405579686164856,0.17,0.9158008098602295,-0.397614061832428,-0.6592313647270203,-0.2858019173145294
13.144471883773804,0.7405579090118408,0.17,0.9158008694648743,-0.397614061832428,-0.6592313051223755,-0.2858019173145294
13.164698362350464,0.7405579090118408,0.17,0.9158008098602295,-0.3976140022277832,-0.6592313051223755,-0.2858019173145294
13.184838771820068,0.7405579686164856,0.17,0.9158008098602295,-0.397614061832428,-0.6592313647270203,-0.2858019769191742
13.204906702041626,0.7405579090118408,0.17,0.9158008098602295,-0.3976140022277832,-0.6592313647270203,-0.2858019471168518
13.22495722770691,0.7405580282211304,0.17,0.9158008098602295,-0.397614061832428,-0.6592313051223755,-0.2858019173145294
13.245725393295288,0.7405579686164856,0.17,0.9158008098602295,-0.397614061832428,-0.6592313647270203,-0.2858019173145294
13.265846014022827,0.7405580282211304,0.17,0.9158007502555847,-0.3976140022277832,-0.6592313051223755,-0.2858019769191742
13.285939693450928,0.7405579090118408,0.17,0.9158007502555847,-0.397614061832428,-0.6592312455177307,-0.2858019769191742
13.306046724319458,0.7405579686164856,0.17,0.9158008098602295,-0.3976140022277832,-0.6592313647270203,-0.2858019769191742
13.326133966445923,0.7405579686164856,0.17,0.9158008694648743,-0.397614061832428,-0.659231424331665,-0.2858019173145294
13.346294403076172,0.7405579686164856,0.17,0.9158008098602295,-0.3976140022277832,-0.6592313647270203,-0.2858019769191742
13.366422891616821,0.7405579686164856,0.17,0.9158008098602295,-0.397614061832428,-0.6592313647270203,-0.2858019173145294
13.386412382125854,0.7405579090118408,0.17,0.9158008694648743,-0.397614061832428,-0.6592313051223755,-0.2858019173145294
13.406495332717896,0.7405579686164856,0.17,0.9158006906509399,-0.3976140022277832,-0.6592313051223755,-0.2858019769191742
13.426624059677124,0.7405579686164856,0.17,0.9158008098602295,-0.397614061832428,-0.6592313647270203,-0.2858019769191742
13.446654796600342,0.7405579090118408,0.17,0.9158008098602295,-0.3976140022277832,-0.6592313647270203,-0.2858019471168518
13.466930866241455,0.7405579090118408,0.17,0.9158008694648743,-0.397614061832428,-0.6592313051223755,-0.2858019471168518
13.487120628356934,0.7405579686164856,0.17,0.9158007502555847,-0.3976140022277832,-0.6592313051223755,-0.2858019173145294
13.507181644439697,0.7405580282211304,0.17,0.9158007502555847,-0.3976140022277832,-0.6592313051223755,-0.2858019769191742
13.527286052703857,0.7405579090118408,0.17,0.9158007502555847,-0.397614061832428,-0.6592312455177307,-0.2858019769191742
13.547428131103516,0.7405579686164856,0.17,0.9158008098602295,-0.397614061832428,-0.6592313647270203,-0.28580188751220703
13.567503452301025,0.7405579686164856,0.17,0.9158008694648743,-0.397614061832428,-0.659231424331665,-0.2858019173145294
13.587556600570679,0.7405579686164856,0.17,0.9158008098602295,-0.3976140022277832,-0.6592313647270203,-0.2858019769191742
13.607795000076294,0.7405580282211304,0.17,0.9158008098602295,-0.3976140022277832,-0.6592313647270203,-0.2858019173145294
13.627894163131714,0.7405580282211304,0.17,0.9158007502555847,-0.3976140022277832,-0.6592313647270203,-0.2858019471168518
13.648005962371826,0.7405579686164856,0.17,0.9158006906509399,-0.3976140022277832,-0.6592313051223755,-0.2858019769191742
13.668089151382446,0.7405579686164856,0.17,0.9158008098602295,-0.397614061832428,-0.6592313647270203,-0.2858019769191742
13.68820071220398,0.7405579090118408,0.17,0.9158007502555847,-0.3976140022277832,-0.6592313647270203,-0.2858019173145294
13.708248615264893,0.7405579090118408,0.17,0.9158008694648743,-0.397614061832428,-0.6592313051223755,-0.2858019471168518
13.728310108184814,0.7405579686164856,0.17,0.9158007502555847,-0.3976140022277832,-0.6592313051223755,-0.2858019173145294
13.74836540222168,0.7405580282211304,0.17,0.9158007502555847,-0.3976140022277832,-0.6592313051223755,-0.2858019769191742
13.768418073654175,0.7405579090118408,0.17,0.9158007502555847,-0.397614061832428,-0.6592313647270203,-0.2858019173145294
13.788487195968628,0.7405579686164856,0.17,0.9158008098602295,-0.397614061832428,-0.6592313647270203,-0.28580188751220703
13.808544397354126,0.7405579686164856,0.17,0.9158008694648743,-0.397614061832428,-0.659231424331665,-0.2858019173145294
13.828647375106812,0.7405579686164856,0.17,0.9158008098602295,-0.3976140022277832,-0.6592313647270203,-0.2858019769191742
13.84871792793274,0.7405580282211304,0.17,0.9158008098602295,-0.3976140022277832,-0.6592313647270203,-0.2858019173145294
13.868794679641724,0.7405580282211304,0.17,0.9158007502555847,-0.3976140022277832,-0.6592313647270203,-0.2858019471168518
13.888866901397705,0.7405579686164856,0.17,0.9158006906509399,-0.3976140022277832,-0.6592313051223755,-0.2858019769191742
13.908910989761353,0.7405579686164856,0.17,0.9158008098602295,-0.397614061832428,-0.6592313647270203,-0.2858019769191742
13.928998708724976,0.7405579090118408,0.17,0.9158007502555847,-0.3976140022277832,-0.6592313647270203,-0.2858019173145294
13.949065446853638,0.7405579090118408,0.17,0.9158008694648743,-0.397614061832428,-0.6592313051223755,-0.2858019471168518
13.969129085540771,0.7405579686164856,0.17,0.9158007502555847,-0.3976140022277832,-0.6592313051223755,-0.2858019173145294
13.989174842834473,0.7405580282211304,0.17,0.9158007502555847,-0.3976140022277832,-0.6592313051223755,-0.2858019769191742
14.009280443191528,0.7405579090118408,0.17,0.9158007502555847,-0.397614061832428,-0.6592313647270203,-0.2858019173145294
14.029354810714722,0.7405579686164856,0.17,0.9158008098602295,-0.397614061832428,-0.6592313647270203,-0.28580188751220703
14.04940938949585,0.7405579686164856,0.17,0.9158008694648743,-0.397614061832428,-0.659231424331665,-0.2858019173145294
14.069567203521729,0.7405579686164856,0.17,0.9158008098602295,-0.3976140022277832,-0.6592313647270203,-0.2858019769191742
14.089671850204468,0.7405580282211304,0.17,0.9158008098602295,-0.3976140022277832,-0.6592313647270203,-0.2858019173145294
14.109743356704712,0.7405580282211304,0.17,0.9158007502555847,-0.3976140022277832,-0.6592313647270203,-0.2858019471168518
14.129825115203857,0.7405579686164856,0.17,0.9158006906509399,-0.3976140022277832,-0.6592313051223755,-0.2858019769191742
14.1499764919281,0.7405579090118408,0.17,0.9158008098602295,-0.3976140022277832,-0.6592313051223755,-0.2858019173145294
14.170031785964966,0.7405579090118408,0.17,0.9158007502555847,-0.3976140022277832,-0.6592313647270203,-0.2858019173145294
14.190111637115479,0.7405579090118408,0.17,0.9158008694648743,-0.397614061832428,-0.6592313051223755,-0.2858019471168518
14.210154056549072,0.7405579686164856,0.17,0.9158007502555847,-0.3976140022277832,-0.6592313051223755,-0.2858019173145294
14.230238914489746,0.7405579686164856,0.17,0.9158008098602295,-0.397614061832428,-0.6592313647270203,-0.2858019173145294
14.250313520431519,0.7405579090118408,0.17,0.9158007502555847,-0.397614061832428,-0.6592313647270203,-0.2858019173145294
14.270360469818115,0.7405579686164856,0.17,0.9158008098602295,-0.397614061832428,-0.6592313647270203,-0.28580188751220703
14.290493726730347,0.7405579686164856,0.17,0.9158008098602295,-0.3976140022277832,-0.6592313647270203,-0.2858019769191742
14.310585737228394,0.7405579686164856,0.17,0.9158007502555847,-0.397614061832428,-0.6592313647270203,-0.2858019173145294
14.33065152168274,0.7405580282211304,0.17,0.9158008098602295,-0.3976140022277832,-0.6592313647270203,-0.2858019173145294
14.350703954696655,0.7405580282211304,0.17,0.9158007502555847,-0.3976140022277832,-0.6592313647270203,-0.2858019471168518
14.370847463607788,0.7405579090118408,0.17,0.9158008694648743,-0.397614061832428,-0.6592313051223755,-0.2858019173145294
14.390934467315674,0.7405579090118408,0.17,0.9158008098602295,-0.3976140022277832,-0.6592313051223755,-0.2858019173145294
14.411008834838867,0.7405579090118408,0.17,0.9158007502555847,-0.3976140022277832,-0.6592313647270203,-0.2858019173145294
14.431054592132568,0.7405579090118408,0.17,0.9158008694648743,-0.397614061832428,-0.6592313051223755,-0.2858019471168518
14.4512300491333,0.7405580282211304,0.17,0.9158008098602295,-0.397614061832428,-0.6592313051223755,-0.2858019173145294
14.471240520477295,0.7405579686164856,0.17,0.9158008098602295,-0.397614061832428,-0.6592313647270203,-0.2858019173145294
14.491363286972046,0.7405579090118408,0.17,0.9158007502555847,-0.397614061832428,-0.6592313647270203,-0.2858019173145294
14.511849403381348,0.7405579686164856,0.17,0.9158008098602295,-0.397614061832428,-0.6592313647270203,-0.28580188751220703
14.531930923461914,0.7405579686164856,0.17,0.9158008098602295,-0.3976140022277832,-0.6592313647270203,-0.2858019769191742
14.552023887634277,0.7405579686164856,0.17,0.9158007502555847,-0.397614061832428,-0.6592313647270203,-0.2858019173145294
14.57207179069519,0.7405580282211304,0.17,0.9158008098602295,-0.3976140022277832,-0.6592313647270203,-0.2858019173145294
14.592306137084961,0.7405580282211304,0.17,0.9158007502555847,-0.3976140022277832,-0.6592313647270203,-0.2858019471168518
14.612443923950195,0.7405579090118408,0.17,0.9158008694648743,-0.397614061832428,-0.6592313051223755,-0.2858019173145294
14.632582902908325,0.7405579090118408,0.17,0.9158008098602295,-0.3976140022277832,-0.6592313051223755,-0.2858019173145294
14.65257215499878,0.7405579090118408,0.17,0.9158007502555847,-0.3976140022277832,-0.6592313647270203,-0.2858019173145294
14.672682046890259,0.7405579090118408,0.17,0.9158008098602295,-0.3976140022277832,-0.6592313647270203,-0.2858019471168518
14.692769527435303,0.7405580282211304,0.17,0.9158008098602295,-0.397614061832428,-0.6592313051223755,-0.2858019173145294
14.712892532348633,0.7405579686164856,0.17,0.9158008098602295,-0.397614061832428,-0.6592313647270203,-0.2858019173145294
14.732908248901367,0.7405579090118408,0.17,0.9158007502555847,-0.397614061832428,-0.6592313647270203,-0.2858019173145294
14.752989292144775,0.7405579090118408,0.17,0.9158007502555847,-0.397614061832428,-0.6592312455177307,-0.2858019769191742
14.773163080215454,0.7405579686164856,0.17,0.9158008098602295,-0.3976140022277832,-0.6592313647270203,-0.2858019769191742
14.793161392211914,0.7405579686164856,0.17,0.9158007502555847,-0.397614061832428,-0.6592313647270203,-0.2858019173145294
14.813219785690308,0.7405580282211304,0.17,0.9158008098602295,-0.3976140022277832,-0.6592313647270203,-0.2858019173145294
14.833385229110718,0.7405579686164856,0.17,0.9158008098602295,-0.397614061832428,-0.6592313647270203,-0.2858019173145294
14.853531122207642,0.7405579090118408,0.17,0.9158008694648743,-0.397614061832428,-0.6592313051223755,-0.2858019173145294
14.873539447784424,0.7405579090118408,0.17,0.9158008098602295,-0.3976140022277832,-0.6592313051223755,-0.2858019173145294
14.893621683120728,0.7405579090118408,0.17,0.9158007502555847,-0.3976140022277832,-0.6592313647270203,-0.2858019173145294
14.913699865341187,0.7405579090118408,0.17,0.9158008098602295,-0.3976140022277832,-0.6592313647270203,-0.2858019471168518
14.933775901794434,0.7405580282211304,0.17,0.9158008098602295,-0.397614061832428,-0.6592313051223755,-0.2858019173145294
14.953870058059692,0.7405579686164856,0.17,0.9158008098602295,-0.397614061832428,-0.6592313647270203,-0.2858019173145294
14.973909378051758,0.7405579090118408,0.17,0.9158007502555847,-0.397614061832428,-0.6592313647270203,-0.2858019173145294
14.99404788017273,0.7405579090118408,0.17,0.9158007502555847,-0.397614061832428,-0.6592312455177307,-0.2858019769191742
15.014148235321045,0.7405579686164856,0.17,0.9158008098602295,-0.3976140022277832,-0.6592313647270203,-0.2858019769191742
15.034197568893433,0.7405579686164856,0.17,0.9158007502555847,-0.397614061832428,-0.6592313647270203,-0.2858019173145294
15.054287195205688,0.7405580282211304,0.17,0.9158008098602295,-0.3976140022277832,-0.6592313647270203,-0.2858019173145294
15.074368715286255,0.7405579686164856,0.17,0.9158008098602295,-0.397614061832428,-0.6592313647270203,-0.2858019173145294
15.094478845596313,0.7405579090118408,0.17,0.9158008694648743,-0.397614061832428,-0.6592313051223755,-0.2858019173145294
15.114516735076904,0.7405579090118408,0.17,0.9158008098602295,-0.3976140022277832,-0.6592313051223755,-0.2858019173145294
15.134572982788086,0.7405579090118408,0.17,0.9158007502555847,-0.3976140022277832,-0.6592313647270203,-0.2858019173145294
15.154659986495972,0.7405579090118408,0.17,0.9158008098602295,-0.3976140022277832,-0.6592313647270203,-0.2858019471168518
