liuyurong129/humanoid-gym/humanoid/data/target_q_20250522-031820.csv
timestamp,joint_1,joint_2,joint_3,joint_4,joint_5,joint_6
0.00018858909606933594,0.0,0.0,0.0,0.0,0.0,0.0
0.02026224136352539,0.0,0.0,0.0,0.0,0.0,0.0
0.0403439998626709,0.0,0.0,0.0,0.0,0.0,0.0
0.060465097427368164,0.0,0.0,0.0,0.0,0.0,0.0
0.08051824569702148,0.0,0.0,0.0,0.0,0.0,0.0
0.10059595108032227,0.10228301584720612,-1.153896689414978,1.0867648124694824,-0.11197581887245178,0.061744172126054764,0.37320151925086975
0.12067246437072754,0.08043508976697922,-1.1646080017089844,1.0865259170532227,-0.11356545239686966,0.06658126413822174,0.37583887577056885
0.14081239700317383,0.03865591436624527,-1.1878823041915894,1.0891002416610718,-0.1163373813033104,0.0789380744099617,0.3822597861289978
0.1608719825744629,0.020527753978967667,-1.2008397579193115,1.0986170768737793,-0.11778303980827332,0.08415810018777847,0.38518673181533813
0.1809556484222412,-0.01599949598312378,-1.2256362438201904,1.114006757736206,-0.11994097381830215,0.09684941172599792,0.3916718363761902
0.20104360580444336,-0.0332169383764267,-1.2383428812026978,1.1245248317718506,-0.12063083797693253,0.10351534187793732,0.3950721323490143
0.22121739387512207,-0.06549186259508133,-1.2574868202209473,1.131821870803833,-0.11938877403736115,0.11529221385717392,0.40065690875053406
0.24182820320129395,-0.08869893848896027,-1.2710213661193848,1.1372687816619873,-0.11794987320899963,0.12554685771465302,0.40525180101394653
0.26180505752563477,-0.10083310306072235,-1.2749742269515991,1.1368343830108643,-0.11712571233510971,0.12857791781425476,0.4065718948841095
0.28188490867614746,-0.11459026485681534,-1.2839380502700806,1.1464314460754395,-0.11512461304664612,0.13508959114551544,0.4094049334526062
0.3020453453063965,-0.11521720886230469,-1.288743495941162,1.159500002861023,-0.1151585727930069,0.13833636045455933,0.4107127785682678
0.32211947441101074,-0.126122385263443,-1.2938681840896606,1.1699376106262207,-0.11333345621824265,0.14010201394557953,0.41121432185173035
0.342348575592041,-0.13101762533187866,-1.2955623865127563,1.1666368246078491,-0.11120802909135818,0.142444908618927,0.4118890166282654
0.3624691963195801,-0.14205428957939148,-1.2974581718444824,1.1677998304367065,-0.10814543813467026,0.1426348239183426,0.41138139367103577
0.3824949264526367,-0.15155863761901855,-1.297839879989624,1.1596688032150269,-0.1039433404803276,0.14435528218746185,0.41167691349983215
0.4025745391845703,-0.1541595607995987,-1.2980716228485107,1.1635946035385132,-0.10295084118843079,0.14381961524486542,0.411224901676178
0.42267727851867676,-0.15533284842967987,-1.299416184425354,1.1641348600387573,-0.09998641163110733,0.14623002707958221,0.41207119822502136
0.44275546073913574,-0.15557241439819336,-1.3004213571548462,1.171532392501831,-0.098646380007267,0.14571452140808105,0.4120670557022095
0.4628441333770752,-0.14952094852924347,-1.3034186363220215,1.1845362186431885,-0.09709002822637558,0.14801853895187378,0.4128945767879486
0.48340940475463867,-0.14370942115783691,-1.3066157102584839,1.200933575630188,-0.09534715861082077,0.1482994556427002,0.4129413366317749
0.5035233497619629,-0.14013764262199402,-1.307641863822937,1.2008748054504395,-0.09442634880542755,0.15089574456214905,0.41298213601112366
0.5236341953277588,-0.13868960738182068,-1.3095548152923584,1.1931216716766357,-0.09078604727983475,0.15425394475460052,0.41312193870544434
0.5437238216400146,-0.1356566697359085,-1.311126947402954,1.1898207664489746,-0.08869034051895142,0.15677247941493988,0.4135962724685669
0.5638928413391113,-0.13288362324237823,-1.3113384246826172,1.1886194944381714,-0.08602111041545868,0.15857304632663727,0.4128737449645996
0.584176778793335,-0.13745629787445068,-1.310444951057434,1.1744678020477295,-0.08414527773857117,0.16018599271774292,0.41216033697128296
0.6043360233306885,-0.1324465423822403,-1.3122682571411133,1.1810914278030396,-0.08168616890907288,0.16133427619934082,0.4117804169654846
0.624751091003418,-0.1259075254201889,-1.3144484758377075,1.190766453742981,-0.07969444990158081,0.16168446838855743,0.4112900197505951
0.6449410915374756,-0.11444363743066788,-1.3163727521896362,1.212848424911499,-0.0811602771282196,0.16189220547676086,0.4115566313266754
0.6649448871612549,-0.11061067134141922,-1.3179489374160767,1.2258849143981934,-0.08047086745500565,0.1607179194688797,0.41033896803855896
0.6851704120635986,-0.11734925210475922,-1.3180371522903442,1.2122160196304321,-0.07717743515968323,0.16155344247817993,0.40943023562431335
0.7052266597747803,-0.11399465799331665,-1.3195282220840454,1.2239910364151,-0.07713868468999863,0.16045349836349487,0.40842777490615845
0.7253081798553467,-0.10567120462656021,-1.3204765319824219,1.247327446937561,-0.07942712306976318,0.15824434161186218,0.40808600187301636
0.7454640865325928,-0.09939844161272049,-1.3227429389953613,1.2522075176239014,-0.07602792233228683,0.1596887856721878,0.40837371349334717
0.7655603885650635,-0.09207060188055038,-1.3248465061187744,1.2586477994918823,-0.07290986180305481,0.16093693673610687,0.40858182311058044
0.7860984802246094,-0.09650948643684387,-1.3269248008728027,1.2419174909591675,-0.0689629465341568,0.16363269090652466,0.40835899114608765
0.805790901184082,-0.09094621241092682,-1.3292850255966187,1.2452887296676636,-0.06485988944768906,0.16488713026046753,0.4081287980079651
0.8259167671203613,-0.08042540401220322,-1.329620361328125,1.2589505910873413,-0.0647767186164856,0.1653534173965454,0.4086638391017914
0.846036434173584,-0.07059591263532639,-1.331963300704956,1.258522868156433,-0.06163082271814346,0.16888120770454407,0.4088011085987091
0.8665032386779785,-0.06368748843669891,-1.3340792655944824,1.2618424892425537,-0.058614734560251236,0.1706228107213974,0.40877142548561096
0.8866636753082275,-0.07192234694957733,-1.3371764421463013,1.2445182800292969,-0.05482407659292221,0.17189829051494598,0.4076284170150757
0.9067707061767578,-0.06488105654716492,-1.3384959697723389,1.2513983249664307,-0.05251240357756615,0.17287255823612213,0.4072672128677368
0.9268386363983154,-0.054550621658563614,-1.3382712602615356,1.266230583190918,-0.052249543368816376,0.17150859534740448,0.40788784623146057
0.9469165802001953,-0.048894014209508896,-1.3435825109481812,1.257765769958496,-0.04684491083025932,0.17537710070610046,0.40755242109298706
0.9672715663909912,-0.043704621493816376,-1.3482962846755981,1.2511454820632935,-0.04256793484091759,0.1789315640926361,0.4074137806892395
0.987375020980835,-0.049630407243967056,-1.3534533977508545,1.2376987934112549,-0.03852621465921402,0.18039029836654663,0.4065317213535309
1.0075609683990479,-0.038271043449640274,-1.3542404174804688,1.2478429079055786,-0.037703122943639755,0.18099576234817505,0.40799397230148315
1.0277245044708252,-0.03113892674446106,-1.3605289459228516,1.2475727796554565,-0.03363596647977829,0.18216852843761444,0.40872642397880554
1.0477573871612549,-0.035301439464092255,-1.367863416671753,1.2341523170471191,-0.029880331829190254,0.1840558797121048,0.40786081552505493
1.0679690837860107,-0.022273721173405647,-1.370507836341858,1.248148798942566,-0.027752693742513657,0.18359814584255219,0.40873807668685913
1.0880236625671387,-0.009217876940965652,-1.368466854095459,1.2671176195144653,-0.02825123444199562,0.18036170303821564,0.40983787178993225
1.1082148551940918,0.001042014453560114,-1.3732671737670898,1.273634672164917,-0.023965537548065186,0.18021221458911896,0.4097382426261902
1.1286284923553467,0.008256790228188038,-1.3821004629135132,1.2732629776000977,-0.017638355493545532,0.1803753674030304,0.4092068374156952
1.148941993713379,0.01055570226162672,-1.3857100009918213,1.2737139463424683,-0.014890861697494984,0.18017002940177917,0.4086630046367645
1.1689035892486572,0.009589267894625664,-1.4002307653427124,1.2612773180007935,-0.009163697250187397,0.18137043714523315,0.407705694437027
1.1892385482788086,0.010825964622199535,-1.4048147201538086,1.2595982551574707,-0.006045262794941664,0.18156827986240387,0.40709754824638367
1.209226131439209,0.011034727096557617,-1.4151653051376343,1.25507390499115,-0.0006377475801855326,0.18161039054393768,0.4056069850921631
1.2293639183044434,0.006538350135087967,-1.4216912984848022,1.2586815357208252,0.004445092286914587,0.1785704642534256,0.4026288092136383
1.2494525909423828,0.0070166620425879955,-1.4232441186904907,1.264068841934204,0.0067726196721196175,0.17685452103614807,0.4014085829257965
1.2695577144622803,0.01505572721362114,-1.4243148565292358,1.277245044708252,0.010811753571033478,0.17296764254570007,0.4006398618221283
1.2897632122039795,0.010592836886644363,-1.429780125617981,1.277205467224121,0.014429314061999321,0.170528843998909,0.399239718914032
1.3100221157073975,0.008051241748034954,-1.4374111890792847,1.280499815940857,0.02014537900686264,0.16783703863620758,0.39698299765586853
1.3301520347595215,0.0008703016210347414,-1.4489250183105469,1.276237964630127,0.026198238134384155,0.1664595901966095,0.39460328221321106
1.3503825664520264,0.003159984014928341,-1.4528948068618774,1.2765777111053467,0.028569793328642845,0.16563092172145844,0.3944656550884247
1.3704445362091064,0.0035323789343237877,-1.4603906869888306,1.2813260555267334,0.03488694131374359,0.16091342270374298,0.3934589624404907
1.3905029296875,0.003814224386587739,-1.4625943899154663,1.2856777906417847,0.036064665764570236,0.16085049510002136,0.3921529948711395
1.410614252090454,0.016584143042564392,-1.4589791297912598,1.3042192459106445,0.03666634112596512,0.15692707896232605,0.3916488587856293
1.4309780597686768,0.025957345962524414,-1.4524608850479126,1.3317484855651855,0.037461057305336,0.15025636553764343,0.38958704471588135
1.4510905742645264,0.03163899481296539,-1.4507423639297485,1.3407912254333496,0.03737172856926918,0.14714592695236206,0.3893207013607025
1.4712035655975342,0.04147922992706299,-1.4513019323349,1.3512439727783203,0.03821193426847458,0.14328300952911377,0.38890549540519714
1.4914140701293945,0.04523430019617081,-1.4515316486358643,1.3574002981185913,0.038469891995191574,0.1410982310771942,0.3884226977825165
1.5115044116973877,0.05753246694803238,-1.4508390426635742,1.3690701723098755,0.03796298801898956,0.13649755716323853,0.3881588876247406
1.5315511226654053,0.06445294618606567,-1.4499751329421997,1.3752844333648682,0.036714524030685425,0.13369350135326385,0.3883153200149536
1.551689863204956,0.06964340060949326,-1.4523695707321167,1.3861151933670044,0.038702335208654404,0.127964586019516,0.38732147216796875
1.5718176364898682,0.06826730817556381,-1.454224705696106,1.3917560577392578,0.038775600492954254,0.1250600665807724,0.3868151009082794
1.591932773590088,0.06814167648553848,-1.4644488096237183,1.3904229402542114,0.04133978486061096,0.12191827595233917,0.3865320384502411
1.611966609954834,0.06868241727352142,-1.4675304889678955,1.3939688205718994,0.042818665504455566,0.11911481618881226,0.38595500588417053
1.632070541381836,0.06150459498167038,-1.475838303565979,1.4002397060394287,0.04541430622339249,0.11174557358026505,0.385471373796463
1.6521530151367188,0.05490647256374359,-1.478986144065857,1.407433032989502,0.04702750965952873,0.10699369013309479,0.3847801685333252
1.6723079681396484,0.0413786917924881,-1.4865312576293945,1.4198682308197021,0.052680112421512604,0.09671979397535324,0.3836740255355835
1.6924269199371338,0.0276363343000412,-1.4919835329055786,1.435487151145935,0.05798127502202988,0.08514762669801712,0.38258445262908936
1.7124791145324707,0.027501655742526054,-1.4958360195159912,1.437431812286377,0.059702128171920776,0.08379030227661133,0.3821411728858948
1.7326014041900635,0.010746415704488754,-1.5085780620574951,1.4433938264846802,0.06695980578660965,0.07611014693975449,0.3809463381767273
1.752718448638916,-0.005076494999229908,-1.5155633687973022,1.4513019323349,0.07179330289363861,0.07190221548080444,0.3790338933467865
1.7727439403533936,-0.026593737304210663,-1.5305098295211792,1.4562441110610962,0.08338088542222977,0.06960663199424744,0.37577101588249207
1.7931849956512451,-0.036263275891542435,-1.5349552631378174,1.4619166851043701,0.08871710300445557,0.06870059669017792,0.3741651177406311
1.813438892364502,-0.05656065046787262,-1.540878415107727,1.4704432487487793,0.09724821150302887,0.07222385704517365,0.3698144257068634
1.8333961963653564,-0.07463829219341278,-1.5409446954727173,1.4739781618118286,0.10432488471269608,0.07895375043153763,0.36522844433784485
1.8535358905792236,-0.07617400586605072,-1.5375560522079468,1.4807229042053223,0.10725678503513336,0.08398095518350601,0.3631223142147064
1.8736162185668945,-0.07868833839893341,-1.5319453477859497,1.4898078441619873,0.11329711228609085,0.09180483967065811,0.3594544529914856
1.8938486576080322,-0.07850845903158188,-1.5284889936447144,1.5000157356262207,0.11814199388027191,0.09408264607191086,0.3581700921058655
1.9139187335968018,-0.06984534859657288,-1.523496150970459,1.5115607976913452,0.12594181299209595,0.10078763216733932,0.35576120018959045
1.9339900016784668,-0.049810416996479034,-1.5177967548370361,1.5190895795822144,0.12731781601905823,0.11518736183643341,0.35354557633399963
1.9540789127349854,-0.037560734897851944,-1.5151422023773193,1.5240557193756104,0.12747307121753693,0.12245804071426392,0.3525180220603943
1.9742436408996582,-0.01603829301893711,-1.5114307403564453,1.527554988861084,0.12879063189029694,0.13820263743400574,0.35042789578437805
1.9948041439056396,-0.01210527028888464,-1.5117967128753662,1.53300940990448,0.1318027824163437,0.14211812615394592,0.34967783093452454
2.0149059295654297,5.5828451877459884e-05,-1.510195016860962,1.5363308191299438,0.13160529732704163,0.1587371975183487,0.34797927737236023
2.0358638763427734,0.006950540002435446,-1.5101072788238525,1.5378820896148682,0.13367336988449097,0.1713772714138031,0.34627342224121094
2.0559630393981934,0.0026270663365721703,-1.5118967294692993,1.5404969453811646,0.13640978932380676,0.17265793681144714,0.3454529941082001
2.076021909713745,-0.009861579164862633,-1.5152366161346436,1.5475839376449585,0.14464443922042847,0.17188198864459991,0.34446606040000916
2.0961129665374756,-0.016066977754235268,-1.5168429613113403,1.5518763065338135,0.14756500720977783,0.1706198751926422,0.34408247470855713
2.116206645965576,-0.036111049354076385,-1.5219131708145142,1.5583600997924805,0.15787653625011444,0.1612924039363861,0.3437442183494568
2.1363515853881836,-0.04762595146894455,-1.5244635343551636,1.5616074800491333,0.16280241310596466,0.1549254208803177,0.34377366304397583
2.1564247608184814,-0.06609773635864258,-1.5278630256652832,1.568397045135498,0.17332187294960022,0.14482243359088898,0.34452834725379944
2.176536798477173,-0.0702555775642395,-1.5288772583007812,1.5682427883148193,0.17522649466991425,0.14227116107940674,0.3447953462600708
2.1966450214385986,-0.08263830095529556,-1.5314933061599731,1.5688589811325073,0.17906783521175385,0.13611000776290894,0.34545156359672546
2.2167022228240967,-0.0849241092801094,-1.5327165126800537,1.5671613216400146,0.18273359537124634,0.13420583307743073,0.34647637605667114
2.236926555633545,-0.08392195403575897,-1.532762050628662,1.5651463270187378,0.18192309141159058,0.13434673845767975,0.34683382511138916
2.2570383548736572,-0.07872552424669266,-1.5331199169158936,1.5620139837265015,0.18365749716758728,0.13375045359134674,0.34742406010627747
2.277100086212158,-0.07235975563526154,-1.532039999961853,1.5597586631774902,0.18355651199817657,0.13664895296096802,0.34753841161727905
2.297245979309082,-0.05923162028193474,-1.5309468507766724,1.5535176992416382,0.1807207614183426,0.1434684693813324,0.3473057150840759
2.3175106048583984,-0.049622517079114914,-1.5305043458938599,1.5478110313415527,0.1744994819164276,0.15021464228630066,0.3463220000267029
2.3376283645629883,-0.04682339355349541,-1.5302021503448486,1.545116662979126,0.17223341763019562,0.15402360260486603,0.3458140790462494
2.3578004837036133,-0.0402325838804245,-1.5296037197113037,1.5392701625823975,0.16901111602783203,0.16064929962158203,0.3445514142513275
2.377882480621338,-0.040213391184806824,-1.5302305221557617,1.5375308990478516,0.1697494387626648,0.16183215379714966,0.3440682291984558
2.3979952335357666,-0.03820621222257614,-1.5304509401321411,1.5403436422348022,0.170265793800354,0.16330739855766296,0.3432515561580658
2.418109655380249,-0.0387299470603466,-1.5309200286865234,1.5406866073608398,0.17326770722866058,0.16265606880187988,0.34304794669151306
2.438231945037842,-0.04247952252626419,-1.5317288637161255,1.5450382232666016,0.17467711865901947,0.1616584062576294,0.3425099849700928
2.4582695960998535,-0.04574259743094444,-1.5326712131500244,1.5480366945266724,0.17529581487178802,0.159507155418396,0.34234389662742615
2.47836971282959,-0.05397803708910942,-1.535097360610962,1.5523428916931152,0.18105216324329376,0.15287521481513977,0.3425726592540741
2.498570680618286,-0.06167464330792427,-1.5373259782791138,1.5560890436172485,0.18403556942939758,0.14616164565086365,0.3428337275981903
2.5187766551971436,-0.06591048091650009,-1.538513422012329,1.5564054250717163,0.18748413026332855,0.1421247124671936,0.3431735336780548
2.538760185241699,-0.07185564190149307,-1.5401058197021484,1.5518174171447754,0.1909397393465042,0.13845674693584442,0.3436290919780731
2.5590758323669434,-0.07393904030323029,-1.5400904417037964,1.5499036312103271,0.1904531568288803,0.1373935043811798,0.3436885178089142
2.579075336456299,-0.07753660529851913,-1.5403333902359009,1.5425795316696167,0.19273197650909424,0.13661843538284302,0.34389728307724
2.600311517715454,-0.07571820914745331,-1.5396867990493774,1.5363588333129883,0.1928238570690155,0.13709785044193268,0.3436445891857147
2.6203861236572266,-0.07401861995458603,-1.5395457744598389,1.5337141752243042,0.19367943704128265,0.13604854047298431,0.3434343934059143
2.6405017375946045,-0.0710461288690567,-1.5388520956039429,1.5309169292449951,0.19333875179290771,0.13635100424289703,0.3429628014564514
2.66060471534729,-0.06715691834688187,-1.5373677015304565,1.530417561531067,0.19208379089832306,0.13869419693946838,0.3427724540233612
2.680698871612549,-0.06243230774998665,-1.536661982536316,1.5319236516952515,0.19529668986797333,0.14002738893032074,0.3429040312767029
2.7016265392303467,-0.053556110709905624,-1.5352058410644531,1.5328266620635986,0.19983339309692383,0.14299076795578003,0.3431062698364258
2.7217938899993896,-0.055409833788871765,-1.535376787185669,1.5344736576080322,0.20133182406425476,0.1419638842344284,0.3428807854652405
2.7418248653411865,-0.05963508039712906,-1.5356881618499756,1.5371980667114258,0.20410175621509552,0.14127568900585175,0.3425893783569336
2.7620086669921875,-0.06093291938304901,-1.5360915660858154,1.5382822751998901,0.20626887679100037,0.13999387621879578,0.3425787389278412
2.7820699214935303,-0.0663672462105751,-1.53663170337677,1.5383412837982178,0.213148832321167,0.13588452339172363,0.3427492380142212
2.8021366596221924,-0.07063129544258118,-1.5374603271484375,1.5384254455566406,0.2153981626033783,0.13222084939479828,0.34262701869010925
2.822272539138794,-0.07882171124219894,-1.5390394926071167,1.5382554531097412,0.22065047919750214,0.12446515262126923,0.34259718656539917
2.842862367630005,-0.0840189978480339,-1.5385050773620605,1.5365592241287231,0.22564953565597534,0.12005530297756195,0.342517614364624
2.863079071044922,-0.08307868987321854,-1.5376864671707153,1.534967303276062,0.22710192203521729,0.12084810435771942,0.3424539566040039
2.8830819129943848,-0.0742412805557251,-1.5354759693145752,1.5329241752624512,0.229248046875,0.12485259026288986,0.3420463502407074
2.903270959854126,-0.07050301879644394,-1.5343966484069824,1.5324766635894775,0.22920678555965424,0.12691260874271393,0.34161972999572754
2.923295021057129,-0.059146784245967865,-1.5306919813156128,1.5295910835266113,0.2278827279806137,0.13727708160877228,0.34094420075416565
2.9434304237365723,-0.05618290230631828,-1.5290957689285278,1.5283695459365845,0.2259884625673294,0.1413682997226715,0.3402763903141022
2.9635610580444336,-0.054292891174554825,-1.5266656875610352,1.5296663045883179,0.2274002730846405,0.14502356946468353,0.3390696942806244
2.983678102493286,-0.06362167000770569,-1.526617407798767,1.5319676399230957,0.2318243533372879,0.14269641041755676,0.3380748927593231
3.0037670135498047,-0.07017011940479279,-1.5275335311889648,1.5319924354553223,0.23611542582511902,0.13913831114768982,0.3378182053565979
3.0240399837493896,-0.0861874669790268,-1.5300350189208984,1.5322402715682983,0.24564486742019653,0.1265389323234558,0.33742693066596985
3.044154644012451,-0.09294949471950531,-1.5309725999832153,1.5329480171203613,0.24982619285583496,0.11992143839597702,0.3372732102870941
3.0642826557159424,-0.09681471437215805,-1.53092360496521,1.5320833921432495,0.25517216324806213,0.1132647693157196,0.3368922472000122
3.084350109100342,-0.09174452722072601,-1.5301885604858398,1.5298875570297241,0.257865309715271,0.11253206431865692,0.3366236090660095
3.1044795513153076,-0.07425101101398468,-1.526381492614746,1.5261194705963135,0.2559385895729065,0.12144090980291367,0.33561083674430847
3.124695062637329,-0.06543897837400436,-1.5236701965332031,1.5237287282943726,0.2519429624080658,0.12947028875350952,0.3349028527736664
3.1448073387145996,-0.04651033878326416,-1.5150099992752075,1.5197397470474243,0.24037125706672668,0.15029822289943695,0.33290302753448486
3.164937973022461,-0.035518333315849304,-1.5109286308288574,1.5181002616882324,0.23722991347312927,0.1600566804409027,0.3319770395755768
3.1851439476013184,-0.056107766926288605,-1.5141444206237793,1.5259850025177002,0.24270318448543549,0.15438726544380188,0.3301413357257843
3.2053134441375732,-0.0685194581747055,-1.5150609016418457,1.5298854112625122,0.24967354536056519,0.15047113597393036,0.3294028043746948
3.2254581451416016,-0.07885979861021042,-1.5172003507614136,1.5311537981033325,0.2555718421936035,0.14213407039642334,0.3291277289390564
3.245795249938965,-0.10406801849603653,-1.5221359729766846,1.5315818786621094,0.2690344750881195,0.11966634541749954,0.3291689157485962
3.266075372695923,-0.11371881514787674,-1.5239007472991943,1.5316543579101562,0.2731132209300995,0.11103226989507675,0.3292754888534546
3.286141872406006,-0.09864474833011627,-1.5222642421722412,1.5235943794250488,0.27786582708358765,0.10511539876461029,0.3287680745124817
3.3062236309051514,-0.0876137986779213,-1.5214771032333374,1.5202186107635498,0.27712884545326233,0.10693174600601196,0.32822078466415405
3.32631254196167,-0.07809919863939285,-1.5199559926986694,1.515760898590088,0.27512112259864807,0.11292971670627594,0.32685941457748413
3.346517562866211,-0.06592627614736557,-1.515633225440979,1.5125004053115845,0.2684040367603302,0.1252235472202301,0.3260760009288788
3.366586685180664,-0.03895921632647514,-1.5041813850402832,1.510221242904663,0.25197550654411316,0.15470321476459503,0.3242358863353729
3.386719226837158,-0.040593963116407394,-1.5020909309387207,1.5149120092391968,0.2511177659034729,0.1642674207687378,0.32253244519233704
3.4067928791046143,-0.052453190088272095,-1.5041425228118896,1.5200042724609375,0.2530585527420044,0.16163453459739685,0.32172703742980957
3.426940679550171,-0.07254228740930557,-1.507441520690918,1.5271823406219482,0.2593385577201843,0.15389391779899597,0.32089975476264954
3.447059154510498,-0.08248553425073624,-1.5097181797027588,1.5288410186767578,0.26461175084114075,0.1452794224023819,0.3206447958946228
3.467712879180908,-0.11879628151655197,-1.5162248611450195,1.526366114616394,0.279462605714798,0.11508653312921524,0.3209301233291626
3.487807035446167,-0.12671589851379395,-1.5179966688156128,1.5228114128112793,0.28411614894866943,0.10640387237071991,0.3210628926753998
3.507890224456787,-0.10577497631311417,-1.5154448747634888,1.509130835533142,0.2917660176753998,0.09967363625764847,0.3204231262207031
3.528015613555908,-0.0985201969742775,-1.5148372650146484,1.5050878524780273,0.29297366738319397,0.10049901157617569,0.32000505924224854
3.5480740070343018,-0.07867515832185745,-1.5115489959716797,1.502258539199829,0.2872690260410309,0.1122177392244339,0.3184491991996765
3.5681533813476562,-0.06539176404476166,-1.5084182024002075,1.5021538734436035,0.2811658978462219,0.12275873124599457,0.31744980812072754
3.588251829147339,-0.037864651530981064,-1.4985603094100952,1.504860520362854,0.264508455991745,0.15001758933067322,0.315105676651001
3.6089746952056885,-0.044683534651994705,-1.496830940246582,1.5201926231384277,0.2595522999763489,0.16121970117092133,0.3135697543621063
3.6290829181671143,-0.05354771763086319,-1.4991443157196045,1.5302337408065796,0.261510968208313,0.15838494896888733,0.3131042718887329
3.6494498252868652,-0.06309434771537781,-1.5024523735046387,1.541649580001831,0.26445281505584717,0.15546289086341858,0.31301599740982056
3.6695265769958496,-0.07791347801685333,-1.506400465965271,1.537270188331604,0.2699012756347656,0.14536121487617493,0.31275564432144165
3.6897072792053223,-0.11385966092348099,-1.513411045074463,1.52554452419281,0.2841159999370575,0.11691614985466003,0.3131372332572937
3.7097978591918945,-0.12963104248046875,-1.5154173374176025,1.5210931301116943,0.29063668847084045,0.10252775996923447,0.3133985102176666
3.7298715114593506,-0.11323224008083344,-1.5121721029281616,1.5059605836868286,0.29851505160331726,0.09371689707040787,0.3128921389579773
3.7499303817749023,-0.10907699912786484,-1.5118374824523926,1.4990476369857788,0.3010091483592987,0.09151601791381836,0.3123721480369568
3.770085573196411,-0.08550947159528732,-1.507948398590088,1.4924265146255493,0.29990050196647644,0.10106974095106125,0.31093212962150574
3.790170431137085,-0.05366683751344681,-1.4996739625930786,1.4985634088516235,0.28581854701042175,0.12533456087112427,0.30856090784072876
3.810241222381592,-0.04273250699043274,-1.4970813989639282,1.5011577606201172,0.2789275050163269,0.13664081692695618,0.30714014172554016
3.830331563949585,-0.02733873948454857,-1.4895119667053223,1.5064934492111206,0.26733699440956116,0.16303829848766327,0.30537694692611694
3.8504183292388916,-0.042565349489450455,-1.4925446510314941,1.5189610719680786,0.26689067482948303,0.16162022948265076,0.30461111664772034
3.8708858489990234,-0.05963510274887085,-1.4973211288452148,1.5351195335388184,0.2663092613220215,0.15885882079601288,0.30384767055511475
3.890979290008545,-0.06581365317106247,-1.5000150203704834,1.5333940982818604,0.269013911485672,0.15550459921360016,0.3037740886211395
3.911186456680298,-0.09755263477563858,-1.5078729391098022,1.5297385454177856,0.2817554175853729,0.12840422987937927,0.304093599319458
3.9312055110931396,-0.11574301868677139,-1.5112333297729492,1.526048183441162,0.2885180413722992,0.11346255242824554,0.3045541048049927
3.951270580291748,-0.1174306571483612,-1.511974573135376,1.5105223655700684,0.2976324260234833,0.09848838299512863,0.30458134412765503
3.9713916778564453,-0.1057429239153862,-1.5106024742126465,1.505027174949646,0.2996404767036438,0.09855390340089798,0.30429399013519287
3.9914557933807373,-0.08841388672590256,-1.508956789970398,1.4986954927444458,0.3026452362537384,0.09958827495574951,0.30333492159843445
4.012208700180054,-0.062290895730257034,-1.5030416250228882,1.4999685287475586,0.2930065989494324,0.11900586634874344,0.3018428683280945
4.032321214675903,-0.04838462546467781,-1.4985811710357666,1.5010149478912354,0.28567421436309814,0.13259357213974,0.3009406328201294
4.052747488021851,-0.027872689068317413,-1.4883240461349487,1.5022730827331543,0.2671396732330322,0.1638520359992981,0.29934459924697876
4.072925329208374,-0.03401560336351395,-1.4883766174316406,1.5116536617279053,0.26655277609825134,0.16771231591701508,0.29887792468070984
4.092952251434326,-0.05304991453886032,-1.4931148290634155,1.5250248908996582,0.26594001054763794,0.16630500555038452,0.29787343740463257
4.113036394119263,-0.06599890440702438,-1.4962003231048584,1.5302841663360596,0.26844727993011475,0.16078391671180725,0.29765111207962036
4.1333088874816895,-0.09301139414310455,-1.50291907787323,1.5302374362945557,0.27784472703933716,0.1418931782245636,0.29753342270851135
4.153286933898926,-0.11036093533039093,-1.5062400102615356,1.528139591217041,0.2860584855079651,0.1263744831085205,0.2980514466762543
4.173367977142334,-0.1208876371383667,-1.5083991289138794,1.520151138305664,0.2970251739025116,0.10543933510780334,0.29869118332862854
4.1936936378479,-0.10380873829126358,-1.5072513818740845,1.5053999423980713,0.30516180396080017,0.09709960222244263,0.29842767119407654
4.213884115219116,-0.09550841897726059,-1.5057222843170166,1.5012928247451782,0.30497807264328003,0.10007784515619278,0.29786720871925354
4.233997583389282,-0.08004110306501389,-1.5033866167068481,1.4992775917053223,0.3018699884414673,0.10852408409118652,0.2964003384113312
4.2540576457977295,-0.06463741511106491,-1.498618483543396,1.4977436065673828,0.2963370978832245,0.12160930782556534,0.29568779468536377
4.274115085601807,-0.03404248505830765,-1.4872820377349854,1.4993948936462402,0.2783927917480469,0.15273530781269073,0.2937576472759247
4.294202089309692,-0.03634659945964813,-1.4860360622406006,1.505781888961792,0.2750207781791687,0.16063693165779114,0.2930656671524048
4.314397573471069,-0.046054907143116,-1.4884639978408813,1.5202522277832031,0.27281081676483154,0.1646493375301361,0.29191771149635315
4.334427833557129,-0.05154620110988617,-1.4899318218231201,1.5245901346206665,0.2727649211883545,0.16495303809642792,0.2916463315486908
4.354669094085693,-0.07423226535320282,-1.4967129230499268,1.5312392711639404,0.27893298864364624,0.15098631381988525,0.29119813442230225
4.374788761138916,-0.08713950961828232,-1.5004065036773682,1.5298281908035278,0.2842414677143097,0.14053374528884888,0.2913053035736084
4.394899368286133,-0.12393549084663391,-1.5070706605911255,1.5255604982376099,0.29718080163002014,0.11125044524669647,0.2921851873397827
4.415060043334961,-0.10955119132995605,-1.5053470134735107,1.5130715370178223,0.3048676550388336,0.10169771313667297,0.2926173806190491
4.435078859329224,-0.09750399738550186,-1.504467487335205,1.5068790912628174,0.30611127614974976,0.1016041487455368,0.2923344373703003
4.455185174942017,-0.08449241518974304,-1.5029057264328003,1.5015227794647217,0.3091934025287628,0.10250857472419739,0.29127126932144165
4.475276470184326,-0.07352901250123978,-1.4998685121536255,1.4983829259872437,0.30492526292800903,0.11203525215387344,0.2903229594230652
4.4954283237457275,-0.041108716279268265,-1.4882574081420898,1.4945694208145142,0.2889934182167053,0.14317959547042847,0.2881639897823334
4.515626668930054,-0.030709611251950264,-1.4845049381256104,1.4980758428573608,0.2804906666278839,0.15639813244342804,0.28691554069519043
4.535659551620483,-0.03632055222988129,-1.483187198638916,1.510291576385498,0.2737772762775421,0.16952107846736908,0.28549107909202576
4.555847883224487,-0.04656502231955528,-1.4856476783752441,1.5168800354003906,0.27302464842796326,0.16889417171478271,0.2849487364292145
4.5759522914886475,-0.0650724396109581,-1.4894112348556519,1.5251948833465576,0.2741396725177765,0.1652667373418808,0.28466278314590454
4.596035718917847,-0.08469857275485992,-1.494223952293396,1.5280201435089111,0.2792202830314636,0.15280647575855255,0.2846745252609253
4.616191148757935,-0.11566638201475143,-1.5015591382980347,1.5229895114898682,0.2935577929019928,0.12354044616222382,0.28567057847976685
4.636520862579346,-0.12064477056264877,-1.5031591653823853,1.5162670612335205,0.30478352308273315,0.1023453027009964,0.286592960357666
4.656641721725464,-0.10885345190763474,-1.502235770225525,1.510591745376587,0.30713990330696106,0.10105275362730026,0.2866603136062622
4.677086114883423,-0.10156764090061188,-1.501483678817749,1.5037583112716675,0.3098312318325043,0.09958262741565704,0.28645560145378113
4.6971704959869385,-0.07848387211561203,-1.4969089031219482,1.4946714639663696,0.3073548674583435,0.11122646182775497,0.28521960973739624
4.717397689819336,-0.06329473853111267,-1.4925475120544434,1.4922643899917603,0.3007616400718689,0.12437151372432709,0.28427332639694214
4.737507343292236,-0.0382094569504261,-1.4816670417785645,1.4890018701553345,0.28289997577667236,0.15555432438850403,0.28204667568206787
4.757635116577148,-0.03797371685504913,-1.4785040616989136,1.4993410110473633,0.2724858224391937,0.17417241632938385,0.2805267572402954
4.777681827545166,-0.04585156962275505,-1.4814388751983643,1.508521556854248,0.2726716697216034,0.17244955897331238,0.27981600165367126
4.797729015350342,-0.06075005233287811,-1.4850342273712158,1.5180094242095947,0.27255678176879883,0.17250430583953857,0.27945154905319214
4.817877531051636,-0.07128868997097015,-1.4879722595214844,1.520847201347351,0.27448326349258423,0.1678265780210495,0.27945661544799805
4.83792781829834,-0.10506313294172287,-1.496290922164917,1.5203508138656616,0.2879880368709564,0.13876773416996002,0.28020477294921875
4.858710527420044,-0.12161552160978317,-1.4994044303894043,1.5193986892700195,0.295596718788147,0.12197741866111755,0.28098657727241516
4.878780841827393,-0.12610375881195068,-1.5018316507339478,1.5106821060180664,0.30908334255218506,0.09967589378356934,0.282314658164978
4.898859262466431,-0.11744822561740875,-1.501559853553772,1.5042028427124023,0.31155693531036377,0.09802639484405518,0.2824268341064453
4.918933391571045,-0.09342881292104721,-1.4990336894989014,1.4954689741134644,0.31205013394355774,0.10298660397529602,0.2817344069480896
4.939053773880005,-0.0770784467458725,-1.4957811832427979,1.4929145574569702,0.307973712682724,0.11329901218414307,0.2811626195907593
4.9591147899627686,-0.04992131516337395,-1.487605094909668,1.49429452419281,0.2927844822406769,0.1395823210477829,0.2796456515789032
4.979337453842163,-0.03606249392032623,-1.4830119609832764,1.4956775903701782,0.28338634967803955,0.15474900603294373,0.27854880690574646
4.999354362487793,-0.03889470547437668,-1.48130202293396,1.5126124620437622,0.27556514739990234,0.16866272687911987,0.27739405632019043
5.019502639770508,-0.0408283993601799,-1.4826381206512451,1.5202641487121582,0.2739115357398987,0.17131000757217407,0.2770497798919678
5.039588451385498,-0.06114747002720833,-1.4882055521011353,1.52846097946167,0.2754278779029846,0.167753666639328,0.2768975794315338
5.059656381607056,-0.07497214525938034,-1.4919990301132202,1.531315565109253,0.2781277000904083,0.16045226156711578,0.2769383490085602
5.07973313331604,-0.11202020198106766,-1.501123309135437,1.5268574953079224,0.290099561214447,0.13325059413909912,0.2780109941959381
5.099958181381226,-0.12290411442518234,-1.5032075643539429,1.5226428508758545,0.29921990633010864,0.11781687289476395,0.2790340781211853
5.120075941085815,-0.11308255791664124,-1.5029263496398926,1.5070013999938965,0.3110419511795044,0.10162299871444702,0.2798847556114197
5.140165567398071,-0.10890069603919983,-1.5034570693969727,1.5003029108047485,0.3127257823944092,0.09937203675508499,0.27987799048423767
5.1604321002960205,-0.08912505954504013,-1.500368356704712,1.4945311546325684,0.31042763590812683,0.10632981359958649,0.2795228660106659
5.1804327964782715,-0.06911427527666092,-1.4959994554519653,1.4935227632522583,0.30501070618629456,0.11956008523702621,0.2792387902736664
5.200509071350098,-0.04373007267713547,-1.48936128616333,1.5012120008468628,0.2914698123931885,0.1424662172794342,0.2777614891529083
5.22066330909729,-0.036941200494766235,-1.4869518280029297,1.5042572021484375,0.283197283744812,0.15445247292518616,0.2769352197647095
5.240853548049927,-0.04655199497938156,-1.486424207687378,1.5208847522735596,0.2791827619075775,0.1637033075094223,0.27655336260795593
5.261013746261597,-0.05074455589056015,-1.487592339515686,1.5313667058944702,0.27781426906585693,0.16431428492069244,0.2764495313167572
5.281049013137817,-0.07949511706829071,-1.4946787357330322,1.533260464668274,0.2821315824985504,0.15352734923362732,0.27643799781799316
5.301194429397583,-0.08957609534263611,-1.4981553554534912,1.5288463830947876,0.28546643257141113,0.14685966074466705,0.27663207054138184
5.321279764175415,-0.12015771120786667,-1.5050954818725586,1.515203595161438,0.30023521184921265,0.1185738816857338,0.27793431282043457
5.3414626121521,-0.12174355983734131,-1.5056710243225098,1.5055259466171265,0.30560246109962463,0.10966575145721436,0.2783084511756897
5.361464977264404,-0.10651553422212601,-1.503255844116211,1.4908519983291626,0.31304168701171875,0.10077136009931564,0.2783209979534149
5.381594181060791,-0.10233107209205627,-1.502145528793335,1.4848321676254272,0.31423529982566833,0.10040996223688126,0.2779559791088104
5.401709318161011,-0.07854253053665161,-1.497634768486023,1.4870444536209106,0.3080300986766815,0.11429223418235779,0.27686047554016113
5.421894788742065,-0.04882526770234108,-1.4892523288726807,1.4915194511413574,0.29546624422073364,0.13929377496242523,0.27543842792510986
5.4419639110565186,-0.03663342818617821,-1.484935998916626,1.4938691854476929,0.28657305240631104,0.15383008122444153,0.2745571434497833
5.462131977081299,-0.0414050854742527,-1.4830994606018066,1.5130064487457275,0.2775077819824219,0.16942383348941803,0.27409568428993225
5.482252836227417,-0.04775942489504814,-1.4858849048614502,1.5262055397033691,0.2769395112991333,0.1676679253578186,0.2739834785461426
5.502446413040161,-0.06189468130469322,-1.4908314943313599,1.5371410846710205,0.2788940668106079,0.1629638671875,0.274441123008728
5.522486925125122,-0.07550704479217529,-1.4953426122665405,1.539082646369934,0.2830871343612671,0.15322841703891754,0.27476778626441956
5.542671203613281,-0.11300422996282578,-1.5037349462509155,1.5320862531661987,0.2958068251609802,0.12504088878631592,0.2760498821735382
5.562664747238159,-0.11551915854215622,-1.5047225952148438,1.521939992904663,0.3030836880207062,0.11591009795665741,0.2768690884113312
5.582769393920898,-0.10344722121953964,-1.5036617517471313,1.5053659677505493,0.30984145402908325,0.10607216507196426,0.2771987318992615
5.602841138839722,-0.0992307960987091,-1.5032854080200195,1.4981812238693237,0.31171533465385437,0.10448955744504929,0.2771490812301636
5.622983932495117,-0.08904045075178146,-1.5009355545043945,1.4913039207458496,0.31059110164642334,0.10995878279209137,0.27649468183517456
5.6431896686553955,-0.0733991339802742,-1.495876431465149,1.4909358024597168,0.3045423924922943,0.12251332402229309,0.27611973881721497
5.663300514221191,-0.040113311260938644,-1.4844512939453125,1.4939641952514648,0.2905966639518738,0.15018628537654877,0.27481216192245483
5.683328151702881,-0.03367675468325615,-1.481452226638794,1.4970629215240479,0.28254520893096924,0.16261786222457886,0.27402427792549133
5.703492641448975,-0.04354408010840416,-1.4831146001815796,1.514323353767395,0.2770690619945526,0.17059561610221863,0.2733573317527771
5.723557472229004,-0.05053161457180977,-1.4852042198181152,1.5220006704330444,0.27749577164649963,0.16963420808315277,0.27330416440963745
5.743753433227539,-0.06209270656108856,-1.4880741834640503,1.52983558177948,0.27770277857780457,0.16801899671554565,0.27348592877388
5.763787746429443,-0.07576068490743637,-1.4919483661651611,1.5309511423110962,0.2813853621482849,0.1591518372297287,0.2736414074897766
5.783963441848755,-0.11265317350625992,-1.5002883672714233,1.5274038314819336,0.2925397455692291,0.13086901605129242,0.27456530928611755
5.80445408821106,-0.11275176703929901,-1.501153588294983,1.5135858058929443,0.306571900844574,0.11061728000640869,0.2760661840438843
5.824574947357178,-0.10260231047868729,-1.500260353088379,1.5050791501998901,0.30973371863365173,0.10651294142007828,0.27616602182388306
5.844989776611328,-0.09683975577354431,-1.5003581047058105,1.4929932355880737,0.31199565529823303,0.10393202304840088,0.27577105164527893
5.865137338638306,-0.08744458109140396,-1.497592806816101,1.484703779220581,0.3071132004261017,0.11233274638652802,0.2749803364276886
5.885318040847778,-0.05724501609802246,-1.4868313074111938,1.4912645816802979,0.29408353567123413,0.13784019649028778,0.2740287184715271
5.905370712280273,-0.042941417545080185,-1.4816945791244507,1.4936375617980957,0.28681257367134094,0.15168559551239014,0.27336961030960083
5.925603628158569,-0.044881079345941544,-1.480046033859253,1.505944013595581,0.2798905372619629,0.1662530153989792,0.27275604009628296
5.945998430252075,-0.052280083298683167,-1.4822053909301758,1.5156035423278809,0.28003039956092834,0.16519860923290253,0.27248668670654297
5.966057538986206,-0.060531049966812134,-1.4849402904510498,1.5253938436508179,0.2791326344013214,0.16594049334526062,0.27254718542099
5.986171245574951,-0.06854097545146942,-1.4876468181610107,1.527006983757019,0.2807684540748596,0.16182664036750793,0.272708535194397
6.006305694580078,-0.1026567816734314,-1.4963849782943726,1.5221251249313354,0.2911013662815094,0.13695302605628967,0.27331653237342834
6.026526927947998,-0.11691107600927353,-1.499485969543457,1.5180927515029907,0.29885879158973694,0.12232695519924164,0.27417775988578796
6.046664237976074,-0.11104407161474228,-1.4991117715835571,1.5035208463668823,0.309230774641037,0.107334204018116,0.27521634101867676
6.066749572753906,-0.10159838944673538,-1.49813711643219,1.4936866760253906,0.3099097013473511,0.10791681706905365,0.27508842945098877
6.086936712265015,-0.09262754023075104,-1.498702049255371,1.4971117973327637,0.30921420454978943,0.10754241049289703,0.27480247616767883
6.107006549835205,-0.06544724851846695,-1.491866946220398,1.4983415603637695,0.2983846366405487,0.12931188941001892,0.27444693446159363
6.127152681350708,-0.05151709169149399,-1.488327980041504,1.5008671283721924,0.29288241267204285,0.14022943377494812,0.27405473589897156
6.147319078445435,-0.03049089014530182,-1.4814162254333496,1.5085397958755493,0.2786250412464142,0.16530582308769226,0.273279070854187
6.1673808097839355,-0.03327189013361931,-1.4823715686798096,1.5172128677368164,0.27724093198776245,0.16792474687099457,0.27296191453933716
6.187424421310425,-0.051238883286714554,-1.48734712600708,1.5274754762649536,0.2781360447406769,0.16512268781661987,0.27255895733833313
6.207503318786621,-0.062167033553123474,-1.4894237518310547,1.5296909809112549,0.2785647511482239,0.16348053514957428,0.2726273536682129
6.227668523788452,-0.08779849857091904,-1.4964053630828857,1.526255488395691,0.28431835770606995,0.14824917912483215,0.27272114157676697
6.247802734375,-0.10575243830680847,-1.50018310546875,1.5218178033828735,0.2908687889575958,0.13322967290878296,0.2731657326221466
6.26785135269165,-0.12581315636634827,-1.5029289722442627,1.5121694803237915,0.3070400059223175,0.10499192774295807,0.27473604679107666
6.287950754165649,-0.1035679280757904,-1.500449299812317,1.4967987537384033,0.3131124973297119,0.10066249221563339,0.27501392364501953
6.308040618896484,-0.0990852415561676,-1.500361442565918,1.494732141494751,0.31487274169921875,0.09938742220401764,0.2749361991882324
6.328172206878662,-0.08433511853218079,-1.4974267482757568,1.4932277202606201,0.3105814456939697,0.10978353768587112,0.27436065673828125
6.348238945007324,-0.06708692014217377,-1.4923489093780518,1.4932429790496826,0.3025701344013214,0.12378087639808655,0.2737891674041748
6.3683717250823975,-0.039114076644182205,-1.4839913845062256,1.5006197690963745,0.2876972556114197,0.14930735528469086,0.27238452434539795
6.388398170471191,-0.031299296766519547,-1.4802663326263428,1.5079752206802368,0.28226542472839355,0.16140080988407135,0.27214550971984863
6.408468961715698,-0.04659073054790497,-1.4845067262649536,1.5240142345428467,0.2806766927242279,0.16295881569385529,0.27159813046455383
6.42854905128479,-0.05778121203184128,-1.487575888633728,1.5295344591140747,0.2819688320159912,0.1597311645746231,0.27149224281311035
6.4486305713653564,-0.0797446072101593,-1.4936575889587402,1.5335439443588257,0.28540921211242676,0.15014225244522095,0.2716740071773529
6.468700170516968,-0.10689257830381393,-1.5003316402435303,1.5300884246826172,0.2957395911216736,0.12762396037578583,0.2723551094532013
6.48883056640625,-0.11970651149749756,-1.5031911134719849,1.526202917098999,0.30209580063819885,0.11432690918445587,0.27299556136131287
6.509237766265869,-0.11905138939619064,-1.5039900541305542,1.5132719278335571,0.31289851665496826,0.09691175073385239,0.2738770842552185
6.529353380203247,-0.10878866910934448,-1.5029910802841187,1.5059800148010254,0.31497061252593994,0.09638259559869766,0.273934006690979
6.549582004547119,-0.08642318844795227,-1.4987963438034058,1.4983694553375244,0.31418758630752563,0.1044684648513794,0.2733018398284912
6.569729328155518,-0.07675419002771378,-1.4967402219772339,1.4959063529968262,0.31067338585853577,0.1125197559595108,0.2726670205593109
6.589733362197876,-0.05031096190214157,-1.4867154359817505,1.495222806930542,0.29526403546333313,0.14131420850753784,0.2712193727493286
6.609970331192017,-0.03838277980685234,-1.4823923110961914,1.4972410202026367,0.2873985767364502,0.155434250831604,0.27045756578445435
6.630010604858398,-0.046351514756679535,-1.4836043119430542,1.5149778127670288,0.2834921181201935,0.16199548542499542,0.2697127163410187
6.6500630378723145,-0.05462948977947235,-1.486886978149414,1.5277663469314575,0.28204435110092163,0.16260626912117004,0.269612193107605
6.670154333114624,-0.06460195779800415,-1.4894872903823853,1.5306689739227295,0.2843826413154602,0.1586926281452179,0.2698817849159241
6.6904075145721436,-0.09444055706262589,-1.4984586238861084,1.5311752557754517,0.29229220747947693,0.1374281346797943,0.2705478370189667
6.710482835769653,-0.1126544401049614,-1.5028533935546875,1.525277853012085,0.29775118827819824,0.12297365814447403,0.2712024450302124
6.731927871704102,-0.131450355052948,-1.5063620805740356,1.5101765394210815,0.30891844630241394,0.0988297164440155,0.2725181579589844
6.7523157596588135,-0.12409664690494537,-1.5050138235092163,1.498931884765625,0.312534362077713,0.09493722021579742,0.2726302444934845
6.772270441055298,-0.10102877765893936,-1.5013625621795654,1.4931790828704834,0.31299421191215515,0.09863612800836563,0.27227675914764404
6.79233717918396,-0.08528880029916763,-1.4985899925231934,1.4940439462661743,0.3118486702442169,0.10473909229040146,0.27178728580474854
6.812510967254639,-0.05703785642981529,-1.4910343885421753,1.495829701423645,0.30170854926109314,0.12715430557727814,0.2702029347419739
6.832822561264038,-0.042954426258802414,-1.4849680662155151,1.4970157146453857,0.2947995364665985,0.14271268248558044,0.26947277784347534
6.852911472320557,-0.03389143943786621,-1.4794450998306274,1.5071039199829102,0.2833060622215271,0.16619017720222473,0.26865267753601074
6.873006820678711,-0.051027730107307434,-1.485030174255371,1.5233068466186523,0.2811582684516907,0.1667504608631134,0.26833364367485046
6.89310359954834,-0.06365859508514404,-1.4885344505310059,1.5298144817352295,0.2813034951686859,0.163521409034729,0.2685181200504303
6.913261890411377,-0.08469533175230026,-1.495227336883545,1.5315595865249634,0.2876865565776825,0.15056732296943665,0.2693159282207489
6.93333625793457,-0.11812341213226318,-1.5033501386642456,1.5212855339050293,0.3013840615749359,0.12032619118690491,0.2707822918891907
6.953505277633667,-0.12969191372394562,-1.505486249923706,1.5159374475479126,0.30750370025634766,0.10598725825548172,0.2715984284877777
6.973522901535034,-0.11937713623046875,-1.5034286975860596,1.4998047351837158,0.3161301910877228,0.09378580749034882,0.2722364664077759
6.993608236312866,-0.10836523771286011,-1.5017024278640747,1.4954211711883545,0.3185221552848816,0.09264853596687317,0.27222612500190735
7.013689279556274,-0.08728381991386414,-1.4979215860366821,1.4911149740219116,0.3172982931137085,0.10069914162158966,0.2713748812675476
7.033944845199585,-0.05813588947057724,-1.4908956289291382,1.4978009462356567,0.30443477630615234,0.123613640666008,0.26985859870910645
7.054033517837524,-0.04537089169025421,-1.4867807626724243,1.4999639987945557,0.29826444387435913,0.13688793778419495,0.2691647708415985
7.074108362197876,-0.03355446085333824,-1.4808999300003052,1.5037590265274048,0.28321975469589233,0.16390183568000793,0.2680160105228424
7.094189405441284,-0.03343822434544563,-1.4793975353240967,1.5097322463989258,0.27768489718437195,0.17393749952316284,0.2680824398994446
7.114372253417969,-0.046021901071071625,-1.484867811203003,1.523908019065857,0.2756781578063965,0.17371731996536255,0.268125057220459
7.134564161300659,-0.05759381502866745,-1.4884485006332397,1.527506709098816,0.2770771086215973,0.169224813580513,0.26832881569862366
7.154584169387817,-0.09226127713918686,-1.4972411394119263,1.5288076400756836,0.28519102931022644,0.1484273225069046,0.26926925778388977
7.174783229827881,-0.10898999869823456,-1.5013247728347778,1.5236986875534058,0.29223471879959106,0.1336628496646881,0.27020373940467834
7.194924592971802,-0.1333320289850235,-1.5057299137115479,1.515616536140442,0.3046349883079529,0.1048058420419693,0.2717466950416565
7.216629266738892,-0.11854667961597443,-1.5039995908737183,1.4991209506988525,0.3130151033401489,0.095455102622509,0.2724683880805969
7.23683762550354,-0.10554032772779465,-1.501543402671814,1.4961316585540771,0.3141855299472809,0.09711727499961853,0.2723466157913208
7.256815671920776,-0.07430025190114975,-1.4973702430725098,1.4929031133651733,0.3114641308784485,0.10930776596069336,0.27137622237205505
7.277242183685303,-0.06052543222904205,-1.4940730333328247,1.4920016527175903,0.30461204051971436,0.12155793607234955,0.2705370783805847
7.2974536418914795,-0.032571882009506226,-1.4831030368804932,1.493698239326477,0.2865251898765564,0.15426325798034668,0.26905813813209534
7.3174192905426025,-0.035801127552986145,-1.4817200899124146,1.5045280456542969,0.2773403525352478,0.17145754396915436,0.26852327585220337
7.337509393692017,-0.046094030141830444,-1.484443187713623,1.5128270387649536,0.27601251006126404,0.17186763882637024,0.26843202114105225
7.357576608657837,-0.06408223509788513,-1.4896026849746704,1.5246367454528809,0.27613621950149536,0.16808676719665527,0.2688720226287842
7.377667427062988,-0.07379725575447083,-1.4924421310424805,1.526950716972351,0.2787746489048004,0.16217827796936035,0.269173264503479
7.397785902023315,-0.10734525322914124,-1.5003938674926758,1.5245226621627808,0.2915646433830261,0.1338077187538147,0.2704080045223236
7.418125152587891,-0.12323948740959167,-1.5043514966964722,1.5148589611053467,0.3054686486721039,0.10736484825611115,0.2722797691822052
7.438259124755859,-0.11818699538707733,-1.5038419961929321,1.5077773332595825,0.31114768981933594,0.10069691389799118,0.2729162573814392
7.458312511444092,-0.10434460639953613,-1.5016511678695679,1.497605800628662,0.3162991404533386,0.09727391600608826,0.27342933416366577
7.47852897644043,-0.09328921884298325,-1.5001393556594849,1.4948190450668335,0.3157174289226532,0.10085168480873108,0.2731078267097473
7.4985034465789795,-0.0656089037656784,-1.4932852983474731,1.491463541984558,0.307069331407547,0.12085077166557312,0.2719312906265259
7.518596887588501,-0.05049247294664383,-1.4880833625793457,1.4934160709381104,0.29742640256881714,0.13576056063175201,0.270939439535141
7.538668394088745,-0.027830837294459343,-1.4782943725585938,1.496978521347046,0.28169959783554077,0.16658495366573334,0.2696645259857178
7.558789014816284,-0.032203834503889084,-1.4795787334442139,1.5067806243896484,0.2806495428085327,0.16957932710647583,0.26948150992393494
7.578875303268433,-0.05079718306660652,-1.485548734664917,1.5217667818069458,0.2775324881076813,0.1699298769235611,0.2693181335926056
7.598938941955566,-0.07319216430187225,-1.4915274381637573,1.5284277200698853,0.28018054366111755,0.162246972322464,0.26993677020072937
7.6190505027771,-0.0866987332701683,-1.495606541633606,1.5287573337554932,0.28434112668037415,0.1520312875509262,0.2703138589859009
7.639153957366943,-0.12165351212024689,-1.5030035972595215,1.5226391553878784,0.2979574203491211,0.12148996442556381,0.27185261249542236
7.659204006195068,-0.1245846226811409,-1.5039165019989014,1.5113271474838257,0.3109264671802521,0.09931769967079163,0.2735433578491211
7.679424524307251,-0.11816123127937317,-1.503174066543579,1.506058692932129,0.31552261114120483,0.0928046703338623,0.2740117907524109
7.699519157409668,-0.09858089685440063,-1.5004719495773315,1.5003633499145508,0.3192521035671234,0.09196843206882477,0.27422672510147095
7.7195823192596436,-0.08826187252998352,-1.4994902610778809,1.4987409114837646,0.3189634382724762,0.09624797105789185,0.2739439308643341
7.7398059368133545,-0.055364497005939484,-1.4905238151550293,1.494977593421936,0.30394116044044495,0.12518277764320374,0.27271923422813416
7.7597815990448,-0.029443783685564995,-1.4816170930862427,1.4955885410308838,0.28305572271347046,0.15704578161239624,0.2708008885383606
7.779887676239014,-0.03407909348607063,-1.4804036617279053,1.4994248151779175,0.27680137753486633,0.16824597120285034,0.27043113112449646
7.799936532974243,-0.04334206134080887,-1.4832627773284912,1.514715313911438,0.2739059031009674,0.1733543872833252,0.27005335688591003
7.820028066635132,-0.05051293969154358,-1.4854443073272705,1.519912838935852,0.27381518483161926,0.17277061939239502,0.27012306451797485
7.840189695358276,-0.07827039808034897,-1.4920915365219116,1.5267786979675293,0.2788618206977844,0.16101880371570587,0.2705271542072296
7.860736608505249,-0.112843818962574,-1.5004844665527344,1.5218108892440796,0.29170477390289307,0.13117828965187073,0.2716103792190552
7.880872488021851,-0.1293577253818512,-1.5033001899719238,1.517011284828186,0.2992136776447296,0.11492766439914703,0.2725375294685364
7.900958776473999,-0.12300188839435577,-1.5032624006271362,1.506385326385498,0.311195969581604,0.0971778854727745,0.2738410234451294
7.921066999435425,-0.12103447318077087,-1.503514289855957,1.5009900331497192,0.3166854977607727,0.08916344493627548,0.2742634415626526
7.941120862960815,-0.09725183248519897,-1.4998819828033447,1.4947978258132935,0.31869080662727356,0.09498251974582672,0.27425673604011536
7.961296796798706,-0.08201885223388672,-1.4973410367965698,1.494146466255188,0.31600847840309143,0.1027226522564888,0.2737019658088684
7.981349468231201,-0.050242409110069275,-1.4878616333007812,1.4928537607192993,0.3015224039554596,0.1316089630126953,0.27215349674224854
8.001683473587036,-0.03619033843278885,-1.4818943738937378,1.4915101528167725,0.2913816273212433,0.14853951334953308,0.27134940028190613
8.021876573562622,-0.03696790337562561,-1.4768322706222534,1.5032310485839844,0.2783069610595703,0.17220540344715118,0.2705588936805725
8.042031288146973,-0.04345026984810829,-1.478869080543518,1.5107609033584595,0.27710461616516113,0.17384275794029236,0.270261287689209
8.062086582183838,-0.057840779423713684,-1.4836645126342773,1.5236988067626953,0.27650773525238037,0.17230401933193207,0.270518958568573
8.082160234451294,-0.07199528813362122,-1.4878381490707397,1.5267949104309082,0.27959927916526794,0.16446247696876526,0.27066099643707275
8.102267980575562,-0.10948032885789871,-1.4975309371948242,1.5245962142944336,0.29150450229644775,0.13537262380123138,0.2716248631477356
8.122410535812378,-0.12336070835590363,-1.5009737014770508,1.5203016996383667,0.2993900179862976,0.11930786073207855,0.2725842595100403
8.142632484436035,-0.11113423854112625,-1.5007132291793823,1.507534384727478,0.3103148937225342,0.1049509346485138,0.2736962139606476
8.162596940994263,-0.09777489304542542,-1.5000462532043457,1.499398112297058,0.3144734501838684,0.10151384770870209,0.2739044725894928
8.182785272598267,-0.09407244622707367,-1.499922513961792,1.4993966817855835,0.31421175599098206,0.10310561954975128,0.2737148404121399
8.202840566635132,-0.06389850378036499,-1.4919099807739258,1.4939897060394287,0.30107295513153076,0.1282443404197693,0.272806853055954
8.222918033599854,-0.04757923632860184,-1.4871315956115723,1.495230793952942,0.29238954186439514,0.14197465777397156,0.2719578146934509
8.242997169494629,-0.031721603125333786,-1.4819711446762085,1.5013624429702759,0.281268447637558,0.16422973573207855,0.2708979845046997
8.263127088546753,-0.046754010021686554,-1.484978437423706,1.517813801765442,0.27851495146751404,0.16824322938919067,0.27052590250968933
8.283255338668823,-0.050193388015031815,-1.4866602420806885,1.5233005285263062,0.27762123942375183,0.16894477605819702,0.2706397473812103
8.303368091583252,-0.0627635046839714,-1.4905098676681519,1.5279961824417114,0.27768364548683167,0.16522836685180664,0.2708324193954468
8.323425769805908,-0.07610864192247391,-1.4941902160644531,1.5286580324172974,0.28191614151000977,0.15584927797317505,0.2710496485233307
8.343522071838379,-0.1137944832444191,-1.5023131370544434,1.5241127014160156,0.293856143951416,0.12680432200431824,0.27209386229515076
8.363678455352783,-0.11478476226329803,-1.5035346746444702,1.5131813287734985,0.30577054619789124,0.1093866229057312,0.2735482454299927
8.383732318878174,-0.10555368661880493,-1.502338171005249,1.5059252977371216,0.309919148683548,0.10507269203662872,0.2738201916217804
8.40383768081665,-0.09795539081096649,-1.5018115043640137,1.5005778074264526,0.3128668963909149,0.10166342556476593,0.27393102645874023
8.423966884613037,-0.08920876681804657,-1.500016450881958,1.50027334690094,0.3103230595588684,0.10700883716344833,0.27366185188293457
8.444114446640015,-0.05965356528759003,-1.490753412246704,1.497390627861023,0.29770007729530334,0.1322404444217682,0.2728158235549927
8.464216470718384,-0.04442961886525154,-1.4859416484832764,1.497860074043274,0.290730357170105,0.14539512991905212,0.2720690965652466
8.484317541122437,-0.04071342200040817,-1.4834462404251099,1.5064256191253662,0.28138571977615356,0.16163435578346252,0.27086591720581055
8.504580020904541,-0.05004965886473656,-1.4862992763519287,1.5201416015625,0.28068703413009644,0.1624988168478012,0.2704044580459595
8.524683952331543,-0.05419078841805458,-1.487670660018921,1.5238665342330933,0.281512588262558,0.16168434917926788,0.2704940438270569
8.5447416305542,-0.0742705687880516,-1.493326187133789,1.5258328914642334,0.28653958439826965,0.15093636512756348,0.27070656418800354
8.564934253692627,-0.09104964882135391,-1.497519612312317,1.524768590927124,0.2913550138473511,0.13912111520767212,0.2710156738758087
8.584978103637695,-0.12509611248970032,-1.5043420791625977,1.5219125747680664,0.30295389890670776,0.11098964512348175,0.2722838222980499
8.605204582214355,-0.13124307990074158,-1.5058417320251465,1.519354224205017,0.30724433064460754,0.10182593017816544,0.27293679118156433
8.625170230865479,-0.10861486941576004,-1.5033714771270752,1.5092467069625854,0.31278470158576965,0.09771569818258286,0.27370837330818176
8.645320653915405,-0.09839680790901184,-1.5022969245910645,1.5065113306045532,0.3148113787174225,0.09790518134832382,0.27382686734199524
8.665421485900879,-0.08046850562095642,-1.498828411102295,1.5040686130523682,0.3110845386981964,0.10928899794816971,0.2732867896556854
8.685649633407593,-0.050263628363609314,-1.4885075092315674,1.5005905628204346,0.29569798707962036,0.13865797221660614,0.2720017433166504
8.70607328414917,-0.03792663291096687,-1.484012246131897,1.5009398460388184,0.2884337604045868,0.1524774581193924,0.271210640668869
8.726186037063599,-0.046766530722379684,-1.4849622249603271,1.5133705139160156,0.2844850420951843,0.15982955694198608,0.2703443765640259
8.746251583099365,-0.05273417755961418,-1.4870818853378296,1.5186445713043213,0.2846042513847351,0.15935522317886353,0.2702396810054779
8.76642370223999,-0.06701820343732834,-1.4911892414093018,1.5245083570480347,0.28616592288017273,0.1555788218975067,0.2703493535518646
8.786829471588135,-0.0958937406539917,-1.498625636100769,1.5249565839767456,0.29405367374420166,0.13582710921764374,0.2707909047603607
8.806955575942993,-0.11179807782173157,-1.5021008253097534,1.5229291915893555,0.3003482520580292,0.12177345156669617,0.27139008045196533
8.82700514793396,-0.11728313565254211,-1.5035676956176758,1.5156837701797485,0.3092898428440094,0.10412313044071198,0.2724120020866394
8.847172975540161,-0.10934330523014069,-1.5031342506408691,1.51014244556427,0.31222522258758545,0.10090826451778412,0.27267998456954956
8.867275714874268,-0.09643998742103577,-1.5018891096115112,1.5035773515701294,0.3137127459049225,0.10153506696224213,0.27260249853134155
8.887589454650879,-0.07409714162349701,-1.4977753162384033,1.5009576082229614,0.30884504318237305,0.1146666407585144,0.27189239859580994
8.907683849334717,-0.05905863270163536,-1.4936615228652954,1.50020170211792,0.30242952704429626,0.1276962012052536,0.27142471075057983
8.927743196487427,-0.03478226065635681,-1.4848294258117676,1.4997292757034302,0.2884570360183716,0.15503688156604767,0.2700093388557434
8.947837591171265,-0.03276315703988075,-1.4822912216186523,1.5048502683639526,0.28387701511383057,0.16448822617530823,0.26965299248695374
8.967918872833252,-0.053902000188827515,-1.4875589609146118,1.5201914310455322,0.28219398856163025,0.16207727789878845,0.26884904503822327
8.987998723983765,-0.06408192217350006,-1.4899072647094727,1.5259827375411987,0.2830076217651367,0.15955902636051178,0.26897865533828735
9.008113622665405,-0.08046682178974152,-1.4951984882354736,1.5238289833068848,0.2882210612297058,0.14949467778205872,0.2693096697330475
9.028172254562378,-0.1078176200389862,-1.501605749130249,1.5208176374435425,0.30182620882987976,0.12378420680761337,0.2704705595970154
9.048313617706299,-0.12365804612636566,-1.504470705986023,1.5184063911437988,0.3082299530506134,0.10871368646621704,0.2712162435054779
9.068559408187866,-0.11042764037847519,-1.502826452255249,1.507474660873413,0.3137451410293579,0.10069915652275085,0.2717261016368866
9.088653326034546,-0.09966707229614258,-1.5017104148864746,1.5014655590057373,0.3144468367099762,0.10276200622320175,0.27175217866897583
9.10870909690857,-0.08129633218050003,-1.4985653162002563,1.4981282949447632,0.312034547328949,0.11039329320192337,0.27097025513648987
9.12882399559021,-0.06906510144472122,-1.4956848621368408,1.497427225112915,0.30886441469192505,0.1187150850892067,0.27039098739624023
9.148901462554932,-0.0420193076133728,-1.4850002527236938,1.4981063604354858,0.2930101752281189,0.1477319449186325,0.26894497871398926
9.169238567352295,-0.03898974880576134,-1.4814797639846802,1.5056216716766357,0.2812501788139343,0.16688132286071777,0.26774364709854126
9.1893310546875,-0.04335878789424896,-1.482397437095642,1.513253927230835,0.2805847227573395,0.1688644289970398,0.2675079107284546
9.209598064422607,-0.058475181460380554,-1.4877679347991943,1.5250225067138672,0.28128236532211304,0.1648685187101364,0.26741132140159607
9.229863166809082,-0.07066058367490768,-1.4909135103225708,1.5281414985656738,0.283272385597229,0.15971024334430695,0.267631858587265
9.249799013137817,-0.09193357825279236,-1.4969902038574219,1.5257866382598877,0.2915576994419098,0.143092542886734,0.2684427797794342
9.26992392539978,-0.10944019258022308,-1.5006946325302124,1.5211079120635986,0.29851922392845154,0.12779965996742249,0.2691980302333832
9.290067434310913,-0.1213085800409317,-1.5030111074447632,1.5138635635375977,0.3110683858394623,0.1056775227189064,0.27067703008651733
9.310322761535645,-0.11030430346727371,-1.5018107891082764,1.5035768747329712,0.3136919140815735,0.10411935299634933,0.27086976170539856
9.330413103103638,-0.08664076775312424,-1.4984402656555176,1.4962797164916992,0.31247225403785706,0.11044380068778992,0.27069810032844543
9.350696086883545,-0.0668797716498375,-1.493225336074829,1.4927289485931396,0.30631595849990845,0.12473375350236893,0.2695850729942322
9.37082052230835,-0.05300077795982361,-1.4884498119354248,1.493639349937439,0.299651175737381,0.1378404051065445,0.26907017827033997
9.390879392623901,-0.032774418592453,-1.4800310134887695,1.4995319843292236,0.283073365688324,0.16496750712394714,0.2678603529930115
9.411465644836426,-0.03337244316935539,-1.4803463220596313,1.5056732892990112,0.28057876229286194,0.17027652263641357,0.2675410807132721
9.431671619415283,-0.048199355602264404,-1.484912395477295,1.521638035774231,0.27954113483428955,0.16938351094722748,0.267354279756546
9.451962947845459,-0.06788519024848938,-1.4906599521636963,1.5290379524230957,0.28144529461860657,0.16246089339256287,0.2677273452281952
9.472140550613403,-0.08386071026325226,-1.494807243347168,1.5294055938720703,0.2856065332889557,0.15224526822566986,0.2680526375770569
9.49223780632019,-0.11503159999847412,-1.501786708831787,1.5224899053573608,0.29900965094566345,0.12475357949733734,0.26961085200309753
9.512283563613892,-0.12434597313404083,-1.5033683776855469,1.519165277481079,0.3066437840461731,0.11262544989585876,0.2707251310348511
9.532407760620117,-0.10925333946943283,-1.5006717443466187,1.5063225030899048,0.31449583172798157,0.10174775123596191,0.27150440216064453
9.552465438842773,-0.0945824459195137,-1.498099684715271,1.4980190992355347,0.31431129574775696,0.1059737578034401,0.2714172303676605
9.572572946548462,-0.07949543744325638,-1.4936960935592651,1.4904848337173462,0.3107525110244751,0.11515741050243378,0.2704705595970154
9.592788934707642,-0.052617453038692474,-1.484731674194336,1.4924163818359375,0.2976230978965759,0.14033979177474976,0.2691997289657593
9.612969875335693,-0.039906565099954605,-1.4791799783706665,1.494877576828003,0.2904614806175232,0.15476399660110474,0.2686511278152466
9.632985353469849,-0.03470216318964958,-1.4775203466415405,1.5061863660812378,0.27957016229629517,0.1708027720451355,0.2676983177661896
9.653132200241089,-0.04078647494316101,-1.4802255630493164,1.5152559280395508,0.27907609939575195,0.17028078436851501,0.2675781846046448
9.673198938369751,-0.05700887367129326,-1.4860886335372925,1.525022268295288,0.2797555923461914,0.16595762968063354,0.2677859663963318
9.693273305892944,-0.06965485960245132,-1.4896031618118286,1.5270426273345947,0.281413733959198,0.1606300175189972,0.26799625158309937
9.713398933410645,-0.10320877283811569,-1.4982056617736816,1.5234678983688354,0.29240912199020386,0.13629086315631866,0.26907557249069214
9.733800649642944,-0.13412630558013916,-1.5036218166351318,1.516422986984253,0.30688393115997314,0.10589759796857834,0.27111589908599854
9.753879070281982,-0.12014061212539673,-1.5014554262161255,1.5083030462265015,0.31032684445381165,0.10218639671802521,0.27142849564552307
9.773923397064209,-0.09608790278434753,-1.4990569353103638,1.5018908977508545,0.31381988525390625,0.10048972070217133,0.2715885639190674
9.794177770614624,-0.09116162359714508,-1.4986882209777832,1.5039600133895874,0.3149791657924652,0.10086283832788467,0.2713489234447479
9.814291954040527,-0.06486543267965317,-1.4918625354766846,1.499443769454956,0.3042236268520355,0.12370264530181885,0.27033689618110657
9.834352493286133,-0.049049586057662964,-1.4858958721160889,1.4963113069534302,0.29685354232788086,0.13982227444648743,0.26982131600379944
9.854403972625732,-0.029433637857437134,-1.4779680967330933,1.5031967163085938,0.2824556231498718,0.1661231517791748,0.2686521112918854
9.874533891677856,-0.02882332354784012,-1.4788626432418823,1.5101193189620972,0.27961358428001404,0.17053404450416565,0.26807448267936707
9.89462161064148,-0.048586104065179825,-1.485487937927246,1.524271845817566,0.27910441160202026,0.16624248027801514,0.26739954948425293
9.91475534439087,-0.05608571693301201,-1.4872941970825195,1.527626395225525,0.27916035056114197,0.16571122407913208,0.2674921452999115
9.934908151626587,-0.08420951664447784,-1.4952600002288818,1.5275235176086426,0.28603893518447876,0.14969107508659363,0.2681001126766205
9.954929113388062,-0.1190561056137085,-1.5023925304412842,1.5225473642349243,0.3011679947376251,0.11870752274990082,0.2698166072368622
9.97514009475708,-0.12404242157936096,-1.5036206245422363,1.5187853574752808,0.3067106306552887,0.10869872570037842,0.2706909775733948
9.995489120483398,-0.10260353982448578,-1.5008816719055176,1.505632996559143,0.31186842918395996,0.1043945774435997,0.27123716473579407
10.015623569488525,-0.0972583070397377,-1.5007641315460205,1.501204490661621,0.3140486180782318,0.1023484468460083,0.2712116539478302
10.035866022109985,-0.08814271539449692,-1.4988034963607788,1.499519944190979,0.3119158148765564,0.10866257548332214,0.27074870467185974
10.056082248687744,-0.07357674092054367,-1.4938124418258667,1.497088074684143,0.30532386898994446,0.12199920415878296,0.27021533250808716
10.076026678085327,-0.045533597469329834,-1.4842625856399536,1.4991068840026855,0.2923011779785156,0.1475653201341629,0.268790602684021
10.096154689788818,-0.03316615894436836,-1.4789211750030518,1.5021721124649048,0.2851525545120239,0.16174860298633575,0.26826196908950806
10.116304397583008,-0.04508724808692932,-1.4839160442352295,1.519802212715149,0.2831155061721802,0.1618063747882843,0.2674885392189026
10.136342287063599,-0.048195142298936844,-1.4850257635116577,1.524756669998169,0.2817501127719879,0.1638740599155426,0.26757970452308655
10.156458854675293,-0.07613785564899445,-1.4928780794143677,1.5285851955413818,0.2864128053188324,0.15107081830501556,0.2679748833179474
10.176560640335083,-0.09059038758277893,-1.4969260692596436,1.526579737663269,0.2903483211994171,0.14170007407665253,0.26840469241142273
10.196653604507446,-0.12032341957092285,-1.5029239654541016,1.520187258720398,0.30301034450531006,0.11651865392923355,0.2699303925037384
10.216814041137695,-0.11191511154174805,-1.5026686191558838,1.5094070434570312,0.31127288937568665,0.10364376753568649,0.2709029018878937
10.23687195777893,-0.10583450645208359,-1.502501368522644,1.5061651468276978,0.31397974491119385,0.09949438273906708,0.27107831835746765
10.25695276260376,-0.08929289877414703,-1.5001628398895264,1.5012887716293335,0.3134889602661133,0.10447319597005844,0.2708088159561157
