liuyurong129/humanoid-gym/humanoid/data/target_q_20250522-231410.csv
timestamp,joint_1,joint_2,joint_3,joint_4,joint_5,joint_6
0.00013780593872070312,0.0,0.0,0.0,0.0,0.0,0.0
0.0202791690826416,0.0,0.0,0.0,0.0,0.0,0.0
0.04030299186706543,0.0,0.0,0.0,0.0,0.0,0.0
0.06037139892578125,0.0,0.0,0.0,0.0,0.0,0.0
0.08044719696044922,-0.42602232098579407,-0.36186137795448303,0.22117696702480316,0.5657555460929871,-0.15726019442081451,0.24960479140281677
0.10049581527709961,-0.3325614333152771,-0.5397385954856873,0.316906601190567,0.6312585473060608,-0.14431127905845642,0.21234381198883057
0.12059879302978516,-0.3325614333152771,-0.5397385954856873,0.316906601190567,0.6312585473060608,-0.14431127905845642,0.21234381198883057
0.14070463180541992,-0.32845643162727356,-0.6003016233444214,0.3153191804885864,0.6492735743522644,-0.14876055717468262,0.20080357789993286
0.1607680320739746,-0.32845643162727356,-0.6003016233444214,0.3153191804885864,0.6492735743522644,-0.14876055717468262,0.20080357789993286
0.1808180809020996,-0.32557693123817444,-0.611051619052887,0.31294047832489014,0.6539413928985596,-0.14953328669071198,0.19475874304771423
0.20088815689086914,-0.32557693123817444,-0.611051619052887,0.31294047832489014,0.6539413928985596,-0.14953328669071198,0.19475874304771423
0.22096014022827148,-0.32619214057922363,-0.6062808632850647,0.31773656606674194,0.6550458669662476,-0.14858411252498627,0.19242312014102936
0.24103188514709473,-0.3235795795917511,-0.6121993660926819,0.31459859013557434,0.6554854512214661,-0.15116417407989502,0.19182878732681274
0.26112818717956543,-0.3235795795917511,-0.6121993660926819,0.31459859013557434,0.6554854512214661,-0.15116417407989502,0.19182878732681274
0.28120946884155273,-0.3215298056602478,-0.6112083792686462,0.3152187466621399,0.6564846038818359,-0.15020781755447388,0.19056357443332672
0.301283597946167,-0.3215298056602478,-0.6112083792686462,0.3152187466621399,0.6564846038818359,-0.15020781755447388,0.19056357443332672
0.32134509086608887,-0.31862446665763855,-0.6096762418746948,0.3154870271682739,0.6573004126548767,-0.14608897268772125,0.1900668442249298
0.3413968086242676,-0.32010552287101746,-0.606354296207428,0.31884902715682983,0.65720134973526,-0.14712296426296234,0.18984034657478333
0.36147427558898926,-0.32010552287101746,-0.606354296207428,0.31884902715682983,0.65720134973526,-0.14712296426296234,0.18984034657478333
0.3815896511077881,-0.3178170621395111,-0.6079548001289368,0.3177107870578766,0.6575915217399597,-0.14773273468017578,0.18933993577957153
0.40170955657958984,-0.3178170621395111,-0.6079548001289368,0.3177107870578766,0.6575915217399597,-0.14773273468017578,0.18933993577957153
0.42175841331481934,-0.3176904022693634,-0.6058483719825745,0.32230573892593384,0.6580520272254944,-0.14387978613376617,0.1891249716281891
0.44184160232543945,-0.3176904022693634,-0.6058483719825745,0.32230573892593384,0.6580520272254944,-0.14387978613376617,0.1891249716281891
0.46190714836120605,-0.3177366554737091,-0.6018919348716736,0.3263685703277588,0.6583549380302429,-0.14130799472332,0.18876850605010986
0.4819512367248535,-0.31855669617652893,-0.5998477339744568,0.3294719457626343,0.6584785580635071,-0.1385701298713684,0.18879085779190063
0.5020337104797363,-0.31855669617652893,-0.5998477339744568,0.3294719457626343,0.6584785580635071,-0.1385701298713684,0.18879085779190063
0.5220999717712402,-0.3178351819515228,-0.5977334380149841,0.3320057988166809,0.6584204435348511,-0.13675262033939362,0.1885751187801361
0.542278528213501,-0.3178351819515228,-0.5977334380149841,0.3320057988166809,0.6584204435348511,-0.13675262033939362,0.1885751187801361
0.5623173713684082,-0.31643208861351013,-0.5992953777313232,0.3310500383377075,0.6585636138916016,-0.13924945890903473,0.18824341893196106
0.5823681354522705,-0.31643208861351013,-0.5992953777313232,0.3310500383377075,0.6585636138916016,-0.13924945890903473,0.18824341893196106
0.6024315357208252,-0.3145013153553009,-0.5971055030822754,0.332679808139801,0.6592240929603577,-0.1359749734401703,0.18745416402816772
0.6225202083587646,-0.3139018416404724,-0.5968033671379089,0.33569905161857605,0.6593344211578369,-0.13506880402565002,0.18735840916633606
0.642613410949707,-0.3139018416404724,-0.5968033671379089,0.33569905161857605,0.6593344211578369,-0.13506880402565002,0.18735840916633606
0.6626849174499512,-0.3140942454338074,-0.5964710116386414,0.3394155204296112,0.6596015691757202,-0.13220305740833282,0.18737943470478058
0.6828012466430664,-0.3140942454338074,-0.5964710116386414,0.3394155204296112,0.6596015691757202,-0.13220305740833282,0.18737943470478058
0.7028694152832031,-0.31368324160575867,-0.5936619639396667,0.34229111671447754,0.6592215895652771,-0.13029173016548157,0.18751797080039978
0.7229495048522949,-0.31368324160575867,-0.5936619639396667,0.34229111671447754,0.6592215895652771,-0.13029173016548157,0.18751797080039978
0.7430300712585449,-0.31284886598587036,-0.5942440629005432,0.34453487396240234,0.6594109535217285,-0.13067646324634552,0.1871214210987091
0.7630844116210938,-0.3117090165615082,-0.5924624800682068,0.3457335829734802,0.6596058011054993,-0.1284448355436325,0.18687085807323456
0.783196210861206,-0.3117090165615082,-0.5924624800682068,0.3457335829734802,0.6596058011054993,-0.1284448355436325,0.18687085807323456
0.8032553195953369,-0.3098490536212921,-0.5916473269462585,0.3468007743358612,0.6598876714706421,-0.12764102220535278,0.18662571907043457
0.8233215808868408,-0.3098490536212921,-0.5916473269462585,0.3468007743358612,0.6598876714706421,-0.12764102220535278,0.18662571907043457
0.843416690826416,-0.3074735403060913,-0.5911924242973328,0.3471418023109436,0.6604815125465393,-0.12799176573753357,0.18600265681743622
0.8635053634643555,-0.30588316917419434,-0.5908778309822083,0.3487744927406311,0.6609752774238586,-0.1262109875679016,0.18537989258766174
0.8837013244628906,-0.30588316917419434,-0.5908778309822083,0.3487744927406311,0.6609752774238586,-0.1262109875679016,0.18537989258766174
0.9036943912506104,-0.3050837218761444,-0.5898095965385437,0.35277077555656433,0.6614276170730591,-0.12403035908937454,0.18518108129501343
0.923795223236084,-0.3050837218761444,-0.5898095965385437,0.35277077555656433,0.6614276170730591,-0.12403035908937454,0.18518108129501343
0.9438745975494385,-0.3048321008682251,-0.5878117680549622,0.3565543293952942,0.662212073802948,-0.11855437606573105,0.18484698235988617
0.9639341831207275,-0.3048321008682251,-0.5878117680549622,0.3565543293952942,0.662212073802948,-0.11855437606573105,0.18484698235988617
0.9840569496154785,-0.30460458993911743,-0.5862377285957336,0.35965496301651,0.6622287034988403,-0.11825873702764511,0.18467524647712708
1.004077672958374,-0.3043476939201355,-0.5866753458976746,0.36272943019866943,0.6619620323181152,-0.11841447651386261,0.18452803790569305
1.024156093597412,-0.3043476939201355,-0.5866753458976746,0.36272943019866943,0.6619620323181152,-0.11841447651386261,0.18452803790569305
1.044238567352295,-0.3008494973182678,-0.5854609608650208,0.3634439706802368,0.6624578833580017,-0.11647479236125946,0.18393494188785553
1.0643439292907715,-0.3008494973182678,-0.5854609608650208,0.3634439706802368,0.6624578833580017,-0.11647479236125946,0.18393494188785553
1.0843665599822998,-0.3002614676952362,-0.5868068337440491,0.3653528094291687,0.662886381149292,-0.11646881699562073,0.18351975083351135
1.104447603225708,-0.3002614676952362,-0.5868068337440491,0.3653528094291687,0.662886381149292,-0.11646881699562073,0.18351975083351135
1.1245191097259521,-0.2986425757408142,-0.586525022983551,0.36725497245788574,0.6632805466651917,-0.11457107961177826,0.1831296682357788
1.1445577144622803,-0.2987769842147827,-0.5842565894126892,0.3711674213409424,0.6636829376220703,-0.11215046793222427,0.18291258811950684
1.1646442413330078,-0.2987769842147827,-0.5842565894126892,0.3711674213409424,0.6636829376220703,-0.11215046793222427,0.18291258811950684
1.1847114562988281,-0.29747283458709717,-0.5816109776496887,0.37280920147895813,0.6642560362815857,-0.10949597507715225,0.18225663900375366
1.2047739028930664,-0.29747283458709717,-0.5816109776496887,0.37280920147895813,0.6642560362815857,-0.10949597507715225,0.18225663900375366
1.2248578071594238,-0.29647740721702576,-0.5800415277481079,0.3759961426258087,0.6643732190132141,-0.1067657545208931,0.18218526244163513
1.2449560165405273,-0.29647740721702576,-0.5800415277481079,0.3759961426258087,0.6643732190132141,-0.1067657545208931,0.18218526244163513
1.2650439739227295,-0.2968733012676239,-0.579092800617218,0.37892574071884155,0.6644733548164368,-0.10741971433162689,0.18186646699905396
1.285165548324585,-0.29505395889282227,-0.577392041683197,0.3811268210411072,0.6649013757705688,-0.10441563278436661,0.18133427202701569
1.305196762084961,-0.29505395889282227,-0.577392041683197,0.3811268210411072,0.6649013757705688,-0.10441563278436661,0.18133427202701569
1.32527494430542,-0.29479649662971497,-0.578228235244751,0.38281533122062683,0.6650250554084778,-0.10497566312551498,0.18142545223236084
1.345337152481079,-0.29479649662971497,-0.578228235244751,0.38281533122062683,0.6650250554084778,-0.10497566312551498,0.18142545223236084
1.3654091358184814,-0.2913532853126526,-0.577950656414032,0.38320595026016235,0.6657149791717529,-0.10074662417173386,0.18080517649650574
1.3854570388793945,-0.2923751473426819,-0.5736083388328552,0.3886324465274811,0.6655279397964478,-0.09983997046947479,0.18090543150901794
1.405540943145752,-0.2923751473426819,-0.5736083388328552,0.3886324465274811,0.6655279397964478,-0.09983997046947479,0.18090543150901794
1.425628662109375,-0.2901343107223511,-0.5740171074867249,0.390512079000473,0.6657462120056152,-0.0968480259180069,0.18071389198303223
1.4457130432128906,-0.2901343107223511,-0.5740171074867249,0.390512079000473,0.6657462120056152,-0.0968480259180069,0.18071389198303223
1.4658422470092773,-0.29142647981643677,-0.5685442090034485,0.3966338038444519,0.6658703684806824,-0.09453627467155457,0.18015249073505402
1.4858760833740234,-0.29142647981643677,-0.5685442090034485,0.3966338038444519,0.6658703684806824,-0.09453627467155457,0.18015249073505402
1.5059609413146973,-0.28990551829338074,-0.5709317326545715,0.39695602655410767,0.6658875942230225,-0.09499464184045792,0.18023040890693665
1.5260822772979736,-0.28970617055892944,-0.5706090927124023,0.3993818163871765,0.6661757826805115,-0.09534687548875809,0.17981302738189697
1.5461721420288086,-0.28970617055892944,-0.5706090927124023,0.3993818163871765,0.6661757826805115,-0.09534687548875809,0.17981302738189697
1.5662407875061035,-0.28770846128463745,-0.567200243473053,0.4022649824619293,0.6666883826255798,-0.09190274029970169,0.1790236234664917
1.5863151550292969,-0.28770846128463745,-0.567200243473053,0.4022649824619293,0.6666883826255798,-0.09190274029970169,0.1790236234664917
1.6064062118530273,-0.2856137454509735,-0.5679317116737366,0.40174001455307007,0.6672887206077576,-0.09135375916957855,0.17840778827667236
1.6264779567718506,-0.2856137454509735,-0.5679317116737366,0.40174001455307007,0.6672887206077576,-0.09135375916957855,0.17840778827667236
1.6465635299682617,-0.2859145402908325,-0.5653290152549744,0.40709012746810913,0.6675548553466797,-0.08887219429016113,0.17816323041915894
1.6665959358215332,-0.2847709655761719,-0.5661374926567078,0.40813472867012024,0.6674142479896545,-0.08744379878044128,0.17825061082839966
1.6866798400878906,-0.2847709655761719,-0.5661374926567078,0.40813472867012024,0.6674142479896545,-0.08744379878044128,0.17825061082839966
1.7067756652832031,-0.28410598635673523,-0.5657932162284851,0.410643994808197,0.6677670478820801,-0.0878162682056427,0.17808830738067627
1.7268333435058594,-0.28410598635673523,-0.5657932162284851,0.410643994808197,0.6677670478820801,-0.0878162682056427,0.17808830738067627
1.7469065189361572,-0.28433772921562195,-0.5631850361824036,0.41447609663009644,0.6678282618522644,-0.08432681858539581,0.17769670486450195
1.7669966220855713,-0.2826908528804779,-0.5610024333000183,0.41724568605422974,0.6679983139038086,-0.08201365172863007,0.17756317555904388
1.7870824337005615,-0.2826908528804779,-0.5610024333000183,0.41724568605422974,0.6679983139038086,-0.08201365172863007,0.17756317555904388
1.8071775436401367,-0.28251489996910095,-0.5591999888420105,0.41964298486709595,0.6683792471885681,-0.07999658584594727,0.17710484564304352
1.8272290229797363,-0.28251489996910095,-0.5591999888420105,0.41964298486709595,0.6683792471885681,-0.07999658584594727,0.17710484564304352
1.84735107421875,-0.279039204120636,-0.5606123805046082,0.4195427894592285,0.6691437363624573,-0.07803543657064438,0.17654010653495789
1.867408275604248,-0.279039204120636,-0.5606123805046082,0.4195427894592285,0.6691437363624573,-0.07803543657064438,0.17654010653495789
1.8874821662902832,-0.2792145907878876,-0.5581756234169006,0.4242006838321686,0.6694560647010803,-0.07718989253044128,0.17623719573020935
1.9075298309326172,-0.2781679034233093,-0.5588013529777527,0.42688828706741333,0.6697226762771606,-0.07773935049772263,0.17559130489826202
1.9276225566864014,-0.2781679034233093,-0.5588013529777527,0.42688828706741333,0.6697226762771606,-0.07773935049772263,0.17559130489826202
1.9477028846740723,-0.2764204144477844,-0.5563754439353943,0.4293276369571686,0.670102596282959,-0.07540149986743927,0.17511752247810364
1.9677660465240479,-0.2764204144477844,-0.5563754439353943,0.4293276369571686,0.670102596282959,-0.07540149986743927,0.17511752247810364
1.9878411293029785,-0.27702537178993225,-0.5549862384796143,0.43336132168769836,0.6704548001289368,-0.0719539001584053,0.17491382360458374
2.0080013275146484,-0.27702537178993225,-0.5549862384796143,0.43336132168769836,0.6704548001289368,-0.0719539001584053,0.17491382360458374
2.0281026363372803,-0.2744758725166321,-0.5568442940711975,0.4332333207130432,0.6710836291313171,-0.07039608061313629,0.1746855080127716
2.048109769821167,-0.2733188271522522,-0.5566398501396179,0.4351300001144409,0.6716457605361938,-0.06805191189050674,0.17400969564914703
2.0681910514831543,-0.2733188271522522,-0.5566398501396179,0.4351300001144409,0.6716457605361938,-0.06805191189050674,0.17400969564914703
2.088256359100342,-0.27054736018180847,-0.5560204982757568,0.4351288676261902,0.6723171472549438,-0.06851133704185486,0.17313183844089508
2.1083359718322754,-0.27054736018180847,-0.5560204982757568,0.4351288676261902,0.6723171472549438,-0.06851133704185486,0.17313183844089508
2.1284124851226807,-0.2696182131767273,-0.559584379196167,0.4366380572319031,0.6728023290634155,-0.06927789002656937,0.17219126224517822
2.1484498977661133,-0.2696182131767273,-0.559584379196167,0.4366380572319031,0.6728023290634155,-0.06927789002656937,0.17219126224517822
2.1685218811035156,-0.269549161195755,-0.5558699369430542,0.4410783052444458,0.6735300421714783,-0.06795815378427505,0.17166435718536377
2.188570976257324,-0.2699902653694153,-0.558542013168335,0.44412335753440857,0.6738796234130859,-0.06556890159845352,0.17143495380878448
2.2087221145629883,-0.2699902653694153,-0.558542013168335,0.44412335753440857,0.6738796234130859,-0.06556890159845352,0.17143495380878448
2.2287559509277344,-0.268087774515152,-0.5567622780799866,0.4454260468482971,0.674373209476471,-0.061934612691402435,0.17100772261619568
2.248826742172241,-0.268087774515152,-0.5567622780799866,0.4454260468482971,0.674373209476471,-0.061934612691402435,0.17100772261619568
2.268967390060425,-0.2664531469345093,-0.5531762838363647,0.4477762281894684,0.6748272776603699,-0.05947235971689224,0.1706443428993225
2.2893872261047363,-0.26483288407325745,-0.5546476244926453,0.4494578242301941,0.6752468943595886,-0.058670081198215485,0.17037135362625122
2.3094866275787354,-0.26483288407325745,-0.5546476244926453,0.4494578242301941,0.6752468943595886,-0.058670081198215485,0.17037135362625122
2.3295416831970215,-0.26324960589408875,-0.5551101565361023,0.45085418224334717,0.6758615374565125,-0.056885868310928345,0.16991430521011353
2.3496170043945312,-0.26324960589408875,-0.5551101565361023,0.45085418224334717,0.6758615374565125,-0.056885868310928345,0.16991430521011353
2.369765520095825,-0.2628670334815979,-0.5546202659606934,0.45291489362716675,0.6761549115180969,-0.0581200048327446,0.1693970263004303
2.389801502227783,-0.2628670334815979,-0.5546202659606934,0.45291489362716675,0.6761549115180969,-0.0581200048327446,0.1693970263004303
2.4099087715148926,-0.2619357705116272,-0.5514927506446838,0.45656895637512207,0.6763268113136292,-0.055189348757267,0.169067844748497
2.430079936981201,-0.2617660462856293,-0.550855815410614,0.4588145613670349,0.6767259240150452,-0.054526276886463165,0.16873644292354584
2.450226068496704,-0.2617660462856293,-0.550855815410614,0.4588145613670349,0.6767259240150452,-0.054526276886463165,0.16873644292354584
2.470208168029785,-0.2599278688430786,-0.5482949018478394,0.4607846140861511,0.6771581768989563,-0.05212327092885971,0.1681768298149109
2.4902896881103516,-0.2599278688430786,-0.5482949018478394,0.4607846140861511,0.6771581768989563,-0.05212327092885971,0.1681768298149109
2.510352849960327,-0.2599782645702362,-0.552667498588562,0.4625505805015564,0.6778592467308044,-0.05222921818494797,0.16778677701950073
2.530421018600464,-0.2599782645702362,-0.552667498588562,0.4625505805015564,0.6778592467308044,-0.05222921818494797,0.16778677701950073
2.5504682064056396,-0.2589012384414673,-0.5517023205757141,0.46512603759765625,0.6781041026115417,-0.05120354890823364,0.16712945699691772
2.5706467628479004,-0.2559860646724701,-0.5527596473693848,0.465969443321228,0.6789534687995911,-0.046869657933712006,0.16692575812339783
2.590644359588623,-0.2559860646724701,-0.5527596473693848,0.465969443321228,0.6789534687995911,-0.046869657933712006,0.16692575812339783
2.61071515083313,-0.2575048506259918,-0.5505834817886353,0.47058913111686707,0.679241955280304,-0.04715114086866379,0.16660699248313904
2.6308176517486572,-0.2575048506259918,-0.5505834817886353,0.47058913111686707,0.679241955280304,-0.04715114086866379,0.16660699248313904
2.6509015560150146,-0.2557125687599182,-0.5519478917121887,0.4725184440612793,0.6796637177467346,-0.04517904669046402,0.16622188687324524
2.6709537506103516,-0.2557125687599182,-0.5519478917121887,0.4725184440612793,0.6796637177467346,-0.04517904669046402,0.16622188687324524
2.691044807434082,-0.2551127076148987,-0.5505531430244446,0.4752974808216095,0.6800311207771301,-0.04432017356157303,0.16569370031356812
2.711108922958374,-0.25366804003715515,-0.5500101447105408,0.47544071078300476,0.6805163025856018,-0.04303567856550217,0.16490696370601654
2.731234073638916,-0.25366804003715515,-0.5500101447105408,0.47544071078300476,0.6805163025856018,-0.04303567856550217,0.16490696370601654
2.751298427581787,-0.2531781792640686,-0.5520440936088562,0.47876793146133423,0.6807344555854797,-0.04311824589967728,0.16492673754692078
2.7713844776153564,-0.2531781792640686,-0.5520440936088562,0.47876793146133423,0.6807344555854797,-0.04311824589967728,0.16492673754692078
2.7915892601013184,-0.2516670227050781,-0.5491337180137634,0.48175984621047974,0.6810299754142761,-0.038191910833120346,0.1647280752658844
2.811868667602539,-0.25264549255371094,-0.546100914478302,0.48753952980041504,0.6812449097633362,-0.037663936614990234,0.1648155152797699
2.8319461345672607,-0.25264549255371094,-0.546100914478302,0.48753952980041504,0.6812449097633362,-0.037663936614990234,0.1648155152797699
2.852055072784424,-0.2518788278102875,-0.5477460026741028,0.488401859998703,0.6815246343612671,-0.036777228116989136,0.16396591067314148
2.872102737426758,-0.2518788278102875,-0.5477460026741028,0.488401859998703,0.6815246343612671,-0.036777228116989136,0.16396591067314148
2.8921916484832764,-0.2495952546596527,-0.5575870871543884,0.48377710580825806,0.6821807026863098,-0.042282357811927795,0.1632298231124878
2.912289619445801,-0.2495952546596527,-0.5575870871543884,0.48377710580825806,0.6821807026863098,-0.042282357811927795,0.1632298231124878
2.932413339614868,-0.2477971613407135,-0.5614633560180664,0.4829108417034149,0.6832717061042786,-0.04202470928430557,0.16177043318748474
2.952432870864868,-0.2458833009004593,-0.5594140291213989,0.4842407703399658,0.6843152642250061,-0.039355531334877014,0.161190927028656
2.9725325107574463,-0.2458833009004593,-0.5594140291213989,0.4842407703399658,0.6843152642250061,-0.039355531334877014,0.161190927028656
2.992706537246704,-0.24399042129516602,-0.5590261816978455,0.4857226610183716,0.6852509379386902,-0.03512062877416611,0.1609494686126709
3.0127158164978027,-0.24399042129516602,-0.5590261816978455,0.4857226610183716,0.6852509379386902,-0.03512062877416611,0.1609494686126709
3.0327870845794678,-0.24405896663665771,-0.5574292540550232,0.48947957158088684,0.6855325102806091,-0.03613419830799103,0.160905122756958
3.052856206893921,-0.24405896663665771,-0.5574292540550232,0.48947957158088684,0.6855325102806091,-0.03613419830799103,0.160905122756958
3.073011875152588,-0.24070337414741516,-0.5579056143760681,0.489286333322525,0.6862525939941406,-0.032829247415065765,0.1602526605129242
3.09301495552063,-0.24241571128368378,-0.5659142136573792,0.49058541655540466,0.6865876913070679,-0.03706514090299606,0.16005009412765503
3.113089084625244,-0.24241571128368378,-0.5659142136573792,0.49058541655540466,0.6865876913070679,-0.03706514090299606,0.16005009412765503
3.133164167404175,-0.23924486339092255,-0.5728803873062134,0.48706015944480896,0.6875686049461365,-0.039711132645606995,0.1591697633266449
3.153252363204956,-0.23924486339092255,-0.5728803873062134,0.48706015944480896,0.6875686049461365,-0.039711132645606995,0.1591697633266449
3.1733763217926025,-0.23815855383872986,-0.5735686421394348,0.490161657333374,0.6885435581207275,-0.03741447627544403,0.15841011703014374
3.19352126121521,-0.23842871189117432,-0.5722537636756897,0.49300283193588257,0.6893025636672974,-0.0330340713262558,0.1580362319946289
3.213655948638916,-0.23842871189117432,-0.5722537636756897,0.49300283193588257,0.6893025636672974,-0.0330340713262558,0.1580362319946289
3.233703136444092,-0.23554708063602448,-0.573152482509613,0.4939068555831909,0.6897926926612854,-0.032830774784088135,0.15796341001987457
3.253779411315918,-0.23554708063602448,-0.573152482509613,0.4939068555831909,0.6897926926612854,-0.032830774784088135,0.15796341001987457
3.273973226547241,-0.2355247437953949,-0.5676888823509216,0.4976460337638855,0.6905375123023987,-0.02986079640686512,0.15751861035823822
3.293962001800537,-0.2355247437953949,-0.5676888823509216,0.4976460337638855,0.6905375123023987,-0.02986079640686512,0.15751861035823822
3.3140339851379395,-0.23542863130569458,-0.5643330216407776,0.5020415186882019,0.6908796429634094,-0.027449587360024452,0.15718182921409607
3.3340866565704346,-0.235983744263649,-0.5672537088394165,0.5040510892868042,0.691231369972229,-0.025558361783623695,0.15711507201194763
3.35416579246521,-0.235983744263649,-0.5672537088394165,0.5040510892868042,0.691231369972229,-0.025558361783623695,0.15711507201194763
3.3742308616638184,-0.23551315069198608,-0.5756017565727234,0.501900315284729,0.6917732954025269,-0.030263809487223625,0.15636782348155975
3.394299268722534,-0.23551315069198608,-0.5756017565727234,0.501900315284729,0.6917732954025269,-0.030263809487223625,0.15636782348155975
3.414374351501465,-0.23291803896427155,-0.5809281468391418,0.4989857077598572,0.6923661231994629,-0.03182508051395416,0.1553216278553009
3.4344418048858643,-0.23291803896427155,-0.5809281468391418,0.4989857077598572,0.6923661231994629,-0.03182508051395416,0.1553216278553009
3.4545278549194336,-0.2302342802286148,-0.5833637118339539,0.49875497817993164,0.6934496164321899,-0.030775411054491997,0.15454407036304474
3.4745898246765137,-0.22951047122478485,-0.5866946578025818,0.49775028228759766,0.6942790150642395,-0.033460721373558044,0.15432029962539673
3.4947118759155273,-0.22951047122478485,-0.5866946578025818,0.49775028228759766,0.6942790150642395,-0.033460721373558044,0.15432029962539673
3.5147573947906494,-0.22742943465709686,-0.5857863426208496,0.5003703236579895,0.695231020450592,-0.02761763520538807,0.15389040112495422
3.5348408222198486,-0.22742943465709686,-0.5857863426208496,0.5003703236579895,0.695231020450592,-0.02761763520538807,0.15389040112495422
3.5549190044403076,-0.22877120971679688,-0.5816771984100342,0.5060226917266846,0.6955686807632446,-0.026676973327994347,0.15395304560661316
3.5749917030334473,-0.22877120971679688,-0.5816771984100342,0.5060226917266846,0.6955686807632446,-0.026676973327994347,0.15395304560661316
3.595055341720581,-0.22812998294830322,-0.5880969166755676,0.506061315536499,0.6958861947059631,-0.027966441586613655,0.15361277759075165
3.615111827850342,-0.22575260698795319,-0.5931380391120911,0.5030969977378845,0.6966251730918884,-0.02867302857339382,0.15269094705581665
3.635227918624878,-0.22575260698795319,-0.5931380391120911,0.5030969977378845,0.6966251730918884,-0.02867302857339382,0.15269094705581665
3.655284881591797,-0.2248147428035736,-0.596007764339447,0.5039107799530029,0.6972687840461731,-0.031577274203300476,0.15252095460891724
3.675400495529175,-0.2248147428035736,-0.596007764339447,0.5039107799530029,0.6972687840461731,-0.031577274203300476,0.15252095460891724
3.6954424381256104,-0.22376233339309692,-0.5978509783744812,0.5039941668510437,0.6983712315559387,-0.030102843418717384,0.1516578197479248
3.7155873775482178,-0.22353756427764893,-0.5988938212394714,0.5052680373191833,0.6989739537239075,-0.029799209907650948,0.15146087110042572
3.7356832027435303,-0.22353756427764893,-0.5988938212394714,0.5052680373191833,0.6989739537239075,-0.029799209907650948,0.15146087110042572
3.755751371383667,-0.22398477792739868,-0.5992138981819153,0.5082361102104187,0.6998435854911804,-0.026311879977583885,0.1508394330739975
3.775819778442383,-0.22398477792739868,-0.5992138981819153,0.5082361102104187,0.6998435854911804,-0.026311879977583885,0.1508394330739975
3.795896530151367,-0.2234112024307251,-0.6028364300727844,0.50748211145401,0.700327455997467,-0.02782602049410343,0.15043166279792786
3.8159587383270264,-0.2234112024307251,-0.6028364300727844,0.50748211145401,0.700327455997467,-0.02782602049410343,0.15043166279792786
3.8360207080841064,-0.22183409333229065,-0.6055700182914734,0.5067213177680969,0.7012539505958557,-0.026791082695126534,0.14960339665412903
3.856088161468506,-0.22023814916610718,-0.6068449020385742,0.5079545378684998,0.7016298174858093,-0.027739455923438072,0.14978338778018951
3.8761746883392334,-0.22023814916610718,-0.6068449020385742,0.5079545378684998,0.7016298174858093,-0.027739455923438072,0.14978338778018951
3.8962464332580566,-0.22092823684215546,-0.6030402779579163,0.5119268894195557,0.7025584578514099,-0.023863816633820534,0.1493547558784485
3.916322708129883,-0.22092823684215546,-0.6030402779579163,0.5119268894195557,0.7025584578514099,-0.023863816633820534,0.1493547558784485
3.9363691806793213,-0.21824245154857635,-0.603892982006073,0.5116101503372192,0.7030434012413025,-0.02090524695813656,0.1494143158197403
3.956437587738037,-0.21824245154857635,-0.603892982006073,0.5116101503372192,0.7030434012413025,-0.02090524695813656,0.1494143158197403
3.9765403270721436,-0.2199353277683258,-0.5991514921188354,0.5164520740509033,0.7030747532844543,-0.01990544982254505,0.14916552603244781
3.996609687805176,-0.22028392553329468,-0.59620201587677,0.5196352601051331,0.7033018469810486,-0.018473802134394646,0.14888028800487518
4.016680717468262,-0.22028392553329468,-0.59620201587677,0.5196352601051331,0.7033018469810486,-0.018473802134394646,0.14888028800487518
4.0367677211761475,-0.2203022539615631,-0.6017147898674011,0.5191348195075989,0.7037527561187744,-0.020289110019803047,0.14855267107486725
4.056827783584595,-0.2203022539615631,-0.6017147898674011,0.5191348195075989,0.7037527561187744,-0.020289110019803047,0.14855267107486725
4.0768959522247314,-0.21932990849018097,-0.6082761883735657,0.5176935791969299,0.7044568061828613,-0.020942742004990578,0.14776435494422913
4.09697151184082,-0.21932990849018097,-0.6082761883735657,0.5176935791969299,0.7044568061828613,-0.020942742004990578,0.14776435494422913
4.117038726806641,-0.21802166104316711,-0.6086933016777039,0.5191743969917297,0.7054666876792908,-0.019690008834004402,0.14654800295829773
4.137093544006348,-0.21711130440235138,-0.6122229695320129,0.5193971395492554,0.705906093120575,-0.01845378987491131,0.14633142948150635
4.157170534133911,-0.21711130440235138,-0.6122229695320129,0.5193971395492554,0.705906093120575,-0.01845378987491131,0.14633142948150635
4.177236795425415,-0.21475736796855927,-0.6152648329734802,0.5180299282073975,0.7066848874092102,-0.021108882501721382,0.14600640535354614
4.1973114013671875,-0.21475736796855927,-0.6152648329734802,0.5180299282073975,0.7066848874092102,-0.021108882501721382,0.14600640535354614
4.217458486557007,-0.21544726192951202,-0.6038808226585388,0.5263853669166565,0.7074820399284363,-0.013413405045866966,0.14491739869117737
4.237586259841919,-0.2132790982723236,-0.6140010952949524,0.522432267665863,0.7079225778579712,-0.015348779037594795,0.14515477418899536
4.257670879364014,-0.2132790982723236,-0.6140010952949524,0.522432267665863,0.7079225778579712,-0.015348779037594795,0.14515477418899536
4.277747869491577,-0.2127525508403778,-0.6168832778930664,0.5226253867149353,0.708907961845398,-0.01753302849829197,0.14424316585063934
4.29783296585083,-0.2127525508403778,-0.6168832778930664,0.5226253867149353,0.708907961845398,-0.01753302849829197,0.14424316585063934
4.3178935050964355,-0.21188728511333466,-0.6194362044334412,0.5231999754905701,0.7097653150558472,-0.018311848863959312,0.14352889358997345
4.3379645347595215,-0.21188728511333466,-0.6194362044334412,0.5231999754905701,0.7097653150558472,-0.018311848863959312,0.14352889358997345
4.358036994934082,-0.21063995361328125,-0.6246973276138306,0.523978054523468,0.7105122804641724,-0.017399976029992104,0.14294344186782837
4.378094434738159,-0.21002329885959625,-0.6149513125419617,0.5295537710189819,0.7112821936607361,-0.013299321755766869,0.1421448290348053
4.398233413696289,-0.21002329885959625,-0.6149513125419617,0.5295537710189819,0.7112821936607361,-0.013299321755766869,0.1421448290348053
4.418268918991089,-0.2093416303396225,-0.6221016645431519,0.5292890667915344,0.7118869423866272,-0.011767430230975151,0.14232566952705383
4.438336133956909,-0.2093416303396225,-0.6221016645431519,0.5292890667915344,0.7118869423866272,-0.011767430230975151,0.14232566952705383
4.4584267139434814,-0.20828603208065033,-0.6267894506454468,0.5290055871009827,0.7122892141342163,-0.016831500455737114,0.14246763288974762
4.478514194488525,-0.20828603208065033,-0.6267894506454468,0.5290055871009827,0.7122892141342163,-0.016831500455737114,0.14246763288974762
4.498575210571289,-0.2069638967514038,-0.6289122700691223,0.5296736359596252,0.7135517001152039,-0.015467477962374687,0.14077171683311462
4.518640756607056,-0.2067583203315735,-0.6234821677207947,0.5333572030067444,0.7144797444343567,-0.011412443593144417,0.13985775411128998
4.538833141326904,-0.2067583203315735,-0.6234821677207947,0.5333572030067444,0.7144797444343567,-0.011412443593144417,0.13985775411128998
4.558842658996582,-0.20735467970371246,-0.6269168257713318,0.5350971221923828,0.7150248289108276,-0.01127696968615055,0.1396801769733429
4.578956365585327,-0.20735467970371246,-0.6269168257713318,0.5350971221923828,0.7150248289108276,-0.01127696968615055,0.1396801769733429
4.599003553390503,-0.206156924366951,-0.634609580039978,0.5335637927055359,0.7155762314796448,-0.014187077060341835,0.13914155960083008
4.619203567504883,-0.206156924366951,-0.634609580039978,0.5335637927055359,0.7155762314796448,-0.014187077060341835,0.13914155960083008
4.639287948608398,-0.20565827190876007,-0.6386696696281433,0.5338318943977356,0.7164178490638733,-0.014212077483534813,0.1383216381072998
4.659375429153442,-0.20365463197231293,-0.6420896649360657,0.5322734117507935,0.717358410358429,-0.017825322225689888,0.13796362280845642
4.679446697235107,-0.20365463197231293,-0.6420896649360657,0.5322734117507935,0.717358410358429,-0.017825322225689888,0.13796362280845642
4.699517250061035,-0.20330874621868134,-0.6465612053871155,0.5324323177337646,0.7182760238647461,-0.01656101457774639,0.13725708425045013
4.719633102416992,-0.20330874621868134,-0.6465612053871155,0.5324323177337646,0.7182760238647461,-0.01656101457774639,0.13725708425045013
4.739680051803589,-0.2004328817129135,-0.6523774266242981,0.5272833108901978,0.7194313406944275,-0.017800847068428993,0.13636291027069092
4.759732246398926,-0.19951647520065308,-0.6550022959709167,0.5288807153701782,0.720708966255188,-0.01662714220583439,0.13568918406963348
4.7798237800598145,-0.19951647520065308,-0.6550022959709167,0.5288807153701782,0.720708966255188,-0.01662714220583439,0.13568918406963348
4.7999207973480225,-0.19793067872524261,-0.6591162085533142,0.530920684337616,0.7215930223464966,-0.01665732078254223,0.13597439229488373
4.819974422454834,-0.19793067872524261,-0.6591162085533142,0.530920684337616,0.7215930223464966,-0.01665732078254223,0.13597439229488373
4.8400444984436035,-0.19863200187683105,-0.6592263579368591,0.5329737067222595,0.7225671410560608,-0.014624753966927528,0.13484326004981995
4.8601133823394775,-0.19863200187683105,-0.6592263579368591,0.5329737067222595,0.7225671410560608,-0.014624753966927528,0.13484326004981995
4.880174398422241,-0.19982308149337769,-0.6573335528373718,0.5378270745277405,0.7225394248962402,-0.013448869809508324,0.13531409204006195
4.900227069854736,-0.20053133368492126,-0.6539231538772583,0.5417117476463318,0.7229176163673401,-0.0098064374178648,0.13512909412384033
4.920372247695923,-0.20053133368492126,-0.6539231538772583,0.5417117476463318,0.7229176163673401,-0.0098064374178648,0.13512909412384033
4.940412521362305,-0.19829930365085602,-0.6547033786773682,0.5395515561103821,0.7236952185630798,-0.008632572367787361,0.13461706042289734
4.960459232330322,-0.19829930365085602,-0.6547033786773682,0.5395515561103821,0.7236952185630798,-0.008632572367787361,0.13461706042289734
4.980576038360596,-0.19852708280086517,-0.6513159871101379,0.5435653924942017,0.7243693470954895,-0.005829734727740288,0.13378572463989258
5.000878572463989,-0.19852708280086517,-0.6513159871101379,0.5435653924942017,0.7243693470954895,-0.005829734727740288,0.13378572463989258
5.02098274230957,-0.19910548627376556,-0.6478775143623352,0.5479491353034973,0.7247776389122009,-0.004748040810227394,0.1336134672164917
5.041038990020752,-0.19967910647392273,-0.647779643535614,0.5519272089004517,0.7250825762748718,-0.0034538712352514267,0.133316770195961
5.061104774475098,-0.19967910647392273,-0.647779643535614,0.5519272089004517,0.7250825762748718,-0.0034538712352514267,0.133316770195961
5.08119010925293,-0.20127750933170319,-0.6477990746498108,0.5547175407409668,0.7253580093383789,-0.0011984724551439285,0.1321655809879303
5.101270437240601,-0.20127750933170319,-0.6477990746498108,0.5547175407409668,0.7253580093383789,-0.0011984724551439285,0.1321655809879303
5.121342658996582,-0.19992250204086304,-0.6463383436203003,0.5564864873886108,0.7254446744918823,-0.0012560244649648666,0.13161440193653107
5.141393184661865,-0.19911475479602814,-0.642460286617279,0.5609678626060486,0.7258984446525574,0.002348734065890312,0.13134460151195526
5.161555051803589,-0.19911475479602814,-0.642460286617279,0.5609678626060486,0.7258984446525574,0.002348734065890312,0.13134460151195526
5.181560516357422,-0.20081016421318054,-0.6399292349815369,0.5646287202835083,0.7264600992202759,0.004328934475779533,0.1306476891040802
5.2016401290893555,-0.20081016421318054,-0.6399292349815369,0.5646287202835083,0.7264600992202759,0.004328934475779533,0.1306476891040802
5.221704483032227,-0.20063813030719757,-0.6423495411872864,0.5663763284683228,0.7267863750457764,0.005176616832613945,0.13023945689201355
5.241886377334595,-0.20063813030719757,-0.6423495411872864,0.5663763284683228,0.7267863750457764,0.005176616832613945,0.13023945689201355
5.261933326721191,-0.20028124749660492,-0.6425966620445251,0.5682872533798218,0.7271559834480286,0.004415756091475487,0.12959352135658264
5.281960725784302,-0.19956624507904053,-0.634718120098114,0.5748142004013062,0.727831244468689,0.008205728605389595,0.12831619381904602
5.302043676376343,-0.19956624507904053,-0.634718120098114,0.5748142004013062,0.727831244468689,0.008205728605389595,0.12831619381904602
5.3221213817596436,-0.20073002576828003,-0.6378265023231506,0.5767057538032532,0.7281206250190735,0.009414726868271828,0.1277737021446228
5.342187166213989,-0.20073002576828003,-0.6378265023231506,0.5767057538032532,0.7281206250190735,0.009414726868271828,0.1277737021446228
5.362286806106567,-0.20243927836418152,-0.6310105919837952,0.5850203037261963,0.7284886837005615,0.013313772156834602,0.12738463282585144
5.3823418617248535,-0.20243927836418152,-0.6310105919837952,0.5850203037261963,0.7284886837005615,0.013313772156834602,0.12738463282585144
5.402415752410889,-0.20286224782466888,-0.641455352306366,0.5815898180007935,0.7282771468162537,0.00933089293539524,0.12751922011375427
5.42246150970459,-0.2008528858423233,-0.6348137259483337,0.5857775211334229,0.728903591632843,0.01403648592531681,0.12602192163467407
5.44256854057312,-0.2008528858423233,-0.6348137259483337,0.5857775211334229,0.728903591632843,0.01403648592531681,0.12602192163467407
5.462634563446045,-0.20033332705497742,-0.6351434588432312,0.5864452123641968,0.7294516563415527,0.01341521181166172,0.12544403970241547
5.4827001094818115,-0.20033332705497742,-0.6351434588432312,0.5864452123641968,0.7294516563415527,0.01341521181166172,0.12544403970241547
5.502778053283691,-0.19847926497459412,-0.6378690600395203,0.5871907472610474,0.7301850318908691,0.01668432541191578,0.12460631132125854
5.5230255126953125,-0.1996539682149887,-0.635931670665741,0.5924220681190491,0.7306258082389832,0.017135990783572197,0.12445962429046631
5.543112516403198,-0.1996539682149887,-0.635931670665741,0.5924220681190491,0.7306258082389832,0.017135990783572197,0.12445962429046631
5.563177108764648,-0.19928091764450073,-0.6366115212440491,0.5951060652732849,0.7310565114021301,0.0189946461468935,0.12410150468349457
5.583323955535889,-0.19928091764450073,-0.6366115212440491,0.5951060652732849,0.7310565114021301,0.0189946461468935,0.12410150468349457
5.603349924087524,-0.19934909045696259,-0.6362826228141785,0.5959516763687134,0.7316775321960449,0.018330043181777,0.12300381064414978
5.623420476913452,-0.19934909045696259,-0.6362826228141785,0.5959516763687134,0.7316775321960449,0.018330043181777,0.12300381064414978
5.643497943878174,-0.19899998605251312,-0.6325008273124695,0.5998742580413818,0.7321853041648865,0.02163073979318142,0.1218549907207489
5.663558006286621,-0.20051319897174835,-0.6344568133354187,0.6021968722343445,0.7324182391166687,0.020422758534550667,0.12129843235015869
5.683638095855713,-0.20051319897174835,-0.6344568133354187,0.6021968722343445,0.7324182391166687,0.020422758534550667,0.12129843235015869
5.703735113143921,-0.20021621882915497,-0.6398978233337402,0.6003547310829163,0.7330955862998962,0.01800309307873249,0.12029555439949036
5.723811864852905,-0.20021621882915497,-0.6398978233337402,0.6003547310829163,0.7330955862998962,0.01800309307873249,0.12029555439949036
5.743915557861328,-0.1996278017759323,-0.64414381980896,0.600294291973114,0.7338088154792786,0.017883112654089928,0.11919339001178741
5.763958930969238,-0.1996278017759323,-0.64414381980896,0.600294291973114,0.7338088154792786,0.017883112654089928,0.11919339001178741
5.7840256690979,-0.1987646073102951,-0.645677924156189,0.600368082523346,0.7346581816673279,0.018638109788298607,0.11858011782169342
5.804073095321655,-0.19888554513454437,-0.6480965614318848,0.600527822971344,0.7358327507972717,0.017189031466841698,0.11809040606021881
5.8241517543792725,-0.19888554513454437,-0.6480965614318848,0.600527822971344,0.7358327507972717,0.017189031466841698,0.11809040606021881
5.844256401062012,-0.19760096073150635,-0.6466192603111267,0.6028164029121399,0.7364205121994019,0.020792720839381218,0.11740800738334656
5.864323616027832,-0.19760096073150635,-0.6466192603111267,0.6028164029121399,0.7364205121994019,0.020792720839381218,0.11740800738334656
5.884382009506226,-0.1984577476978302,-0.642112672328949,0.608234703540802,0.7365705370903015,0.02331102080643177,0.11669738590717316
5.904457092285156,-0.1984577476978302,-0.642112672328949,0.608234703540802,0.7365705370903015,0.02331102080643177,0.11669738590717316
5.924526691436768,-0.1982547640800476,-0.6460067629814148,0.6083865761756897,0.7370797991752625,0.021224549040198326,0.11608293652534485
5.944618463516235,-0.19708772003650665,-0.6532284617424011,0.6050830483436584,0.7378778457641602,0.017207568511366844,0.11577603220939636
5.964734315872192,-0.19708772003650665,-0.6532284617424011,0.6050830483436584,0.7378778457641602,0.017207568511366844,0.11577603220939636
5.984764099121094,-0.19662907719612122,-0.6564363241195679,0.6055924296379089,0.7389437556266785,0.017399607226252556,0.11521998047828674
6.004831314086914,-0.19662907719612122,-0.6564363241195679,0.6055924296379089,0.7389437556266785,0.017399607226252556,0.11521998047828674
6.02490758895874,-0.19835083186626434,-0.6419166922569275,0.6171741485595703,0.7396402359008789,0.026350950822234154,0.11424940824508667
6.044954538345337,-0.19905737042427063,-0.6501486897468567,0.6136698722839355,0.7395321130752563,0.025050899013876915,0.11376787722110748
6.065037965774536,-0.19905737042427063,-0.6501486897468567,0.6136698722839355,0.7395321130752563,0.025050899013876915,0.11376787722110748
6.085191965103149,-0.197574645280838,-0.6536087393760681,0.6113964915275574,0.7403560876846313,0.02281310223042965,0.11274173855781555
6.1052327156066895,-0.197574645280838,-0.6536087393760681,0.6113964915275574,0.7403560876846313,0.02281310223042965,0.11274173855781555
6.125379800796509,-0.19650734961032867,-0.6537724733352661,0.6134429574012756,0.7410309314727783,0.024752134457230568,0.1118365228176117
6.1453962326049805,-0.19650734961032867,-0.6537724733352661,0.6134429574012756,0.7410309314727783,0.024752134457230568,0.1118365228176117
6.165459394454956,-0.1955772340297699,-0.6607133746147156,0.6110084056854248,0.7415958046913147,0.02235829271376133,0.11152936518192291
6.18552303314209,-0.19444091618061066,-0.661791205406189,0.6116481423377991,0.7423638105392456,0.019989104941487312,0.11106005311012268
6.205610275268555,-0.19444091618061066,-0.661791205406189,0.6116481423377991,0.7423638105392456,0.019989104941487312,0.11106005311012268
6.225675582885742,-0.1936923861503601,-0.6646385192871094,0.6111370325088501,0.743291437625885,0.02154482714831829,0.11032786965370178
6.245742559432983,-0.1936923861503601,-0.6646385192871094,0.6111370325088501,0.743291437625885,0.02154482714831829,0.11032786965370178
6.265810966491699,-0.1923719048500061,-0.6642350554466248,0.613666296005249,0.7440361380577087,0.023843305185437202,0.1101360023021698
6.28588604927063,-0.1923719048500061,-0.6642350554466248,0.613666296005249,0.7440361380577087,0.023843305185437202,0.1101360023021698
6.305952310562134,-0.19404414296150208,-0.6668701767921448,0.6139912605285645,0.7449871897697449,0.02363082580268383,0.10911984741687775
6.3259968757629395,-0.1924292892217636,-0.6676644682884216,0.6154978275299072,0.7455161213874817,0.022607913240790367,0.10847035050392151
6.346084833145142,-0.1924292892217636,-0.6676644682884216,0.6154978275299072,0.7455161213874817,0.022607913240790367,0.10847035050392151
6.3661534786224365,-0.19225440919399261,-0.6709640026092529,0.6159105896949768,0.7463459372520447,0.021216267719864845,0.1080208271741867
6.386225938796997,-0.19225440919399261,-0.6709640026092529,0.6159105896949768,0.7463459372520447,0.021216267719864845,0.1080208271741867
6.406296730041504,-0.19163769483566284,-0.6720566153526306,0.6187889575958252,0.7471393346786499,0.02229856140911579,0.10762332379817963
6.426345109939575,-0.19008348882198334,-0.6761274337768555,0.6175723075866699,0.7480984926223755,0.024344658479094505,0.1068478673696518
6.446444272994995,-0.19008348882198334,-0.6761274337768555,0.6175723075866699,0.7480984926223755,0.024344658479094505,0.1068478673696518
6.466584205627441,-0.19096632301807404,-0.6744168400764465,0.6206048130989075,0.7487087249755859,0.027091791853308678,0.10618820786476135
6.486624479293823,-0.19096632301807404,-0.6744168400764465,0.6206048130989075,0.7487087249755859,0.027091791853308678,0.10618820786476135
6.506676197052002,-0.19125914573669434,-0.6742528676986694,0.6228128671646118,0.7493844628334045,0.02675330452620983,0.10520820319652557
6.526746988296509,-0.19125914573669434,-0.6742528676986694,0.6228128671646118,0.7493844628334045,0.02675330452620983,0.10520820319652557
6.5468175411224365,-0.19144847989082336,-0.6749205589294434,0.6236125826835632,0.7499741315841675,0.02651345171034336,0.10443469882011414
6.566864728927612,-0.1900419294834137,-0.6849905252456665,0.6202270984649658,0.750418484210968,0.020702114328742027,0.1046164333820343
6.586988687515259,-0.1900419294834137,-0.6849905252456665,0.6202270984649658,0.750418484210968,0.020702114328742027,0.1046164333820343
6.60705828666687,-0.1900593489408493,-0.6882269978523254,0.6184485554695129,0.7515775561332703,0.0203970056027174,0.1031503677368164
6.627120733261108,-0.1900593489408493,-0.6882269978523254,0.6184485554695129,0.7515775561332703,0.0203970056027174,0.1031503677368164
6.647192478179932,-0.1894722729921341,-0.6891292333602905,0.6182140707969666,0.7528526782989502,0.02354598604142666,0.10206517577171326
6.667275428771973,-0.1894722729921341,-0.6891292333602905,0.6182140707969666,0.7528526782989502,0.02354598604142666,0.10206517577171326
6.687380313873291,-0.1886242777109146,-0.6930722594261169,0.6181475520133972,0.7542670369148254,0.020667733624577522,0.10177281498908997
6.707398414611816,-0.1892058551311493,-0.6904270052909851,0.6228142976760864,0.7553308606147766,0.024274570867419243,0.10067926347255707
6.727482080459595,-0.1892058551311493,-0.6904270052909851,0.6228142976760864,0.7553308606147766,0.024274570867419243,0.10067926347255707
6.747653961181641,-0.19002112746238708,-0.689918041229248,0.6243156790733337,0.7559873461723328,0.027055511251091957,0.09957854449748993
6.767662763595581,-0.19002112746238708,-0.689918041229248,0.6243156790733337,0.7559873461723328,0.027055511251091957,0.09957854449748993
6.787737607955933,-0.19110387563705444,-0.6917876601219177,0.6261289715766907,0.7563989162445068,0.0259904433041811,0.09887199103832245
6.807808876037598,-0.19110387563705444,-0.6917876601219177,0.6261289715766907,0.7563989162445068,0.0259904433041811,0.09887199103832245
6.82787823677063,-0.19035348296165466,-0.6913151144981384,0.6285474300384521,0.7572341561317444,0.027366990223526955,0.09790599346160889
6.847952365875244,-0.19003945589065552,-0.6959360241889954,0.6290930509567261,0.7579013705253601,0.02639276720583439,0.09751707315444946
6.868025302886963,-0.19003945589065552,-0.6959360241889954,0.6290930509567261,0.7579013705253601,0.02639276720583439,0.09751707315444946
6.888096570968628,-0.18948876857757568,-0.6962049603462219,0.6299397349357605,0.7587970495223999,0.02757771871984005,0.09649524092674255
6.908174276351929,-0.18948876857757568,-0.6962049603462219,0.6299397349357605,0.7587970495223999,0.02757771871984005,0.09649524092674255
6.928255796432495,-0.18712832033634186,-0.6987819075584412,0.6288691163063049,0.7596073746681213,0.02969188056886196,0.09567758440971375
6.9483020305633545,-0.18635770678520203,-0.7016049027442932,0.6302227973937988,0.7604160308837891,0.029369814321398735,0.09488734602928162
6.968370676040649,-0.18635770678520203,-0.7016049027442932,0.6302227973937988,0.7604160308837891,0.029369814321398735,0.09488734602928162
6.988518238067627,-0.18472474813461304,-0.7054771780967712,0.6315882205963135,0.7612074017524719,0.027673205360770226,0.09440422058105469
7.008551359176636,-0.18472474813461304,-0.7054771780967712,0.6315882205963135,0.7612074017524719,0.027673205360770226,0.09440422058105469
7.02868127822876,-0.18481718003749847,-0.7048233151435852,0.6336227059364319,0.7624503970146179,0.02958633564412594,0.09286749362945557
7.048717021942139,-0.18481718003749847,-0.7048233151435852,0.6336227059364319,0.7624503970146179,0.02958633564412594,0.09286749362945557
7.0687949657440186,-0.18579506874084473,-0.7077608704566956,0.6362698674201965,0.7631925344467163,0.027664421126246452,0.09236177802085876
7.088836908340454,-0.1858161985874176,-0.7077980637550354,0.6392037868499756,0.7641761898994446,0.02898322232067585,0.09137912094593048
7.108942747116089,-0.1858161985874176,-0.7077980637550354,0.6392037868499756,0.7641761898994446,0.02898322232067585,0.09137912094593048
7.129006862640381,-0.18510684370994568,-0.7131598591804504,0.6357577443122864,0.7653385400772095,0.02885526977479458,0.09024342894554138
7.149107456207275,-0.18510684370994568,-0.7131598591804504,0.6357577443122864,0.7653385400772095,0.02885526977479458,0.09024342894554138
7.169161319732666,-0.1840077042579651,-0.7146152853965759,0.6364589929580688,0.7663045525550842,0.030162682756781578,0.0890083760023117
7.189226388931274,-0.1840077042579651,-0.7146152853965759,0.6364589929580688,0.7663045525550842,0.030162682756781578,0.0890083760023117
7.209313631057739,-0.18317711353302002,-0.7165864109992981,0.6399632096290588,0.7672016620635986,0.03003525547683239,0.08832547068595886
7.229372501373291,-0.18288400769233704,-0.7203277945518494,0.6388393044471741,0.7686019539833069,0.02873038686811924,0.08695799112319946
7.249443531036377,-0.18288400769233704,-0.7203277945518494,0.6388393044471741,0.7686019539833069,0.02873038686811924,0.08695799112319946
7.26953649520874,-0.1844034045934677,-0.720605731010437,0.6403604745864868,0.7702150344848633,0.02834860421717167,0.08544886112213135
7.2895896434783936,-0.1844034045934677,-0.720605731010437,0.6403604745864868,0.7702150344848633,0.02834860421717167,0.08544886112213135
7.309660196304321,-0.1856234073638916,-0.724330484867096,0.6407365202903748,0.7712992429733276,0.02839036099612713,0.08409905433654785
7.329943418502808,-0.18420273065567017,-0.7276419997215271,0.6392437815666199,0.7727683186531067,0.027639804407954216,0.08284597098827362
7.350105047225952,-0.18420273065567017,-0.7276419997215271,0.6392437815666199,0.7727683186531067,0.027639804407954216,0.08284597098827362
7.370105743408203,-0.18436652421951294,-0.7303988337516785,0.6376383900642395,0.7741672396659851,0.029481669887900352,0.08116099238395691
7.390192747116089,-0.18436652421951294,-0.7303988337516785,0.6376383900642395,0.7741672396659851,0.029481669887900352,0.08116099238395691
7.410260200500488,-0.18455487489700317,-0.7314437031745911,0.6380417943000793,0.7752768993377686,0.030756941065192223,0.07945077121257782
7.430336236953735,-0.18455487489700317,-0.7314437031745911,0.6380417943000793,0.7752768993377686,0.030756941065192223,0.07945077121257782
7.4504148960113525,-0.18362271785736084,-0.7334904074668884,0.640007734298706,0.7765389084815979,0.030870309099555016,0.07850228250026703
7.470457553863525,-0.18276642262935638,-0.7341593503952026,0.6454561352729797,0.7773878574371338,0.03175682574510574,0.07781988382339478
7.490612030029297,-0.18276642262935638,-0.7341593503952026,0.6454561352729797,0.7773878574371338,0.03175682574510574,0.07781988382339478
7.5106353759765625,-0.1818196028470993,-0.7372198700904846,0.6478151082992554,0.7782323956489563,0.03297007083892822,0.076932892203331
7.53075098991394,-0.1818196028470993,-0.7372198700904846,0.6478151082992554,0.7782323956489563,0.03297007083892822,0.076932892203331
7.55080771446228,-0.1812291443347931,-0.7365037798881531,0.6527652740478516,0.7791054248809814,0.033385127782821655,0.07576332986354828
7.570873498916626,-0.1812291443347931,-0.7365037798881531,0.6527652740478516,0.7791054248809814,0.033385127782821655,0.07576332986354828
7.590946674346924,-0.18146753311157227,-0.7403960227966309,0.6531751155853271,0.7802112102508545,0.031788043677806854,0.07482887804508209
7.610992193222046,-0.18212063610553741,-0.7411244511604309,0.6543850898742676,0.7813990712165833,0.03275153040885925,0.07309311628341675
7.631133079528809,-0.18212063610553741,-0.7411244511604309,0.6543850898742676,0.7813990712165833,0.03275153040885925,0.07309311628341675
7.651210784912109,-0.1831536591053009,-0.743796169757843,0.6547375917434692,0.782860279083252,0.0311898086220026,0.07158520817756653
7.671283960342407,-0.1831536591053009,-0.743796169757843,0.6547375917434692,0.782860279083252,0.0311898086220026,0.07158520817756653
7.691347360610962,-0.1836698055267334,-0.7490202188491821,0.6512984037399292,0.784526526927948,0.030683176591992378,0.06954945623874664
7.711453676223755,-0.18364985287189484,-0.7515667080879211,0.6492467522621155,0.786404550075531,0.029650429263710976,0.06764429807662964
7.731548309326172,-0.18364985287189484,-0.7515667080879211,0.6492467522621155,0.786404550075531,0.029650429263710976,0.06764429807662964
7.751713991165161,-0.18222513794898987,-0.75298011302948,0.6504865884780884,0.7879645824432373,0.03095150552690029,0.06610910594463348
7.771796464920044,-0.18222513794898987,-0.75298011302948,0.6504865884780884,0.7879645824432373,0.03095150552690029,0.06610910594463348
7.791974782943726,-0.18147355318069458,-0.7563267946243286,0.6518803238868713,0.7894360423088074,0.03099656291306019,0.06507183611392975
7.811978578567505,-0.18147355318069458,-0.7563267946243286,0.6518803238868713,0.7894360423088074,0.03099656291306019,0.06507183611392975
7.832103490829468,-0.18157906830310822,-0.7560085654258728,0.6549758315086365,0.7909272313117981,0.03304421901702881,0.0634583830833435
7.852194786071777,-0.18055342137813568,-0.7622382640838623,0.6556776165962219,0.7919936180114746,0.031180335208773613,0.062215108424425125
7.87224555015564,-0.18055342137813568,-0.7622382640838623,0.6556776165962219,0.7919936180114746,0.031180335208773613,0.062215108424425125
7.892328977584839,-0.1799848973751068,-0.7630270719528198,0.6583207845687866,0.7935665249824524,0.03316754102706909,0.060233715921640396
7.912421941757202,-0.1799848973751068,-0.7630270719528198,0.6583207845687866,0.7935665249824524,0.03316754102706909,0.060233715921640396
7.932497262954712,-0.18015462160110474,-0.7655578255653381,0.6595723628997803,0.7951120734214783,0.03314141929149628,0.058458734303712845
7.95262885093689,-0.18015462160110474,-0.7655578255653381,0.6595723628997803,0.7951120734214783,0.03314141929149628,0.058458734303712845
7.972723722457886,-0.17876872420310974,-0.7693793177604675,0.658754289150238,0.7967774271965027,0.03252293914556503,0.05678004398941994
7.992794513702393,-0.17841917276382446,-0.7746443152427673,0.6573852896690369,0.798747718334198,0.03115835227072239,0.05464379861950874
8.012845516204834,-0.17841917276382446,-0.7746443152427673,0.6573852896690369,0.798747718334198,0.03115835227072239,0.05464379861950874
8.032933473587036,-0.17647607624530792,-0.7808584570884705,0.6522501111030579,0.8010575175285339,0.029814956709742546,0.05196512117981911
8.052998304367065,-0.17647607624530792,-0.7808584570884705,0.6522501111030579,0.8010575175285339,0.029814956709742546,0.05196512117981911
8.073071241378784,-0.1751948446035385,-0.787749171257019,0.6498288512229919,0.8037753701210022,0.026772288605570793,0.049886737018823624
8.093148231506348,-0.1751948446035385,-0.787749171257019,0.6498288512229919,0.8037753701210022,0.026772288605570793,0.049886737018823624
8.113263368606567,-0.1744351089000702,-0.7895127534866333,0.6491596698760986,0.8062976002693176,0.029669692739844322,0.04727744683623314
8.133309602737427,-0.1728494018316269,-0.7894218564033508,0.6506701111793518,0.8086062073707581,0.03382927179336548,0.044563207775354385
8.153412818908691,-0.1728494018316269,-0.7894218564033508,0.6506701111793518,0.8086062073707581,0.03382927179336548,0.044563207775354385
8.173577308654785,-0.17139378190040588,-0.7887433171272278,0.6543481349945068,0.8105857372283936,0.03610600531101227,0.0423288531601429
8.19363021850586,-0.17139378190040588,-0.7887433171272278,0.6543481349945068,0.8105857372283936,0.03610600531101227,0.0423288531601429
8.213745832443237,-0.16823166608810425,-0.7904340624809265,0.6534984707832336,0.8125439286231995,0.041644878685474396,0.039032209664583206
8.233798265457153,-0.16823166608810425,-0.7904340624809265,0.6534984707832336,0.8125439286231995,0.041644878685474396,0.039032209664583206
8.253877401351929,-0.1664339303970337,-0.791472852230072,0.6553775668144226,0.8145915865898132,0.04337352514266968,0.036441389471292496
8.273923397064209,-0.16582803428173065,-0.7919207215309143,0.6572182178497314,0.8177317380905151,0.04168121516704559,0.033204127103090286
8.29400372505188,-0.16582803428173065,-0.7919207215309143,0.6572182178497314,0.8177317380905151,0.04168121516704559,0.033204127103090286
8.314107894897461,-0.16752904653549194,-0.7908663749694824,0.6584553718566895,0.821161150932312,0.03997821360826492,0.02955203875899315
8.334170818328857,-0.16752904653549194,-0.7908663749694824,0.6584553718566895,0.821161150932312,0.03997821360826492,0.02955203875899315
8.35428762435913,-0.1722521185874939,-0.7885054349899292,0.6607509851455688,0.8244121074676514,0.0389547124505043,0.02610291913151741
8.374349594116211,-0.1722521185874939,-0.7885054349899292,0.6607509851455688,0.8244121074676514,0.0389547124505043,0.02610291913151741
8.394509553909302,-0.17754973471164703,-0.7884078621864319,0.6595777273178101,0.8282530903816223,0.03553422540426254,0.021556857973337173
8.414505958557129,-0.18275924026966095,-0.7890539169311523,0.6562647819519043,0.8319444060325623,0.03904589265584946,0.017195869237184525
8.43461537361145,-0.18275924026966095,-0.7890539169311523,0.6562647819519043,0.8319444060325623,0.03904589265584946,0.017195869237184525
8.454684019088745,-0.1850261390209198,-0.7891720533370972,0.6477864980697632,0.8358058333396912,0.040853895246982574,0.012475576251745224
8.474751710891724,-0.1850261390209198,-0.7891720533370972,0.6477864980697632,0.8358058333396912,0.040853895246982574,0.012475576251745224
8.494925022125244,-0.18792952597141266,-0.7843897938728333,0.6448347568511963,0.839737594127655,0.04581216722726822,0.00842210277915001
8.514987468719482,-0.18792952597141266,-0.7843897938728333,0.6448347568511963,0.839737594127655,0.04581216722726822,0.00842210277915001
8.535081624984741,-0.18991781771183014,-0.7792287468910217,0.6418443322181702,0.8427670001983643,0.049953192472457886,0.004221323877573013
8.555126905441284,-0.19258680939674377,-0.7830554842948914,0.6319168210029602,0.8463084101676941,0.046927742660045624,0.0004843585193157196
8.575235605239868,-0.19258680939674377,-0.7830554842948914,0.6319168210029602,0.8463084101676941,0.046927742660045624,0.0004843585193157196
8.595308303833008,-0.19624492526054382,-0.775909960269928,0.6349985599517822,0.8493016362190247,0.049013033509254456,-0.0028381310403347015
8.615379333496094,-0.19624492526054382,-0.775909960269928,0.6349985599517822,0.8493016362190247,0.049013033509254456,-0.0028381310403347015
8.635443687438965,-0.1973244845867157,-0.7750045657157898,0.6254127025604248,0.8516250848770142,0.05601248890161514,-0.006733205169439316
8.655506134033203,-0.1973244845867157,-0.7750045657157898,0.6254127025604248,0.8516250848770142,0.05601248890161514,-0.006733205169439316
8.675832033157349,-0.1970255970954895,-0.7659052014350891,0.6256687641143799,0.8540990948677063,0.05785349756479263,-0.009836476296186447
8.695915937423706,-0.19950982928276062,-0.7685572504997253,0.6227260828018188,0.8561727404594421,0.055970773100852966,-0.01185537502169609
8.71596884727478,-0.19950982928276062,-0.7685572504997253,0.6227260828018188,0.8561727404594421,0.055970773100852966,-0.01185537502169609
8.73599362373352,-0.1989077627658844,-0.7671334147453308,0.6168048977851868,0.8593233227729797,0.05499262362718582,-0.014829184859991074
8.756057500839233,-0.1989077627658844,-0.7671334147453308,0.6168048977851868,0.8593233227729797,0.05499262362718582,-0.014829184859991074
8.776142835617065,-0.2000468224287033,-0.7629347443580627,0.6172974705696106,0.8609855771064758,0.059822626411914825,-0.017107773572206497
8.796207904815674,-0.2000468224287033,-0.7629347443580627,0.6172974705696106,0.8609855771064758,0.059822626411914825,-0.017107773572206497
8.816283226013184,-0.20296896994113922,-0.7572637796401978,0.6155561208724976,0.8628666400909424,0.060540199279785156,-0.019683312624692917
8.836372375488281,-0.20235829055309296,-0.7636945843696594,0.6102912425994873,0.8645473718643188,0.05732593685388565,-0.021016981452703476
8.85645055770874,-0.20235829055309296,-0.7636945843696594,0.6102912425994873,0.8645473718643188,0.05732593685388565,-0.021016981452703476
8.876577615737915,-0.20381851494312286,-0.7549603581428528,0.6129752397537231,0.8662593960762024,0.062207192182540894,-0.022694449871778488
8.89661955833435,-0.20381851494312286,-0.7549603581428528,0.6129752397537231,0.8662593960762024,0.062207192182540894,-0.022694449871778488
8.91672945022583,-0.20528119802474976,-0.7532466053962708,0.6079869866371155,0.8675431609153748,0.06447754800319672,-0.024649176746606827
8.93683648109436,-0.20528119802474976,-0.7532466053962708,0.6079869866371155,0.8675431609153748,0.06447754800319672,-0.024649176746606827
8.956926822662354,-0.20343759655952454,-0.7522996664047241,0.6068169474601746,0.8685720562934875,0.06621983647346497,-0.02603619173169136
8.977009296417236,-0.20426613092422485,-0.7602313160896301,0.6000216007232666,0.8701930642127991,0.0594097301363945,-0.026803534477949142
8.99711298942566,-0.20426613092422485,-0.7602313160896301,0.6000216007232666,0.8701930642127991,0.0594097301363945,-0.026803534477949142
9.017163038253784,-0.20678474009037018,-0.747113049030304,0.6060003042221069,0.8714867234230042,0.0636555403470993,-0.02866261824965477
9.037238359451294,-0.20678474009037018,-0.747113049030304,0.6060003042221069,0.8714867234230042,0.0636555403470993,-0.02866261824965477
9.057307720184326,-0.2060052901506424,-0.7485422492027283,0.6009689569473267,0.8721104264259338,0.06601889431476593,-0.029789287596940994
9.077359199523926,-0.20475514233112335,-0.7519276142120361,0.5971232056617737,0.8732821345329285,0.06247416138648987,-0.031061936169862747
9.097466945648193,-0.20475514233112335,-0.7519276142120361,0.5971232056617737,0.8732821345329285,0.06247416138648987,-0.031061936169862747
9.11753249168396,-0.20821264386177063,-0.7480564713478088,0.5992068648338318,0.8747076392173767,0.06153828650712967,-0.03184419497847557
9.137617826461792,-0.20821264386177063,-0.7480564713478088,0.5992068648338318,0.8747076392173767,0.06153828650712967,-0.03184419497847557
9.15769076347351,-0.2081499844789505,-0.7484096884727478,0.5969425439834595,0.8749722838401794,0.06415695697069168,-0.03276032581925392
9.177757978439331,-0.2081499844789505,-0.7484096884727478,0.5969425439834595,0.8749722838401794,0.06415695697069168,-0.03276032581925392
9.197833776473999,-0.20768719911575317,-0.741810142993927,0.6000068187713623,0.8754723072052002,0.06855852156877518,-0.03398285433650017
9.217920780181885,-0.2067398875951767,-0.7465872168540955,0.5926652550697327,0.8762179017066956,0.06521596759557724,-0.03429901972413063
9.237992286682129,-0.2067398875951767,-0.7465872168540955,0.5926652550697327,0.8762179017066956,0.06521596759557724,-0.03429901972413063
9.258061408996582,-0.20650792121887207,-0.7455464601516724,0.594521701335907,0.8777311444282532,0.06406811624765396,-0.03542707487940788
9.278196334838867,-0.20650792121887207,-0.7455464601516724,0.594521701335907,0.8777311444282532,0.06406811624765396,-0.03542707487940788
9.298233985900879,-0.209072083234787,-0.7408241033554077,0.5947456955909729,0.8782232999801636,0.06709025800228119,-0.0362049899995327
9.318312644958496,-0.209072083234787,-0.7408241033554077,0.5947456955909729,0.8782232999801636,0.06709025800228119,-0.0362049899995327
9.338393449783325,-0.2089272141456604,-0.7380564212799072,0.5964637398719788,0.8779382109642029,0.0682956650853157,-0.036419402807950974
9.358431577682495,-0.20681770145893097,-0.7485430836677551,0.5887344479560852,0.8784830570220947,0.06268039345741272,-0.03638553246855736
9.37852931022644,-0.20681770145893097,-0.7485430836677551,0.5887344479560852,0.8784830570220947,0.06268039345741272,-0.03638553246855736
9.398643970489502,-0.20780102908611298,-0.7413553595542908,0.5938308835029602,0.8795827031135559,0.06462172418832779,-0.037164557725191116
9.418748378753662,-0.20780102908611298,-0.7413553595542908,0.5938308835029602,0.8795827031135559,0.06462172418832779,-0.037164557725191116
9.43900179862976,-0.20783020555973053,-0.7388011813163757,0.5935483574867249,0.878983199596405,0.07225276529788971,-0.03755943849682808
9.459030389785767,-0.20783020555973053,-0.7388011813163757,0.5935483574867249,0.878983199596405,0.07225276529788971,-0.03755943849682808
9.47905445098877,-0.20775006711483002,-0.7425724267959595,0.5904251337051392,0.8792735934257507,0.0658547505736351,-0.03734671697020531
9.49911642074585,-0.20737555623054504,-0.7430099248886108,0.5907200574874878,0.8801338076591492,0.06370686739683151,-0.03776625916361809
9.519206285476685,-0.20737555623054504,-0.7430099248886108,0.5907200574874878,0.8801338076591492,0.06370686739683151,-0.03776625916361809
9.539305448532104,-0.2087697982788086,-0.7401968836784363,0.5909929871559143,0.8804734349250793,0.06709850579500198,-0.03842299059033394
9.559404611587524,-0.2087697982788086,-0.7401968836784363,0.5909929871559143,0.8804734349250793,0.06709850579500198,-0.03842299059033394
9.579452753067017,-0.2088293731212616,-0.7377689480781555,0.591145396232605,0.8804224133491516,0.06855839490890503,-0.03874272480607033
9.599716424942017,-0.2088293731212616,-0.7377689480781555,0.591145396232605,0.8804224133491516,0.06855839490890503,-0.03874272480607033
9.619786024093628,-0.20806406438350677,-0.7424432635307312,0.5880162715911865,0.880759060382843,0.0648428276181221,-0.038742419332265854
9.639894723892212,-0.20832036435604095,-0.7394347190856934,0.5893969535827637,0.8815998435020447,0.0652482807636261,-0.0394539050757885
9.660096406936646,-0.20832036435604095,-0.7394347190856934,0.5893969535827637,0.8815998435020447,0.0652482807636261,-0.0394539050757885
9.680074453353882,-0.21011726558208466,-0.7357590794563293,0.5917421579360962,0.8814124464988708,0.06955303996801376,-0.0397370271384716
9.700167179107666,-0.21011726558208466,-0.7357590794563293,0.5917421579360962,0.8814124464988708,0.06955303996801376,-0.0397370271384716
9.72022819519043,-0.20843639969825745,-0.7383519411087036,0.5898568630218506,0.8809540271759033,0.06819622963666916,-0.039418626576662064
9.740277528762817,-0.20843639969825745,-0.7383519411087036,0.5898568630218506,0.8809540271759033,0.06819622963666916,-0.039418626576662064
9.760538101196289,-0.20805494487285614,-0.740945041179657,0.5884676575660706,0.8815194964408875,0.06507936120033264,-0.03937053307890892
9.780513048171997,-0.2086620330810547,-0.7394212484359741,0.5882155895233154,0.8820487260818481,0.0667363777756691,-0.04000788554549217
9.800589561462402,-0.2086620330810547,-0.7394212484359741,0.5882155895233154,0.8820487260818481,0.0667363777756691,-0.04000788554549217
9.82067322731018,-0.2084895819425583,-0.7378110289573669,0.5886225700378418,0.8819088339805603,0.06824372708797455,-0.04017689451575279
9.840752601623535,-0.2084895819425583,-0.7378110289573669,0.5886225700378418,0.8819088339805603,0.06824372708797455,-0.04017689451575279
9.860834836959839,-0.20809222757816315,-0.7358571887016296,0.5907121300697327,0.881809413433075,0.06850801408290863,-0.04017238691449165
9.880868673324585,-0.20788827538490295,-0.7387898564338684,0.5879882574081421,0.8821225166320801,0.06721454858779907,-0.040380943566560745
9.900951385498047,-0.20788827538490295,-0.7387898564338684,0.5879882574081421,0.8821225166320801,0.06721454858779907,-0.040380943566560745
9.921026945114136,-0.2078925520181656,-0.73800128698349,0.588067889213562,0.8826916217803955,0.06731336563825607,-0.040965382009744644
9.94109320640564,-0.2078925520181656,-0.73800128698349,0.588067889213562,0.8826916217803955,0.06731336563825607,-0.040965382009744644
9.961161851882935,-0.20818623900413513,-0.7375300526618958,0.587750256061554,0.8830249905586243,0.06741845607757568,-0.0412752740085125
9.981231927871704,-0.20818623900413513,-0.7375300526618958,0.587750256061554,0.8830249905586243,0.06741845607757568,-0.0412752740085125
10.001383781433105,-0.20853517949581146,-0.7374452948570251,0.5881150364875793,0.8831592202186584,0.06750767678022385,-0.04139231517910957
10.021456480026245,-0.20849445462226868,-0.73880535364151,0.5872088670730591,0.8831882476806641,0.06724470108747482,-0.0414314828813076
10.041544437408447,-0.20849445462226868,-0.73880535364151,0.5872088670730591,0.8831882476806641,0.06724470108747482,-0.0414314828813076
10.061596870422363,-0.20867522060871124,-0.7384552955627441,0.5872752070426941,0.8833693861961365,0.06642302125692368,-0.04130778834223747
10.081663846969604,-0.20867522060871124,-0.7384552955627441,0.5872752070426941,0.8833693861961365,0.06642302125692368,-0.04130778834223747
10.101739883422852,-0.2092965692281723,-0.7361289858818054,0.588199257850647,0.8833258748054504,0.06857345253229141,-0.041629817336797714
10.121816635131836,-0.2092965692281723,-0.7361289858818054,0.588199257850647,0.8833258748054504,0.06857345253229141,-0.041629817336797714
10.141978025436401,-0.20934750139713287,-0.736264169216156,0.5882577896118164,0.8831835985183716,0.06811799854040146,-0.04152236506342888
10.162043809890747,-0.20948149263858795,-0.7366719841957092,0.588080108165741,0.8831622004508972,0.06736072152853012,-0.04147117957472801
10.182099103927612,-0.20948149263858795,-0.7366719841957092,0.588080108165741,0.8831622004508972,0.06736072152853012,-0.04147117957472801
10.202151536941528,-0.20943552255630493,-0.7369949221611023,0.5868640542030334,0.8831515908241272,0.06786870211362839,-0.04171609506011009
10.2222318649292,-0.20943552255630493,-0.7369949221611023,0.5868640542030334,0.8831515908241272,0.06786870211362839,-0.04171609506011009
10.242296695709229,-0.20890173316001892,-0.7367527484893799,0.5870276093482971,0.8834173679351807,0.06701256334781647,-0.04165448620915413
10.262350797653198,-0.20890173316001892,-0.7367527484893799,0.5870276093482971,0.8834173679351807,0.06701256334781647,-0.04165448620915413
10.282461404800415,-0.21008846163749695,-0.736781656742096,0.5877573490142822,0.8834691643714905,0.06694604456424713,-0.04159094765782356
10.302510023117065,-0.2102305293083191,-0.736289918422699,0.5871133804321289,0.8835291862487793,0.06752271205186844,-0.0419205017387867
10.322588682174683,-0.2102305293083191,-0.736289918422699,0.5871133804321289,0.8835291862487793,0.06752271205186844,-0.0419205017387867
10.342656135559082,-0.2097141295671463,-0.7369623780250549,0.5864192247390747,0.8835338950157166,0.06766784936189651,-0.04181649163365364
10.362772703170776,-0.2097141295671463,-0.7369623780250549,0.5864192247390747,0.8835338950157166,0.06766784936189651,-0.04181649163365364
10.382881879806519,-0.2083127647638321,-0.7429285645484924,0.5825217366218567,0.8836427330970764,0.0647110790014267,-0.041620995849370956
10.402914047241211,-0.20860439538955688,-0.7370309233665466,0.585692822933197,0.8839194178581238,0.06704851984977722,-0.04190026596188545
10.422996759414673,-0.20860439538955688,-0.7370309233665466,0.585692822933197,0.8839194178581238,0.06704851984977722,-0.04190026596188545
10.443068504333496,-0.21010321378707886,-0.734664261341095,0.5869595408439636,0.883637011051178,0.0685969814658165,-0.041983332484960556
10.463244915008545,-0.21010321378707886,-0.734664261341095,0.5869595408439636,0.883637011051178,0.0685969814658165,-0.041983332484960556
10.483250856399536,-0.2086666226387024,-0.735809862613678,0.5866296887397766,0.8833329081535339,0.06834321469068527,-0.041827891021966934
10.503318309783936,-0.2086666226387024,-0.735809862613678,0.5866296887397766,0.8833329081535339,0.06834321469068527,-0.041827891021966934
10.523382902145386,-0.4307136535644531,-1.0067566633224487,0.5936480164527893,0.8099957704544067,-0.03199351578950882,-0.12269707024097443
10.543448209762573,-0.4171215891838074,-1.0088293552398682,0.5859070420265198,0.7972917556762695,-0.05007956922054291,-0.15307043492794037
10.563592195510864,-0.4171215891838074,-1.0088293552398682,0.5859070420265198,0.7972917556762695,-0.05007956922054291,-0.15307043492794037
10.583718299865723,-0.4212373197078705,-0.9964966773986816,0.5898025035858154,0.7995591163635254,-0.047044411301612854,-0.15955357253551483
10.603731393814087,-0.4212373197078705,-0.9964966773986816,0.5898025035858154,0.7995591163635254,-0.047044411301612854,-0.15955357253551483
10.623807907104492,-0.4197278618812561,-0.9914369583129883,0.5920412540435791,0.7996490597724915,-0.0426943302154541,-0.16081100702285767
10.643851280212402,-0.4197278618812561,-0.9914369583129883,0.5920412540435791,0.7996490597724915,-0.0426943302154541,-0.16081100702285767
10.663959264755249,-0.41844654083251953,-0.9878724217414856,0.5947845578193665,0.7998077273368835,-0.040442727506160736,-0.1617533564567566
10.684045314788818,-0.4157031178474426,-0.982573390007019,0.5999653935432434,0.7997063398361206,-0.03630905598402023,-0.1624661087989807
10.704115152359009,-0.4157031178474426,-0.982573390007019,0.5999653935432434,0.7997063398361206,-0.03630905598402023,-0.1624661087989807
10.724184513092041,-0.4128575921058655,-0.9806377291679382,0.6022012233734131,0.7997515201568604,-0.03388071805238724,-0.16260643303394318
10.74425482749939,-0.4128575921058655,-0.9806377291679382,0.6022012233734131,0.7997515201568604,-0.03388071805238724,-0.16260643303394318
10.764386653900146,-0.41236305236816406,-0.9792733788490295,0.6043731570243835,0.7995650172233582,-0.03203824162483215,-0.16287824511528015
10.785079956054688,-0.4097368121147156,-0.9757024645805359,0.6078614592552185,0.7992209792137146,-0.02856426127254963,-0.1635555475950241
10.805126428604126,-0.4097368121147156,-0.9757024645805359,0.6078614592552185,0.7992209792137146,-0.02856426127254963,-0.1635555475950241
10.825200319290161,-0.40515559911727905,-0.969542920589447,0.6125879883766174,0.7987048029899597,-0.02180051989853382,-0.164212167263031
10.845263719558716,-0.40515559911727905,-0.969542920589447,0.6125879883766174,0.7987048029899597,-0.02180051989853382,-0.164212167263031
10.865334272384644,-0.40113329887390137,-0.9640147089958191,0.6171675324440002,0.7981319427490234,-0.0162204597145319,-0.16447244584560394
10.885414123535156,-0.40113329887390137,-0.9640147089958191,0.6171675324440002,0.7981319427490234,-0.0162204597145319,-0.16447244584560394
10.905512571334839,-0.3938277065753937,-0.9571787714958191,0.6227905750274658,0.7976956963539124,-0.008024508133530617,-0.1650758683681488
10.925559043884277,-0.39028578996658325,-0.9499050378799438,0.6290875673294067,0.7969167828559875,0.00045154057443141937,-0.165096715092659
10.945647239685059,-0.39028578996658325,-0.9499050378799438,0.6290875673294067,0.7969167828559875,0.00045154057443141937,-0.165096715092659
10.965711116790771,-0.3841264843940735,-0.9441917538642883,0.6344968676567078,0.7965006232261658,0.005909932777285576,-0.16600827872753143
10.985799312591553,-0.3841264843940735,-0.9441917538642883,0.6344968676567078,0.7965006232261658,0.005909932777285576,-0.16600827872753143
11.005858659744263,-0.3753495216369629,-0.9304486513137817,0.6432958245277405,0.7956618666648865,0.01768322102725506,-0.1668432205915451
11.025959730148315,-0.3753495216369629,-0.9304486513137817,0.6432958245277405,0.7956618666648865,0.01768322102725506,-0.1668432205915451
11.046034336090088,-0.36588844656944275,-0.9172521233558655,0.6540875434875488,0.7942392230033875,0.028693629428744316,-0.16754800081253052
11.066094636917114,-0.34702539443969727,-0.9095475077629089,0.6575221419334412,0.79301518201828,0.04381213337182999,-0.16797351837158203
11.086172103881836,-0.34702539443969727,-0.9095475077629089,0.6575221419334412,0.79301518201828,0.04381213337182999,-0.16797351837158203
11.106242895126343,-0.3309214115142822,-0.9035117626190186,0.6619699597358704,0.7923521399497986,0.05661091208457947,-0.16845005750656128
11.12636399269104,-0.3309214115142822,-0.9035117626190186,0.6619699597358704,0.7923521399497986,0.05661091208457947,-0.16845005750656128
11.146407842636108,-0.30967774987220764,-0.9070481061935425,0.6633657813072205,0.7925113439559937,0.06305094063282013,-0.1691616028547287
11.166458129882812,-0.28565356135368347,-0.9229996800422668,0.6601362228393555,0.7936815619468689,0.06106507033109665,-0.17008182406425476
11.186540603637695,-0.28565356135368347,-0.9229996800422668,0.6601362228393555,0.7936815619468689,0.06106507033109665,-0.17008182406425476
11.2066330909729,-0.270119309425354,-0.9376565217971802,0.6561467051506042,0.7956647276878357,0.059676364064216614,-0.17039628326892853
11.226690292358398,-0.270119309425354,-0.9376565217971802,0.6561467051506042,0.7956647276878357,0.059676364064216614,-0.17039628326892853
11.246789455413818,-0.26116687059402466,-0.9502752423286438,0.6564720273017883,0.7990230321884155,0.05203750729560852,-0.17157816886901855
11.266841888427734,-0.26116687059402466,-0.9502752423286438,0.6564720273017883,0.7990230321884155,0.05203750729560852,-0.17157816886901855
11.286921501159668,-0.2603161334991455,-0.9525678753852844,0.6677718758583069,0.8017396926879883,0.04704582691192627,-0.172984316945076
11.306981086730957,-0.261059433221817,-0.9525379538536072,0.6802123188972473,0.8028305768966675,0.045679688453674316,-0.17442567646503448
11.32706069946289,-0.261059433221817,-0.9525379538536072,0.6802123188972473,0.8028305768966675,0.045679688453674316,-0.17442567646503448
11.347135543823242,-0.26284414529800415,-0.9586197137832642,0.6930336356163025,0.8032675385475159,0.03890092670917511,-0.17484340071678162
11.3672034740448,-0.26284414529800415,-0.9586197137832642,0.6930336356163025,0.8032675385475159,0.03890092670917511,-0.17484340071678162
11.38733196258545,-0.26941144466400146,-0.9593328833580017,0.7066887021064758,0.8036426901817322,0.03127028048038483,-0.17497211694717407
11.407387971878052,-0.26941144466400146,-0.9593328833580017,0.7066887021064758,0.8036426901817322,0.03127028048038483,-0.17497211694717407
11.427468538284302,-0.2768774926662445,-0.9624915719032288,0.7152724862098694,0.8037590384483337,0.023398136720061302,-0.17535297572612762
11.447545289993286,-0.28710079193115234,-0.9626976847648621,0.7259686589241028,0.8038020133972168,0.017930349335074425,-0.17551665008068085
11.46760869026184,-0.28710079193115234,-0.9626976847648621,0.7259686589241028,0.8038020133972168,0.017930349335074425,-0.17551665008068085
11.487681150436401,-0.2922167479991913,-0.9681320786476135,0.7267614006996155,0.8036862015724182,0.019611714407801628,-0.1762116700410843
11.507749795913696,-0.2922167479991913,-0.9681320786476135,0.7267614006996155,0.8036862015724182,0.019611714407801628,-0.1762116700410843
11.527826070785522,-0.2875644564628601,-0.9729950428009033,0.7229955792427063,0.8031883835792542,0.03109840862452984,-0.17643079161643982
11.547991037368774,-0.28693369030952454,-0.9658650755882263,0.7333963513374329,0.803752601146698,0.03399825841188431,-0.17575019598007202
11.568081140518188,-0.28693369030952454,-0.9658650755882263,0.7333963513374329,0.803752601146698,0.03399825841188431,-0.17575019598007202
11.588150262832642,-0.2867853045463562,-0.9740179777145386,0.7313966155052185,0.8042148947715759,0.03118855319917202,-0.176025390625
11.608226299285889,-0.2867853045463562,-0.9740179777145386,0.7313966155052185,0.8042148947715759,0.03118855319917202,-0.176025390625
11.628312826156616,-0.28773146867752075,-0.9735811948776245,0.7350404262542725,0.8054618835449219,0.027554800733923912,-0.17580893635749817
11.648377180099487,-0.28773146867752075,-0.9735811948776245,0.7350404262542725,0.8054618835449219,0.027554800733923912,-0.17580893635749817
11.668443441390991,-0.2960229516029358,-0.9761730432510376,0.7350847125053406,0.8078178763389587,0.02289651148021221,-0.17669279873371124
11.688532590866089,-0.30554208159446716,-0.9657819867134094,0.7408233284950256,0.8087075352668762,0.028318068012595177,-0.17816945910453796
11.708610773086548,-0.30554208159446716,-0.9657819867134094,0.7408233284950256,0.8087075352668762,0.028318068012595177,-0.17816945910453796
11.738008975982666,-0.3033300042152405,-0.9738494157791138,0.7326067686080933,0.8078674077987671,0.032172881066799164,-0.17917928099632263
11.758094072341919,-0.3033300042152405,-0.9738494157791138,0.7326067686080933,0.8078674077987671,0.032172881066799164,-0.17917928099632263
11.778156280517578,-0.29332059621810913,-0.9864638447761536,0.7226070761680603,0.8085485100746155,0.03088146261870861,-0.17905038595199585
11.798227310180664,-0.29332059621810913,-0.9864638447761536,0.7226070761680603,0.8085485100746155,0.03088146261870861,-0.17905038595199585
11.81829833984375,-0.300416499376297,-0.9705113768577576,0.7377232313156128,0.8103549480438232,0.03135194629430771,-0.17935232818126678
11.838367938995361,-0.300416499376297,-0.9705113768577576,0.7377232313156128,0.8103549480438232,0.03135194629430771,-0.17935232818126678
11.858445882797241,-0.3072607219219208,-0.9685279726982117,0.7392563223838806,0.810381293296814,0.032896749675273895,-0.18055839836597443
11.878500699996948,-0.30500638484954834,-0.9730954766273499,0.7356227040290833,0.8105055689811707,0.02908230386674404,-0.18046483397483826
11.898590564727783,-0.30500638484954834,-0.9730954766273499,0.7356227040290833,0.8105055689811707,0.02908230386674404,-0.18046483397483826
11.918656349182129,-0.303150475025177,-0.9825381636619568,0.7271784543991089,0.8116089701652527,0.026281727477908134,-0.18095578253269196
11.938743352890015,-0.303150475025177,-0.9825381636619568,0.7271784543991089,0.8116089701652527,0.026281727477908134,-0.18095578253269196
11.958823204040527,-0.3066166043281555,-0.9631389379501343,0.7377216219902039,0.8124254941940308,0.037935368716716766,-0.18254408240318298
11.978899002075195,-0.3066166043281555,-0.9631389379501343,0.7377216219902039,0.8124254941940308,0.037935368716716766,-0.18254408240318298
11.998969078063965,-0.3046071231365204,-0.9671022891998291,0.7353216409683228,0.8109349012374878,0.040292300283908844,-0.1828392893075943
12.019008159637451,-0.29935401678085327,-0.9746019840240479,0.7331497073173523,0.8112300634384155,0.03352322429418564,-0.1818775236606598
12.039203405380249,-0.29935401678085327,-0.9746019840240479,0.7331497073173523,0.8112300634384155,0.03352322429418564,-0.1818775236606598
12.059412479400635,-0.30640533566474915,-0.975309431552887,0.7346997857093811,0.8134258985519409,0.027044890448451042,-0.1818426549434662
12.079408645629883,-0.30640533566474915,-0.975309431552887,0.7346997857093811,0.8134258985519409,0.027044890448451042,-0.1818426549434662
12.099471807479858,-0.31088390946388245,-0.9709574580192566,0.7353401780128479,0.8139306902885437,0.030601946637034416,-0.18317319452762604
12.119585752487183,-0.31088390946388245,-0.9709574580192566,0.7353401780128479,0.8139306902885437,0.030601946637034416,-0.18317319452762604
12.139666080474854,-0.3108261823654175,-0.9669252634048462,0.7359915375709534,0.8130852580070496,0.036020390689373016,-0.1836290806531906
12.159732103347778,-0.30580681562423706,-0.9721502661705017,0.7315449118614197,0.8124807476997375,0.0372818186879158,-0.18348534405231476
12.179816246032715,-0.30580681562423706,-0.9721502661705017,0.7315449118614197,0.8124807476997375,0.0372818186879158,-0.18348534405231476
12.199954986572266,-0.30483171343803406,-0.9721538424491882,0.7333969473838806,0.813368022441864,0.033336661756038666,-0.18327119946479797
12.21997857093811,-0.30483171343803406,-0.9721538424491882,0.7333969473838806,0.813368022441864,0.033336661756038666,-0.18327119946479797
12.24005126953125,-0.3058898448944092,-0.9705180525779724,0.7340052723884583,0.81397944688797,0.03456372767686844,-0.18395811319351196
12.260115623474121,-0.3069301247596741,-0.9688578248023987,0.7347500324249268,0.8142325282096863,0.03383687883615494,-0.18405292928218842
12.280203342437744,-0.3069301247596741,-0.9688578248023987,0.7347500324249268,0.8142325282096863,0.03383687883615494,-0.18405292928218842
12.300270795822144,-0.3085192143917084,-0.9688859581947327,0.7345404624938965,0.8146204948425293,0.03335583955049515,-0.18446491658687592
12.320438146591187,-0.3085192143917084,-0.9688859581947327,0.7345404624938965,0.8146204948425293,0.03335583955049515,-0.18446491658687592
12.340450763702393,-0.3076592683792114,-0.9706218242645264,0.7327256798744202,0.8145764470100403,0.03514588624238968,-0.18469466269016266
12.360592126846313,-0.3076592683792114,-0.9706218242645264,0.7327256798744202,0.8145764470100403,0.03514588624238968,-0.18469466269016266
12.3806893825531,-0.307466059923172,-0.9695165753364563,0.733210563659668,0.8146494030952454,0.03482966870069504,-0.18475554883480072
12.400707483291626,-0.3071568012237549,-0.96907639503479,0.733218252658844,0.8147264719009399,0.03499169647693634,-0.18474149703979492
12.420793056488037,-0.3071568012237549,-0.96907639503479,0.733218252658844,0.8147264719009399,0.03499169647693634,-0.18474149703979492
12.440885543823242,-0.30679652094841003,-0.9693602919578552,0.7327481508255005,0.8148598670959473,0.03530845046043396,-0.18481062352657318
12.460983037948608,-0.30679652094841003,-0.9693602919578552,0.7327481508255005,0.8148598670959473,0.03530845046043396,-0.18481062352657318
12.481091022491455,-0.30699148774147034,-0.9710097908973694,0.7320667505264282,0.8150585293769836,0.03469054400920868,-0.1849825382232666
12.501127481460571,-0.30699148774147034,-0.9710097908973694,0.7320667505264282,0.8150585293769836,0.03469054400920868,-0.1849825382232666
12.521270036697388,-0.30628538131713867,-0.9702642560005188,0.7320172190666199,0.8152162432670593,0.03480111062526703,-0.18497978150844574
12.541268110275269,-0.3066248297691345,-0.9693585634231567,0.7332875728607178,0.8152644634246826,0.03521650284528732,-0.1851748526096344
12.561355113983154,-0.3066248297691345,-0.9693585634231567,0.7332875728607178,0.8152644634246826,0.03521650284528732,-0.1851748526096344
12.58142614364624,-0.30720236897468567,-0.9682748317718506,0.7335208058357239,0.8152981400489807,0.035114385187625885,-0.18517571687698364
12.601511240005493,-0.30720236897468567,-0.9682748317718506,0.7335208058357239,0.8152981400489807,0.035114385187625885,-0.18517571687698364
12.621692180633545,-0.3067970275878906,-0.9694330096244812,0.7327259182929993,0.8154429793357849,0.034749992191791534,-0.18535703420639038
12.642112016677856,-0.3072207272052765,-0.9695727229118347,0.7322798371315002,0.8156372904777527,0.034867867827415466,-0.18540558218955994
12.662207841873169,-0.3072207272052765,-0.9695727229118347,0.7322798371315002,0.8156372904777527,0.034867867827415466,-0.18540558218955994
12.682307720184326,-0.3068588078022003,-0.9697003960609436,0.7316665053367615,0.8156761527061462,0.03520718961954117,-0.1855333298444748
12.702404499053955,-0.3068588078022003,-0.9697003960609436,0.7316665053367615,0.8156761527061462,0.03520718961954117,-0.1855333298444748
12.7224760055542,-0.3063066303730011,-0.9693897366523743,0.7313634753227234,0.8157297372817993,0.035173431038856506,-0.18548516929149628
12.742545127868652,-0.3063066303730011,-0.9693897366523743,0.7313634753227234,0.8157297372817993,0.035173431038856506,-0.18548516929149628
12.762619972229004,-0.30610591173171997,-0.9715474843978882,0.729949951171875,0.8157311081886292,0.03447426110506058,-0.18547281622886658
12.782692432403564,-0.30598926544189453,-0.9703293442726135,0.7305439710617065,0.8160879015922546,0.03443662077188492,-0.1857510358095169
12.802783012390137,-0.30598926544189453,-0.9703293442726135,0.7305439710617065,0.8160879015922546,0.03443662077188492,-0.1857510358095169
12.822863340377808,-0.30643007159233093,-0.9690896272659302,0.7313288450241089,0.8160718679428101,0.03589693456888199,-0.1859007179737091
12.842936277389526,-0.30643007159233093,-0.9690896272659302,0.7313288450241089,0.8160718679428101,0.03589693456888199,-0.1859007179737091
12.863027095794678,-0.3066575527191162,-0.9687066674232483,0.7317816019058228,0.8159911036491394,0.035747408866882324,-0.18569600582122803
12.883142232894897,-0.3066575527191162,-0.9687066674232483,0.7317816019058228,0.8159911036491394,0.035747408866882324,-0.18569600582122803
12.903225183486938,-0.30641597509384155,-0.9696040749549866,0.7312476634979248,0.8160623908042908,0.03483247011899948,-0.18564169108867645
12.92325210571289,-0.3065067529678345,-0.969260573387146,0.7309865951538086,0.8161913752555847,0.03503337502479553,-0.1857869029045105
12.943338394165039,-0.3065067529678345,-0.969260573387146,0.7309865951538086,0.8161913752555847,0.03503337502479553,-0.1857869029045105
12.963410377502441,-0.30660977959632874,-0.9681547284126282,0.7316468358039856,0.816105842590332,0.03597100079059601,-0.1860518902540207
12.983483791351318,-0.30660977959632874,-0.9681547284126282,0.7316468358039856,0.816105842590332,0.03597100079059601,-0.1860518902540207
13.003556489944458,-0.3065720200538635,-0.9687119126319885,0.7309886813163757,0.8161975741386414,0.03521331399679184,-0.18593919277191162
13.023629426956177,-0.3065720200538635,-0.9687119126319885,0.7309886813163757,0.8161975741386414,0.03521331399679184,-0.18593919277191162
13.043705224990845,-0.30668962001800537,-0.9689480662345886,0.7306786179542542,0.8162590861320496,0.03526601195335388,-0.18592903017997742
13.06375789642334,-0.30737271904945374,-0.9685073494911194,0.7309778332710266,0.8162837624549866,0.03492351621389389,-0.18601323664188385
13.08383822441101,-0.30737271904945374,-0.9685073494911194,0.7309778332710266,0.8162837624549866,0.03492351621389389,-0.18601323664188385
13.103909254074097,-0.3094087243080139,-0.9675440788269043,0.7329655289649963,0.8164728879928589,0.032334186136722565,-0.18610042333602905
13.123987913131714,-0.3094087243080139,-0.9675440788269043,0.7329655289649963,0.8164728879928589,0.032334186136722565,-0.18610042333602905
13.144062995910645,-0.3083896040916443,-0.9703146815299988,0.7303130030632019,0.8162973523139954,0.033959418535232544,-0.18622270226478577
13.164112329483032,-0.3087668716907501,-0.9687258005142212,0.7305290102958679,0.8165231943130493,0.03414206951856613,-0.18641239404678345
13.184203147888184,-0.3087668716907501,-0.9687258005142212,0.7305290102958679,0.8165231943130493,0.03414206951856613,-0.18641239404678345
13.204278945922852,-0.30908602476119995,-0.967370867729187,0.7310969829559326,0.816523015499115,0.035261765122413635,-0.1864086389541626
13.224363327026367,-0.30908602476119995,-0.967370867729187,0.7310969829559326,0.816523015499115,0.035261765122413635,-0.1864086389541626
13.244434595108032,-0.3068300187587738,-0.9693196415901184,0.7294845581054688,0.816294252872467,0.03665166348218918,-0.18633845448493958
13.264563798904419,-0.3068300187587738,-0.9693196415901184,0.7294845581054688,0.816294252872467,0.03665166348218918,-0.18633845448493958
13.284595727920532,-0.30826976895332336,-0.9657824635505676,0.7326872944831848,0.8162626624107361,0.036639586091041565,-0.1862238496541977
13.3046555519104,-0.3078252673149109,-0.9678646922111511,0.7313761115074158,0.8162640929222107,0.03577067703008652,-0.18615120649337769
13.324753284454346,-0.3078252673149109,-0.9678646922111511,0.7313761115074158,0.8162640929222107,0.03577067703008652,-0.18615120649337769
13.344830989837646,-0.3077947795391083,-0.9682851433753967,0.7309736609458923,0.8164470195770264,0.034907542169094086,-0.18622052669525146
13.3649160861969,-0.3077947795391083,-0.9682851433753967,0.7309736609458923,0.8164470195770264,0.034907542169094086,-0.18622052669525146
13.384971380233765,-0.30695265531539917,-0.9695671200752258,0.729707658290863,0.81654292345047,0.034864671528339386,-0.1862165927886963
13.405061483383179,-0.30695265531539917,-0.9695671200752258,0.729707658290863,0.81654292345047,0.034864671528339386,-0.1862165927886963
13.425204992294312,-0.30693119764328003,-0.9687978029251099,0.7301074266433716,0.8166019916534424,0.035310328006744385,-0.1864703893661499
13.445254564285278,-0.30721190571784973,-0.9682431221008301,0.730583131313324,0.8165872097015381,0.03532727062702179,-0.1863700896501541
13.465331554412842,-0.30721190571784973,-0.9682431221008301,0.730583131313324,0.8165872097015381,0.03532727062702179,-0.1863700896501541
13.485390663146973,-0.3072943091392517,-0.9680789113044739,0.7305631041526794,0.8165611028671265,0.03538215905427933,-0.18630613386631012
13.50546669960022,-0.3072943091392517,-0.9680789113044739,0.7305631041526794,0.8165611028671265,0.03538215905427933,-0.18630613386631012
13.525537252426147,-0.30716198682785034,-0.9686902761459351,0.7303710579872131,0.816581666469574,0.03523119539022446,-0.18628868460655212
13.5458664894104,-0.30712297558784485,-0.968168318271637,0.7304268479347229,0.8165463805198669,0.03551261126995087,-0.18645024299621582
13.565951585769653,-0.30712297558784485,-0.968168318271637,0.7304268479347229,0.8165463805198669,0.03551261126995087,-0.18645024299621582
13.586019277572632,-0.3069708049297333,-0.9688923358917236,0.7302218079566956,0.8166516423225403,0.035186439752578735,-0.18644925951957703
13.606093406677246,-0.3069708049297333,-0.9688923358917236,0.7302218079566956,0.8166516423225403,0.035186439752578735,-0.18644925951957703
13.62617540359497,-0.30739718675613403,-0.9685423970222473,0.7302640080451965,0.8166806101799011,0.03526163846254349,-0.18629932403564453
13.646233081817627,-0.30739718675613403,-0.9685423970222473,0.7302640080451965,0.8166806101799011,0.03526163846254349,-0.18629932403564453
13.666310548782349,-0.30719810724258423,-0.9682623744010925,0.7305545210838318,0.8166198134422302,0.03534182906150818,-0.18639594316482544
13.686376333236694,-0.3075198233127594,-0.9681469798088074,0.7306712865829468,0.8166506886482239,0.0356045663356781,-0.1864354908466339
13.706460237503052,-0.3075198233127594,-0.9681469798088074,0.7306712865829468,0.8166506886482239,0.0356045663356781,-0.1864354908466339
13.726531744003296,-0.30719971656799316,-0.9681777358055115,0.7303421497344971,0.8166402578353882,0.03555360436439514,-0.18655671179294586
13.74660587310791,-0.30719971656799316,-0.9681777358055115,0.7303421497344971,0.8166402578353882,0.03555360436439514,-0.18655671179294586
13.766673564910889,-0.3072934150695801,-0.9688071012496948,0.7303951382637024,0.8167330622673035,0.03506654500961304,-0.1863204836845398
13.786753416061401,-0.3072934150695801,-0.9688071012496948,0.7303951382637024,0.8167330622673035,0.03506654500961304,-0.1863204836845398
13.806816101074219,-0.30699506402015686,-0.9687888026237488,0.7300059795379639,0.8167340755462646,0.03519296646118164,-0.1864856779575348
13.826881885528564,-0.3074932098388672,-0.968109130859375,0.7305545210838318,0.8166961073875427,0.035573042929172516,-0.18647657334804535
13.846954345703125,-0.3074932098388672,-0.968109130859375,0.7305545210838318,0.8166961073875427,0.035573042929172516,-0.18647657334804535
13.867039442062378,-0.30733704566955566,-0.9683774709701538,0.7307470440864563,0.8166813850402832,0.03519473224878311,-0.18634316325187683
13.887106657028198,-0.30733704566955566,-0.9683774709701538,0.7307470440864563,0.8166813850402832,0.03519473224878311,-0.18634316325187683
13.907182216644287,-0.3073178231716156,-0.9684426784515381,0.7307800054550171,0.8166890740394592,0.03519197553396225,-0.18633130192756653
13.92749571800232,-0.30728399753570557,-0.9686542749404907,0.7302054762840271,0.8166930675506592,0.03544437140226364,-0.18646231293678284
13.94762659072876,-0.30728399753570557,-0.9686542749404907,0.7302054762840271,0.8166930675506592,0.03544437140226364,-0.18646231293678284
13.96766209602356,-0.3073139786720276,-0.9678328037261963,0.7306202054023743,0.8165725469589233,0.03545445203781128,-0.18643176555633545
13.987735509872437,-0.3073139786720276,-0.9678328037261963,0.7306202054023743,0.8165725469589233,0.03545445203781128,-0.18643176555633545
14.007813692092896,-0.30706343054771423,-0.9687507748603821,0.7300689816474915,0.8166213631629944,0.03521367907524109,-0.18638178706169128
14.027921438217163,-0.30706343054771423,-0.9687507748603821,0.7300689816474915,0.8166213631629944,0.03521367907524109,-0.18638178706169128
14.047978401184082,-0.3071708679199219,-0.9687382578849792,0.7301381230354309,0.8167276978492737,0.035222530364990234,-0.18642565608024597
14.068020820617676,-0.3071713149547577,-0.9687507152557373,0.7301226258277893,0.8166574835777283,0.03519432246685028,-0.1863609105348587
14.088106393814087,-0.3071713149547577,-0.9687507152557373,0.7301226258277893,0.8166574835777283,0.03519432246685028,-0.1863609105348587
14.10817003250122,-0.30723750591278076,-0.9682660698890686,0.7303093671798706,0.8166953921318054,0.0353480726480484,-0.18646635115146637
14.128245830535889,-0.30723750591278076,-0.9682660698890686,0.7303093671798706,0.8166953921318054,0.0353480726480484,-0.18646635115146637
14.148346424102783,-0.307331383228302,-0.9678001403808594,0.7306488156318665,0.8165806531906128,0.035470567643642426,-0.18642406165599823
14.168444633483887,-0.307331383228302,-0.9678001403808594,0.7306488156318665,0.8165806531906128,0.035470567643642426,-0.18642406165599823
14.188443899154663,-0.3073199391365051,-0.9685986638069153,0.7302005290985107,0.8165958523750305,0.03544348478317261,-0.18637317419052124
14.20849061012268,-0.30715376138687134,-0.9684281349182129,0.7303630709648132,0.8166053295135498,0.03512822836637497,-0.1863250732421875
14.228582859039307,-0.30715376138687134,-0.9684281349182129,0.7303630709648132,0.8166053295135498,0.03512822836637497,-0.1863250732421875
14.248650789260864,-0.30718013644218445,-0.968768298625946,0.7301876544952393,0.8166360855102539,0.035213977098464966,-0.1863296777009964
14.268720149993896,-0.30718013644218445,-0.968768298625946,0.7301876544952393,0.8166360855102539,0.035213977098464966,-0.1863296777009964
14.288794755935669,-0.3071865141391754,-0.9688205122947693,0.7302196621894836,0.8166154623031616,0.03537166118621826,-0.1864244043827057
14.308866024017334,-0.3071865141391754,-0.9688205122947693,0.7302196621894836,0.8166154623031616,0.03537166118621826,-0.1864244043827057
14.32898998260498,-0.3073895275592804,-0.9682542681694031,0.7304059863090515,0.8166159987449646,0.035175517201423645,-0.18624861538410187
14.349005937576294,-0.30697357654571533,-0.9681629538536072,0.7306786179542542,0.8165745139122009,0.035216137766838074,-0.18642622232437134
14.36908769607544,-0.30697357654571533,-0.9681629538536072,0.7306786179542542,0.8165745139122009,0.035216137766838074,-0.18642622232437134
14.389199256896973,-0.3074628412723541,-0.9682868123054504,0.7305762767791748,0.8166032433509827,0.03538791835308075,-0.18631047010421753
14.409242868423462,-0.3074628412723541,-0.9682868123054504,0.7305762767791748,0.8166032433509827,0.03538791835308075,-0.18631047010421753
14.429308891296387,-0.30732595920562744,-0.968424379825592,0.7306034564971924,0.8165876269340515,0.03516869992017746,-0.18624773621559143
14.4493567943573,-0.3070163428783417,-0.9685249924659729,0.7303421497344971,0.8165860772132874,0.03529077768325806,-0.18644532561302185
14.469443321228027,-0.3070163428783417,-0.9685249924659729,0.7303421497344971,0.8165860772132874,0.03529077768325806,-0.18644532561302185
14.489511489868164,-0.30733391642570496,-0.9678520560264587,0.7306594252586365,0.8165741562843323,0.035469770431518555,-0.1864180564880371
14.509609460830688,-0.30733391642570496,-0.9678520560264587,0.7306594252586365,0.8165741562843323,0.035469770431518555,-0.1864180564880371
