liuyurong129/humanoid-gym/humanoid/data/target_q_20250521-032621.csv
timestamp,joint_1,joint_2,joint_3,joint_4,joint_5,joint_6
5.650520324707031e-05,0.0,0.0,0.0,0.0,0.0,0.0
0.020129919052124023,0.0,0.0,0.0,0.0,0.0,0.0
0.04020953178405762,0.0,0.0,0.0,0.0,0.0,0.0
0.06027531623840332,0.0,0.0,0.0,0.0,0.0,0.0
0.08034062385559082,0.0,0.0,0.0,0.0,0.0,0.0
0.1004323959350586,-0.5805472135543823,-1.4861626625061035,-0.06558267772197723,0.8229389190673828,0.08360423147678375,0.6565251350402832
0.1213846206665039,-0.5472196340560913,-0.8607815504074097,-0.087,0.7652119398117065,0.016618266701698303,0.6760627031326294
0.14150786399841309,-0.5472196340560913,-0.8607815504074097,-0.087,0.7652119398117065,0.016618266701698303,0.6760627031326294
0.16156625747680664,-0.5781132578849792,-1.013146162033081,-0.087,0.7990525960922241,0.01631321758031845,0.6957084536552429
0.18165969848632812,-0.5781132578849792,-1.013146162033081,-0.087,0.7990525960922241,0.01631321758031845,0.6957084536552429
0.20174694061279297,-0.5761175155639648,-0.9473947286605835,-0.087,0.7924330830574036,0.011763423681259155,0.6923769116401672
0.2218163013458252,-0.5761175155639648,-0.9473947286605835,-0.087,0.7924330830574036,0.011763423681259155,0.6923769116401672
0.2418994903564453,-0.5858446955680847,-0.9517982006072998,-0.087,0.7914446592330933,0.0038561373949050903,0.6934173107147217
0.26205015182495117,-0.58546382188797,-0.9433607459068298,-0.087,0.7929401397705078,0.00583590567111969,0.6920568346977234
0.28214550018310547,-0.58546382188797,-0.9433607459068298,-0.087,0.7929401397705078,0.00583590567111969,0.6920568346977234
0.30220508575439453,-0.5808873772621155,-0.9502168297767639,-0.087,0.7944181561470032,0.01081809401512146,0.6918224692344666
0.3222987651824951,-0.5808873772621155,-0.9502168297767639,-0.087,0.7944181561470032,0.01081809401512146,0.6918224692344666
0.3423638343811035,-0.5785284638404846,-0.9532236456871033,-0.087,0.793480396270752,0.011569671332836151,0.6916752457618713
0.3624536991119385,-0.5785284638404846,-0.9532236456871033,-0.087,0.793480396270752,0.011569671332836151,0.6916752457618713
0.38252878189086914,-0.5729697346687317,-0.946025550365448,-0.087,0.792963445186615,0.012958034873008728,0.6904017329216003
0.4025845527648926,-0.5792016386985779,-0.9521567821502686,-0.087,0.7929127812385559,0.011032305657863617,0.6913155913352966
0.42267394065856934,-0.5792016386985779,-0.9521567821502686,-0.087,0.7929127812385559,0.011032305657863617,0.6913155913352966
0.4427304267883301,-0.5766096115112305,-0.95120769739151,-0.087,0.7938263416290283,0.014153264462947845,0.6910490393638611
0.46282029151916504,-0.5766096115112305,-0.95120769739151,-0.087,0.7938263416290283,0.014153264462947845,0.6910490393638611
0.48288917541503906,-0.5745155215263367,-0.9457427859306335,-0.087,0.7926650047302246,0.013133041560649872,0.6902026534080505
0.5029697418212891,-0.5745155215263367,-0.9457427859306335,-0.087,0.7926650047302246,0.013133041560649872,0.6902026534080505
0.5230529308319092,-0.575290322303772,-0.9486022591590881,-0.087,0.7926671504974365,0.014046825468540192,0.6907212138175964
0.5432374477386475,-0.575082004070282,-0.9468078017234802,-0.087,0.7927607297897339,0.014518819749355316,0.6907259225845337
0.5633265972137451,-0.575082004070282,-0.9468078017234802,-0.087,0.7927607297897339,0.014518819749355316,0.6907259225845337
0.583380937576294,-0.5729628205299377,-0.9490047693252563,-0.087,0.7938504219055176,0.017209626734256744,0.6906269192695618
0.6034681797027588,-0.5729628205299377,-0.9490047693252563,-0.087,0.7938504219055176,0.017209626734256744,0.6906269192695618
0.6235485076904297,-0.5678890943527222,-0.9547720551490784,-0.087,0.7937527894973755,0.020270638167858124,0.6896783709526062
0.6436221599578857,-0.5678890943527222,-0.9547720551490784,-0.087,0.7937527894973755,0.020270638167858124,0.6896783709526062
0.6636974811553955,-0.5638523101806641,-0.9500442147254944,-0.087,0.7940402030944824,0.02139297127723694,0.6890486478805542
0.6837577819824219,-0.5654357075691223,-0.9531040191650391,-0.087,0.7942728996276855,0.022094592452049255,0.6897998452186584
0.7038533687591553,-0.5654357075691223,-0.9531040191650391,-0.087,0.7942728996276855,0.022094592452049255,0.6897998452186584
0.7239139080047607,-0.5652294158935547,-0.9503878951072693,-0.087,0.7936276793479919,0.021821700036525726,0.6896483898162842
0.7440032958984375,-0.5652294158935547,-0.9503878951072693,-0.087,0.7936276793479919,0.021821700036525726,0.6896483898162842
0.7640984058380127,-0.5666893720626831,-0.9491713643074036,-0.087,0.7927247285842896,0.02051139622926712,0.6893286108970642
0.784193754196167,-0.5666893720626831,-0.9491713643074036,-0.087,0.7927247285842896,0.02051139622926712,0.6893286108970642
0.8042731285095215,-0.5639744997024536,-0.9473938941955566,-0.087,0.7938109636306763,0.023366697132587433,0.6889934539794922
0.824608564376831,-0.5630390644073486,-0.950946033000946,-0.087,0.7932635545730591,0.023925207555294037,0.6892861723899841
0.8447020053863525,-0.5630390644073486,-0.950946033000946,-0.087,0.7932635545730591,0.023925207555294037,0.6892861723899841
0.8647589683532715,-0.561913251876831,-0.9459566473960876,-0.087,0.7932973504066467,0.023904047906398773,0.6887145638465881
0.8848710060119629,-0.561913251876831,-0.9459566473960876,-0.087,0.7932973504066467,0.023904047906398773,0.6887145638465881
0.9049482345581055,-0.5537341237068176,-0.9462351202964783,-0.087,0.794892430305481,0.02922743558883667,0.6876445412635803
0.9250304698944092,-0.5537341237068176,-0.9462351202964783,-0.087,0.794892430305481,0.02922743558883667,0.6876445412635803
0.9451324939727783,-0.5565589666366577,-0.9525049924850464,-0.087,0.7941591143608093,0.028441324830055237,0.6885854601860046
0.9652388095855713,-0.5511552691459656,-0.9441743493080139,-0.087,0.7936961650848389,0.030459515750408173,0.6877191662788391
0.9853284358978271,-0.5511552691459656,-0.9441743493080139,-0.087,0.7936961650848389,0.030459515750408173,0.6877191662788391
1.0053887367248535,-0.5548784136772156,-0.950859010219574,-0.087,0.7938364744186401,0.02996067702770233,0.6879619359970093
1.0254802703857422,-0.5548784136772156,-0.950859010219574,-0.087,0.7938364744186401,0.02996067702770233,0.6879619359970093
1.0455608367919922,-0.549434244632721,-0.945000946521759,-0.087,0.7953499555587769,0.03385722637176514,0.6870563626289368
1.0656421184539795,-0.549434244632721,-0.945000946521759,-0.087,0.7953499555587769,0.03385722637176514,0.6870563626289368
1.0857279300689697,-0.5508989095687866,-0.9568275809288025,-0.087,0.7945171594619751,0.03439432382583618,0.6880439519882202
1.1057806015014648,-0.5484893918037415,-0.9495232701301575,-0.087,0.7946375012397766,0.03484004735946655,0.687513530254364
1.1258659362792969,-0.5484893918037415,-0.9495232701301575,-0.087,0.7946375012397766,0.03484004735946655,0.687513530254364
1.145925760269165,-0.546477198600769,-0.9496222138404846,-0.087,0.7949732542037964,0.03624948114156723,0.6869373321533203
1.1660144329071045,-0.546477198600769,-0.9496222138404846,-0.087,0.7949732542037964,0.03624948114156723,0.6869373321533203
1.1860840320587158,-0.5479974746704102,-0.9487690925598145,-0.087,0.7939988374710083,0.03542041778564453,0.6868355870246887
1.2061717510223389,-0.5479974746704102,-0.9487690925598145,-0.087,0.7939988374710083,0.03542041778564453,0.6868355870246887
1.2262475490570068,-0.5463326573371887,-0.9508745074272156,-0.087,0.7948179244995117,0.037250541150569916,0.6866275668144226
1.2462942600250244,-0.5437209010124207,-0.9478744864463806,-0.087,0.7945594787597656,0.038347773253917694,0.6863657236099243
1.2663743495941162,-0.5437209010124207,-0.9478744864463806,-0.087,0.7945594787597656,0.038347773253917694,0.6863657236099243
1.2864100933074951,-0.5441393852233887,-0.9475157856941223,-0.087,0.7946204543113708,0.03888682276010513,0.6866196990013123
1.3064918518066406,-0.5441393852233887,-0.9475157856941223,-0.087,0.7946204543113708,0.03888682276010513,0.6866196990013123
1.326591968536377,-0.5423448085784912,-0.9498650431632996,-0.087,0.7950516939163208,0.04086132347583771,0.6864440441131592
1.3466947078704834,-0.5423448085784912,-0.9498650431632996,-0.087,0.7950516939163208,0.04086132347583771,0.6864440441131592
1.3667657375335693,-0.5347694158554077,-0.9470933675765991,-0.087,0.7950174808502197,0.04381674528121948,0.6847409605979919
1.386810541152954,-0.5383566617965698,-0.9532129764556885,-0.087,0.79533851146698,0.043422259390354156,0.6858475804328918
1.4068968296051025,-0.5383566617965698,-0.9532129764556885,-0.087,0.79533851146698,0.043422259390354156,0.6858475804328918
1.4269342422485352,-0.5360563397407532,-0.9496105313301086,-0.087,0.7953372597694397,0.04482768476009369,0.6854600310325623
1.4470281600952148,-0.5360563397407532,-0.9496105313301086,-0.087,0.7953372597694397,0.04482768476009369,0.6854600310325623
1.4671180248260498,-0.532164454460144,-0.9493710398674011,-0.087,0.7956938147544861,0.04699224233627319,0.6850107908248901
1.4871842861175537,-0.532164454460144,-0.9493710398674011,-0.087,0.7956938147544861,0.04699224233627319,0.6850107908248901
1.5072782039642334,-0.5308946371078491,-0.9526587128639221,-0.087,0.7959954738616943,0.04853970557451248,0.6853097081184387
1.5273292064666748,-0.5233603119850159,-0.9502598643302917,-0.087,0.7961400747299194,0.05202130973339081,0.6838954091072083
1.5474250316619873,-0.5233603119850159,-0.9502598643302917,-0.087,0.7961400747299194,0.05202130973339081,0.6838954091072083
1.5674781799316406,-0.5243553519248962,-0.9508034586906433,-0.087,0.7966257929801941,0.0522303581237793,0.6844608187675476
1.5875680446624756,-0.5243553519248962,-0.9508034586906433,-0.087,0.7966257929801941,0.0522303581237793,0.6844608187675476
1.6076431274414062,-0.5203101634979248,-0.9495626091957092,-0.087,0.7969474792480469,0.054641082882881165,0.6833859086036682
1.6277191638946533,-0.5203101634979248,-0.9495626091957092,-0.087,0.7969474792480469,0.054641082882881165,0.6833859086036682
1.6477985382080078,-0.5191106200218201,-0.9484646916389465,-0.087,0.7970786094665527,0.05590096116065979,0.6833899617195129
1.6678459644317627,-0.5229513049125671,-0.9507400989532471,-0.087,0.79594886302948,0.05406758934259415,0.6842530369758606
1.6879546642303467,-0.5229513049125671,-0.9507400989532471,-0.087,0.79594886302948,0.05406758934259415,0.6842530369758606
1.7080347537994385,-0.5227160453796387,-0.9438232779502869,-0.087,0.7956268787384033,0.05399931222200394,0.6837942004203796
1.7281053066253662,-0.5227160453796387,-0.9438232779502869,-0.087,0.7956268787384033,0.05399931222200394,0.6837942004203796
1.7482037544250488,-0.5224900245666504,-0.944685161113739,-0.087,0.7955920696258545,0.0547652393579483,0.6832282543182373
1.7682695388793945,-0.5224900245666504,-0.944685161113739,-0.087,0.7955920696258545,0.0547652393579483,0.6832282543182373
1.7883484363555908,-0.5201343894004822,-0.9435028433799744,-0.087,0.7960038185119629,0.05671568214893341,0.6826781630516052
1.8084022998809814,-0.516293466091156,-0.9469351172447205,-0.087,0.7975916862487793,0.06062844395637512,0.6824137568473816
1.8284978866577148,-0.516293466091156,-0.9469351172447205,-0.087,0.7975916862487793,0.06062844395637512,0.6824137568473816
1.8485496044158936,-0.5105223059654236,-0.942981481552124,-0.087,0.7971452474594116,0.06267227977514267,0.6814722418785095
1.8686459064483643,-0.5105223059654236,-0.942981481552124,-0.087,0.7971452474594116,0.06267227977514267,0.6814722418785095
1.888719081878662,-0.5166438817977905,-0.9493857622146606,-0.087,0.7957333922386169,0.060031309723854065,0.6826933026313782
1.9088025093078613,-0.5166438817977905,-0.9493857622146606,-0.087,0.7957333922386169,0.060031309723854065,0.6826933026313782
1.9288771152496338,-0.5145093202590942,-0.9460112452507019,-0.087,0.7955307960510254,0.06063377857208252,0.681251049041748
1.9489243030548096,-0.5138283967971802,-0.9444093108177185,-0.087,0.7962361574172974,0.06256695091724396,0.6820092797279358
1.9690754413604736,-0.5138283967971802,-0.9444093108177185,-0.087,0.7962361574172974,0.06256695091724396,0.6820092797279358
1.9891293048858643,-0.5105375647544861,-0.9477931261062622,-0.087,0.7969708442687988,0.06569746881723404,0.6821962594985962
2.00921368598938,-0.5105375647544861,-0.9477931261062622,-0.087,0.7969708442687988,0.06569746881723404,0.6821962594985962
2.0292906761169434,-0.5014931559562683,-0.9467969536781311,-0.087,0.7978351712226868,0.07044754177331924,0.6810117363929749
2.0493526458740234,-0.5014931559562683,-0.9467969536781311,-0.087,0.7978351712226868,0.07044754177331924,0.6810117363929749
2.0694403648376465,-0.5017326474189758,-0.9503905177116394,-0.087,0.7976707220077515,0.07121147215366364,0.6817521452903748
2.0894882678985596,-0.49707746505737305,-0.9490525722503662,-0.087,0.7971644401550293,0.07351628690958023,0.6807010769844055
2.109581232070923,-0.49707746505737305,-0.9490525722503662,-0.087,0.7971644401550293,0.07351628690958023,0.6807010769844055
2.129701852798462,-0.49531036615371704,-0.951575756072998,-0.087,0.7979559302330017,0.07556360214948654,0.6806245446205139
2.149780035018921,-0.49531036615371704,-0.951575756072998,-0.087,0.7979559302330017,0.07556360214948654,0.6806245446205139
2.1698520183563232,-0.49580681324005127,-0.9505689740180969,-0.087,0.7978544235229492,0.0753374919295311,0.6810614466667175
2.1899585723876953,-0.49580681324005127,-0.9505689740180969,-0.087,0.7978544235229492,0.0753374919295311,0.6810614466667175
2.210038900375366,-0.49533969163894653,-0.9490295648574829,-0.087,0.7980660796165466,0.07622144371271133,0.6809831261634827
2.2300913333892822,-0.4927067160606384,-0.953548014163971,-0.087,0.7982097268104553,0.07866283506155014,0.6803167462348938
2.2501842975616455,-0.4927067160606384,-0.953548014163971,-0.087,0.7982097268104553,0.07866283506155014,0.6803167462348938
2.2702693939208984,-0.49267691373825073,-0.9512022137641907,-0.087,0.7983928918838501,0.07877958565950394,0.6803902983665466
2.290363073348999,-0.49267691373825073,-0.9512022137641907,-0.087,0.7983928918838501,0.07877958565950394,0.6803902983665466
2.3104476928710938,-0.4891664385795593,-0.9519885182380676,-0.087,0.7981061935424805,0.08065014332532883,0.6799357533454895
2.330552816390991,-0.4891664385795593,-0.9519885182380676,-0.087,0.7981061935424805,0.08065014332532883,0.6799357533454895
2.35063099861145,-0.4874979257583618,-0.9550414681434631,-0.087,0.7978065609931946,0.08218683302402496,0.6797557473182678
2.370680809020996,-0.4870414733886719,-0.9497091770172119,-0.087,0.7979675531387329,0.08257335424423218,0.6803104877471924
2.390775203704834,-0.4870414733886719,-0.9497091770172119,-0.087,0.7979675531387329,0.08257335424423218,0.6803104877471924
2.4108214378356934,-0.4805266261100769,-0.9478437304496765,-0.087,0.7986178398132324,0.08579719811677933,0.6790148615837097
2.4309139251708984,-0.4805266261100769,-0.9478437304496765,-0.087,0.7986178398132324,0.08579719811677933,0.6790148615837097
2.4510061740875244,-0.48439735174179077,-0.9519461989402771,-0.087,0.7982478141784668,0.08462908864021301,0.6797804236412048
2.471078872680664,-0.48439735174179077,-0.9519461989402771,-0.087,0.7982478141784668,0.08462908864021301,0.6797804236412048
2.491150140762329,-0.48289209604263306,-0.9472337365150452,-0.087,0.7979124188423157,0.08538500964641571,0.679774284362793
2.5112152099609375,-0.4782223105430603,-0.9450933933258057,-0.087,0.7987766265869141,0.0878368690609932,0.6790303587913513
2.531315326690674,-0.4782223105430603,-0.9450933933258057,-0.087,0.7987766265869141,0.0878368690609932,0.6790303587913513
2.551382541656494,-0.4803529977798462,-0.9456276297569275,-0.087,0.7984974384307861,0.08719499409198761,0.6794479489326477
2.571472406387329,-0.4803529977798462,-0.9456276297569275,-0.087,0.7984974384307861,0.08719499409198761,0.6794479489326477
2.5915567874908447,-0.4769873023033142,-0.9471669793128967,-0.087,0.7997539639472961,0.09062094986438751,0.6784619092941284
2.6116230487823486,-0.4769873023033142,-0.9471669793128967,-0.087,0.7997539639472961,0.09062094986438751,0.6784619092941284
2.631700038909912,-0.47667068243026733,-0.9469484686851501,-0.087,0.7991577386856079,0.09092096984386444,0.6786032319068909
2.65175199508667,-0.4746008515357971,-0.9477072358131409,-0.087,0.799662709236145,0.09278233349323273,0.6785344481468201
2.671865940093994,-0.4746008515357971,-0.9477072358131409,-0.087,0.799662709236145,0.09278233349323273,0.6785344481468201
2.6919283866882324,-0.4695037007331848,-0.9445047378540039,-0.087,0.7998167276382446,0.09525837004184723,0.6780471801757812
2.7120485305786133,-0.4695037007331848,-0.9445047378540039,-0.087,0.7998167276382446,0.09525837004184723,0.6780471801757812
2.732144832611084,-0.47160059213638306,-0.9512407183647156,-0.087,0.7983574867248535,0.09464477002620697,0.6787226796150208
2.7522313594818115,-0.47160059213638306,-0.9512407183647156,-0.087,0.7983574867248535,0.09464477002620697,0.6787226796150208
2.772303581237793,-0.47097301483154297,-0.9424378275871277,-0.087,0.7984048128128052,0.09421409666538239,0.678145706653595
2.792353391647339,-0.46564507484436035,-0.9391748309135437,-0.08563317358493805,0.8007763624191284,0.09831534326076508,0.6773049831390381
2.812450885772705,-0.46564507484436035,-0.9391748309135437,-0.08563317358493805,0.8007763624191284,0.09831534326076508,0.6773049831390381
2.832507848739624,-0.4630817770957947,-0.9433382153511047,-0.07788059115409851,0.8009181022644043,0.10084427893161774,0.6772924065589905
2.8526012897491455,-0.4630817770957947,-0.9433382153511047,-0.07788059115409851,0.8009181022644043,0.10084427893161774,0.6772924065589905
2.8726646900177,-0.4534028172492981,-0.9418935179710388,-0.0698796957731247,0.8006297945976257,0.10494035482406616,0.6758533120155334
2.892765998840332,-0.4534028172492981,-0.9418935179710388,-0.0698796957731247,0.8006297945976257,0.10494035482406616,0.6758533120155334
2.9128403663635254,-0.45684754848480225,-0.9480928778648376,-0.06769637763500214,0.7997614145278931,0.10421866178512573,0.6765317320823669
2.9328839778900146,-0.4603211283683777,-0.9471107125282288,-0.06696948409080505,0.8003636002540588,0.10472290217876434,0.6778721213340759
2.9529783725738525,-0.4603211283683777,-0.9471107125282288,-0.06696948409080505,0.8003636002540588,0.10472290217876434,0.6778721213340759
2.9730379581451416,-0.45965576171875,-0.9425606727600098,-0.0669306218624115,0.7997950911521912,0.10441134870052338,0.6775428056716919
2.9931278228759766,-0.45965576171875,-0.9425606727600098,-0.0669306218624115,0.7997950911521912,0.10441134870052338,0.6775428056716919
3.013192892074585,-0.4584157466888428,-0.9417459964752197,-0.06574150919914246,0.7997539043426514,0.10467740893363953,0.6770532131195068
3.033290147781372,-0.4584157466888428,-0.9417459964752197,-0.06574150919914246,0.7997539043426514,0.10467740893363953,0.6770532131195068
3.053372859954834,-0.45412635803222656,-0.9397376179695129,-0.06093990430235863,0.8008624911308289,0.10713554918766022,0.6759185194969177
3.0734190940856934,-0.4502357840538025,-0.9420791268348694,-0.05364775285124779,0.801054835319519,0.10968858003616333,0.6751901507377625
3.093498945236206,-0.4502357840538025,-0.9420791268348694,-0.05364775285124779,0.801054835319519,0.10968858003616333,0.6751901507377625
3.113560676574707,-0.45021700859069824,-0.9388118982315063,-0.05281445011496544,0.8012032508850098,0.11092661321163177,0.675879180431366
3.133664131164551,-0.45021700859069824,-0.9388118982315063,-0.05281445011496544,0.8012032508850098,0.11092661321163177,0.675879180431366
3.1537420749664307,-0.4503858685493469,-0.9360139966011047,-0.05625684931874275,0.8004873991012573,0.10985006392002106,0.6757665276527405
3.173818588256836,-0.4503858685493469,-0.9360139966011047,-0.05625684931874275,0.8004873991012573,0.10985006392002106,0.6757665276527405
3.193899631500244,-0.44831234216690063,-0.9348957538604736,-0.051280733197927475,0.8013758659362793,0.11216792464256287,0.6751124262809753
3.2139620780944824,-0.4465446472167969,-0.9360031485557556,-0.04665819928050041,0.8015115261077881,0.11349897086620331,0.6748436689376831
3.234050750732422,-0.4465446472167969,-0.9360031485557556,-0.04665819928050041,0.8015115261077881,0.11349897086620331,0.6748436689376831
3.2541146278381348,-0.4457700252532959,-0.9341698288917542,-0.04460148885846138,0.8017093539237976,0.11470840871334076,0.6756821274757385
3.274203062057495,-0.4457700252532959,-0.9341698288917542,-0.04460148885846138,0.8017093539237976,0.11470840871334076,0.6756821274757385
3.294286012649536,-0.44259965419769287,-0.9274060130119324,-0.04590354487299919,0.8017597198486328,0.1154388040304184,0.6745914816856384
3.314359664916992,-0.44259965419769287,-0.9274060130119324,-0.04590354487299919,0.8017597198486328,0.1154388040304184,0.6745914816856384
3.3344411849975586,-0.4399968385696411,-0.934715986251831,-0.035556044429540634,0.8029723763465881,0.11916248500347137,0.6740546822547913
3.354503870010376,-0.4387785792350769,-0.9326112866401672,-0.038562726229429245,0.8014398217201233,0.11888392269611359,0.6737993955612183
3.374606132507324,-0.4387785792350769,-0.9326112866401672,-0.038562726229429245,0.8014398217201233,0.11888392269611359,0.6737993955612183
3.3946611881256104,-0.4385395646095276,-0.9360365271568298,-0.029905762523412704,0.8017326593399048,0.12068219482898712,0.6740915179252625
3.414750337600708,-0.4385395646095276,-0.9360365271568298,-0.029905762523412704,0.8017326593399048,0.12068219482898712,0.6740915179252625
3.4348316192626953,-0.44206923246383667,-0.933953583240509,-0.03521556779742241,0.8008236885070801,0.11933092772960663,0.6752946972846985
3.454911708831787,-0.44206923246383667,-0.933953583240509,-0.03521556779742241,0.8008236885070801,0.11933092772960663,0.6752946972846985
3.474989891052246,-0.4425411820411682,-0.933498203754425,-0.03459049388766289,0.80042564868927,0.11890654265880585,0.6746179461479187
3.495046615600586,-0.44079864025115967,-0.931374728679657,-0.03104933723807335,0.8012881875038147,0.12016193568706512,0.6740311980247498
3.515127658843994,-0.44079864025115967,-0.931374728679657,-0.03104933723807335,0.8012881875038147,0.12016193568706512,0.6740311980247498
3.5351879596710205,-0.43860435485839844,-0.9295436143875122,-0.028443168848752975,0.8018881678581238,0.12165002524852753,0.6739946603775024
3.5552690029144287,-0.43860435485839844,-0.9295436143875122,-0.028443168848752975,0.8018881678581238,0.12165002524852753,0.6739946603775024
3.575343370437622,-0.4344283938407898,-0.9366376996040344,-0.018198486417531967,0.8020188212394714,0.1250893920660019,0.6734547019004822
3.5954318046569824,-0.4344283938407898,-0.9366376996040344,-0.018198486417531967,0.8020188212394714,0.1250893920660019,0.6734547019004822
3.615558385848999,-0.4290061593055725,-0.9356800317764282,-0.008336599916219711,0.8024643659591675,0.12812922894954681,0.672822892665863
3.635615825653076,-0.4288480877876282,-0.9360244870185852,-0.008382495492696762,0.8024681806564331,0.12867602705955505,0.6736410856246948
3.6557302474975586,-0.4288480877876282,-0.9360244870185852,-0.008382495492696762,0.8024681806564331,0.12867602705955505,0.6736410856246948
3.6757662296295166,-0.4297879934310913,-0.9306718707084656,-0.0130736343562603,0.8008282780647278,0.12627239525318146,0.6727278828620911
3.695849895477295,-0.4297879934310913,-0.9306718707084656,-0.0130736343562603,0.8008282780647278,0.12627239525318146,0.6727278828620911
3.715932846069336,-0.430573046207428,-0.9299076199531555,-0.010008174926042557,0.8010814785957336,0.12745343148708344,0.6727410554885864
3.735995054244995,-0.430573046207428,-0.9299076199531555,-0.010008174926042557,0.8010814785957336,0.12745343148708344,0.6727410554885864
3.75606632232666,-0.4275044798851013,-0.929898202419281,-0.004678916186094284,0.8029400110244751,0.1304851919412613,0.6729362607002258
3.7761242389678955,-0.42338329553604126,-0.9324918985366821,0.0029681138694286346,0.8034798502922058,0.13316406309604645,0.6723505854606628
3.7962396144866943,-0.42338329553604126,-0.9324918985366821,0.0029681138694286346,0.8034798502922058,0.13316406309604645,0.6723505854606628
3.81630802154541,-0.4211844205856323,-0.9270164370536804,0.003619913011789322,0.8029912710189819,0.13312475383281708,0.6716690063476562
3.83640193939209,-0.4211844205856323,-0.9270164370536804,0.003619913011789322,0.8029912710189819,0.13312475383281708,0.6716690063476562
3.856482982635498,-0.42299604415893555,-0.9304999709129333,0.005260635167360306,0.8029100894927979,0.13389351963996887,0.6721433997154236
3.876559019088745,-0.42299604415893555,-0.9304999709129333,0.005260635167360306,0.8029100894927979,0.13389351963996887,0.6721433997154236
3.8966495990753174,-0.4213816523551941,-0.9257323145866394,0.004131678491830826,0.802147626876831,0.13301675021648407,0.6710479855537415
3.9167051315307617,-0.4238279461860657,-0.9218477606773376,0.0008056797087192535,0.8027213215827942,0.1333336979150772,0.6719293594360352
3.9368021488189697,-0.4238279461860657,-0.9218477606773376,0.0008056797087192535,0.8027213215827942,0.1333336979150772,0.6719293594360352
3.9568703174591064,-0.42493128776550293,-0.9241658449172974,0.0026172511279582977,0.8021056056022644,0.13333500921726227,0.6715510487556458
3.976956367492676,-0.42493128776550293,-0.9241658449172974,0.0026172511279582977,0.8021056056022644,0.13333500921726227,0.6715510487556458
3.9970638751983643,-0.42358076572418213,-0.9244370460510254,0.006375860422849655,0.802275538444519,0.13431362807750702,0.6713151335716248
4.0171425342559814,-0.42358076572418213,-0.9244370460510254,0.006375860422849655,0.802275538444519,0.13431362807750702,0.6713151335716248
4.037219285964966,-0.4137784242630005,-0.918640673160553,0.017822522670030594,0.805008053779602,0.14063595235347748,0.670186460018158
4.057271718978882,-0.41373080015182495,-0.9305351376533508,0.02606905624270439,0.8049309253692627,0.14251351356506348,0.67141193151474
4.077367067337036,-0.41373080015182495,-0.9305351376533508,0.02606905624270439,0.8049309253692627,0.14251351356506348,0.67141193151474
4.097450256347656,-0.41069722175598145,-0.9243844151496887,0.028747063130140305,0.8046389818191528,0.14290639758110046,0.670624315738678
4.117527961730957,-0.41069722175598145,-0.9243844151496887,0.028747063130140305,0.8046389818191528,0.14290639758110046,0.670624315738678
4.137608528137207,-0.4058305025100708,-0.9188891053199768,0.03126620128750801,0.8059875965118408,0.14502517879009247,0.6694712042808533
4.157686233520508,-0.4058305025100708,-0.9188891053199768,0.03126620128750801,0.8059875965118408,0.14502517879009247,0.6694712042808533
4.177782297134399,-0.4083818793296814,-0.9202229380607605,0.0281451977789402,0.8042820692062378,0.1430521160364151,0.669563353061676
4.19782829284668,-0.4061000347137451,-0.9171025156974792,0.030676234513521194,0.8045145869255066,0.14512701332569122,0.668989360332489
4.217918157577515,-0.4061000347137451,-0.9171025156974792,0.030676234513521194,0.8045145869255066,0.14512701332569122,0.668989360332489
4.237994432449341,-0.4051315188407898,-0.9139912724494934,0.03066343441605568,0.8057618737220764,0.14581020176410675,0.6684419512748718
4.258079290390015,-0.4051315188407898,-0.9139912724494934,0.03066343441605568,0.8057618737220764,0.14581020176410675,0.6684419512748718
4.278165102005005,-0.399208128452301,-0.9161653518676758,0.038595739752054214,0.8062894344329834,0.1502234786748886,0.6673668026924133
4.2982707023620605,-0.399208128452301,-0.9161653518676758,0.038595739752054214,0.8062894344329834,0.1502234786748886,0.6673668026924133
4.318350076675415,-0.4016168713569641,-0.9231305718421936,0.0408940352499485,0.8049982786178589,0.14952726662158966,0.6678819060325623
4.338432312011719,-0.39564257860183716,-0.9186512231826782,0.05025050416588783,0.8064725995063782,0.1535332351922989,0.66712886095047
4.358542442321777,-0.39564257860183716,-0.9186512231826782,0.05025050416588783,0.8064725995063782,0.1535332351922989,0.66712886095047
4.3786046504974365,-0.3984141945838928,-0.9196385145187378,0.04717976972460747,0.8054153323173523,0.1520455926656723,0.6679431796073914
4.398694753646851,-0.3984141945838928,-0.9196385145187378,0.04717976972460747,0.8054153323173523,0.1520455926656723,0.6679431796073914
4.418782711029053,-0.3927241563796997,-0.9107734560966492,0.04802525416016579,0.8055695295333862,0.1532946079969406,0.6656965613365173
4.438876152038574,-0.3927241563796997,-0.9107734560966492,0.04802525416016579,0.8055695295333862,0.1532946079969406,0.6656965613365173
4.458970785140991,-0.39812415838241577,-0.9117823839187622,0.04311910644173622,0.8050968647003174,0.15162894129753113,0.6665544509887695
4.479023218154907,-0.3998655080795288,-0.9113258719444275,0.04260875657200813,0.8055869340896606,0.15309084951877594,0.6672238111495972
4.4991161823272705,-0.3998655080795288,-0.9113258719444275,0.04260875657200813,0.8055869340896606,0.15309084951877594,0.6672238111495972
4.519181251525879,-0.3985747694969177,-0.9173755645751953,0.04852434620261192,0.8047741651535034,0.1543535441160202,0.6665708422660828
4.539286136627197,-0.3985747694969177,-0.9173755645751953,0.04852434620261192,0.8047741651535034,0.1543535441160202,0.6665708422660828
4.559365272521973,-0.39949721097946167,-0.9116868376731873,0.048167746514081955,0.8058217167854309,0.15422886610031128,0.6666355729103088
4.580030202865601,-0.3978933095932007,-0.9109100103378296,0.05053568258881569,0.8062512278556824,0.1554572880268097,0.6664143800735474
4.600123643875122,-0.3978933095932007,-0.9109100103378296,0.05053568258881569,0.8062512278556824,0.1554572880268097,0.6664143800735474
4.620180130004883,-0.39537185430526733,-0.9135679602622986,0.054080817848443985,0.8048892617225647,0.15601913630962372,0.6652956604957581
4.6402692794799805,-0.39537185430526733,-0.9135679602622986,0.054080817848443985,0.8048892617225647,0.15601913630962372,0.6652956604957581
4.660353422164917,-0.39231884479522705,-0.9086483716964722,0.055741097778081894,0.8056349754333496,0.1569916158914566,0.6647375822067261
4.6804234981536865,-0.39231884479522705,-0.9086483716964722,0.055741097778081894,0.8056349754333496,0.1569916158914566,0.6647375822067261
4.700501203536987,-0.3895817995071411,-0.9126564860343933,0.0648249089717865,0.8080357313156128,0.1619413048028946,0.6652085185050964
4.720566511154175,-0.38067203760147095,-0.9139613509178162,0.07699494063854218,0.8079237937927246,0.16581587493419647,0.66392582654953
4.740650653839111,-0.38067203760147095,-0.9139613509178162,0.07699494063854218,0.8079237937927246,0.16581587493419647,0.66392582654953
4.760702133178711,-0.37371671199798584,-0.9199046492576599,0.09232395887374878,0.810229480266571,0.17169277369976044,0.6637538075447083
4.780791282653809,-0.37371671199798584,-0.9199046492576599,0.09232395887374878,0.810229480266571,0.17169277369976044,0.6637538075447083
4.800933361053467,-0.3743981122970581,-0.9226253032684326,0.09574489295482635,0.8091861605644226,0.17207317054271698,0.6646125912666321
4.820966720581055,-0.3743981122970581,-0.9226253032684326,0.09574489295482635,0.8091861605644226,0.17207317054271698,0.6646125912666321
4.841045141220093,-0.37194859981536865,-0.9153879880905151,0.09569722414016724,0.8083176612854004,0.17079226672649384,0.6630311608314514
4.8611485958099365,-0.37186384201049805,-0.9146745204925537,0.09710271656513214,0.8085775375366211,0.17121484875679016,0.6630323529243469
4.881238698959351,-0.37186384201049805,-0.9146745204925537,0.09710271656513214,0.8085775375366211,0.17121484875679016,0.6630323529243469
4.9012932777404785,-0.37047237157821655,-0.9121754765510559,0.09932160377502441,0.8090059757232666,0.17272338271141052,0.6633123159408569
4.921382427215576,-0.37047237157821655,-0.9121754765510559,0.09932160377502441,0.8090059757232666,0.17272338271141052,0.6633123159408569
4.941442012786865,-0.36795687675476074,-0.9167625904083252,0.10631965100765228,0.8084853291511536,0.174663707613945,0.6621661186218262
4.9615161418914795,-0.36795687675476074,-0.9167625904083252,0.10631965100765228,0.8084853291511536,0.174663707613945,0.6621661186218262
4.981600999832153,-0.3642175793647766,-0.9128709435462952,0.11159464716911316,0.8095073699951172,0.17708627879619598,0.6622712016105652
5.00166392326355,-0.3617546558380127,-0.914165198802948,0.11848606169223785,0.8110190629959106,0.1799238920211792,0.6619156002998352
5.021755695343018,-0.3617546558380127,-0.914165198802948,0.11848606169223785,0.8110190629959106,0.1799238920211792,0.6619156002998352
5.041808605194092,-0.3535991311073303,-0.9110493063926697,0.1283399611711502,0.8123258352279663,0.18347640335559845,0.6602016687393188
5.061891794204712,-0.3535991311073303,-0.9110493063926697,0.1283399611711502,0.8123258352279663,0.18347640335559845,0.6602016687393188
5.081952333450317,-0.3552212119102478,-0.9174548983573914,0.1345202922821045,0.8121474385261536,0.1849096566438675,0.6613143682479858
5.102041959762573,-0.3552212119102478,-0.9174548983573914,0.1345202922821045,0.8121474385261536,0.1849096566438675,0.6613143682479858
5.122121572494507,-0.35358887910842896,-0.9095812439918518,0.13416200876235962,0.8106947541236877,0.18316161632537842,0.6596633791923523
5.142169713973999,-0.352459192276001,-0.8981654047966003,0.12992139160633087,0.8120986223220825,0.1833847165107727,0.6596190333366394
5.162257432937622,-0.352459192276001,-0.8981654047966003,0.12992139160633087,0.8120986223220825,0.1833847165107727,0.6596190333366394
5.182311058044434,-0.353391170501709,-0.9003365635871887,0.12947025895118713,0.811526894569397,0.18362505733966827,0.6590908169746399
5.202434539794922,-0.353391170501709,-0.9003365635871887,0.12947025895118713,0.811526894569397,0.18362505733966827,0.6590908169746399
5.2225000858306885,-0.35162562131881714,-0.898934543132782,0.13303376734256744,0.8118544816970825,0.1855015605688095,0.6592560410499573
5.242583990097046,-0.35162562131881714,-0.898934543132782,0.13303376734256744,0.8118544816970825,0.1855015605688095,0.6592560410499573
5.262664556503296,-0.3513367772102356,-0.9008634686470032,0.13676734268665314,0.812130331993103,0.1868172138929367,0.6594820618629456
5.282713413238525,-0.3499796390533447,-0.8972664475440979,0.1403060257434845,0.812703013420105,0.18810434639453888,0.6586815714836121
5.302804231643677,-0.3499796390533447,-0.8972664475440979,0.1403060257434845,0.812703013420105,0.18810434639453888,0.6586815714836121
5.322865724563599,-0.34808802604675293,-0.9040889739990234,0.14930538833141327,0.813011646270752,0.1910148411989212,0.6590946316719055
5.342955589294434,-0.34808802604675293,-0.9040889739990234,0.14930538833141327,0.813011646270752,0.1910148411989212,0.6590946316719055
5.363032579421997,-0.345359206199646,-0.8958597779273987,0.1474340260028839,0.8123226165771484,0.1905183047056198,0.6578295230865479
5.383105516433716,-0.345359206199646,-0.8958597779273987,0.1474340260028839,0.8123226165771484,0.1905183047056198,0.6578295230865479
5.403195142745972,-0.3439568281173706,-0.8933237791061401,0.1480196714401245,0.8131420612335205,0.19125643372535706,0.6572062373161316
5.423251628875732,-0.3393404483795166,-0.8933146595954895,0.1561659425497055,0.8134347200393677,0.19416706264019012,0.656011164188385
5.4433372020721436,-0.3393404483795166,-0.8933146595954895,0.1561659425497055,0.8134347200393677,0.19416706264019012,0.656011164188385
5.463394403457642,-0.3470296263694763,-0.8960968255996704,0.1493932157754898,0.8117321729660034,0.19126616418361664,0.6581228971481323
5.483484268188477,-0.3470296263694763,-0.8960968255996704,0.1493932157754898,0.8117321729660034,0.19126616418361664,0.6581228971481323
5.503561496734619,-0.34569501876831055,-0.8920288681983948,0.15168406069278717,0.8110857009887695,0.19240687787532806,0.6571524143218994
5.523636817932129,-0.34569501876831055,-0.8920288681983948,0.15168406069278717,0.8110857009887695,0.19240687787532806,0.6571524143218994
5.543717384338379,-0.34506553411483765,-0.8935808539390564,0.15375515818595886,0.8116164803504944,0.19329357147216797,0.6571229696273804
5.563772678375244,-0.34651803970336914,-0.888218879699707,0.15250444412231445,0.8121537566184998,0.19297201931476593,0.6573352217674255
5.583857536315918,-0.34651803970336914,-0.888218879699707,0.15250444412231445,0.8121537566184998,0.19297201931476593,0.6573352217674255
5.60393214225769,-0.34722304344177246,-0.8905644416809082,0.1529243141412735,0.8110123872756958,0.19254030287265778,0.6561625599861145
5.6240153312683105,-0.34722304344177246,-0.8905644416809082,0.1529243141412735,0.8110123872756958,0.19254030287265778,0.6561625599861145
5.644114255905151,-0.3438910245895386,-0.8867197632789612,0.15584491193294525,0.812890350818634,0.19480429589748383,0.656022846698761
5.664187908172607,-0.3438910245895386,-0.8867197632789612,0.15584491193294525,0.812890350818634,0.19480429589748383,0.656022846698761
5.684263706207275,-0.340387761592865,-0.8898004293441772,0.16147178411483765,0.8127723932266235,0.19657158851623535,0.6543014049530029
5.704326152801514,-0.3364964723587036,-0.8828684687614441,0.1620730310678482,0.8141772150993347,0.19838236272335052,0.6540636420249939
5.724414587020874,-0.3364964723587036,-0.8828684687614441,0.1620730310678482,0.8141772150993347,0.19838236272335052,0.6540636420249939
5.744481801986694,-0.3342711329460144,-0.8870348334312439,0.16596733033657074,0.8147310018539429,0.20050570368766785,0.6529384255409241
5.764566421508789,-0.3342711329460144,-0.8870348334312439,0.16596733033657074,0.8147310018539429,0.20050570368766785,0.6529384255409241
5.784658908843994,-0.3359816074371338,-0.8876578211784363,0.16602997481822968,0.8145954608917236,0.20091210305690765,0.6535049676895142
5.804730176925659,-0.3359816074371338,-0.8876578211784363,0.16602997481822968,0.8145954608917236,0.20091210305690765,0.6535049676895142
5.824806451797485,-0.3332732319831848,-0.8862680792808533,0.17100752890110016,0.8138380646705627,0.20188196003437042,0.6524463295936584
5.844861745834351,-0.3314019441604614,-0.885769248008728,0.17390532791614532,0.8156042098999023,0.2038300335407257,0.652687132358551
5.864956855773926,-0.3314019441604614,-0.885769248008728,0.17390532791614532,0.8156042098999023,0.2038300335407257,0.652687132358551
5.885028123855591,-0.3302587866783142,-0.8845123648643494,0.1731923669576645,0.8136947751045227,0.20287351310253143,0.6508989930152893
5.905133485794067,-0.3302587866783142,-0.8845123648643494,0.1731923669576645,0.8136947751045227,0.20287351310253143,0.6508989930152893
5.925214529037476,-0.32283836603164673,-0.8768963813781738,0.17679284512996674,0.8154821395874023,0.20574544370174408,0.6495094895362854
5.945297479629517,-0.32283836603164673,-0.8768963813781738,0.17679284512996674,0.8154821395874023,0.20574544370174408,0.6495094895362854
5.965373277664185,-0.32801878452301025,-0.8791369795799255,0.17227526009082794,0.8144983053207397,0.20421145856380463,0.6503352522850037
5.985424995422363,-0.32996082305908203,-0.8827633261680603,0.17534662783145905,0.8151440620422363,0.20628707110881805,0.6508656144142151
6.005518198013306,-0.32996082305908203,-0.8827633261680603,0.17534662783145905,0.8151440620422363,0.20628707110881805,0.6508656144142151
6.025583744049072,-0.32570314407348633,-0.8868314623832703,0.18308354914188385,0.8153458833694458,0.20903129875659943,0.6494539380073547
6.045664310455322,-0.32570314407348633,-0.8868314623832703,0.18308354914188385,0.8153458833694458,0.20903129875659943,0.6494539380073547
6.065754175186157,-0.3280569314956665,-0.8839906454086304,0.1844843477010727,0.8151648044586182,0.20795413851737976,0.649566650390625
6.0858094692230225,-0.3280569314956665,-0.8839906454086304,0.1844843477010727,0.8151648044586182,0.20795413851737976,0.649566650390625
6.105900764465332,-0.32537513971328735,-0.8800399899482727,0.18706877529621124,0.8173202276229858,0.21056419610977173,0.649178683757782
6.125961780548096,-0.32248127460479736,-0.8794410228729248,0.188395157456398,0.8162115216255188,0.21078726649284363,0.648749828338623
6.146053791046143,-0.32248127460479736,-0.8794410228729248,0.188395157456398,0.8162115216255188,0.21078726649284363,0.648749828338623
6.1661217212677,-0.30945712327957153,-0.8738476634025574,0.20115457475185394,0.8198561668395996,0.21758688986301422,0.6454475522041321
6.1862053871154785,-0.30945712327957153,-0.8738476634025574,0.20115457475185394,0.8198561668395996,0.21758688986301422,0.6454475522041321
6.206307649612427,-0.30638015270233154,-0.8770644068717957,0.20955149829387665,0.8213679790496826,0.22137056291103363,0.6455830931663513
6.226381778717041,-0.30638015270233154,-0.8770644068717957,0.20955149829387665,0.8213679790496826,0.22137056291103363,0.6455830931663513
6.246461868286133,-0.3040062189102173,-0.878777265548706,0.22004593908786774,0.8217540979385376,0.22500590980052948,0.6445784568786621
6.266510486602783,-0.30248433351516724,-0.8766421675682068,0.22466303408145905,0.8216409683227539,0.22625340521335602,0.6455472111701965
6.286604881286621,-0.30248433351516724,-0.8766421675682068,0.22466303408145905,0.8216409683227539,0.22625340521335602,0.6455472111701965
6.306676149368286,-0.3027718663215637,-0.8746768832206726,0.22783099114894867,0.8209167718887329,0.22678591310977936,0.6458525061607361
6.3267505168914795,-0.3027718663215637,-0.8746768832206726,0.22783099114894867,0.8209167718887329,0.22678591310977936,0.6458525061607361
6.346837759017944,-0.2984752655029297,-0.8663522601127625,0.23016980290412903,0.8223864436149597,0.22805534303188324,0.6448038220405579
6.366899251937866,-0.2984752655029297,-0.8663522601127625,0.23016980290412903,0.8223864436149597,0.22805534303188324,0.6448038220405579
6.386972188949585,-0.30038511753082275,-0.8730670809745789,0.23298941552639008,0.8215481042861938,0.22813080251216888,0.6445481777191162
6.40701961517334,-0.29747331142425537,-0.8652527928352356,0.23361869156360626,0.821183443069458,0.22802172601222992,0.6434674263000488
6.427112102508545,-0.29747331142425537,-0.8652527928352356,0.23361869156360626,0.821183443069458,0.22802172601222992,0.6434674263000488
6.447174310684204,-0.29463282227516174,-0.8574853539466858,0.23208285868167877,0.8219672441482544,0.22785107791423798,0.6421586275100708
6.467268943786621,-0.29463282227516174,-0.8574853539466858,0.23208285868167877,0.8219672441482544,0.22785107791423798,0.6421586275100708
6.487351179122925,-0.2983725070953369,-0.8643903136253357,0.2346971482038498,0.8213895559310913,0.2282906025648117,0.642896831035614
6.507418632507324,-0.2983725070953369,-0.8643903136253357,0.2346971482038498,0.8213895559310913,0.2282906025648117,0.642896831035614
6.527508020401001,-0.29251202940940857,-0.8581231236457825,0.23943789303302765,0.8213575482368469,0.23020978271961212,0.6412797570228577
6.547546863555908,-0.2923446297645569,-0.8618790507316589,0.24330414831638336,0.8221073150634766,0.2322462946176529,0.6416122317314148
6.56763768196106,-0.2923446297645569,-0.8618790507316589,0.24330414831638336,0.8221073150634766,0.2322462946176529,0.6416122317314148
6.587698459625244,-0.29035210609436035,-0.8637048602104187,0.2521720826625824,0.8238242864608765,0.23571504652500153,0.6412609219551086
6.607785940170288,-0.29035210609436035,-0.8637048602104187,0.2521720826625824,0.8238242864608765,0.23571504652500153,0.6412609219551086
6.627869367599487,-0.28941261768341064,-0.8631431460380554,0.25943711400032043,0.8254613280296326,0.2386484593153,0.6409651637077332
6.64794135093689,-0.28941261768341064,-0.8631431460380554,0.25943711400032043,0.8254613280296326,0.2386484593153,0.6409651637077332
6.668012380599976,-0.28677672147750854,-0.8640466332435608,0.266824334859848,0.8239152431488037,0.23957930505275726,0.6398385167121887
6.68806004524231,-0.28660351037979126,-0.85491544008255,0.2692517042160034,0.825299084186554,0.24010919034481049,0.639965832233429
6.708154678344727,-0.28660351037979126,-0.85491544008255,0.2692517042160034,0.825299084186554,0.24010919034481049,0.639965832233429
6.728214740753174,-0.28608548641204834,-0.8531600832939148,0.2708996832370758,0.8258024454116821,0.24096699059009552,0.6404827833175659
6.748297929763794,-0.28608548641204834,-0.8531600832939148,0.2708996832370758,0.8258024454116821,0.24096699059009552,0.6404827833175659
6.768374919891357,-0.2874118685722351,-0.8491541743278503,0.26915422081947327,0.8256261348724365,0.23949246108531952,0.6404492259025574
6.788426637649536,-0.2874118685722351,-0.8491541743278503,0.26915422081947327,0.8256261348724365,0.23949246108531952,0.6404492259025574
6.80851149559021,-0.28403258323669434,-0.8481854796409607,0.2782061994075775,0.8262737989425659,0.24159632623195648,0.6380836367607117
6.828556537628174,-0.2785319685935974,-0.8412926197052002,0.2841392159461975,0.8283962607383728,0.24474011361598969,0.6377609372138977
6.848647117614746,-0.2785319685935974,-0.8412926197052002,0.2841392159461975,0.8283962607383728,0.24474011361598969,0.6377609372138977
6.868714094161987,-0.28124597668647766,-0.8450050950050354,0.2861865162849426,0.8275965452194214,0.24438466131687164,0.6385771036148071
6.888794422149658,-0.28124597668647766,-0.8450050950050354,0.2861865162849426,0.8275965452194214,0.24438466131687164,0.6385771036148071
6.908867120742798,-0.27668195962905884,-0.842225193977356,0.29047536849975586,0.8280328512191772,0.2461540848016739,0.6371133923530579
6.929048299789429,-0.27668195962905884,-0.842225193977356,0.29047536849975586,0.8280328512191772,0.2461540848016739,0.6371133923530579
6.949139833450317,-0.2751615643501282,-0.8425794243812561,0.2972741425037384,0.8294451832771301,0.24853865802288055,0.6365995407104492
6.969183921813965,-0.27741318941116333,-0.8403171896934509,0.29854217171669006,0.8293091058731079,0.2475174516439438,0.6366022229194641
6.989277362823486,-0.27741318941116333,-0.8403171896934509,0.29854217171669006,0.8293091058731079,0.2475174516439438,0.6366022229194641
7.009345293045044,-0.27497631311416626,-0.8340482711791992,0.30047592520713806,0.830665111541748,0.2483600229024887,0.6348881721496582
7.029418706893921,-0.27497631311416626,-0.8340482711791992,0.30047592520713806,0.830665111541748,0.2483600229024887,0.6348881721496582
7.0494959354400635,-0.27239400148391724,-0.8391702175140381,0.30551907420158386,0.8291261792182922,0.24946625530719757,0.6338369250297546
7.069783926010132,-0.27239400148391724,-0.8391702175140381,0.30551907420158386,0.8291261792182922,0.24946625530719757,0.6338369250297546
7.089898347854614,-0.2740110158920288,-0.8326912522315979,0.3104378879070282,0.8310530185699463,0.25088900327682495,0.6344696879386902
7.1099255084991455,-0.2783876657485962,-0.8293042778968811,0.3065561354160309,0.8300960063934326,0.24757222831249237,0.6339523196220398
7.130018472671509,-0.2783876657485962,-0.8293042778968811,0.3065561354160309,0.8300960063934326,0.24757222831249237,0.6339523196220398
7.150089263916016,-0.2772383689880371,-0.827473521232605,0.31492939591407776,0.8339371681213379,0.251492440700531,0.6339395642280579
7.17015528678894,-0.2772383689880371,-0.827473521232605,0.31492939591407776,0.8339371681213379,0.251492440700531,0.6339395642280579
7.190229177474976,-0.2722839117050171,-0.8227159976959229,0.31447020173072815,0.8332616090774536,0.25163352489471436,0.6326317191123962
7.210427284240723,-0.27311015129089355,-0.8255974054336548,0.3210446536540985,0.8334314823150635,0.25292646884918213,0.6326027512550354
7.230518579483032,-0.27311015129089355,-0.8255974054336548,0.3210446536540985,0.8334314823150635,0.25292646884918213,0.6326027512550354
7.250561475753784,-0.2638964056968689,-0.825373113155365,0.3340153396129608,0.8340761661529541,0.25775808095932007,0.6305690407752991
7.270696401596069,-0.2638964056968689,-0.825373113155365,0.3340153396129608,0.8340761661529541,0.25775808095932007,0.6305690407752991
7.290796995162964,-0.2663833498954773,-0.8184766173362732,0.3339099586009979,0.835944414138794,0.2579401135444641,0.6315016746520996
7.310873031616211,-0.2663833498954773,-0.8184766173362732,0.3339099586009979,0.835944414138794,0.2579401135444641,0.6315016746520996
7.330952882766724,-0.2724544405937195,-0.8210260272026062,0.3238365352153778,0.8324712514877319,0.25135886669158936,0.6311492919921875
7.351131439208984,-0.27190178632736206,-0.8183962106704712,0.327690988779068,0.8346564173698425,0.25367456674575806,0.6296791434288025
7.371230840682983,-0.27190178632736206,-0.8183962106704712,0.327690988779068,0.8346564173698425,0.25367456674575806,0.6296791434288025
7.391243934631348,-0.27208858728408813,-0.8190445303916931,0.32671982049942017,0.8329392671585083,0.25267595052719116,0.6291964650154114
7.411334276199341,-0.27208858728408813,-0.8190445303916931,0.32671982049942017,0.8329392671585083,0.25267595052719116,0.6291964650154114
7.431406259536743,-0.27213943004608154,-0.8179364204406738,0.33104026317596436,0.8347170352935791,0.2541876435279846,0.6287139058113098
7.451481342315674,-0.27213943004608154,-0.8179364204406738,0.33104026317596436,0.8347170352935791,0.2541876435279846,0.6287139058113098
7.471564054489136,-0.26905369758605957,-0.8153141140937805,0.3361329734325409,0.8370370268821716,0.25716614723205566,0.6283391118049622
7.49227499961853,-0.2649277448654175,-0.8136847615242004,0.34069517254829407,0.8368533849716187,0.2581164240837097,0.6269199848175049
7.512362003326416,-0.2649277448654175,-0.8136847615242004,0.34069517254829407,0.8368533849716187,0.2581164240837097,0.6269199848175049
7.5324177742004395,-0.257854700088501,-0.80910724401474,0.34266090393066406,0.8363690376281738,0.25846779346466064,0.6238704323768616
7.552510976791382,-0.257854700088501,-0.80910724401474,0.34266090393066406,0.8363690376281738,0.25846779346466064,0.6238704323768616
7.572574615478516,-0.2553778886795044,-0.8062781095504761,0.3413570523262024,0.8367401361465454,0.257968544960022,0.6230162978172302
7.592655897140503,-0.2553778886795044,-0.8062781095504761,0.3413570523262024,0.8367401361465454,0.257968544960022,0.6230162978172302
7.612735986709595,-0.2638803720474243,-0.8144564032554626,0.33224159479141235,0.8329877853393555,0.2533736824989319,0.6244155764579773
7.632785797119141,-0.26129189133644104,-0.8113861083984375,0.3380306363105774,0.836358904838562,0.25708019733428955,0.6229265332221985
7.652875900268555,-0.26129189133644104,-0.8113861083984375,0.3380306363105774,0.836358904838562,0.25708019733428955,0.6229265332221985
7.672929525375366,-0.26112687587738037,-0.815295398235321,0.33946481347084045,0.8359267711639404,0.2584323287010193,0.622330367565155
7.693021297454834,-0.26112687587738037,-0.815295398235321,0.33946481347084045,0.8359267711639404,0.2584323287010193,0.622330367565155
7.713193416595459,-0.2586171627044678,-0.8130057454109192,0.34048599004745483,0.8367100358009338,0.2585327625274658,0.6210493445396423
7.733217000961304,-0.2586171627044678,-0.8130057454109192,0.34048599004745483,0.8367100358009338,0.2585327625274658,0.6210493445396423
7.753325939178467,-0.2572273910045624,-0.816337525844574,0.34756967425346375,0.8371937274932861,0.26078593730926514,0.6200857758522034
7.773358106613159,-0.25365400314331055,-0.8113896250724792,0.3475259244441986,0.8384299278259277,0.2617064118385315,0.6191172003746033
7.793450355529785,-0.25365400314331055,-0.8113896250724792,0.3475259244441986,0.8384299278259277,0.2617064118385315,0.6191172003746033
7.813504695892334,-0.2533245086669922,-0.8168054223060608,0.3508148789405823,0.8386785984039307,0.26269835233688354,0.6184744238853455
7.8335981369018555,-0.2533245086669922,-0.8168054223060608,0.3508148789405823,0.8386785984039307,0.26269835233688354,0.6184744238853455
7.853696823120117,-0.24711400270462036,-0.8119117617607117,0.3542736768722534,0.8400866985321045,0.2647051215171814,0.6160047650337219
7.87378191947937,-0.24711400270462036,-0.8119117617607117,0.3542736768722534,0.8400866985321045,0.2647051215171814,0.6160047650337219
7.893858432769775,-0.24345406889915466,-0.8107526898384094,0.35984885692596436,0.8409401178359985,0.2673608064651489,0.615318238735199
7.913910627365112,-0.23787853121757507,-0.8080307245254517,0.3623220920562744,0.8416258096694946,0.26880693435668945,0.6129701733589172
7.9340057373046875,-0.23787853121757507,-0.8080307245254517,0.3623220920562744,0.8416258096694946,0.26880693435668945,0.6129701733589172
7.954059839248657,-0.2389715015888214,-0.8151490688323975,0.36307254433631897,0.8391599655151367,0.2678338289260864,0.611972451210022
7.9741551876068115,-0.2389715015888214,-0.8151490688323975,0.36307254433631897,0.8391599655151367,0.2678338289260864,0.611972451210022
7.9942474365234375,-0.24553003907203674,-0.8150162696838379,0.35969820618629456,0.8394774198532104,0.26583826541900635,0.6134832501411438
8.01431679725647,-0.24553003907203674,-0.8150162696838379,0.35969820618629456,0.8394774198532104,0.26583826541900635,0.6134832501411438
8.034400224685669,-0.248188316822052,-0.8139238953590393,0.35125771164894104,0.837609589099884,0.26124805212020874,0.6122817993164062
8.054449796676636,-0.24696144461631775,-0.8131913542747498,0.3547331690788269,0.8400808572769165,0.2635464668273926,0.6111352443695068
8.074545860290527,-0.24696144461631775,-0.8131913542747498,0.3547331690788269,0.8400808572769165,0.2635464668273926,0.6111352443695068
8.094597578048706,-0.24471443891525269,-0.8166288137435913,0.35576727986335754,0.84047532081604,0.2646699547767639,0.6093846559524536
8.11469030380249,-0.24471443891525269,-0.8166288137435913,0.35576727986335754,0.84047532081604,0.2646699547767639,0.6093846559524536
8.134772539138794,-0.24216988682746887,-0.8175306916236877,0.35746318101882935,0.8396438360214233,0.2649407386779785,0.6076894998550415
8.154849529266357,-0.24216988682746887,-0.8175306916236877,0.35746318101882935,0.8396438360214233,0.2649407386779785,0.6076894998550415
8.174935102462769,-0.23861590027809143,-0.8152470588684082,0.3623930513858795,0.8421589136123657,0.26832520961761475,0.6072825789451599
8.194987058639526,-0.23325549066066742,-0.8075308203697205,0.36250486969947815,0.8440725207328796,0.26929253339767456,0.6048957109451294
8.215129137039185,-0.23325549066066742,-0.8075308203697205,0.36250486969947815,0.8440725207328796,0.26929253339767456,0.6048957109451294
8.235145568847656,-0.234728142619133,-0.8129518628120422,0.3640761375427246,0.8446359634399414,0.26989883184432983,0.6039950847625732
8.25524616241455,-0.234728142619133,-0.8129518628120422,0.3640761375427246,0.8446359634399414,0.26989883184432983,0.6039950847625732
8.275291919708252,-0.23602278530597687,-0.8139553666114807,0.36837396025657654,0.8455275297164917,0.2712535262107849,0.6033603549003601
8.295356273651123,-0.23602278530597687,-0.8139553666114807,0.36837396025657654,0.8455275297164917,0.2712535262107849,0.6033603549003601
8.315483808517456,-0.23727867007255554,-0.8196813464164734,0.36527034640312195,0.8434763550758362,0.26912885904312134,0.602970540523529
8.335496425628662,-0.2386178821325302,-0.8161665797233582,0.36837849020957947,0.8451327681541443,0.2698121666908264,0.6022541522979736
8.35558271408081,-0.2386178821325302,-0.8161665797233582,0.36837849020957947,0.8451327681541443,0.2698121666908264,0.6022541522979736
8.375634670257568,-0.23775224387645721,-0.8152269721031189,0.36985504627227783,0.8464404940605164,0.27050554752349854,0.6013568043708801
8.395727634429932,-0.23775224387645721,-0.8152269721031189,0.36985504627227783,0.8464404940605164,0.27050554752349854,0.6013568043708801
8.415800333023071,-0.24307022988796234,-0.8203343749046326,0.36570194363594055,0.8442881107330322,0.26619887351989746,0.5997655987739563
8.435877323150635,-0.24307022988796234,-0.8203343749046326,0.36570194363594055,0.8442881107330322,0.26619887351989746,0.5997655987739563
8.455951929092407,-0.24277709424495697,-0.8130585551261902,0.3647952973842621,0.8466213345527649,0.2665681838989258,0.5997561812400818
8.4760000705719,-0.24047784507274628,-0.8145169615745544,0.3675267994403839,0.8480215072631836,0.26771074533462524,0.5985960364341736
8.496087789535522,-0.24047784507274628,-0.8145169615745544,0.3675267994403839,0.8480215072631836,0.26771074533462524,0.5985960364341736
8.516154050827026,-0.23919357359409332,-0.8107354044914246,0.36904558539390564,0.8495221138000488,0.2689405083656311,0.5970832109451294
8.536328315734863,-0.23919357359409332,-0.8107354044914246,0.36904558539390564,0.8495221138000488,0.2689405083656311,0.5970832109451294
8.556318044662476,-0.2377869188785553,-0.8113048672676086,0.3695100247859955,0.8498697876930237,0.26956433057785034,0.5962369441986084
8.576393127441406,-0.2377869188785553,-0.8113048672676086,0.3695100247859955,0.8498697876930237,0.26956433057785034,0.5962369441986084
8.596532106399536,-0.23415981233119965,-0.8119604587554932,0.36785879731178284,0.8492556214332581,0.26875561475753784,0.5933509469032288
8.616581916809082,-0.23619411885738373,-0.8202033638954163,0.37396562099456787,0.8497321605682373,0.2713867425918579,0.593397319316864
8.636668920516968,-0.23619411885738373,-0.8202033638954163,0.37396562099456787,0.8497321605682373,0.2713867425918579,0.593397319316864
8.656752109527588,-0.2363424301147461,-0.8178252577781677,0.37352439761161804,0.8500315546989441,0.2713173031806946,0.592680037021637
8.67683744430542,-0.2363424301147461,-0.8178252577781677,0.37352439761161804,0.8500315546989441,0.2713173031806946,0.592680037021637
8.696925401687622,-0.23831233382225037,-0.8185029625892639,0.3670034408569336,0.8490040898323059,0.2669094204902649,0.591203510761261
8.717001914978027,-0.23831233382225037,-0.8185029625892639,0.3670034408569336,0.8490040898323059,0.2669094204902649,0.591203510761261
8.737084865570068,-0.24344806373119354,-0.8182775974273682,0.366472989320755,0.8516983985900879,0.2665138244628906,0.5905248522758484
8.757565021514893,-0.23923800885677338,-0.8211849927902222,0.36828482151031494,0.8517895340919495,0.2684932351112366,0.5877249836921692
8.777663230895996,-0.23923800885677338,-0.8211849927902222,0.36828482151031494,0.8517895340919495,0.2684932351112366,0.5877249836921692
8.797719717025757,-0.24324773252010345,-0.8282819390296936,0.366525262594223,0.8497166633605957,0.265353262424469,0.5867922902107239
8.817813873291016,-0.24324773252010345,-0.8282819390296936,0.366525262594223,0.8497166633605957,0.265353262424469,0.5867922902107239
8.837889671325684,-0.24194376170635223,-0.8204922080039978,0.3708561360836029,0.854098916053772,0.26826852560043335,0.5866329073905945
8.857973337173462,-0.24194376170635223,-0.8204922080039978,0.3708561360836029,0.854098916053772,0.26826852560043335,0.5866329073905945
8.878103494644165,-0.24041497707366943,-0.823119044303894,0.3736332356929779,0.8543860912322998,0.2696264982223511,0.5855345129966736
8.89814805984497,-0.23671765625476837,-0.8227636218070984,0.374655157327652,0.8549576997756958,0.26998281478881836,0.5834686756134033
8.918243408203125,-0.23671765625476837,-0.8227636218070984,0.374655157327652,0.8549576997756958,0.26998281478881836,0.5834686756134033
8.938294649124146,-0.2338915318250656,-0.8123658895492554,0.3780355453491211,0.8594701886177063,0.27291345596313477,0.582004964351654
8.958404779434204,-0.2338915318250656,-0.8123658895492554,0.3780355453491211,0.8594701886177063,0.27291345596313477,0.582004964351654
8.978480339050293,-0.23074907064437866,-0.8167639374732971,0.380036324262619,0.8590980768203735,0.27431052923202515,0.5797181129455566
8.998554944992065,-0.23074907064437866,-0.8167639374732971,0.380036324262619,0.8590980768203735,0.27431052923202515,0.5797181129455566
9.01863431930542,-0.2312067300081253,-0.8223240971565247,0.38107141852378845,0.857309103012085,0.27385032176971436,0.5783706307411194
9.03868842124939,-0.22984258830547333,-0.8227857947349548,0.38189759850502014,0.8579817414283752,0.27317219972610474,0.576009213924408
9.0587899684906,-0.22984258830547333,-0.8227857947349548,0.38189759850502014,0.8579817414283752,0.27317219972610474,0.576009213924408
9.078852415084839,-0.2270447313785553,-0.8206998705863953,0.3785690367221832,0.8579815626144409,0.27155548334121704,0.5733941793441772
9.098957538604736,-0.2270447313785553,-0.8206998705863953,0.3785690367221832,0.8579815626144409,0.27155548334121704,0.5733941793441772
9.119032144546509,-0.23366232216358185,-0.8250126838684082,0.3771100640296936,0.8590811491012573,0.26978737115859985,0.5731790661811829
9.139104843139648,-0.23366232216358185,-0.8250126838684082,0.3771100640296936,0.8590811491012573,0.26978737115859985,0.5731790661811829
9.15918254852295,-0.2333616465330124,-0.8265285491943359,0.3766091465950012,0.8595114946365356,0.2694621682167053,0.5714586973190308
9.179234743118286,-0.23504582047462463,-0.8296073079109192,0.37778517603874207,0.8600133657455444,0.2694639563560486,0.5704465508460999
9.199331998825073,-0.23504582047462463,-0.8296073079109192,0.37778517603874207,0.8600133657455444,0.2694639563560486,0.5704465508460999
9.219386100769043,-0.23692892491817474,-0.8299186825752258,0.37560445070266724,0.8606269359588623,0.2679554224014282,0.5690000653266907
9.23947286605835,-0.23692892491817474,-0.8299186825752258,0.37560445070266724,0.8606269359588623,0.2679554224014282,0.5690000653266907
9.259555578231812,-0.233175128698349,-0.8270223140716553,0.37672120332717896,0.8635271787643433,0.26917046308517456,0.5661647915840149
9.279627323150635,-0.233175128698349,-0.8270223140716553,0.37672120332717896,0.8635271787643433,0.26917046308517456,0.5661647915840149
9.29971170425415,-0.23556576669216156,-0.8319120407104492,0.37889012694358826,0.8643988370895386,0.26951271295547485,0.5647363662719727
9.319761037826538,-0.23420773446559906,-0.8342317342758179,0.37834084033966064,0.8628105521202087,0.26785939931869507,0.5627481341362
9.339862585067749,-0.23420773446559906,-0.8342317342758179,0.37834084033966064,0.8628105521202087,0.26785939931869507,0.5627481341362
9.359915971755981,-0.2329152375459671,-0.8353917002677917,0.3800097107887268,0.8649032711982727,0.268207848072052,0.5605453848838806
9.380008459091187,-0.2329152375459671,-0.8353917002677917,0.3800097107887268,0.8649032711982727,0.268207848072052,0.5605453848838806
9.400068283081055,-0.23483696579933167,-0.8343663215637207,0.38108596205711365,0.8669462203979492,0.26831942796707153,0.5588905215263367
9.420163631439209,-0.23483696579933167,-0.8343663215637207,0.38108596205711365,0.8669462203979492,0.26831942796707153,0.5588905215263367
9.440340280532837,-0.23461593687534332,-0.8378499746322632,0.3818967640399933,0.8670700192451477,0.26845431327819824,0.5574634075164795
9.46033239364624,-0.23038218915462494,-0.8400183320045471,0.389034241437912,0.8672648668289185,0.27052605152130127,0.5534302592277527
9.480464696884155,-0.23038218915462494,-0.8400183320045471,0.389034241437912,0.8672648668289185,0.27052605152130127,0.5534302592277527
9.50049376487732,-0.2305864840745926,-0.8374732732772827,0.38947394490242004,0.8695834279060364,0.2707608938217163,0.5523962378501892
9.520589828491211,-0.2305864840745926,-0.8374732732772827,0.38947394490242004,0.8695834279060364,0.2707608938217163,0.5523962378501892
9.540667057037354,-0.23230285942554474,-0.8387835621833801,0.3947336971759796,0.8699924945831299,0.2711055874824524,0.5513911843299866
9.56075930595398,-0.23230285942554474,-0.8387835621833801,0.3947336971759796,0.8699924945831299,0.2711055874824524,0.5513911843299866
9.580832481384277,-0.22686447203159332,-0.8351768255233765,0.396391361951828,0.8717753887176514,0.27183669805526733,0.5484536290168762
9.600878238677979,-0.22803591191768646,-0.8373701572418213,0.4018167555332184,0.8728797435760498,0.2725483179092407,0.5459966659545898
9.620973825454712,-0.22803591191768646,-0.8373701572418213,0.4018167555332184,0.8728797435760498,0.2725483179092407,0.5459966659545898
9.641029119491577,-0.22609984874725342,-0.8371483087539673,0.3997175395488739,0.8733379244804382,0.27029067277908325,0.5425534248352051
9.661136865615845,-0.22609984874725342,-0.8371483087539673,0.3997175395488739,0.8733379244804382,0.27029067277908325,0.5425534248352051
9.681226968765259,-0.22757002711296082,-0.836826503276825,0.4032846987247467,0.8764156103134155,0.27090948820114136,0.5402246713638306
9.701299667358398,-0.22757002711296082,-0.836826503276825,0.4032846987247467,0.8764156103134155,0.27090948820114136,0.5402246713638306
9.721376180648804,-0.23064303398132324,-0.8398903608322144,0.4010949730873108,0.8761112689971924,0.26770174503326416,0.5382106900215149
9.741431713104248,-0.23294557631015778,-0.8435307145118713,0.40546873211860657,0.8760731220245361,0.26731663942337036,0.5359506607055664
9.761524200439453,-0.23294557631015778,-0.8435307145118713,0.40546873211860657,0.8760731220245361,0.26731663942337036,0.5359506607055664
9.781580686569214,-0.2330063283443451,-0.8367154002189636,0.40596240758895874,0.8811860084533691,0.26770031452178955,0.5342317819595337
9.801666975021362,-0.2330063283443451,-0.8367154002189636,0.40596240758895874,0.8811860084533691,0.26770031452178955,0.5342317819595337
9.821747064590454,-0.22819489240646362,-0.8410546183586121,0.4069048762321472,0.8798749446868896,0.2666592597961426,0.5288525819778442
9.841820478439331,-0.22819489240646362,-0.8410546183586121,0.4069048762321472,0.8798749446868896,0.2666592597961426,0.5288525819778442
9.861902713775635,-0.23043368756771088,-0.8375495672225952,0.4099498689174652,0.8837178945541382,0.2668551802635193,0.5270299315452576
9.881947755813599,-0.23006749153137207,-0.8395812511444092,0.4101445972919464,0.8848941326141357,0.26652228832244873,0.5238285660743713
9.90204405784607,-0.23006749153137207,-0.8395812511444092,0.4101445972919464,0.8848941326141357,0.26652228832244873,0.5238285660743713
9.922099590301514,-0.22502577304840088,-0.8405328392982483,0.40928974747657776,0.8858238458633423,0.2651031017303467,0.5181541442871094
9.942197322845459,-0.22502577304840088,-0.8405328392982483,0.40928974747657776,0.8858238458633423,0.2651031017303467,0.5181541442871094
9.96229100227356,-0.2240017056465149,-0.8457576632499695,0.41294071078300476,0.8873479962348938,0.2652631998062134,0.5128782987594604
9.982375383377075,-0.2240017056465149,-0.8457576632499695,0.41294071078300476,0.8873479962348938,0.2652631998062134,0.5128782987594604
10.002519607543945,-0.22209474444389343,-0.8451763987541199,0.4154748320579529,0.889622688293457,0.2650086283683777,0.5084301233291626
10.022551774978638,-0.22220024466514587,-0.8492149114608765,0.41782262921333313,0.8917437791824341,0.26446443796157837,0.503079891204834
10.04264211654663,-0.22220024466514587,-0.8492149114608765,0.41782262921333313,0.8917437791824341,0.26446443796157837,0.503079891204834
10.062695264816284,-0.21628376841545105,-0.8499625325202942,0.42088887095451355,0.8922408819198608,0.26560157537460327,0.49796682596206665
10.082785367965698,-0.21628376841545105,-0.8499625325202942,0.42088887095451355,0.8922408819198608,0.26560157537460327,0.49796682596206665
10.102867603302002,-0.21071237325668335,-0.848793625831604,0.4266781508922577,0.8937196135520935,0.2677849531173706,0.49303752183914185
10.122941493988037,-0.21071237325668335,-0.848793625831604,0.4266781508922577,0.8937196135520935,0.2677849531173706,0.49303752183914185
10.143020629882812,-0.21216635406017303,-0.847669780254364,0.42883774638175964,0.8964184522628784,0.2664593458175659,0.4907159209251404
10.16307520866394,-0.20997290313243866,-0.8495729565620422,0.43089625239372253,0.8959570527076721,0.265605092048645,0.48806554079055786
10.183167219161987,-0.20997290313243866,-0.8495729565620422,0.43089625239372253,0.8959570527076721,0.265605092048645,0.48806554079055786
10.203243017196655,-0.20833136141300201,-0.8550981879234314,0.43693849444389343,0.8947240710258484,0.2656099200248718,0.48440855741500854
10.223314762115479,-0.20833136141300201,-0.8550981879234314,0.43693849444389343,0.8947240710258484,0.2656099200248718,0.48440855741500854
10.243389129638672,-0.21452800929546356,-0.8605520129203796,0.4376780390739441,0.8946507573127747,0.2608073353767395,0.48241597414016724
10.263466358184814,-0.21452800929546356,-0.8605520129203796,0.4376780390739441,0.8946507573127747,0.2608073353767395,0.48241597414016724
10.283570051193237,-0.2115044742822647,-0.8662386536598206,0.44524285197257996,0.8935033082962036,0.2604880928993225,0.47744593024253845
10.303608417510986,-0.21525831520557404,-0.8688744902610779,0.45351091027259827,0.8941632509231567,0.25958681106567383,0.4757586121559143
10.323696613311768,-0.21525831520557404,-0.8688744902610779,0.45351091027259827,0.8941632509231567,0.25958681106567383,0.4757586121559143
10.343750715255737,-0.2211064249277115,-0.869351863861084,0.4603579342365265,0.8950278162956238,0.25662243366241455,0.47617846727371216
10.363840341567993,-0.2211064249277115,-0.869351863861084,0.4603579342365265,0.8950278162956238,0.25662243366241455,0.47617846727371216
10.383977890014648,-0.2254718542098999,-0.8697450160980225,0.46292510628700256,0.8965258598327637,0.2538064122200012,0.47620049118995667
10.404018640518188,-0.2254718542098999,-0.8697450160980225,0.46292510628700256,0.8965258598327637,0.2538064122200012,0.47620049118995667
10.424125671386719,-0.23332881927490234,-0.869458019733429,0.4696349799633026,0.8984014987945557,0.2522892951965332,0.47618669271469116
10.4441819190979,-0.23811683058738708,-0.8695763945579529,0.468995600938797,0.9015676975250244,0.25103330612182617,0.4750174283981323
10.464272737503052,-0.23811683058738708,-0.8695763945579529,0.468995600938797,0.9015676975250244,0.25103330612182617,0.4750174283981323
10.484324216842651,-0.24566592276096344,-0.8706709742546082,0.47064295411109924,0.9030833840370178,0.24947510659694672,0.4722612798213959
10.504419803619385,-0.24566592276096344,-0.8706709742546082,0.47064295411109924,0.9030833840370178,0.24947510659694672,0.4722612798213959
10.524495840072632,-0.25189489126205444,-0.8682438731193542,0.46955034136772156,0.9082969427108765,0.24893392622470856,0.46886810660362244
10.544578313827515,-0.25189489126205444,-0.8682438731193542,0.46955034136772156,0.9082969427108765,0.24893392622470856,0.46886810660362244
10.564682722091675,-0.26188433170318604,-0.8652394413948059,0.4684853255748749,0.9135750532150269,0.24690736830234528,0.46482735872268677
10.584736347198486,-0.2589673399925232,-0.8537795543670654,0.46860018372535706,0.9241636395454407,0.25212913751602173,0.4569518268108368
10.604822874069214,-0.2589673399925232,-0.8537795543670654,0.46860018372535706,0.9241636395454407,0.25212913751602173,0.4569518268108368
10.624889135360718,0.2640193700790405,-1.0578445196151733,1.4376016855239868,-0.673775315284729,0.0936746746301651,-0.7427271008491516
10.644974946975708,0.2640193700790405,-1.0578445196151733,1.4376016855239868,-0.673775315284729,0.0936746746301651,-0.7427271008491516
10.665054082870483,0.34453028440475464,-1.3132929801940918,1.4476220607757568,-0.7434895634651184,0.05961785465478897,-0.8819305300712585
10.685131311416626,0.34453028440475464,-1.3132929801940918,1.4476220607757568,-0.7434895634651184,0.05961785465478897,-0.8819305300712585
10.705250024795532,0.34537583589553833,-1.3555793762207031,1.4363378286361694,-0.7450977563858032,0.06221017241477966,-0.8995851874351501
10.725292921066284,0.3425230383872986,-1.3608136177062988,1.4366518259048462,-0.7449586391448975,0.06251324713230133,-0.9012129902839661
10.745384693145752,0.3425230383872986,-1.3608136177062988,1.4366518259048462,-0.7449586391448975,0.06251324713230133,-0.9012129902839661
10.765475988388062,0.3411596417427063,-1.3624017238616943,1.4359506368637085,-0.746017336845398,0.06362774968147278,-0.9015493392944336
10.78554368019104,0.3411596417427063,-1.3624017238616943,1.4359506368637085,-0.746017336845398,0.06362774968147278,-0.9015493392944336
10.80563759803772,0.34111130237579346,-1.3639931678771973,1.4346206188201904,-0.7468761205673218,0.0646374523639679,-0.9017419815063477
10.825695514678955,0.34111130237579346,-1.3639931678771973,1.4346206188201904,-0.7468761205673218,0.0646374523639679,-0.9017419815063477
10.845766305923462,0.341400682926178,-1.3620179891586304,1.4348002672195435,-0.7468491196632385,0.06409893184900284,-0.9016035199165344
10.86581826210022,0.3380701541900635,-1.362614393234253,1.4370253086090088,-0.7460463047027588,0.06285383552312851,-0.901467502117157
10.885907173156738,0.3380701541900635,-1.362614393234253,1.4370253086090088,-0.7460463047027588,0.06285383552312851,-0.901467502117157
10.90597677230835,0.3381761312484741,-1.3637337684631348,1.4366809129714966,-0.7460524439811707,0.06334245204925537,-0.9015083909034729
10.92605996131897,0.3381761312484741,-1.3637337684631348,1.4366809129714966,-0.7460524439811707,0.06334245204925537,-0.9015083909034729
10.946139574050903,0.3385518789291382,-1.364833116531372,1.4369491338729858,-0.7456332445144653,0.06241285055875778,-0.9012250304222107
10.966216087341309,0.3385518789291382,-1.364833116531372,1.4369491338729858,-0.7456332445144653,0.06241285055875778,-0.9012250304222107
10.98630428314209,0.33865875005722046,-1.3638583421707153,1.4371037483215332,-0.7452996969223022,0.061915501952171326,-0.9013847708702087
11.006365299224854,0.3386915922164917,-1.364844560623169,1.4364408254623413,-0.7463279962539673,0.06328253448009491,-0.9016443490982056
11.026453971862793,0.3386915922164917,-1.364844560623169,1.4364408254623413,-0.7463279962539673,0.06328253448009491,-0.9016443490982056
11.046519994735718,0.3378019332885742,-1.364013671875,1.4376815557479858,-0.7456242442131042,0.0616602748632431,-0.9004610776901245
11.066600799560547,0.3378019332885742,-1.364013671875,1.4376815557479858,-0.7456242442131042,0.0616602748632431,-0.9004610776901245
11.086681365966797,0.33779698610305786,-1.3644325733184814,1.4372628927230835,-0.7466315031051636,0.06233593821525574,-0.9007874131202698
11.106754779815674,0.33779698610305786,-1.3644325733184814,1.4372628927230835,-0.7466315031051636,0.06233593821525574,-0.9007874131202698
11.12682819366455,0.3382692337036133,-1.3670375347137451,1.4361432790756226,-0.7467931509017944,0.0633748322725296,-0.9013331532478333
11.146896362304688,0.33703911304473877,-1.3670670986175537,1.4370588064193726,-0.7465065717697144,0.06263233721256256,-0.9012971520423889
11.166984558105469,0.33703911304473877,-1.3670670986175537,1.4370588064193726,-0.7465065717697144,0.06263233721256256,-0.9012971520423889
11.187061786651611,0.33691537380218506,-1.3658063411712646,1.4372085332870483,-0.7465927600860596,0.061890169978141785,-0.9012601375579834
11.20714521408081,0.33691537380218506,-1.3658063411712646,1.4372085332870483,-0.7465927600860596,0.061890169978141785,-0.9012601375579834
11.227237224578857,0.3379676938056946,-1.3680882453918457,1.4370331764221191,-0.7468074560165405,0.061674609780311584,-0.9006062150001526
11.247285842895508,0.3379676938056946,-1.3680882453918457,1.4370331764221191,-0.7468074560165405,0.061674609780311584,-0.9006062150001526
11.26737666130066,0.3381946086883545,-1.3685078620910645,1.437508463859558,-0.746973991394043,0.062173694372177124,-0.9003552794456482
11.287438869476318,0.33823585510253906,-1.3684179782867432,1.4373348951339722,-0.7474205493927002,0.0623263418674469,-0.9005506634712219
11.307523965835571,0.33823585510253906,-1.3684179782867432,1.4373348951339722,-0.7474205493927002,0.0623263418674469,-0.9005506634712219
11.327584505081177,0.3386431932449341,-1.3677046298980713,1.4377230405807495,-0.7472267150878906,0.062240347266197205,-0.9004138112068176
11.347672700881958,0.3386431932449341,-1.3677046298980713,1.4377230405807495,-0.7472267150878906,0.062240347266197205,-0.9004138112068176
11.367748260498047,0.3374210596084595,-1.3661532402038574,1.4377731084823608,-0.7472037076950073,0.06171552836894989,-0.9004294276237488
11.388008832931519,0.3374210596084595,-1.3661532402038574,1.4377731084823608,-0.7472037076950073,0.06171552836894989,-0.9004294276237488
11.40815782546997,0.32912886142730713,-1.3634573221206665,1.4416521787643433,-0.7457419633865356,0.059555783867836,-0.9007865786552429
11.42818808555603,0.3354393243789673,-1.3707948923110962,1.4401828050613403,-0.7454359531402588,0.06105352193117142,-0.89952152967453
11.448288679122925,0.3354393243789673,-1.3707948923110962,1.4401828050613403,-0.7454359531402588,0.06105352193117142,-0.89952152967453
11.468357563018799,0.3354799747467041,-1.3660356998443604,1.439477801322937,-0.7467386722564697,0.05950862169265747,-0.8995593190193176
11.488432884216309,0.3354799747467041,-1.3660356998443604,1.439477801322937,-0.7467386722564697,0.05950862169265747,-0.8995593190193176
11.508511066436768,0.33699244260787964,-1.36936354637146,1.4387842416763306,-0.7473406195640564,0.06043234467506409,-0.8994192481040955
11.529566287994385,0.3375207781791687,-1.3678429126739502,1.4397958517074585,-0.7466678619384766,0.060083016753196716,-0.8996565937995911
11.549654483795166,0.3375207781791687,-1.3678429126739502,1.4397958517074585,-0.7466678619384766,0.060083016753196716,-0.8996565937995911
11.569707870483398,0.3369050621986389,-1.3693130016326904,1.4404693841934204,-0.7459690570831299,0.060656122863292694,-0.8998016715049744
11.58979606628418,0.3369050621986389,-1.3693130016326904,1.4404693841934204,-0.7459690570831299,0.060656122863292694,-0.8998016715049744
11.609870910644531,0.3377917408943176,-1.3735499382019043,1.4403501749038696,-0.7460496425628662,0.06069187819957733,-0.8983767032623291
11.62994909286499,0.3377917408943176,-1.3735499382019043,1.4403501749038696,-0.7460496425628662,0.06069187819957733,-0.8983767032623291
11.650086879730225,0.3360980153083801,-1.3684911727905273,1.4394888877868652,-0.747763454914093,0.060691073536872864,-0.8991499543190002
11.670108556747437,0.3364250659942627,-1.3687007427215576,1.4391361474990845,-0.7477960586547852,0.06012587249279022,-0.8990862965583801
11.69022798538208,0.3364250659942627,-1.3687007427215576,1.4391361474990845,-0.7477960586547852,0.06012587249279022,-0.8990862965583801
11.710337162017822,0.3369370102882385,-1.3706709146499634,1.4381386041641235,-0.7489385604858398,0.06128964573144913,-0.8992924094200134
11.730439186096191,0.3369370102882385,-1.3706709146499634,1.4381386041641235,-0.7489385604858398,0.06128964573144913,-0.8992924094200134
11.750506401062012,0.33782702684402466,-1.373370885848999,1.4405878782272339,-0.7470204830169678,0.06038648635149002,-0.897590696811676
11.770599603652954,0.33782702684402466,-1.373370885848999,1.4405878782272339,-0.7470204830169678,0.06038648635149002,-0.897590696811676
11.790681600570679,0.335521399974823,-1.3692309856414795,1.4408376216888428,-0.7479369044303894,0.05944790691137314,-0.8978762030601501
11.810738563537598,0.33712971210479736,-1.3712737560272217,1.440487027168274,-0.7483267784118652,0.05979766696691513,-0.8980322480201721
11.830830335617065,0.33712971210479736,-1.3712737560272217,1.440487027168274,-0.7483267784118652,0.05979766696691513,-0.8980322480201721
11.850891351699829,0.33672308921813965,-1.3730220794677734,1.440769076347351,-0.7479054927825928,0.05973079800605774,-0.8981114625930786
11.870972633361816,0.33672308921813965,-1.3730220794677734,1.440769076347351,-0.7479054927825928,0.05973079800605774,-0.8981114625930786
11.891035556793213,0.336323618888855,-1.3726449012756348,1.4424492120742798,-0.7464067339897156,0.05821169912815094,-0.8967761397361755
11.911107778549194,0.336323618888855,-1.3726449012756348,1.4424492120742798,-0.7464067339897156,0.05821169912815094,-0.8967761397361755
11.931178331375122,0.3355082869529724,-1.3705966472625732,1.44083571434021,-0.7486491203308105,0.0593516081571579,-0.8975170254707336
11.951233148574829,0.3357175588607788,-1.3713552951812744,1.4415127038955688,-0.748323380947113,0.05924539268016815,-0.8976418375968933
11.971314430236816,0.3357175588607788,-1.3713552951812744,1.4415127038955688,-0.748323380947113,0.05924539268016815,-0.8976418375968933
11.991368055343628,0.33521735668182373,-1.3699462413787842,1.4432286024093628,-0.7471799850463867,0.05826786905527115,-0.8976693153381348
12.01145601272583,0.33521735668182373,-1.3699462413787842,1.4432286024093628,-0.7471799850463867,0.05826786905527115,-0.8976693153381348
12.031516313552856,0.33516794443130493,-1.3708343505859375,1.4418412446975708,-0.7480567097663879,0.058668702840805054,-0.8976999521255493
12.051595687866211,0.33516794443130493,-1.3708343505859375,1.4418412446975708,-0.7480567097663879,0.058668702840805054,-0.8976999521255493
12.07166600227356,0.33461254835128784,-1.372633934020996,1.4429739713668823,-0.7472696304321289,0.05839058756828308,-0.8972131013870239
12.09171438217163,0.33464425802230835,-1.372178554534912,1.4422262907028198,-0.7484198808670044,0.05942940711975098,-0.8969611525535583
12.111802577972412,0.33464425802230835,-1.372178554534912,1.4422262907028198,-0.7484198808670044,0.05942940711975098,-0.8969611525535583
12.13186001777649,0.33441197872161865,-1.3725385665893555,1.4425371885299683,-0.7483256459236145,0.058278635144233704,-0.8967748284339905
12.15193796157837,0.33441197872161865,-1.3725385665893555,1.4425371885299683,-0.7483256459236145,0.058278635144233704,-0.8967748284339905
12.171998023986816,0.33500730991363525,-1.373049259185791,1.4426774978637695,-0.7482879161834717,0.05813334882259369,-0.8967195749282837
12.192079305648804,0.33500730991363525,-1.373049259185791,1.4426774978637695,-0.7482879161834717,0.05813334882259369,-0.8967195749282837
12.212157487869263,0.3346205949783325,-1.3721137046813965,1.4440844058990479,-0.74718177318573,0.056321315467357635,-0.8958550691604614
12.232202291488647,0.33331990242004395,-1.372730016708374,1.4432069063186646,-0.748878002166748,0.05722110718488693,-0.8960537314414978
12.252298831939697,0.33331990242004395,-1.372730016708374,1.4432069063186646,-0.748878002166748,0.05722110718488693,-0.8960537314414978
12.272345542907715,0.33420711755752563,-1.3724931478500366,1.4436293840408325,-0.7483388781547546,0.05734962224960327,-0.8959882855415344
12.292432069778442,0.33420711755752563,-1.3724931478500366,1.4436293840408325,-0.7483388781547546,0.05734962224960327,-0.8959882855415344
12.312512159347534,0.3348309397697449,-1.3754667043685913,1.4426871538162231,-0.7489244937896729,0.05879645794630051,-0.8962944746017456
12.332579851150513,0.3348309397697449,-1.3754667043685913,1.4426871538162231,-0.7489244937896729,0.05879645794630051,-0.8962944746017456
12.35269045829773,0.3345111608505249,-1.3746744394302368,1.4428216218948364,-0.7491745948791504,0.05793984234333038,-0.8964692950248718
12.372727870941162,0.333626389503479,-1.375079870223999,1.4424079656600952,-0.7494546175003052,0.05789933353662491,-0.8966644406318665
12.392814874649048,0.333626389503479,-1.375079870223999,1.4424079656600952,-0.7494546175003052,0.05789933353662491,-0.8966644406318665
12.412881135940552,0.33310163021087646,-1.3758735656738281,1.4441335201263428,-0.7485436201095581,0.05731063336133957,-0.8962080478668213
12.432964086532593,0.33310163021087646,-1.3758735656738281,1.4441335201263428,-0.7485436201095581,0.05731063336133957,-0.8962080478668213
12.45305323600769,0.3316180109977722,-1.3757447004318237,1.4445513486862183,-0.7486528158187866,0.05623455345630646,-0.8957199454307556
12.473128318786621,0.3316180109977722,-1.3757447004318237,1.4445513486862183,-0.7486528158187866,0.05623455345630646,-0.8957199454307556
12.49320387840271,0.33236807584762573,-1.3753666877746582,1.4442309141159058,-0.7491551041603088,0.056135840713977814,-0.8955729603767395
12.513255834579468,0.33358854055404663,-1.3778023719787598,1.4432553052902222,-0.7496993541717529,0.056944407522678375,-0.89557945728302
12.533345222473145,0.33358854055404663,-1.3778023719787598,1.4432553052902222,-0.7496993541717529,0.056944407522678375,-0.89557945728302
12.553416728973389,0.3338373303413391,-1.37831449508667,1.4443442821502686,-0.7490602731704712,0.057196587324142456,-0.8959705233573914
12.573494672775269,0.3338373303413391,-1.37831449508667,1.4443442821502686,-0.7490602731704712,0.057196587324142456,-0.8959705233573914
12.59357500076294,0.33248400688171387,-1.3787894248962402,1.4441072940826416,-0.7491743564605713,0.057383909821510315,-0.8957794904708862
12.613653421401978,0.33248400688171387,-1.3787894248962402,1.4441072940826416,-0.7491743564605713,0.057383909821510315,-0.8957794904708862
12.63373589515686,0.33159196376800537,-1.3729028701782227,1.4452563524246216,-0.748888373374939,0.055202603340148926,-0.8947186470031738
12.653784990310669,0.3329005837440491,-1.3759762048721313,1.4454008340835571,-0.748976469039917,0.05511324107646942,-0.8944448828697205
12.673877477645874,0.3329005837440491,-1.3759762048721313,1.4454008340835571,-0.748976469039917,0.05511324107646942,-0.8944448828697205
12.693942070007324,0.33383333683013916,-1.3799469470977783,1.4442440271377563,-0.749633252620697,0.057611703872680664,-0.8949102163314819
12.714031457901001,0.33383333683013916,-1.3799469470977783,1.4442440271377563,-0.749633252620697,0.057611703872680664,-0.8949102163314819
12.734113454818726,0.33267325162887573,-1.379117727279663,1.4443999528884888,-0.7502428889274597,0.05777730047702789,-0.895423412322998
12.754189491271973,0.33267325162887573,-1.379117727279663,1.4443999528884888,-0.7502428889274597,0.05777730047702789,-0.895423412322998
12.774264812469482,0.3324955105781555,-1.3811919689178467,1.4463647603988647,-0.7483071088790894,0.05577409267425537,-0.8939147591590881
12.79431700706482,0.3276861906051636,-1.3756917715072632,1.4472476243972778,-0.7490940093994141,0.05544286221265793,-0.8945966362953186
12.81440782546997,0.3276861906051636,-1.3756917715072632,1.4472476243972778,-0.7490940093994141,0.05544286221265793,-0.8945966362953186
12.834472894668579,0.3291019797325134,-1.3775086402893066,1.4465299844741821,-0.7497574090957642,0.055987149477005005,-0.8945021629333496
12.854561805725098,0.3291019797325134,-1.3775086402893066,1.4465299844741821,-0.7497574090957642,0.055987149477005005,-0.8945021629333496
12.87464690208435,0.33086639642715454,-1.3780097961425781,1.4458991289138794,-0.7500776648521423,0.05510950833559036,-0.8943511843681335
12.894713878631592,0.33086639642715454,-1.3780097961425781,1.4458991289138794,-0.7500776648521423,0.05510950833559036,-0.8943511843681335
12.914787530899048,0.3322165608406067,-1.381975769996643,1.4475393295288086,-0.7487518787384033,0.05455366522073746,-0.8928892016410828
12.93484115600586,0.33231425285339355,-1.3782837390899658,1.4460958242416382,-0.7507391571998596,0.055011145770549774,-0.8932600617408752
12.954940557479858,0.33231425285339355,-1.3782837390899658,1.4460958242416382,-0.7507391571998596,0.055011145770549774,-0.8932600617408752
12.975000143051147,0.3316032886505127,-1.379441261291504,1.4487384557724,-0.7488719820976257,0.053893133997917175,-0.893133819103241
12.995089292526245,0.3316032886505127,-1.379441261291504,1.4487384557724,-0.7488719820976257,0.053893133997917175,-0.893133819103241
13.01516842842102,0.3306182026863098,-1.378710150718689,1.4480243921279907,-0.7493245601654053,0.05429881811141968,-0.893130362033844
13.035370349884033,0.3306182026863098,-1.378710150718689,1.4480243921279907,-0.7493245601654053,0.05429881811141968,-0.893130362033844
13.055460929870605,0.32958781719207764,-1.3780665397644043,1.447450041770935,-0.7509947419166565,0.054478392004966736,-0.8928058743476868
13.075511932373047,0.3301132321357727,-1.3772633075714111,1.4484678506851196,-0.7498891949653625,0.052955254912376404,-0.8924434185028076
13.09560251235962,0.3301132321357727,-1.3772633075714111,1.4484678506851196,-0.7498891949653625,0.052955254912376404,-0.8924434185028076
13.115672588348389,0.32886648178100586,-1.379919409751892,1.4471720457077026,-0.7508558034896851,0.054018400609493256,-0.8926418423652649
13.135748624801636,0.32886648178100586,-1.379919409751892,1.4471720457077026,-0.7508558034896851,0.054018400609493256,-0.8926418423652649
13.155826807022095,0.33066850900650024,-1.381867527961731,1.4476643800735474,-0.7506515979766846,0.05371354520320892,-0.8925252556800842
13.176865100860596,0.3305321931838989,-1.3812490701675415,1.4489723443984985,-0.7497797012329102,0.053313761949539185,-0.8926538825035095
13.196974754333496,0.3305321931838989,-1.3812490701675415,1.4489723443984985,-0.7497797012329102,0.053313761949539185,-0.8926538825035095
13.21703028678894,0.330363929271698,-1.382981300354004,1.449026346206665,-0.7494479417800903,0.0539834201335907,-0.8923771977424622
13.237112045288086,0.330363929271698,-1.382981300354004,1.449026346206665,-0.7494479417800903,0.0539834201335907,-0.8923771977424622
13.257197618484497,0.32959920167922974,-1.3796985149383545,1.448407769203186,-0.7508775591850281,0.05401594936847687,-0.8927035927772522
13.277280569076538,0.32959920167922974,-1.3796985149383545,1.448407769203186,-0.7508775591850281,0.05401594936847687,-0.8927035927772522
13.29735779762268,0.3289964199066162,-1.3795123100280762,1.4484068155288696,-0.7504824995994568,0.05376763641834259,-0.8925139904022217
13.31751561164856,0.32838010787963867,-1.381697177886963,1.449204444885254,-0.750358521938324,0.052887991070747375,-0.8923468589782715
13.337608337402344,0.32838010787963867,-1.381697177886963,1.449204444885254,-0.750358521938324,0.052887991070747375,-0.8923468589782715
13.357656240463257,0.3287394642829895,-1.3823415040969849,1.449236273765564,-0.7500952482223511,0.052529171109199524,-0.892030656337738
13.377734422683716,0.3287394642829895,-1.3823415040969849,1.449236273765564,-0.7500952482223511,0.052529171109199524,-0.892030656337738
13.397809743881226,0.32887983322143555,-1.3816572427749634,1.4493452310562134,-0.7508141994476318,0.05293931066989899,-0.8919624090194702
13.417904376983643,0.32887983322143555,-1.3816572427749634,1.4493452310562134,-0.7508141994476318,0.05293931066989899,-0.8919624090194702
13.437987327575684,0.3294820785522461,-1.3823449611663818,1.449381947517395,-0.7510604858398438,0.05298765003681183,-0.8918766379356384
13.457993030548096,0.3300830125808716,-1.3834645748138428,1.4481290578842163,-0.7517370581626892,0.05278386175632477,-0.8919814229011536
13.478084802627563,0.3300830125808716,-1.3834645748138428,1.4481290578842163,-0.7517370581626892,0.05278386175632477,-0.8919814229011536
13.498134136199951,0.3302469849586487,-1.384981632232666,1.4488131999969482,-0.7510880827903748,0.05361451208591461,-0.8920031189918518
13.518229722976685,0.3302469849586487,-1.384981632232666,1.4488131999969482,-0.7510880827903748,0.05361451208591461,-0.8920031189918518
13.538302659988403,0.3305317759513855,-1.3847129344940186,1.4492143392562866,-0.750901460647583,0.053486987948417664,-0.8921758532524109
13.5583815574646,0.3305317759513855,-1.3847129344940186,1.4492143392562866,-0.750901460647583,0.053486987948417664,-0.8921758532524109
13.578466415405273,0.3287352919578552,-1.3832379579544067,1.4499720335006714,-0.7506320476531982,0.05293606221675873,-0.8920853734016418
13.598523616790771,0.32870322465896606,-1.3843963146209717,1.4505963325500488,-0.7503247857093811,0.05238109081983566,-0.8910753130912781
13.61861777305603,0.32870322465896606,-1.3843963146209717,1.4505963325500488,-0.7503247857093811,0.05238109081983566,-0.8910753130912781
13.63867473602295,0.3297167420387268,-1.3824996948242188,1.4502522945404053,-0.7513216733932495,0.0523386225104332,-0.8913655877113342
13.658765316009521,0.3297167420387268,-1.3824996948242188,1.4502522945404053,-0.7513216733932495,0.0523386225104332,-0.8913655877113342
13.678863763809204,0.329149067401886,-1.3840830326080322,1.4515634775161743,-0.7500691413879395,0.05199156701564789,-0.8913542628288269
13.698915243148804,0.329149067401886,-1.3840830326080322,1.4515634775161743,-0.7500691413879395,0.05199156701564789,-0.8913542628288269
13.718991041183472,0.3263534903526306,-1.382256269454956,1.4514633417129517,-0.7504767775535583,0.05145912617444992,-0.8918811678886414
13.73903751373291,0.32845640182495117,-1.3858038187026978,1.4508047103881836,-0.7504321336746216,0.05183291435241699,-0.8913813233375549
13.759130001068115,0.32845640182495117,-1.3858038187026978,1.4508047103881836,-0.7504321336746216,0.05183291435241699,-0.8913813233375549
13.779182434082031,0.32786667346954346,-1.3819223642349243,1.452864646911621,-0.7494122385978699,0.04940253496170044,-0.8899968266487122
13.799269199371338,0.32786667346954346,-1.3819223642349243,1.452864646911621,-0.7494122385978699,0.04940253496170044,-0.8899968266487122
13.819358587265015,0.32835978269577026,-1.3845367431640625,1.4511278867721558,-0.7511738538742065,0.050881341099739075,-0.8904488682746887
13.839433193206787,0.32835978269577026,-1.3845367431640625,1.4511278867721558,-0.7511738538742065,0.050881341099739075,-0.8904488682746887
13.859519958496094,0.3272591233253479,-1.3832286596298218,1.4525812864303589,-0.7509005069732666,0.05022291839122772,-0.8906566500663757
13.87957239151001,0.3284781575202942,-1.3859492540359497,1.4520800113677979,-0.7507517337799072,0.050731122493743896,-0.8905015587806702
13.899669408798218,0.3284781575202942,-1.3859492540359497,1.4520800113677979,-0.7507517337799072,0.050731122493743896,-0.8905015587806702
13.919723987579346,0.3289276957511902,-1.3902173042297363,1.4518275260925293,-0.7504684329032898,0.05153830349445343,-0.8895177245140076
13.939807653427124,0.3289276957511902,-1.3902173042297363,1.4518275260925293,-0.7504684329032898,0.05153830349445343,-0.8895177245140076
13.959893703460693,0.3268158435821533,-1.3842626810073853,1.4524791240692139,-0.7516406774520874,0.050662145018577576,-0.8899403214454651
13.979972839355469,0.3268158435821533,-1.3842626810073853,1.4524791240692139,-0.7516406774520874,0.050662145018577576,-0.8899403214454651
14.000058650970459,0.32668280601501465,-1.3855328559875488,1.4511665105819702,-0.7530479431152344,0.050976820290088654,-0.8900488018989563
14.020116090774536,0.327101469039917,-1.3856698274612427,1.453684687614441,-0.7508814334869385,0.049546316266059875,-0.889078676700592
14.040205478668213,0.327101469039917,-1.3856698274612427,1.453684687614441,-0.7508814334869385,0.049546316266059875,-0.889078676700592
14.060262680053711,0.32828056812286377,-1.3892284631729126,1.4528108835220337,-0.7516046762466431,0.05053520202636719,-0.8885288834571838
14.080353021621704,0.32828056812286377,-1.3892284631729126,1.4528108835220337,-0.7516046762466431,0.05053520202636719,-0.8885288834571838
14.10042428970337,0.32752281427383423,-1.386861801147461,1.453230381011963,-0.752105712890625,0.05041170120239258,-0.8890225291252136
14.120508670806885,0.32752281427383423,-1.386861801147461,1.453230381011963,-0.752105712890625,0.05041170120239258,-0.8890225291252136
14.140581369400024,0.32766181230545044,-1.3870368003845215,1.4522169828414917,-0.7525210380554199,0.05029261112213135,-0.8893387913703918
14.160645484924316,0.3274837136268616,-1.3872921466827393,1.4545978307724,-0.7510662078857422,0.049233026802539825,-0.8883799910545349
14.180745363235474,0.3274837136268616,-1.3872921466827393,1.4545978307724,-0.7510662078857422,0.049233026802539825,-0.8883799910545349
14.200809478759766,0.3274230360984802,-1.3862932920455933,1.4537514448165894,-0.7523832321166992,0.04922811686992645,-0.888241708278656
14.220896244049072,0.3274230360984802,-1.3862932920455933,1.4537514448165894,-0.7523832321166992,0.04922811686992645,-0.888241708278656
14.240976095199585,0.32621634006500244,-1.3855305910110474,1.4540222883224487,-0.7522546052932739,0.048860132694244385,-0.8882598280906677
14.261053562164307,0.32621634006500244,-1.3855305910110474,1.4540222883224487,-0.7522546052932739,0.048860132694244385,-0.8882598280906677
14.281135320663452,0.3249189853668213,-1.3865399360656738,1.4540210962295532,-0.752600908279419,0.04933616518974304,-0.8886922597885132
14.301192045211792,0.3254290223121643,-1.3847832679748535,1.4549363851547241,-0.7520353198051453,0.04788009822368622,-0.8880861401557922
14.321293830871582,0.3254290223121643,-1.3847832679748535,1.4549363851547241,-0.7520353198051453,0.04788009822368622,-0.8880861401557922
14.341347217559814,0.3262576460838318,-1.3901185989379883,1.4535589218139648,-0.7527375221252441,0.04949292540550232,-0.8882814049720764
14.36143970489502,0.3262576460838318,-1.3901185989379883,1.4535589218139648,-0.7527375221252441,0.04949292540550232,-0.8882814049720764
14.381506204605103,0.32608944177627563,-1.3905274868011475,1.4541422128677368,-0.7525346279144287,0.049478352069854736,-0.8878238201141357
14.401578426361084,0.32608944177627563,-1.3905274868011475,1.4541422128677368,-0.7525346279144287,0.049478352069854736,-0.8878238201141357
14.42167592048645,0.32585132122039795,-1.3883180618286133,1.4550868272781372,-0.7525311708450317,0.04823525995016098,-0.8876315951347351
14.441730737686157,0.3265265226364136,-1.3887643814086914,1.4551936388015747,-0.7526039481163025,0.047854870557785034,-0.8874426484107971
14.461823463439941,0.3265265226364136,-1.3887643814086914,1.4551936388015747,-0.7526039481163025,0.047854870557785034,-0.8874426484107971
14.481950283050537,0.32608699798583984,-1.388127088546753,1.457227349281311,-0.7513413429260254,0.0472717359662056,-0.8875221610069275
14.502001523971558,0.32608699798583984,-1.388127088546753,1.457227349281311,-0.7513413429260254,0.0472717359662056,-0.8875221610069275
14.522072076797485,0.3254200220108032,-1.39180588722229,1.4554381370544434,-0.7522463798522949,0.04930616915225983,-0.88747638463974
14.542159080505371,0.3254200220108032,-1.39180588722229,1.4554381370544434,-0.7522463798522949,0.04930616915225983,-0.88747638463974
14.56223177909851,0.32566404342651367,-1.3899855613708496,1.4541383981704712,-0.7539317011833191,0.04913151264190674,-0.8874832987785339
14.582289457321167,0.32599371671676636,-1.3888911008834839,1.4558334350585938,-0.7526935935020447,0.047393426299095154,-0.8867426514625549
14.602378129959106,0.32599371671676636,-1.3888911008834839,1.4558334350585938,-0.7526935935020447,0.047393426299095154,-0.8867426514625549
14.62245512008667,0.3251802325248718,-1.3894069194793701,1.4566848278045654,-0.7523907423019409,0.04804937541484833,-0.8873952031135559
14.642534971237183,0.3251802325248718,-1.3894069194793701,1.4566848278045654,-0.7523907423019409,0.04804937541484833,-0.8873952031135559
14.662601709365845,0.32393884658813477,-1.3888250589370728,1.4568555355072021,-0.7520900964736938,0.048077963292598724,-0.8878615498542786
14.682846546173096,0.32393884658813477,-1.3888250589370728,1.4568555355072021,-0.7520900964736938,0.048077963292598724,-0.8878615498542786
14.7029447555542,0.31792134046554565,-1.386305809020996,1.4579962491989136,-0.7526236772537231,0.04714693874120712,-0.8880144357681274
14.723012924194336,0.32231462001800537,-1.3912150859832764,1.458836555480957,-0.7510790228843689,0.047051191329956055,-0.8864506483078003
14.743104696273804,0.32231462001800537,-1.3912150859832764,1.458836555480957,-0.7510790228843689,0.047051191329956055,-0.8864506483078003
14.763187885284424,0.3225952982902527,-1.387641429901123,1.4588030576705933,-0.7515937089920044,0.04582548141479492,-0.8866390585899353
14.783267974853516,0.3225952982902527,-1.387641429901123,1.4588030576705933,-0.7515937089920044,0.04582548141479492,-0.8866390585899353
14.803351163864136,0.3245532512664795,-1.3917686939239502,1.4558738470077515,-0.7538100481033325,0.0478878915309906,-0.886799156665802
14.824092864990234,0.3250006437301636,-1.3913540840148926,1.4574350118637085,-0.7528640031814575,0.04631679505109787,-0.886585533618927
14.844184637069702,0.3250006437301636,-1.3913540840148926,1.4574350118637085,-0.7528640031814575,0.04631679505109787,-0.886585533618927
14.864241600036621,0.3251723647117615,-1.392925500869751,1.4570441246032715,-0.7529221773147583,0.04774123430252075,-0.8869860768318176
14.884342432022095,0.3251723647117615,-1.392925500869751,1.4570441246032715,-0.7529221773147583,0.04774123430252075,-0.8869860768318176
14.9044189453125,0.32451534271240234,-1.3936729431152344,1.4577258825302124,-0.7526374459266663,0.047752782702445984,-0.8866642117500305
14.924495458602905,0.32451534271240234,-1.3936729431152344,1.4577258825302124,-0.7526374459266663,0.047752782702445984,-0.8866642117500305
