liuyurong129/humanoid-gym/humanoid/data/target_q_20250521-002936.csv
timestamp,joint_1,joint_2,joint_3,joint_4,joint_5,joint_6
0.00015997886657714844,0.0,0.0,0.0,0.0,0.0,0.0
0.020259857177734375,0.0,0.0,0.0,0.0,0.0,0.0
0.04032254219055176,0.0,0.0,0.0,0.0,0.0,0.0
0.06036877632141113,0.3340471684932709,-1.4169490337371826,0.6629611253738403,2.44537615776062,-0.1563478708267212,1.390500783920288
0.0804908275604248,-0.27733778953552246,-1.8860507011413574,1.545003890991211,2.347015142440796,0.4021807909011841,1.494983196258545
0.10055279731750488,-0.381813645362854,-1.9668629169464111,1.767702341079712,2.156492233276367,0.5480348467826843,1.5440001487731934
0.1207129955291748,-0.38853970170021057,-1.9603861570358276,1.6877655982971191,2.11565899848938,0.5162777900695801,1.5517070293426514
0.1407325267791748,-0.3869239091873169,-1.9721782207489014,1.7182657718658447,2.127790927886963,0.5140368938446045,1.5453863143920898
0.16080927848815918,-0.38393235206604004,-1.979109287261963,1.752586841583252,2.1307902336120605,0.523769199848175,1.5432953834533691
0.18096923828125,-0.37626805901527405,-1.9762768745422363,1.7788406610488892,2.1405365467071533,0.5431492924690247,1.5422977209091187
0.20094537734985352,-0.37940338253974915,-1.981039047241211,1.807053804397583,2.1428470611572266,0.5447220802307129,1.5389324426651
0.22103595733642578,-0.37846049666404724,-1.9808769226074219,1.8125728368759155,2.1447291374206543,0.5485470294952393,1.539149522781372
0.24109911918640137,-0.37597817182540894,-1.9758374691009521,1.7824004888534546,2.1227173805236816,0.5419718027114868,1.5439085960388184
0.26117682456970215,-0.37477582693099976,-1.9729487895965576,1.7569053173065186,2.1293301582336426,0.5345597267150879,1.543929100036621
0.2812204360961914,-0.379680335521698,-1.9738222360610962,1.7577763795852661,2.132725715637207,0.5324355363845825,1.5429255962371826
0.30130887031555176,-0.37511754035949707,-1.9724653959274292,1.7604291439056396,2.1336889266967773,0.537492036819458,1.5435272455215454
0.32147693634033203,-0.3742184340953827,-1.9772543907165527,1.7970339059829712,2.1427106857299805,0.5450740456581116,1.5390894412994385
0.34150266647338867,-0.37952300906181335,-1.9732214212417603,1.7689129114151,2.1309094429016113,0.5370356440544128,1.5428268909454346
0.3615550994873047,-0.379086434841156,-1.975541353225708,1.7507010698318481,2.127234697341919,0.5256363153457642,1.5422008037567139
0.3817176818847656,-0.37651050090789795,-1.9754364490509033,1.7571592330932617,2.1317362785339355,0.5312987565994263,1.5420458316802979
0.40172672271728516,-0.3744620084762573,-1.9783422946929932,1.778503656387329,2.1303887367248535,0.5373741388320923,1.5407307147979736
0.4217822551727295,-0.3705679178237915,-1.9755895137786865,1.7785499095916748,2.1388344764709473,0.5397648811340332,1.539003849029541
0.44185853004455566,-0.36716049909591675,-1.97676682472229,1.786568284034729,2.137493133544922,0.5431138873100281,1.5385074615478516
0.4619293212890625,-0.36369115114212036,-1.9763832092285156,1.7929061651229858,2.130704641342163,0.5455676317214966,1.5383996963500977
0.48200035095214844,-0.3633185625076294,-1.976446509361267,1.8012317419052124,2.134674310684204,0.5482112169265747,1.5369527339935303
0.5020492076873779,-0.3744671642780304,-1.9702774286270142,1.7563018798828125,2.1218695640563965,0.5334993600845337,1.5419414043426514
0.5221576690673828,-0.3714350461959839,-1.970313310623169,1.7531020641326904,2.1282713413238525,0.5328893661499023,1.5401644706726074
0.5422542095184326,-0.36553534865379333,-1.9733988046646118,1.7714407444000244,2.132925510406494,0.5385929346084595,1.5377250909805298
0.5624463558197021,-0.3684142529964447,-1.9787094593048096,1.7850110530853271,2.1306867599487305,0.5347785949707031,1.5354727506637573
0.5824005603790283,-0.36807724833488464,-1.9729411602020264,1.7632839679718018,2.1284916400909424,0.5341764092445374,1.5379858016967773
0.6025471687316895,-0.36566486954689026,-1.9698354005813599,1.7612156867980957,2.1312332153320312,0.5390818119049072,1.5384896993637085
0.6225628852844238,-0.3645225465297699,-1.9734187126159668,1.7824122905731201,2.1366024017333984,0.5427420735359192,1.5354161262512207
0.6426496505737305,-0.3603583872318268,-1.976704716682434,1.7977180480957031,2.1330947875976562,0.5445186495780945,1.5339806079864502
0.6626923084259033,-0.3629598915576935,-1.9730647802352905,1.782045841217041,2.130032539367676,0.5427598357200623,1.5349361896514893
0.6827878952026367,-0.3624584376811981,-1.96955144405365,1.766629934310913,2.127152442932129,0.5396110415458679,1.5365242958068848
0.7028598785400391,-0.3641691207885742,-1.9697940349578857,1.7636778354644775,2.1290555000305176,0.5359552502632141,1.536309003829956
0.722926139831543,-0.35880246758461,-1.9751046895980835,1.774748682975769,2.128596305847168,0.5356079339981079,1.5337836742401123
0.7431700229644775,-0.3620113730430603,-1.9730640649795532,1.7478539943695068,2.115823745727539,0.5257022380828857,1.5367895364761353
0.7632672786712646,-0.3663836121559143,-1.97404146194458,1.7454618215560913,2.120748519897461,0.5218013525009155,1.5356004238128662
0.7833244800567627,-0.3602728247642517,-1.9736366271972656,1.7824902534484863,2.139700174331665,0.5409520864486694,1.5318742990493774
0.8033850193023682,-0.35608839988708496,-1.9722697734832764,1.784637451171875,2.1283440589904785,0.5445615649223328,1.5328271389007568
0.8238029479980469,-0.3545420467853546,-1.9703922271728516,1.771031379699707,2.1265769004821777,0.53944993019104,1.5325623750686646
0.8438961505889893,-0.35193100571632385,-1.9705276489257812,1.7681068181991577,2.124789237976074,0.5375547409057617,1.5328292846679688
0.8639795780181885,-0.34990110993385315,-1.9770179986953735,1.7574176788330078,2.1042637825012207,0.5235323905944824,1.53352689743042
0.8840489387512207,-0.34710705280303955,-1.9771318435668945,1.7789475917816162,2.1291234493255615,0.5358982086181641,1.528315782546997
0.9040942192077637,-0.33636394143104553,-1.979046106338501,1.7911487817764282,2.1271402835845947,0.54249507188797,1.5280053615570068
0.9242048263549805,-0.3435634970664978,-1.9748075008392334,1.7792668342590332,2.1228084564208984,0.5388810634613037,1.5291411876678467
0.9443662166595459,-0.3482280373573303,-1.9715391397476196,1.7753942012786865,2.1294918060302734,0.5393784642219543,1.5285704135894775
0.9643797874450684,-0.3399433195590973,-1.972354531288147,1.7825109958648682,2.1243972778320312,0.5425519943237305,1.528383493423462
0.9844307899475098,-0.33385881781578064,-1.9734129905700684,1.766376256942749,2.124788761138916,0.5360655784606934,1.5285022258758545
1.004504919052124,-0.3420396149158478,-1.971687912940979,1.7672338485717773,2.125232696533203,0.5356319546699524,1.528116226196289
1.024582862854004,-0.3420882523059845,-1.9744749069213867,1.7910890579223633,2.130704402923584,0.5393577218055725,1.525317907333374
1.0446527004241943,-0.34133440256118774,-1.96931791305542,1.7903541326522827,2.13051176071167,0.5471278429031372,1.5262846946716309
1.0648126602172852,-0.3444306552410126,-1.9679696559906006,1.7794139385223389,2.1226017475128174,0.5435529947280884,1.528059482574463
1.0849084854125977,-0.342708021402359,-1.9669380187988281,1.7708213329315186,2.1242990493774414,0.5395987629890442,1.5273067951202393
1.1049816608428955,-0.3411955237388611,-1.9683576822280884,1.7618046998977661,2.119565963745117,0.5338616371154785,1.5273895263671875
1.1250462532043457,-0.3402661383152008,-1.9727944135665894,1.7880852222442627,2.125885486602783,0.5387018918991089,1.5241789817810059
1.1451246738433838,-0.3383021354675293,-1.9718401432037354,1.7851722240447998,2.123283863067627,0.5408754944801331,1.5250537395477295
1.1652014255523682,-0.3361572325229645,-1.9706225395202637,1.7692148685455322,2.1192409992218018,0.5348151326179504,1.5246663093566895
1.185286045074463,-0.3281088173389435,-1.9750714302062988,1.784973382949829,2.1188008785247803,0.5359653234481812,1.522140383720398
1.2053601741790771,-0.33186107873916626,-1.9721758365631104,1.773386001586914,2.1174867153167725,0.5364637970924377,1.5232361555099487
1.2257256507873535,-0.335721492767334,-1.9698200225830078,1.7733460664749146,2.123318672180176,0.539168119430542,1.5227711200714111
1.2458298206329346,-0.3328910768032074,-1.9723434448242188,1.786039113998413,2.127185106277466,0.5399817824363708,1.5204482078552246
1.2659084796905518,-0.3331258296966553,-1.9675657749176025,1.7711927890777588,2.120267868041992,0.5396112203598022,1.5231139659881592
1.2859692573547363,-0.3282555937767029,-1.9699454307556152,1.7970774173736572,2.1320338249206543,0.5473798513412476,1.5189789533615112
1.306053876876831,-0.3170166611671448,-1.968371868133545,1.788057565689087,2.1228015422821045,0.5488380193710327,1.5214629173278809
1.3261196613311768,-0.3032352328300476,-1.9728853702545166,1.7892303466796875,2.121002197265625,0.545998215675354,1.5189356803894043
1.3461720943450928,-0.30646899342536926,-1.9746668338775635,1.7921011447906494,2.1180198192596436,0.5418974161148071,1.5184707641601562
1.3662221431732178,-0.3218826651573181,-1.9650459289550781,1.7765276432037354,2.1193506717681885,0.5447528958320618,1.5206856727600098
1.3863027095794678,-0.32094958424568176,-1.9642324447631836,1.7737072706222534,2.1228437423706055,0.5441469550132751,1.520190954208374
1.406383752822876,-0.3165760636329651,-1.9641505479812622,1.7668631076812744,2.1156272888183594,0.5407218933105469,1.5205130577087402
1.4264771938323975,-0.321311354637146,-1.9690293073654175,1.7892968654632568,2.119908332824707,0.5448934435844421,1.5182983875274658
1.4465610980987549,-0.32024094462394714,-1.9670288562774658,1.788856029510498,2.1229469776153564,0.5457724332809448,1.5172014236450195
1.4666235446929932,-0.31782811880111694,-1.965184211730957,1.787304401397705,2.1210289001464844,0.5477577447891235,1.5178141593933105
1.4867053031921387,-0.30419307947158813,-1.9665403366088867,1.7766680717468262,2.110078811645508,0.5427157878875732,1.5167059898376465
1.506770372390747,-0.31309252977371216,-1.9685600996017456,1.7689414024353027,2.116819143295288,0.5361297726631165,1.5148866176605225
1.5268397331237793,-0.3143804967403412,-1.9691612720489502,1.7685259580612183,2.1102397441864014,0.5345511436462402,1.516270637512207
1.5469110012054443,-0.32257717847824097,-1.9680287837982178,1.7673563957214355,2.1113691329956055,0.5341004729270935,1.516279935836792
1.5669798851013184,-0.31801411509513855,-1.9679815769195557,1.7549278736114502,2.111530303955078,0.5302296876907349,1.5157663822174072
1.5870962142944336,-0.30877235531806946,-1.9715023040771484,1.8009270429611206,2.1274681091308594,0.5470412969589233,1.5108994245529175
1.6071786880493164,-0.31705760955810547,-1.9670898914337158,1.7856559753417969,2.120401382446289,0.5445722937583923,1.5136260986328125
1.6272368431091309,-0.31443318724632263,-1.9649207592010498,1.7740449905395508,2.120068311691284,0.5410370230674744,1.5139122009277344
1.647413730621338,-0.30805763602256775,-1.9680322408676147,1.807962417602539,2.1285364627838135,0.5498876571655273,1.5099520683288574
1.667419195175171,-0.31152334809303284,-1.962807297706604,1.7833982706069946,2.117238759994507,0.5444523096084595,1.513364553451538
1.6875276565551758,-0.3104042112827301,-1.9613618850708008,1.7622907161712646,2.104961633682251,0.538124680519104,1.515683650970459
1.7075979709625244,-0.3097054362297058,-1.9662644863128662,1.7849247455596924,2.1194019317626953,0.5438864231109619,1.5115267038345337
1.7276678085327148,-0.3092591464519501,-1.9634490013122559,1.7566828727722168,2.1114015579223633,0.5352814197540283,1.5133533477783203
1.7477355003356934,-0.3055800795555115,-1.9644906520843506,1.770419955253601,2.1192100048065186,0.5401309132575989,1.5109951496124268
1.7677943706512451,-0.2767128348350525,-1.9701907634735107,1.8033288717269897,2.1188852787017822,0.5548617839813232,1.5080492496490479
1.7879002094268799,-0.2912328839302063,-1.966143250465393,1.778211236000061,2.1147289276123047,0.5437516570091248,1.5083210468292236
1.8080809116363525,-0.3004540503025055,-1.9628214836120605,1.7878257036209106,2.125483512878418,0.5480049848556519,1.5077545642852783
1.828277587890625,-0.29212337732315063,-1.9666378498077393,1.8157364130020142,2.1273274421691895,0.556583821773529,1.5049316883087158
1.8483061790466309,-0.2941824495792389,-1.9668073654174805,1.8067291975021362,2.11783504486084,0.548703134059906,1.5053088665008545
1.868344783782959,-0.31083205342292786,-1.9610140323638916,1.760143756866455,2.1038084030151367,0.5329129099845886,1.5108721256256104
1.8883891105651855,-0.30647793412208557,-1.9600400924682617,1.7535052299499512,2.1162006855010986,0.5351033210754395,1.5096784830093384
1.9084734916687012,-0.30782225728034973,-1.9606229066848755,1.7514842748641968,2.1141180992126465,0.5329576730728149,1.5096527338027954
1.9285304546356201,-0.30284497141838074,-1.962754726409912,1.7610745429992676,2.1121280193328857,0.5342496633529663,1.5086721181869507
1.948608636856079,-0.29792290925979614,-1.9651647806167603,1.7837773561477661,2.1149654388427734,0.5435977578163147,1.5067622661590576
1.9687135219573975,-0.29292795062065125,-1.964345932006836,1.8003777265548706,2.12245512008667,0.550691545009613,1.5044705867767334
1.9887371063232422,-0.2958765923976898,-1.9605753421783447,1.7942737340927124,2.1207475662231445,0.551906943321228,1.505700945854187
2.008805274963379,-0.2875063717365265,-1.9605834484100342,1.7808265686035156,2.11775541305542,0.5465807318687439,1.5053956508636475
2.0288798809051514,-0.280740886926651,-1.9657576084136963,1.7722395658493042,2.106494426727295,0.5372128486633301,1.506103754043579
2.0489609241485596,-0.27985280752182007,-1.9672071933746338,1.791028618812561,2.120912551879883,0.5462271571159363,1.5026459693908691
2.0690500736236572,-0.28962773084640503,-1.9628040790557861,1.7800540924072266,2.1116926670074463,0.543134331703186,1.505135178565979
2.089136838912964,-0.283974826335907,-1.961360216140747,1.7642529010772705,2.1051344871520996,0.537884533405304,1.5049442052841187
2.109241247177124,-0.2816295027732849,-1.9651567935943604,1.7984565496444702,2.111478328704834,0.5486975908279419,1.5013184547424316
2.129251718521118,-0.28302207589149475,-1.9653241634368896,1.808061122894287,2.1210575103759766,0.5506367087364197,1.4985854625701904
2.1493327617645264,-0.2821590304374695,-1.960411548614502,1.79025399684906,2.113272190093994,0.5514171123504639,1.5016953945159912
2.1695034503936768,-0.290065735578537,-1.9561944007873535,1.7548195123672485,2.104783535003662,0.5374065637588501,1.5052217245101929
2.189531087875366,-0.289569616317749,-1.9581170082092285,1.7482798099517822,2.1109588146209717,0.5327582359313965,1.5032577514648438
2.209662675857544,-0.2893138527870178,-1.9595954418182373,1.7636271715164185,2.1160261631011963,0.5400146245956421,1.5019874572753906
2.229746103286743,-0.27683281898498535,-1.9653987884521484,1.7890169620513916,2.1178202629089355,0.5433686971664429,1.498907446861267
2.2498092651367188,-0.26506704092025757,-1.9676581621170044,1.8133939504623413,2.1219429969787598,0.5526553392410278,1.4960575103759766
2.269857883453369,-0.28124451637268066,-1.958202600479126,1.776529312133789,2.1124393939971924,0.5449566841125488,1.4998993873596191
2.290009021759033,-0.27841833233833313,-1.955477237701416,1.7579880952835083,2.107116937637329,0.5396201610565186,1.5012822151184082
2.310105323791504,-0.27440905570983887,-1.9552870988845825,1.7583786249160767,2.107234001159668,0.5411102771759033,1.5012850761413574
2.3301591873168945,-0.27858462929725647,-1.9587266445159912,1.7657972574234009,2.1076295375823975,0.538190484046936,1.4996249675750732
2.3502275943756104,-0.2765953540802002,-1.9606902599334717,1.7827436923980713,2.1103668212890625,0.5432045459747314,1.4976699352264404
2.370277166366577,-0.2815297842025757,-1.96110999584198,1.7880595922470093,2.118016004562378,0.5432975888252258,1.4961107969284058
2.3903708457946777,-0.27485018968582153,-1.9604305028915405,1.7924755811691284,2.115929126739502,0.5481551289558411,1.4962801933288574
2.4104721546173096,-0.27576199173927307,-1.95710027217865,1.7691224813461304,2.1063766479492188,0.5405753254890442,1.498002529144287
2.4306209087371826,-0.2779630422592163,-1.9554537534713745,1.7577606439590454,2.107445240020752,0.5374923348426819,1.4982213973999023
2.4506168365478516,-0.27826574444770813,-1.957075595855713,1.7691174745559692,2.108992338180542,0.5401182174682617,1.4975483417510986
2.4707250595092773,-0.2772468626499176,-1.9606064558029175,1.7842297554016113,2.1138720512390137,0.5408202409744263,1.4945622682571411
2.490842819213867,-0.27440568804740906,-1.9608782529830933,1.7791489362716675,2.108410358428955,0.5385054349899292,1.494839072227478
2.5108864307403564,-0.27523839473724365,-1.9586126804351807,1.7782139778137207,2.1054861545562744,0.5408660173416138,1.4958641529083252
2.5309410095214844,-0.26785919070243835,-1.9557836055755615,1.7696952819824219,2.1088309288024902,0.542393684387207,1.4954276084899902
2.551020383834839,-0.2664138972759247,-1.9561161994934082,1.767624020576477,2.106597900390625,0.5410446524620056,1.4951348304748535
2.5711114406585693,-0.27361881732940674,-1.9569411277770996,1.7700347900390625,2.1096959114074707,0.5376682877540588,1.4943480491638184
2.5912599563598633,-0.266207754611969,-1.958635926246643,1.7691017389297485,2.1045377254486084,0.5389388799667358,1.494218349456787
2.6112682819366455,-0.2671383321285248,-1.9549065828323364,1.772942304611206,2.114326000213623,0.5459265112876892,1.4939334392547607
2.6314170360565186,-0.2652432322502136,-1.9556553363800049,1.7789843082427979,2.113478660583496,0.546317458152771,1.492713451385498
2.6514525413513184,-0.270287424325943,-1.9583771228790283,1.7884390354156494,2.112471580505371,0.5448187589645386,1.4916298389434814
2.671513319015503,-0.2617444694042206,-1.9592785835266113,1.794600486755371,2.1058151721954346,0.5459040999412537,1.4911620616912842
2.691624641418457,-0.268684059381485,-1.9548656940460205,1.756753921508789,2.0984373092651367,0.5343859791755676,1.4942173957824707
2.7117347717285156,-0.2653609812259674,-1.954666256904602,1.7589492797851562,2.104710817337036,0.5368407368659973,1.4928011894226074
2.731825590133667,-0.2557283043861389,-1.9594216346740723,1.7828233242034912,2.1087441444396973,0.5417407751083374,1.4896892309188843
2.7518699169158936,-0.24862052500247955,-1.963012456893921,1.7781121730804443,2.098531723022461,0.5369687676429749,1.4895145893096924
2.7720489501953125,-0.2586776614189148,-1.9555331468582153,1.7745273113250732,2.110875368118286,0.5448340773582458,1.4893072843551636
2.7921321392059326,-0.2570333480834961,-1.9544481039047241,1.7731221914291382,2.1088132858276367,0.5443424582481384,1.4892101287841797
2.812209367752075,-0.25166332721710205,-1.9579756259918213,1.798879861831665,2.1123030185699463,0.549099326133728,1.4859614372253418
2.832256317138672,-0.2572646737098694,-1.9534025192260742,1.7721837759017944,2.105501174926758,0.5439829230308533,1.4890499114990234
2.8523683547973633,-0.252297043800354,-1.9531327486038208,1.7772245407104492,2.1079347133636475,0.5463352799415588,1.488100528717041
2.8724498748779297,-0.2604476809501648,-1.9559215307235718,1.7796016931533813,2.1046602725982666,0.5400790572166443,1.4876607656478882
2.892533540725708,-0.25039398670196533,-1.9539728164672852,1.7673518657684326,2.1070854663848877,0.5404763221740723,1.487870454788208
2.9125850200653076,-0.22442713379859924,-1.9606857299804688,1.783942699432373,2.107722043991089,0.5443506240844727,1.4850579500198364
2.9326579570770264,-0.23213768005371094,-1.961381435394287,1.8101752996444702,2.107576370239258,0.5509151220321655,1.4831610918045044
2.9527504444122314,-0.24757525324821472,-1.9548346996307373,1.7977395057678223,2.110593557357788,0.5497369170188904,1.4842021465301514
2.9728405475616455,-0.2481653094291687,-1.951263189315796,1.7774794101715088,2.101088523864746,0.5460127592086792,1.4862773418426514
2.9929301738739014,-0.25051936507225037,-1.949106216430664,1.761587381362915,2.10390043258667,0.5419787168502808,1.4869844913482666
3.013007164001465,-0.2511633634567261,-1.9497359991073608,1.75794517993927,2.1031816005706787,0.5385464429855347,1.4863024950027466
3.03305983543396,-0.2475113570690155,-1.9541105031967163,1.7737009525299072,2.1084256172180176,0.5396310091018677,1.4834070205688477
3.053154230117798,-0.24458442628383636,-1.9530558586120605,1.7762577533721924,2.095057487487793,0.5428340435028076,1.48500394821167
3.073216199874878,-0.24209079146385193,-1.954817295074463,1.793542742729187,2.108003854751587,0.5473660230636597,1.4814178943634033
3.0932745933532715,-0.24700435996055603,-1.9496533870697021,1.7771735191345215,2.1055452823638916,0.5469444990158081,1.4838175773620605
3.113389492034912,-0.24516360461711884,-1.9484384059906006,1.7587535381317139,2.102548837661743,0.540144145488739,1.4843485355377197
3.1334667205810547,-0.2529331147670746,-1.9491145610809326,1.7590436935424805,2.106447219848633,0.5373966693878174,1.4839062690734863
3.1535398960113525,-0.24454689025878906,-1.9524645805358887,1.7742823362350464,2.109841823577881,0.5412150621414185,1.481321096420288
3.17366361618042,-0.24739037454128265,-1.9530460834503174,1.7821576595306396,2.109009265899658,0.5428246259689331,1.4812721014022827
3.1937081813812256,-0.2412077933549881,-1.9496660232543945,1.775373101234436,2.1053378582000732,0.5451472997665405,1.4818613529205322
3.2137656211853027,-0.2407573163509369,-1.951647162437439,1.798015832901001,2.1134629249572754,0.5514259338378906,1.4794094562530518
3.233812093734741,-0.24193307757377625,-1.9486602544784546,1.773012638092041,2.103487730026245,0.5434750914573669,1.4812259674072266
3.253894090652466,-0.24385514855384827,-1.9480594396591187,1.7615779638290405,2.09907865524292,0.5389587879180908,1.4824774265289307
3.273958921432495,-0.23285320401191711,-1.9526078701019287,1.773857831954956,2.104401111602783,0.541063666343689,1.4798378944396973
3.2940776348114014,-0.23124343156814575,-1.9529221057891846,1.7768300771713257,2.1015725135803223,0.5427799820899963,1.4802968502044678
3.314131736755371,-0.23233672976493835,-1.9513821601867676,1.775911569595337,2.1029863357543945,0.5430301427841187,1.4795969724655151
3.334296941757202,-0.23459292948246002,-1.9526398181915283,1.803263783454895,2.1122782230377197,0.5486843585968018,1.476137638092041
3.3543357849121094,-0.2268134355545044,-1.9519561529159546,1.8133217096328735,2.107724666595459,0.5530849695205688,1.4753258228302002
3.3743677139282227,-0.22994130849838257,-1.9458414316177368,1.7726672887802124,2.0949158668518066,0.5455056428909302,1.4792873859405518
3.394460439682007,-0.22783081233501434,-1.9438817501068115,1.7653906345367432,2.0991668701171875,0.5459078550338745,1.478858470916748
3.4145336151123047,-0.22803613543510437,-1.946716547012329,1.7618448734283447,2.095686912536621,0.5394131541252136,1.4784059524536133
3.4346139430999756,-0.22914984822273254,-1.9497689008712769,1.7579751014709473,2.096269369125366,0.5345537662506104,1.4771003723144531
3.454664468765259,-0.22152817249298096,-1.9527101516723633,1.7826229333877563,2.1036899089813232,0.543599009513855,1.47442626953125
3.4750027656555176,-0.21154937148094177,-1.9550018310546875,1.7891700267791748,2.1038060188293457,0.5457953214645386,1.4732680320739746
3.4951047897338867,-0.21479672193527222,-1.9512321949005127,1.7967329025268555,2.1047277450561523,0.5523337125778198,1.4735257625579834
3.515193462371826,-0.22480562329292297,-1.9458879232406616,1.7836287021636963,2.099501132965088,0.5489624738693237,1.47520112991333
3.5352938175201416,-0.22193333506584167,-1.9445276260375977,1.7664932012557983,2.096303939819336,0.5427447557449341,1.4754191637039185
3.5554020404815674,-0.22497797012329102,-1.9445933103561401,1.7642651796340942,2.099135398864746,0.5415430068969727,1.475266933441162
3.5754594802856445,-0.22270137071609497,-1.9462509155273438,1.7805655002593994,2.097405433654785,0.5466378927230835,1.474367618560791
3.595529556274414,-0.22630882263183594,-1.9459726810455322,1.7631993293762207,2.0979878902435303,0.5387930274009705,1.4749581813812256
3.615665912628174,-0.2150091826915741,-1.9476053714752197,1.7916083335876465,2.1076393127441406,0.5510252118110657,1.4712493419647217
3.6357529163360596,-0.21860867738723755,-1.9466242790222168,1.7848055362701416,2.098968744277954,0.5479644536972046,1.472706913948059
3.6558187007904053,-0.2171458750963211,-1.9433870315551758,1.7663748264312744,2.095935821533203,0.5442908406257629,1.4736878871917725
3.6759135723114014,-0.21311397850513458,-1.9452579021453857,1.7727041244506836,2.100736618041992,0.5459781885147095,1.471740961074829
3.695997953414917,-0.2177443504333496,-1.9469828605651855,1.7716065645217896,2.088787078857422,0.5400277376174927,1.4721711874008179
3.716097831726074,-0.21378514170646667,-1.9481441974639893,1.7619742155075073,2.0895888805389404,0.5362668037414551,1.47111177444458
3.7361674308776855,-0.2129555493593216,-1.9488282203674316,1.7589722871780396,2.0899839401245117,0.5349059700965881,1.4704703092575073
3.7562146186828613,-0.2139768898487091,-1.9505281448364258,1.7944114208221436,2.103194236755371,0.5456916093826294,1.467057228088379
3.776299238204956,-0.21128949522972107,-1.9488065242767334,1.7813054323196411,2.0930261611938477,0.5442893505096436,1.4692177772521973
3.7963619232177734,-0.20167919993400574,-1.9474506378173828,1.783549189567566,2.0940663814544678,0.5484132766723633,1.4684109687805176
3.8164408206939697,-0.21166947484016418,-1.943570852279663,1.7581090927124023,2.090395212173462,0.5389070510864258,1.4702136516571045
3.836495876312256,-0.21554970741271973,-1.9444044828414917,1.753556728363037,2.0923736095428467,0.5340633988380432,1.469253659248352
3.856600284576416,-0.21438878774642944,-1.9441680908203125,1.7547587156295776,2.0929133892059326,0.5363529324531555,1.4697368144989014
3.8766753673553467,-0.2097567319869995,-1.9457976818084717,1.7887065410614014,2.1005303859710693,0.5487223267555237,1.466858983039856
3.8967480659484863,-0.20538322627544403,-1.9460902214050293,1.794589877128601,2.1011245250701904,0.5497184991836548,1.4650028944015503
3.916834592819214,-0.20817974209785461,-1.9433798789978027,1.7864134311676025,2.097658634185791,0.5494505763053894,1.4665195941925049
3.936919689178467,-0.21029451489448547,-1.94344162940979,1.7634029388427734,2.089855432510376,0.5382049679756165,1.4680242538452148
3.957000494003296,-0.21048638224601746,-1.9440014362335205,1.7721927165985107,2.0988075733184814,0.5417076945304871,1.465956449508667
3.977051258087158,-0.2043120265007019,-1.9454998970031738,1.7794029712677002,2.093789577484131,0.5432682037353516,1.4656745195388794
3.9971022605895996,-0.20710867643356323,-1.9447855949401855,1.7702189683914185,2.092071056365967,0.5398610234260559,1.4658862352371216
4.017183303833008,-0.19750717282295227,-1.942636251449585,1.770719289779663,2.0950980186462402,0.546917736530304,1.4654699563980103
4.037255048751831,-0.19352436065673828,-1.9486123323440552,1.8057138919830322,2.1025428771972656,0.5517444610595703,1.4603080749511719
4.057315826416016,-0.19517795741558075,-1.9445407390594482,1.777377963066101,2.091139793395996,0.5446662902832031,1.463072419166565
4.077570915222168,-0.19623419642448425,-1.9447479248046875,1.7823243141174316,2.095989227294922,0.5460957288742065,1.4619786739349365
4.097653388977051,-0.19852638244628906,-1.9454734325408936,1.7811434268951416,2.096247911453247,0.5430502891540527,1.4619061946868896
4.1177308559417725,-0.17972135543823242,-1.9518272876739502,1.7773313522338867,2.0953779220581055,0.5395737886428833,1.4597793817520142
4.137817144393921,-0.18532709777355194,-1.9461748600006104,1.7819859981536865,2.094050407409668,0.5477314591407776,1.4610490798950195
4.157867908477783,-0.19206543266773224,-1.9452714920043945,1.7917592525482178,2.098587989807129,0.548762321472168,1.4595346450805664
4.177937030792236,-0.1963823437690735,-1.941449761390686,1.768526554107666,2.087219715118408,0.5413733124732971,1.4619865417480469
4.198025226593018,-0.19414862990379333,-1.9410399198532104,1.7746398448944092,2.0963003635406494,0.5458747148513794,1.4606571197509766
4.21807599067688,-0.1943044364452362,-1.9399824142456055,1.7833425998687744,2.095332622528076,0.5503699779510498,1.4607625007629395
4.238153696060181,-0.19502106308937073,-1.9396162033081055,1.7709503173828125,2.090834856033325,0.5436967611312866,1.4614918231964111
4.25828218460083,-0.19478724896907806,-1.9394168853759766,1.7654900550842285,2.09462571144104,0.5428774356842041,1.461133360862732
4.278287887573242,-0.1856960654258728,-1.9408109188079834,1.7810014486312866,2.09537672996521,0.5482615828514099,1.4591963291168213
4.298360824584961,-0.1872924566268921,-1.9425076246261597,1.7817823886871338,2.0885462760925293,0.5455771684646606,1.4590740203857422
4.318456172943115,-0.19104798138141632,-1.9417078495025635,1.7668609619140625,2.082505941390991,0.5386531949043274,1.4604215621948242
4.338505744934082,-0.18367990851402283,-1.9443919658660889,1.778205156326294,2.090289831161499,0.5421478748321533,1.4570131301879883
4.358581304550171,-0.1777840107679367,-1.9427270889282227,1.7668538093566895,2.079061985015869,0.540590763092041,1.458867073059082
4.3787522315979,-0.16976018249988556,-1.9462635517120361,1.7672324180603027,2.088163375854492,0.5396250486373901,1.456383228302002
4.398866176605225,-0.18157383799552917,-1.9425580501556396,1.7679659128189087,2.0886592864990234,0.5413932800292969,1.4568490982055664
4.418959140777588,-0.17645077407360077,-1.9425911903381348,1.7955894470214844,2.0972084999084473,0.551945149898529,1.4541726112365723
4.439018487930298,-0.1855444461107254,-1.9392666816711426,1.779975175857544,2.0926952362060547,0.5470911264419556,1.4554762840270996
4.459038734436035,-0.18576499819755554,-1.9367544651031494,1.770308494567871,2.094191551208496,0.5462468862533569,1.4561686515808105
4.4791343212127686,-0.18219973146915436,-1.940278172492981,1.7850834131240845,2.0956783294677734,0.5472250580787659,1.4542088508605957
4.499200344085693,-0.1887243390083313,-1.9408528804779053,1.7655560970306396,2.077852487564087,0.5363713502883911,1.4576393365859985
4.5192551612854,-0.1822754442691803,-1.9377720355987549,1.774200439453125,2.093493700027466,0.5461279153823853,1.4550352096557617
4.539304494857788,-0.18393969535827637,-1.937875747680664,1.774315595626831,2.0868632793426514,0.544739842414856,1.4558072090148926
4.5593907833099365,-0.18637552857398987,-1.936795949935913,1.7636210918426514,2.0881853103637695,0.540632963180542,1.4558134078979492
4.5794525146484375,-0.18177834153175354,-1.936049461364746,1.7656950950622559,2.091923713684082,0.5438714027404785,1.4553894996643066
4.5995941162109375,-0.17553667724132538,-1.9412680864334106,1.802227258682251,2.100231885910034,0.5526750087738037,1.451300024986267
4.619674921035767,-0.1839980185031891,-1.938786506652832,1.7656731605529785,2.0866475105285645,0.5373637676239014,1.4541637897491455
4.63976526260376,-0.1835000216960907,-1.9365981817245483,1.7559635639190674,2.0871548652648926,0.5381883382797241,1.4553828239440918
4.659942865371704,-0.17992976307868958,-1.9378457069396973,1.772079348564148,2.092620849609375,0.5424927473068237,1.4532426595687866
4.679900884628296,-0.17534516751766205,-1.9398844242095947,1.7723969221115112,2.0792174339294434,0.5398116707801819,1.45371675491333
4.699956178665161,-0.1760406643152237,-1.939255714416504,1.7540044784545898,2.081817388534546,0.5341599583625793,1.4528921842575073
4.720031499862671,-0.17155243456363678,-1.9409375190734863,1.7526097297668457,2.07690167427063,0.5319591164588928,1.4528768062591553
4.740189790725708,-0.17090530693531036,-1.9416435956954956,1.7604057788848877,2.0826423168182373,0.5351428985595703,1.4511682987213135
4.760266542434692,-0.1750037670135498,-1.9421863555908203,1.7776367664337158,2.0853517055511475,0.5405957698822021,1.4497349262237549
4.780331373214722,-0.17324292659759521,-1.9396417140960693,1.7797210216522217,2.0914981365203857,0.5442924499511719,1.4492931365966797
4.800415992736816,-0.16416260600090027,-1.9408290386199951,1.8016043901443481,2.095029354095459,0.5528530478477478,1.4472718238830566
4.820514440536499,-0.1759464293718338,-1.9352935552597046,1.7656915187835693,2.084321975708008,0.5402896404266357,1.4507415294647217
4.840561866760254,-0.1738990992307663,-1.9366371631622314,1.7568858861923218,2.0828983783721924,0.5358482599258423,1.4505445957183838
4.860623598098755,-0.1723865121603012,-1.940079689025879,1.7854347229003906,2.0922627449035645,0.5420094728469849,1.447317361831665
4.880739450454712,-0.17446914315223694,-1.938589334487915,1.7748416662216187,2.081474781036377,0.5398707389831543,1.4500411748886108
4.9008095264434814,-0.16986756026744843,-1.9375851154327393,1.7801810503005981,2.090366840362549,0.5437060594558716,1.4480507373809814
4.9208760261535645,-0.17269505560398102,-1.9342541694641113,1.768548846244812,2.0837996006011963,0.5427480936050415,1.4498796463012695
4.94098162651062,-0.16219036281108856,-1.9376603364944458,1.7584776878356934,2.080432176589966,0.5349653959274292,1.4490749835968018
4.961377859115601,-0.15564271807670593,-1.9375965595245361,1.7635316848754883,2.086430549621582,0.5404279232025146,1.4487340450286865
4.981537342071533,-0.15623697638511658,-1.9434245824813843,1.7954853773117065,2.090054512023926,0.541874885559082,1.4444042444229126
5.001603841781616,-0.167822003364563,-1.9355719089508057,1.7671208381652832,2.08121919631958,0.5373743772506714,1.4481635093688965
5.021695613861084,-0.1622842401266098,-1.9346054792404175,1.7631407976150513,2.0801002979278564,0.5383943915367126,1.4483835697174072
5.041776657104492,-0.1642194539308548,-1.9380645751953125,1.7647922039031982,2.080166816711426,0.533112645149231,1.4461086988449097
5.061833143234253,-0.16339735686779022,-1.9357507228851318,1.7497227191925049,2.0810132026672363,0.5330590009689331,1.4470793008804321
5.081924676895142,-0.161929190158844,-1.9355961084365845,1.7484186887741089,2.07883358001709,0.531917929649353,1.4468638896942139
5.10198974609375,-0.15488064289093018,-1.94230055809021,1.7840770483016968,2.085094928741455,0.5366342663764954,1.4416948556900024
5.122061491012573,-0.15601050853729248,-1.935467004776001,1.7610093355178833,2.0773239135742188,0.5360573530197144,1.4449114799499512
5.142110109329224,-0.14490491151809692,-1.9378820657730103,1.7667746543884277,2.0793604850769043,0.5381249785423279,1.4432082176208496
5.162200689315796,-0.14136113226413727,-1.9419710636138916,1.7705376148223877,2.0812201499938965,0.5348960161209106,1.4419479370117188
5.182263135910034,-0.14971953630447388,-1.9351799488067627,1.7903013229370117,2.082139730453491,0.5497714877128601,1.4422476291656494
5.202308416366577,-0.14905299246311188,-1.9353597164154053,1.7856413125991821,2.0867838859558105,0.5461251735687256,1.441092610359192
5.222471475601196,-0.15927734971046448,-1.9347928762435913,1.7621731758117676,2.081063985824585,0.5334571599960327,1.4422856569290161
5.2425501346588135,-0.1557254195213318,-1.930946946144104,1.7496188879013062,2.0764026641845703,0.5356402397155762,1.4450938701629639
5.262630462646484,-0.1561601161956787,-1.9342193603515625,1.747240662574768,2.078298330307007,0.5296726226806641,1.4431848526000977
5.282670736312866,-0.1525963842868805,-1.938078761100769,1.7926251888275146,2.0918917655944824,0.5424334406852722,1.4388279914855957
5.302757978439331,-0.1477150022983551,-1.9328007698059082,1.7789628505706787,2.081552267074585,0.5472697019577026,1.4416871070861816
5.322887420654297,-0.145677387714386,-1.93244469165802,1.7775561809539795,2.085986614227295,0.544999897480011,1.4401055574417114
5.342906951904297,-0.1449093371629715,-1.9329500198364258,1.772925853729248,2.0754480361938477,0.541851818561554,1.4408574104309082
5.362962484359741,-0.14451809227466583,-1.9330748319625854,1.7498908042907715,2.073319911956787,0.5326030254364014,1.4408293962478638
5.3831329345703125,-0.14659345149993896,-1.93586003780365,1.747756004333496,2.0709047317504883,0.5263552665710449,1.4399237632751465
5.40321159362793,-0.14673495292663574,-1.9380574226379395,1.7645684480667114,2.075045585632324,0.5308152437210083,1.4380125999450684
5.423215627670288,-0.1466982364654541,-1.9340243339538574,1.7665225267410278,2.0825986862182617,0.5385891199111938,1.43818998336792
5.443904638290405,-0.14199279248714447,-1.9320927858352661,1.7734148502349854,2.083613395690918,0.5442870855331421,1.4373011589050293
5.463987350463867,-0.13851504027843475,-1.9346964359283447,1.806169867515564,2.0954580307006836,0.5527552366256714,1.4335696697235107
5.484055995941162,-0.14653822779655457,-1.9313342571258545,1.7702305316925049,2.081937074661255,0.5402311682701111,1.4370843172073364
5.504108190536499,-0.14207379519939423,-1.929088830947876,1.7651478052139282,2.0786964893341064,0.5414337515830994,1.4380674362182617
5.5242626667022705,-0.14113780856132507,-1.9319161176681519,1.7834311723709106,2.08613920211792,0.5445250272750854,1.4352490901947021
5.544347763061523,-0.14748048782348633,-1.9318113327026367,1.7533761262893677,2.0676498413085938,0.5299327373504639,1.438524842262268
5.564470052719116,-0.13979865610599518,-1.9340031147003174,1.7858240604400635,2.0854835510253906,0.5428920388221741,1.4339065551757812
5.584590911865234,-0.1434919685125351,-1.9306379556655884,1.7620997428894043,2.0736141204833984,0.5358561277389526,1.4371120929718018
5.604655027389526,-0.14336702227592468,-1.9288973808288574,1.7523250579833984,2.0746073722839355,0.5346438884735107,1.4373040199279785
5.624725818634033,-0.1345812976360321,-1.9322655200958252,1.7817331552505493,2.0872161388397217,0.5438320636749268,1.4334347248077393
5.644763469696045,-0.12712782621383667,-1.9342215061187744,1.7726147174835205,2.0764849185943604,0.5389043092727661,1.433957815170288
5.664800643920898,-0.12998390197753906,-1.9298686981201172,1.7672159671783447,2.0786561965942383,0.5413392782211304,1.4338163137435913
5.684877395629883,-0.1289513111114502,-1.9283697605133057,1.7711602449417114,2.0791916847229004,0.5445288419723511,1.4341306686401367
5.704963445663452,-0.1326662302017212,-1.9300875663757324,1.7761591672897339,2.0760366916656494,0.5407865643501282,1.4326131343841553
5.7250657081604,-0.13915398716926575,-1.928673505783081,1.7427163124084473,2.0636792182922363,0.5276844501495361,1.4359713792800903
5.74515175819397,-0.12985123693943024,-1.9299702644348145,1.7682856321334839,2.080946445465088,0.5397897958755493,1.4320416450500488
5.765260934829712,-0.12562167644500732,-1.9317371845245361,1.783322811126709,2.0782670974731445,0.5429047346115112,1.4310729503631592
5.785365581512451,-0.1292993277311325,-1.9292982816696167,1.7612732648849487,2.0719594955444336,0.5367388725280762,1.4319788217544556
5.8054211139678955,-0.13069890439510345,-1.9286202192306519,1.758347749710083,2.075385093688965,0.5361892580986023,1.4314968585968018
5.825469732284546,-0.11342690885066986,-1.933667778968811,1.8013248443603516,2.085097074508667,0.549498438835144,1.4272558689117432
5.845608472824097,-0.1190042719244957,-1.929383397102356,1.7697097063064575,2.0731098651885986,0.541452944278717,1.430365800857544
5.865691184997559,-0.12890464067459106,-1.9284029006958008,1.7580475807189941,2.0708351135253906,0.5341134667396545,1.430523157119751
5.8857972621917725,-0.11717869341373444,-1.930201530456543,1.7873454093933105,2.0798277854919434,0.5460085868835449,1.4274282455444336
5.905856370925903,-0.12791767716407776,-1.9244308471679688,1.7714383602142334,2.0783677101135254,0.5440952777862549,1.4299124479293823
5.9260499477386475,-0.12485799193382263,-1.9253779649734497,1.7732083797454834,2.0782291889190674,0.5436139106750488,1.4292051792144775
5.946145296096802,-0.1274426281452179,-1.9248515367507935,1.77309250831604,2.0774893760681152,0.5432141423225403,1.429227352142334
5.966293573379517,-0.124781034886837,-1.9232958555221558,1.7515785694122314,2.0701606273651123,0.5369023680686951,1.4310500621795654
5.986292839050293,-0.120159812271595,-1.9244656562805176,1.7572689056396484,2.0750203132629395,0.53904128074646,1.4290008544921875
6.006565809249878,-0.1220671534538269,-1.9256370067596436,1.7684311866760254,2.078472375869751,0.5411258935928345,1.4279561042785645
6.026644945144653,-0.12302347272634506,-1.925887107849121,1.7827742099761963,2.0766170024871826,0.547467827796936,1.4279758930206299
6.046729803085327,-0.11509792506694794,-1.9261647462844849,1.7982203960418701,2.0823936462402344,0.5521632432937622,1.4250586032867432
6.066878318786621,-0.1193884089589119,-1.9222723245620728,1.763628602027893,2.0704426765441895,0.542224109172821,1.4280755519866943
6.086925983428955,-0.11708085983991623,-1.922999382019043,1.7481637001037598,2.0669655799865723,0.5358421206474304,1.428333044052124
6.107029438018799,-0.11489318311214447,-1.9237210750579834,1.7489268779754639,2.0698318481445312,0.5363528728485107,1.4272515773773193
6.127089738845825,-0.11632085591554642,-1.9275873899459839,1.745211124420166,2.060802459716797,0.527375340461731,1.4271154403686523
6.147224187850952,-0.1177050992846489,-1.9283945560455322,1.7659509181976318,2.069720506668091,0.535809338092804,1.4246399402618408
6.167231321334839,-0.11860992014408112,-1.9256576299667358,1.7543067932128906,2.0694737434387207,0.5344933867454529,1.425612211227417
6.187293767929077,-0.11870723962783813,-1.9239989519119263,1.7499587535858154,2.0732526779174805,0.5359655618667603,1.4257748126983643
6.207406282424927,-0.11125928163528442,-1.928743839263916,1.7910518646240234,2.0781869888305664,0.5442841053009033,1.4214661121368408
6.227682828903198,-0.11281125247478485,-1.9247463941574097,1.7633271217346191,2.070343255996704,0.5388742685317993,1.4239894151687622
6.247790813446045,-0.10883422940969467,-1.9265928268432617,1.7613599300384521,2.0705983638763428,0.5368616580963135,1.4231421947479248
6.268004894256592,-0.1058742105960846,-1.9280365705490112,1.7741793394088745,2.0709421634674072,0.5397940874099731,1.4216670989990234
6.287970066070557,-0.11577440053224564,-1.92476487159729,1.758817434310913,2.0691580772399902,0.535425066947937,1.4234328269958496
6.308033227920532,-0.10833542793989182,-1.9253000020980835,1.7465851306915283,2.065633773803711,0.531619131565094,1.4234716892242432
6.328108310699463,-0.1059313416481018,-1.9254605770111084,1.7818822860717773,2.073476791381836,0.5474042892456055,1.4212672710418701
6.348193407058716,-0.11345549672842026,-1.9238829612731934,1.7602460384368896,2.0658013820648193,0.5354728102684021,1.4223692417144775
6.368264436721802,-0.10629598796367645,-1.9223238229751587,1.7607479095458984,2.072603464126587,0.5407510995864868,1.4220390319824219
6.388322114944458,-0.08091660588979721,-1.9293909072875977,1.7842200994491577,2.0766119956970215,0.5447329878807068,1.418348789215088
6.408368825912476,-0.098517045378685,-1.9253826141357422,1.7728791236877441,2.0650625228881836,0.541249692440033,1.4209322929382324
6.428548097610474,-0.10288093239068985,-1.9219926595687866,1.761000394821167,2.065812587738037,0.539033055305481,1.4212372303009033
6.448662757873535,-0.09284015744924545,-1.9238044023513794,1.757720708847046,2.063847064971924,0.5381882190704346,1.4196057319641113
6.468866586685181,-0.09612333029508591,-1.9242582321166992,1.7737737894058228,2.0693111419677734,0.5433560609817505,1.4180371761322021
6.488894939422607,-0.10711117833852768,-1.9230127334594727,1.772287130355835,2.0720176696777344,0.5406064987182617,1.4178097248077393
6.509209632873535,-0.09717891365289688,-1.9231061935424805,1.779740810394287,2.0718345642089844,0.5454060435295105,1.4176301956176758
6.529287815093994,-0.09686809033155441,-1.921324610710144,1.773385763168335,2.0664429664611816,0.5434821248054504,1.4184355735778809
6.549423456192017,-0.10572197288274765,-1.9203276634216309,1.7414638996124268,2.063123941421509,0.5297442078590393,1.4194509983062744
6.569478511810303,-0.09637248516082764,-1.920637845993042,1.7407457828521729,2.0617425441741943,0.5333573818206787,1.4197490215301514
6.590196847915649,-0.09673869609832764,-1.923247218132019,1.7655723094940186,2.0750157833099365,0.5394107103347778,1.4162242412567139
6.610498666763306,-0.09879995137453079,-1.9263625144958496,1.7915289402008057,2.079054355621338,0.5434032678604126,1.4137089252471924
6.630427122116089,-0.0987778902053833,-1.921123743057251,1.7674641609191895,2.0694618225097656,0.5406240224838257,1.4165092706680298
6.6504926681518555,-0.0982784628868103,-1.9213571548461914,1.7854785919189453,2.0812439918518066,0.5466068387031555,1.4145276546478271
6.670919418334961,-0.09973584115505219,-1.9192769527435303,1.7572314739227295,2.06437087059021,0.5364850759506226,1.417163610458374
6.691005229949951,-0.0969037190079689,-1.9202444553375244,1.7485270500183105,2.058516263961792,0.531513512134552,1.4181857109069824
6.711166620254517,-0.09573952853679657,-1.9212559461593628,1.749872088432312,2.06447434425354,0.5326056480407715,1.416208028793335
6.7312233448028564,-0.09099466353654861,-1.9240604639053345,1.7656853199005127,2.0619211196899414,0.536963164806366,1.4153621196746826
6.751296520233154,-0.09530990570783615,-1.9232271909713745,1.7581512928009033,2.0658462047576904,0.5332900285720825,1.4141333103179932
6.771403789520264,-0.09069287776947021,-1.9212119579315186,1.7624585628509521,2.069491386413574,0.5402987599372864,1.4146356582641602
6.791498422622681,-0.08701854199171066,-1.9228315353393555,1.779127836227417,2.069467544555664,0.5436054468154907,1.4121341705322266
6.811537981033325,-0.08679897338151932,-1.9198131561279297,1.7640810012817383,2.064504623413086,0.5402274131774902,1.4131522178649902
6.831605911254883,-0.08325783163309097,-1.9192217588424683,1.7574400901794434,2.0636582374572754,0.5393288731575012,1.4130196571350098
6.85167670249939,-0.08326482772827148,-1.9243624210357666,1.7834662199020386,2.073280096054077,0.5418117046356201,1.409609079360962
6.871756553649902,-0.07942630350589752,-1.922616958618164,1.7666670083999634,2.0622076988220215,0.5398954749107361,1.412489414215088
6.89183235168457,-0.07021979987621307,-1.927907943725586,1.7581665515899658,2.065648078918457,0.5336785316467285,1.4103059768676758
6.911924123764038,-0.061539120972156525,-1.92853581905365,1.760786533355713,2.0570995807647705,0.5322566032409668,1.4099862575531006
6.932095527648926,-0.0742049589753151,-1.9233593940734863,1.7871876955032349,2.0666635036468506,0.5432896018028259,1.407672643661499
6.952188014984131,-0.07904022186994553,-1.9201226234436035,1.77399480342865,2.0629563331604004,0.5429568290710449,1.409971833229065
6.972305536270142,-0.07696262001991272,-1.9200958013534546,1.7889207601547241,2.068274736404419,0.5488405823707581,1.4082094430923462
6.9923388957977295,-0.08429111540317535,-1.9159491062164307,1.7590652704238892,2.066638469696045,0.5390390157699585,1.409867525100708
7.012380361557007,-0.08284823596477509,-1.915144443511963,1.7507007122039795,2.0631773471832275,0.5363317131996155,1.4108965396881104
7.032461881637573,-0.08275038748979568,-1.9167265892028809,1.7493577003479004,2.061795711517334,0.5328360199928284,1.4104710817337036
7.052526950836182,-0.07931073755025864,-1.92059326171875,1.7664759159088135,2.0598788261413574,0.5339649319648743,1.408803939819336
7.072608947753906,-0.07740755379199982,-1.9177690744400024,1.7631436586380005,2.0618884563446045,0.5384095907211304,1.4090251922607422
7.092728853225708,-0.07274835556745529,-1.9172329902648926,1.7585852146148682,2.0603718757629395,0.5387046337127686,1.4081931114196777
7.112973690032959,-0.06523475050926208,-1.9176206588745117,1.7674846649169922,2.0634403228759766,0.5436379909515381,1.4069929122924805
7.133169412612915,-0.06771688908338547,-1.917579174041748,1.7745884656906128,2.0587687492370605,0.5445709228515625,1.4067869186401367
7.153177976608276,-0.07039165496826172,-1.9162333011627197,1.7676286697387695,2.0610554218292236,0.5425537824630737,1.4066927433013916
7.173255443572998,-0.07163287699222565,-1.9172190427780151,1.7751123905181885,2.06557035446167,0.5425024032592773,1.405167818069458
7.193439960479736,-0.07577881217002869,-1.9144055843353271,1.75822114944458,2.065371513366699,0.5399590134620667,1.4066643714904785
7.213525295257568,-0.0729762390255928,-1.9135982990264893,1.7578825950622559,2.0659046173095703,0.5416526198387146,1.4065972566604614
7.233588457107544,-0.07462093979120255,-1.9135022163391113,1.7574496269226074,2.068530559539795,0.5420928001403809,1.4059112071990967
7.25365138053894,-0.07470352947711945,-1.9144961833953857,1.7716920375823975,2.0562920570373535,0.5427349209785461,1.4067975282669067
7.273735761642456,-0.07419208437204361,-1.9148013591766357,1.7550110816955566,2.064263105392456,0.5363914966583252,1.4050302505493164
7.2938148975372314,-0.07333739846944809,-1.914817214012146,1.760301947593689,2.0673913955688477,0.5393484234809875,1.4047925472259521
7.31389594078064,-0.07330556958913803,-1.91471529006958,1.7659761905670166,2.0664820671081543,0.5420829653739929,1.4044986963272095
7.333989381790161,-0.07345757633447647,-1.9118467569351196,1.7574124336242676,2.0677738189697266,0.5419052839279175,1.4052388668060303
7.354058742523193,-0.07009655237197876,-1.9129185676574707,1.7531180381774902,2.065131664276123,0.5388039350509644,1.4047532081604004
7.374228239059448,-0.07433271408081055,-1.9161012172698975,1.7571004629135132,2.062161922454834,0.5330373644828796,1.403729796409607
7.394314289093018,-0.06902511417865753,-1.919580101966858,1.7832469940185547,2.069207191467285,0.5402923822402954,1.400733232498169
7.414374113082886,-0.07144427299499512,-1.9171650409698486,1.7623116970062256,2.0608415603637695,0.5343836545944214,1.4028277397155762
7.4344611167907715,-0.06592869013547897,-1.9156497716903687,1.7671762704849243,2.064591646194458,0.5406859517097473,1.4019660949707031
7.454519033432007,-0.06835593283176422,-1.9126485586166382,1.757454514503479,2.0567893981933594,0.5374153256416321,1.4029322862625122
7.488839626312256,-0.06998425722122192,-1.912560224533081,1.7480589151382446,2.0570132732391357,0.5336686968803406,1.4034708738327026
7.508934020996094,-0.05385003238916397,-1.9294002056121826,1.8246302604675293,2.0464963912963867,0.5308617353439331,1.3948941230773926
7.52899169921875,-0.0511041134595871,-1.9340100288391113,1.7933968305587769,2.0250580310821533,0.5192900896072388,1.3914332389831543
7.549073219299316,-0.04658995568752289,-1.917138934135437,1.8172156810760498,2.0501604080200195,0.5562929511070251,1.3930824995040894
7.56913685798645,-0.05205298960208893,-1.90226411819458,1.707593321800232,2.0495221614837646,0.5308917760848999,1.397718071937561
7.589284658432007,-0.04921475052833557,-1.909508466720581,1.7508891820907593,2.066192150115967,0.5342377424240112,1.3921984434127808
7.60925030708313,-0.05543362349271774,-1.9080408811569214,1.748581886291504,2.0602736473083496,0.5360071063041687,1.3947627544403076
7.6293768882751465,-0.047794654965400696,-1.9086551666259766,1.739920735359192,2.05112886428833,0.5328758358955383,1.3947303295135498
7.649416208267212,-0.056455910205841064,-1.9109725952148438,1.7286145687103271,2.0448341369628906,0.5211766958236694,1.3954591751098633
7.669495105743408,-0.05634157359600067,-1.9115006923675537,1.7287976741790771,2.0502898693084717,0.523107647895813,1.3950586318969727
7.689568042755127,-0.056635528802871704,-1.9131131172180176,1.738996982574463,2.0587971210479736,0.5278353691101074,1.39359450340271
7.70962381362915,-0.050449438393116,-1.9123646020889282,1.746732234954834,2.054490089416504,0.5307413339614868,1.393426537513733
7.729769229888916,-0.04828209429979324,-1.9144628047943115,1.7742365598678589,2.0643675327301025,0.5385301113128662,1.3901901245117188
7.749852657318115,-0.054353564977645874,-1.909928560256958,1.7470812797546387,2.0537502765655518,0.53193199634552,1.3931962251663208
7.769940376281738,-0.04907207190990448,-1.9093852043151855,1.7453904151916504,2.0586471557617188,0.5356663465499878,1.3929901123046875
7.789996385574341,-0.050791479647159576,-1.9111354351043701,1.7573221921920776,2.058770179748535,0.5355970859527588,1.39204740524292
7.810182332992554,-0.04872868210077286,-1.9123231172561646,1.77046537399292,2.062182903289795,0.5385727882385254,1.390505313873291
7.830235242843628,-0.05359218269586563,-1.9098620414733887,1.7435922622680664,2.052217960357666,0.5289782881736755,1.392890214920044
7.850297451019287,-0.04745839536190033,-1.9087731838226318,1.7440166473388672,2.0581822395324707,0.5346356630325317,1.3923702239990234
7.87036395072937,-0.039520263671875,-1.9119632244110107,1.7735071182250977,2.0591766834259033,0.542023777961731,1.3898446559906006
7.890449523925781,-0.043639689683914185,-1.9094464778900146,1.7548956871032715,2.0496366024017334,0.5364115834236145,1.3921676874160767
7.910595655441284,-0.042479246854782104,-1.909125804901123,1.7686681747436523,2.063020944595337,0.5424083471298218,1.3896825313568115
7.930653810501099,-0.0460859015583992,-1.9061715602874756,1.7514164447784424,2.0568270683288574,0.5376332998275757,1.3909204006195068
7.950728178024292,-0.04758664220571518,-1.906762719154358,1.7444161176681519,2.0579099655151367,0.5344134569168091,1.3910071849822998
7.970785856246948,-0.04872848093509674,-1.9064888954162598,1.7371776103973389,2.0558557510375977,0.5319477319717407,1.3916012048721313
7.9908459186553955,-0.049432963132858276,-1.9100335836410522,1.7380918264389038,2.0499610900878906,0.5255175828933716,1.3911226987838745
8.010965347290039,-0.04392491281032562,-1.909656286239624,1.757630467414856,2.053823471069336,0.5369793772697449,1.3896193504333496
8.031013250350952,-0.03541728854179382,-1.9092011451721191,1.7680563926696777,2.053985118865967,0.5425341725349426,1.3879718780517578
8.051143407821655,-0.03987570106983185,-1.9085172414779663,1.7493048906326294,2.049518585205078,0.5333743691444397,1.3885109424591064
8.071210622787476,-0.035201169550418854,-1.9072730541229248,1.7460129261016846,2.0514168739318848,0.5354037284851074,1.3886582851409912
8.09125542640686,-0.038075871765613556,-1.9078450202941895,1.7439169883728027,2.0534379482269287,0.5329490900039673,1.387758731842041
8.111315250396729,-0.039992399513721466,-1.9079766273498535,1.73335862159729,2.0502333641052246,0.5283254384994507,1.3884053230285645
8.13146162033081,-0.03856121748685837,-1.9095103740692139,1.741019368171692,2.05267071723938,0.529472291469574,1.3872946500778198
8.151479244232178,-0.03887699544429779,-1.9089665412902832,1.7484800815582275,2.044445037841797,0.5315142869949341,1.3875367641448975
8.171574115753174,-0.03755466639995575,-1.911123275756836,1.7430399656295776,2.050499200820923,0.5274619460105896,1.3860409259796143
8.191615581512451,-0.03647962212562561,-1.9090852737426758,1.7560055255889893,2.053560256958008,0.5371654033660889,1.3854851722717285
8.211693525314331,-0.03781574219465256,-1.90663480758667,1.746833324432373,2.0542235374450684,0.5350036025047302,1.385878562927246
8.231783866882324,-0.038831695914268494,-1.9062649011611938,1.7390145063400269,2.0556914806365967,0.5318446159362793,1.3859713077545166
8.251838445663452,-0.03640051931142807,-1.9081764221191406,1.7366960048675537,2.051919460296631,0.5281426310539246,1.3851417303085327
8.271896362304688,-0.03297059237957001,-1.9100403785705566,1.775957465171814,2.0639028549194336,0.5415897369384766,1.381967306137085
8.291990995407104,-0.036351315677165985,-1.9073020219802856,1.7576918601989746,2.0525763034820557,0.5372125506401062,1.3843492269515991
8.312057971954346,-0.03266529738903046,-1.9086594581604004,1.7445964813232422,2.0490922927856445,0.5301022529602051,1.3839086294174194
8.332125425338745,-0.029884887859225273,-1.910975456237793,1.7674598693847656,2.057466506958008,0.5362665057182312,1.380552053451538
8.352165699005127,-0.030942002311348915,-1.9067963361740112,1.750515103340149,2.0490283966064453,0.5346571207046509,1.383476734161377
8.372251749038696,-0.03127007186412811,-1.9060685634613037,1.741206407546997,2.0473759174346924,0.5318357944488525,1.3837398290634155
8.392316102981567,-0.024828119203448296,-1.9076467752456665,1.7481372356414795,2.049266815185547,0.5331523418426514,1.3816900253295898
8.412395238876343,-0.023860299959778786,-1.9117830991744995,1.763469934463501,2.0447838306427,0.5304001569747925,1.3800690174102783
8.432443857192993,-0.02133200503885746,-1.9080779552459717,1.7399228811264038,2.043729305267334,0.5290354490280151,1.3817994594573975
8.452515363693237,-0.014570927247405052,-1.9083812236785889,1.7444626092910767,2.0476551055908203,0.533665120601654,1.380760669708252
8.472671508789062,-0.015155928209424019,-1.907806158065796,1.7469089031219482,2.050321578979492,0.5362412333488464,1.3804539442062378
8.492836475372314,-0.01601683907210827,-1.9100761413574219,1.7904281616210938,2.061755657196045,0.5456467866897583,1.3754007816314697
8.51282024383545,-0.02507578767836094,-1.905165433883667,1.7653985023498535,2.0534987449645996,0.5400291681289673,1.3784440755844116
8.533169984817505,-0.020108604803681374,-1.9074780941009521,1.790844440460205,2.0615837574005127,0.5466718673706055,1.375860571861267
8.553245067596436,-0.02712906338274479,-1.9042906761169434,1.747174859046936,2.0494115352630615,0.5324962735176086,1.379298448562622
8.573315620422363,-0.02504795975983143,-1.9042606353759766,1.7390531301498413,2.0489883422851562,0.5302973985671997,1.379319429397583
8.593431949615479,-0.025794832035899162,-1.906263828277588,1.7470519542694092,2.0521349906921387,0.5301949977874756,1.3782294988632202
8.61353325843811,-0.022757364436984062,-1.9072659015655518,1.7671340703964233,2.0553841590881348,0.5367120504379272,1.376894474029541
8.633694410324097,-0.025375021621584892,-1.9033565521240234,1.7415568828582764,2.0471608638763428,0.5312286615371704,1.3796228170394897
8.65369176864624,-0.01944836787879467,-1.9055843353271484,1.7596310377120972,2.056034803390503,0.536636471748352,1.3760929107666016
8.673762798309326,-0.025485506281256676,-1.9057636260986328,1.7435011863708496,2.0483386516571045,0.528935432434082,1.3774597644805908
8.693830728530884,-0.020599650219082832,-1.9059065580368042,1.7419874668121338,2.0463201999664307,0.5294338464736938,1.3776640892028809
8.713883638381958,-0.017086682841181755,-1.9054784774780273,1.7419867515563965,2.045736789703369,0.5298916101455688,1.3768177032470703
8.733956098556519,-0.014981897547841072,-1.907332420349121,1.7714245319366455,2.05264949798584,0.5372790098190308,1.373713493347168
8.75400972366333,-0.02408151514828205,-1.9024672508239746,1.738701581954956,2.0480594635009766,0.529630184173584,1.3766074180603027
8.774085521697998,-0.022847017273306847,-1.901846170425415,1.7387967109680176,2.050508499145508,0.531791627407074,1.3767731189727783
8.794167757034302,-0.017808767035603523,-1.9036306142807007,1.738601803779602,2.046755313873291,0.530017614364624,1.3759299516677856
8.814229488372803,-0.00889025442302227,-1.9072446823120117,1.7718154191970825,2.049436092376709,0.5374366044998169,1.3719615936279297
8.834313154220581,-0.009816242381930351,-1.9055366516113281,1.7335009574890137,2.0319995880126953,0.523876428604126,1.3747856616973877
8.854435920715332,-0.006583487614989281,-1.9069137573242188,1.7496678829193115,2.047077178955078,0.5312516689300537,1.3720446825027466
8.874537706375122,0.0003263186663389206,-1.907696008682251,1.7614485025405884,2.0492045879364014,0.5364024639129639,1.3712608814239502
8.894588470458984,0.0006439592689275742,-1.9055895805358887,1.7434146404266357,2.0406599044799805,0.5325014591217041,1.3727877140045166
8.91464900970459,-0.005626888945698738,-1.9020709991455078,1.7426873445510864,2.0447940826416016,0.5339300632476807,1.372931718826294
8.934753894805908,-0.007547786459326744,-1.9024653434753418,1.749964952468872,2.046480178833008,0.5349259376525879,1.3718509674072266
8.954834938049316,-0.0006805825978517532,-1.9037525653839111,1.784074068069458,2.059128999710083,0.5473247170448303,1.3686232566833496
8.974904537200928,-3.2315030694007874e-05,-1.903441071510315,1.790313720703125,2.054839611053467,0.5467849969863892,1.368306040763855
8.994967937469482,-0.0107430350035429,-1.8993582725524902,1.7511652708053589,2.0450093746185303,0.5340078473091125,1.3714866638183594
9.015072107315063,-0.00024850107729434967,-1.896761417388916,1.7481975555419922,2.045966148376465,0.5422567129135132,1.372086524963379
9.035207271575928,-0.0027075838297605515,-1.8979843854904175,1.735397458076477,2.0397322177886963,0.5326536893844604,1.3724799156188965
9.055238962173462,-0.006637411192059517,-1.9004695415496826,1.746733546257019,2.042398452758789,0.5340384244918823,1.3708908557891846
9.075329542160034,-0.005465229973196983,-1.9020073413848877,1.735349178314209,2.0348496437072754,0.5261045098304749,1.3713743686676025
9.095439195632935,-0.0019104648381471634,-1.9010789394378662,1.7335944175720215,2.04152250289917,0.5296194553375244,1.3705365657806396
9.115496158599854,0.0061792898923158646,-1.9056041240692139,1.7801399230957031,2.051652193069458,0.5407594442367554,1.3653769493103027
9.135540008544922,-0.0010958556085824966,-1.8997433185577393,1.7524962425231934,2.0447001457214355,0.5365643501281738,1.3682019710540771
9.155648231506348,0.001141006126999855,-1.9007432460784912,1.7481513023376465,2.0422797203063965,0.5337877869606018,1.3676337003707886
9.175712585449219,0.008422790095210075,-1.9014304876327515,1.7696295976638794,2.0485775470733643,0.542700469493866,1.3652610778808594
9.195780992507935,0.00400245375931263,-1.898820400238037,1.7413904666900635,2.0374960899353027,0.5334240794181824,1.3682917356491089
9.216095924377441,-0.001114899292588234,-1.8979661464691162,1.727065086364746,2.038335084915161,0.5285394191741943,1.3691513538360596
9.236204385757446,0.003699587658047676,-1.898906946182251,1.7321319580078125,2.0410807132720947,0.5306101441383362,1.3680212497711182
9.256281852722168,0.0006280001252889633,-1.8998533487319946,1.7520124912261963,2.046478748321533,0.5362201929092407,1.3663047552108765
9.276321172714233,-0.0009464453905820847,-1.898402214050293,1.7291582822799683,2.0398497581481934,0.5277790427207947,1.3679156303405762
9.29653024673462,-0.0006761234253644943,-1.8970437049865723,1.7336965799331665,2.046262741088867,0.5327550172805786,1.3677361011505127
9.316606998443604,0.005195433273911476,-1.8981316089630127,1.7429544925689697,2.04567289352417,0.5352538824081421,1.3659441471099854
9.336771011352539,0.004028325900435448,-1.8993351459503174,1.7533342838287354,2.0439486503601074,0.537750244140625,1.3657052516937256
9.356749773025513,0.003989746794104576,-1.8980000019073486,1.7339808940887451,2.039754867553711,0.530815064907074,1.3664140701293945
9.376834154129028,0.0018518362194299698,-1.8993923664093018,1.7304489612579346,2.039515733718872,0.526820957660675,1.3660125732421875
9.396883726119995,-0.002044307067990303,-1.8999786376953125,1.7303941249847412,2.0417213439941406,0.5252460837364197,1.365902066230774
9.416962385177612,0.005908789113163948,-1.9006986618041992,1.7506499290466309,2.0423388481140137,0.5346828699111938,1.3647440671920776
9.437014102935791,0.0032721105962991714,-1.897825002670288,1.7342859506607056,2.0414466857910156,0.530606210231781,1.3652669191360474
9.45708680152893,0.013542043045163155,-1.8973839282989502,1.7483729124069214,2.0475101470947266,0.5407122373580933,1.3639401197433472
9.477163791656494,0.013088548555970192,-1.8994081020355225,1.7635040283203125,2.0460312366485596,0.5416399836540222,1.362065315246582
9.49727988243103,0.00922384299337864,-1.8983008861541748,1.743206262588501,2.0393261909484863,0.5332765579223633,1.363411545753479
9.517327308654785,0.012950940057635307,-1.8984814882278442,1.738886833190918,2.037609100341797,0.5324726700782776,1.3629722595214844
9.537410259246826,0.013804866001009941,-1.9004247188568115,1.752776026725769,2.0424580574035645,0.5341414213180542,1.360487699508667
9.557494163513184,0.01022951491177082,-1.9000650644302368,1.743444800376892,2.034243106842041,0.5302332639694214,1.3613920211791992
9.577613353729248,0.011773662641644478,-1.8994345664978027,1.7335799932479858,2.035885810852051,0.5276757478713989,1.3617714643478394
9.597670078277588,0.016727110370993614,-1.900681734085083,1.7894985675811768,2.0583064556121826,0.5473238825798035,1.3565144538879395
9.617968082427979,0.012270977720618248,-1.8961708545684814,1.757413625717163,2.0372800827026367,0.540844738483429,1.361419439315796
9.638096332550049,0.01497981883585453,-1.8975749015808105,1.7442984580993652,2.0410971641540527,0.5343267917633057,1.359975814819336
9.658123970031738,0.01990959607064724,-1.8982398509979248,1.7569596767425537,2.045128107070923,0.5389721393585205,1.3587201833724976
9.678172826766968,0.011862924322485924,-1.8949711322784424,1.7486919164657593,2.0370805263519287,0.5365883708000183,1.3607730865478516
9.6982581615448,0.009453216567635536,-1.8943136930465698,1.7402706146240234,2.040290355682373,0.5332497358322144,1.360555648803711
9.718320369720459,0.014945084229111671,-1.8965624570846558,1.743119239807129,2.0410168170928955,0.5330083966255188,1.3594025373458862
9.738391399383545,0.014557292684912682,-1.895035743713379,1.7497978210449219,2.0395312309265137,0.5373055934906006,1.3592455387115479
9.758464097976685,0.016751060262322426,-1.8936564922332764,1.7349400520324707,2.038769006729126,0.5335769653320312,1.3599939346313477
9.778566598892212,0.01577611081302166,-1.8938953876495361,1.736008882522583,2.0420572757720947,0.5339179635047913,1.3593950271606445
9.798689365386963,0.010348157957196236,-1.8955121040344238,1.7423319816589355,2.041821002960205,0.5299153327941895,1.358515739440918
9.818798303604126,0.014799339696764946,-1.8939790725708008,1.733550786972046,2.038508176803589,0.5319645404815674,1.3591995239257812
9.838886499404907,0.021242285147309303,-1.8937937021255493,1.7355499267578125,2.0394954681396484,0.5347567796707153,1.3588120937347412
9.858984231948853,0.015453172847628593,-1.8952326774597168,1.733211636543274,2.0404152870178223,0.5292040109634399,1.3578983545303345
9.879159688949585,0.02758023329079151,-1.8969478607177734,1.746528148651123,2.0409157276153564,0.5362553596496582,1.3567475080490112
9.899190664291382,0.03466126322746277,-1.8979194164276123,1.7592777013778687,2.035466432571411,0.5406078100204468,1.3559508323669434
9.919780254364014,0.031526051461696625,-1.8976342678070068,1.7538034915924072,2.0367231369018555,0.5363144874572754,1.3547054529190063
9.939859867095947,0.02784023992717266,-1.898260474205017,1.7722434997558594,2.0472412109375,0.5405875444412231,1.3525124788284302
9.959966659545898,0.02797737903892994,-1.897798776626587,1.742250919342041,2.028008460998535,0.529167115688324,1.3548693656921387
9.980032205581665,0.025965308770537376,-1.8939151763916016,1.7469431161880493,2.0404393672943115,0.5368853807449341,1.354203224182129
10.000279664993286,0.027720680460333824,-1.8938827514648438,1.746403694152832,2.0378518104553223,0.536333441734314,1.3543757200241089
10.020417213439941,0.025372082367539406,-1.8920328617095947,1.7516731023788452,2.033773422241211,0.5396687984466553,1.355309009552002
10.040500164031982,0.03420618176460266,-1.8956537246704102,1.7652615308761597,2.0400538444519043,0.5395115613937378,1.3514395952224731
10.060542583465576,0.029089948162436485,-1.8914626836776733,1.741723895072937,2.037924289703369,0.5372958779335022,1.3539730310440063
10.080615520477295,0.02355828322470188,-1.8913414478302002,1.7335370779037476,2.035629987716675,0.5308988094329834,1.3541167974472046
10.100717067718506,0.0286549162119627,-1.8918328285217285,1.7344119548797607,2.0364558696746826,0.5328313112258911,1.3536032438278198
10.120794773101807,0.029333917424082756,-1.8935580253601074,1.7515125274658203,2.0410995483398438,0.5361330509185791,1.351754903793335
10.140854358673096,0.030202528461813927,-1.8932690620422363,1.7434356212615967,2.0310535430908203,0.5330963134765625,1.3527692556381226
10.161049127578735,0.032555051147937775,-1.8918869495391846,1.7346713542938232,2.0322160720825195,0.5330343246459961,1.3534494638442993
10.181077480316162,0.027514318004250526,-1.89023756980896,1.7354217767715454,2.0390329360961914,0.534543514251709,1.3528521060943604
10.201124906539917,0.03187068551778793,-1.8937643766403198,1.7706795930862427,2.047372341156006,0.5419015884399414,1.3493802547454834
10.22119688987732,0.02340901829302311,-1.8888909816741943,1.7377302646636963,2.0367484092712402,0.5335959792137146,1.352581262588501
10.241273403167725,0.025865307077765465,-1.8900341987609863,1.7262407541275024,2.0306472778320312,0.5277410745620728,1.3534018993377686
10.261338233947754,0.03140239417552948,-1.891270399093628,1.729520320892334,2.0325775146484375,0.5287562608718872,1.3520883321762085
10.281408786773682,0.028602903708815575,-1.8914146423339844,1.7429848909378052,2.036482810974121,0.5340600609779358,1.3515751361846924
10.301467657089233,0.03672235459089279,-1.8903018236160278,1.7246818542480469,2.0274767875671387,0.5293185710906982,1.3524152040481567
10.321597337722778,0.033591121435165405,-1.8884714841842651,1.7227052450180054,2.033720016479492,0.5312623977661133,1.3522412776947021
10.341642141342163,0.03663438558578491,-1.8903663158416748,1.738470196723938,2.0374064445495605,0.5347186326980591,1.3499634265899658
10.361697435379028,0.034819528460502625,-1.890832543373108,1.7531697750091553,2.0379326343536377,0.5388339757919312,1.3488376140594482
10.381754875183105,0.0395592600107193,-1.890655517578125,1.7427268028259277,2.0331883430480957,0.5347417593002319,1.3484855890274048
10.401839971542358,0.040456779301166534,-1.8918167352676392,1.7481433153152466,2.037339210510254,0.5362357497215271,1.3473632335662842
10.421895265579224,0.03784865885972977,-1.8903343677520752,1.7521231174468994,2.0340380668640137,0.5376142859458923,1.3474175930023193
10.442003726959229,0.0372200608253479,-1.8893275260925293,1.7282835245132446,2.0285544395446777,0.5301341414451599,1.3492932319641113
10.462078332901001,0.03593537211418152,-1.8899234533309937,1.7262072563171387,2.0335869789123535,0.5284518599510193,1.3477553129196167
10.482174396514893,0.03691066801548004,-1.889809012413025,1.7334425449371338,2.036393880844116,0.5321087837219238,1.347675085067749
10.502340316772461,0.03448563814163208,-1.8915460109710693,1.740896463394165,2.0329508781433105,0.5289537906646729,1.347123146057129
10.522359132766724,0.035345688462257385,-1.89008367061615,1.729041337966919,2.036067485809326,0.529705286026001,1.347184419631958
10.542409658432007,0.03706277906894684,-1.88901686668396,1.7377971410751343,2.0406641960144043,0.5341184735298157,1.3466174602508545
10.5625741481781,0.04082265496253967,-1.8885977268218994,1.739870309829712,2.0363075733184814,0.5357592105865479,1.3469799757003784
10.582604885101318,0.049284301698207855,-1.8882086277008057,1.7595796585083008,2.0371179580688477,0.5446157455444336,1.345832109451294
10.602656602859497,0.06269725412130356,-1.8927745819091797,1.743004560470581,2.035109519958496,0.5347496271133423,1.3447229862213135
10.622704982757568,0.04877989739179611,-1.8877589702606201,1.7432916164398193,2.0340042114257812,0.5372545719146729,1.3457984924316406
10.642787218093872,0.04791336506605148,-1.8877224922180176,1.7565968036651611,2.040757656097412,0.5400665402412415,1.3442485332489014
10.662902116775513,0.04102256894111633,-1.8852936029434204,1.7379701137542725,2.0305185317993164,0.5335853099822998,1.346571445465088
10.682984828948975,0.04469563066959381,-1.8858060836791992,1.734757423400879,2.034372568130493,0.5323858261108398,1.3458645343780518
10.703028440475464,0.047935426235198975,-1.887275218963623,1.7503005266189575,2.0375680923461914,0.5365145802497864,1.3437219858169556
10.723167419433594,0.04047447443008423,-1.886359691619873,1.7289551496505737,2.0250356197357178,0.5264732837677002,1.3464206457138062
10.74326777458191,0.050307124853134155,-1.88600754737854,1.7306208610534668,2.0330965518951416,0.5331425070762634,1.3457962274551392
10.763325452804565,0.05485136806964874,-1.8840768337249756,1.7348299026489258,2.032820463180542,0.537078857421875,1.3453524112701416
10.783373355865479,0.054120130836963654,-1.8875386714935303,1.756174921989441,2.03676438331604,0.5390337705612183,1.3422753810882568
10.8035249710083,0.0507742241024971,-1.8867294788360596,1.728706955909729,2.0251355171203613,0.5277397036552429,1.343916416168213
10.82360315322876,0.049575597047805786,-1.886726975440979,1.728507399559021,2.031179904937744,0.5286687612533569,1.3432562351226807
10.843623876571655,0.05142993479967117,-1.886936902999878,1.7262425422668457,2.0281591415405273,0.5282309055328369,1.343599796295166
10.86369276046753,0.05581530183553696,-1.8917782306671143,1.7549033164978027,2.0363502502441406,0.5321063995361328,1.3396434783935547
10.883738994598389,0.052533797919750214,-1.8859058618545532,1.7385996580123901,2.0288491249084473,0.5329146981239319,1.3424975872039795
10.903845071792603,0.056583844125270844,-1.8868544101715088,1.734177827835083,2.026232957839966,0.5300983786582947,1.342210054397583
10.923905849456787,0.05433369427919388,-1.8858036994934082,1.7439719438552856,2.036468267440796,0.5347710847854614,1.3407772779464722
10.94398832321167,0.052444688975811005,-1.8837032318115234,1.741074800491333,2.0336146354675293,0.5362643003463745,1.3416569232940674
10.964060306549072,0.05489354580640793,-1.8849713802337646,1.7270911931991577,2.026675224304199,0.5284726619720459,1.3417439460754395
10.984151601791382,0.05519220232963562,-1.8832182884216309,1.727602243423462,2.0304694175720215,0.5316887497901917,1.3420183658599854
11.00421667098999,0.04680921137332916,-1.8873927593231201,1.7284514904022217,2.0303285121917725,0.5230240821838379,1.3405389785766602
11.024372816085815,0.05524551868438721,-1.8864823579788208,1.7296059131622314,2.02175235748291,0.5268674492835999,1.3419045209884644
11.044352769851685,0.05724670737981796,-1.8876889944076538,1.7276184558868408,2.0248937606811523,0.5249523520469666,1.3400369882583618
11.064456701278687,0.0626915916800499,-1.8874701261520386,1.7707602977752686,2.0406086444854736,0.5420432090759277,1.3364628553390503
11.08461594581604,0.058764442801475525,-1.883671760559082,1.74088454246521,2.029940128326416,0.5342180728912354,1.3387844562530518
11.104645729064941,0.06227470934391022,-1.8858035802841187,1.7662639617919922,2.039886713027954,0.5399249196052551,1.3358927965164185
11.124768257141113,0.06327806413173676,-1.8828620910644531,1.7542150020599365,2.0322296619415283,0.5420359969139099,1.33836030960083
11.14480710029602,0.06574521958827972,-1.8830549716949463,1.737629771232605,2.031210422515869,0.5348089337348938,1.3385391235351562
11.164863109588623,0.062432654201984406,-1.8832604885101318,1.7345836162567139,2.030867576599121,0.5324952602386475,1.337944746017456
11.184916496276855,0.07049943506717682,-1.8851428031921387,1.7529895305633545,2.031710147857666,0.5378367900848389,1.335715413093567
11.205023765563965,0.07545845955610275,-1.8846012353897095,1.742732048034668,2.0245742797851562,0.5365252494812012,1.3365823030471802
11.225090742111206,0.07640848308801651,-1.8836095333099365,1.7304661273956299,2.0211167335510254,0.532645583152771,1.33620285987854
11.245220184326172,0.07117817550897598,-1.8855342864990234,1.7456543445587158,2.028937816619873,0.5318460464477539,1.333836317062378
11.265240669250488,0.06402038037776947,-1.8825033903121948,1.7375868558883667,2.028033494949341,0.5340708494186401,1.3349508047103882
11.285362005233765,0.07043823599815369,-1.8813645839691162,1.7323254346847534,2.027416229248047,0.5350314378738403,1.3356411457061768
11.30544137954712,0.06928431242704391,-1.8822391033172607,1.7331222295761108,2.0301480293273926,0.5338983535766602,1.3347232341766357
11.325500249862671,0.06962881982326508,-1.8838930130004883,1.763927936553955,2.0390453338623047,0.5413851737976074,1.3320168256759644
11.345559358596802,0.06691622734069824,-1.8824554681777954,1.7338263988494873,2.021603584289551,0.5294418931007385,1.334312915802002
11.365640640258789,0.0700715184211731,-1.8819011449813843,1.7367085218429565,2.027353048324585,0.5330922603607178,1.334029197692871
11.38572072982788,0.07092324644327164,-1.8803211450576782,1.7445927858352661,2.026777982711792,0.5386257171630859,1.3338441848754883
11.405783891677856,0.06623765081167221,-1.8820492029190063,1.7143816947937012,2.0210156440734863,0.5226629972457886,1.3344614505767822
11.425836086273193,0.06977837532758713,-1.8836238384246826,1.710294485092163,2.0211775302886963,0.5218489766120911,1.3340837955474854
11.44593071937561,0.07121637463569641,-1.883807897567749,1.7170448303222656,2.022987127304077,0.5241079926490784,1.3333723545074463
11.4661226272583,0.07186198234558105,-1.885349988937378,1.730054497718811,2.0261404514312744,0.5266531109809875,1.3317301273345947
11.486121416091919,0.07439503073692322,-1.8827035427093506,1.7455852031707764,2.028566360473633,0.536236047744751,1.3316395282745361
11.506187915802002,0.07500878721475601,-1.8803884983062744,1.7325160503387451,2.027068614959717,0.53486168384552,1.33203125
11.526250123977661,0.07040952146053314,-1.8814387321472168,1.7277027368545532,2.0266761779785156,0.5293365716934204,1.33137845993042
11.546355962753296,0.08341751247644424,-1.882408618927002,1.761824369430542,2.0329723358154297,0.542663037776947,1.3286902904510498
11.566430807113647,0.07637333869934082,-1.8818745613098145,1.7277565002441406,2.0175578594207764,0.5278392434120178,1.3308212757110596
11.586497068405151,0.07879055291414261,-1.8817965984344482,1.7141751050949097,2.0166001319885254,0.5241324305534363,1.331141471862793
11.6066255569458,0.20772603154182434,-1.4649337530136108,1.5390820503234863,-0.82077956199646,0.6735241413116455,-0.7558687925338745
11.626706838607788,1.323245644569397,-0.9919865131378174,0.8727756142616272,-0.44679495692253113,0.6892728209495544,-1.1328978538513184
11.646769046783447,1.5622873306274414,-0.7963111996650696,0.6283147931098938,-0.39288926124572754,0.6206228733062744,-1.1450083255767822
11.666821956634521,1.63248610496521,-0.7339516878128052,0.537464439868927,-0.39282211661338806,0.603574812412262,-1.1461855173110962
11.68695330619812,1.6460118293762207,-0.7208943367004395,0.5194610357284546,-0.3906993269920349,0.596369743347168,-1.1463024616241455
11.707019805908203,1.6555026769638062,-0.7097780704498291,0.503183901309967,-0.3920983672142029,0.5893598794937134,-1.1465221643447876
11.727077960968018,1.6629109382629395,-0.7054319381713867,0.4972257614135742,-0.387047678232193,0.5901164412498474,-1.1461412906646729
11.747149467468262,1.6626534461975098,-0.7049668431282043,0.5010526180267334,-0.3889608085155487,0.5943980813026428,-1.1471803188323975
11.767249822616577,1.6547346115112305,-0.7052187323570251,0.530925452709198,-0.3790469169616699,0.5996012687683105,-1.1506966352462769
11.787325382232666,1.6563767194747925,-0.7074573040008545,0.5112102627754211,-0.38718411326408386,0.5950815677642822,-1.1471874713897705
11.807382106781006,1.6613413095474243,-0.7050129175186157,0.501246988773346,-0.3885979950428009,0.5921803712844849,-1.1462069749832153
11.827441692352295,1.663666009902954,-0.7032102346420288,0.4987187385559082,-0.3855714797973633,0.5906988382339478,-1.1458337306976318
11.847521781921387,1.6672990322113037,-0.7021468877792358,0.4817478060722351,-0.39155298471450806,0.591507077217102,-1.1463607549667358
11.867704153060913,1.6668509244918823,-0.6992664337158203,0.4897131323814392,-0.38809454441070557,0.5850189328193665,-1.146080493927002
11.887682914733887,1.668697714805603,-0.6993643641471863,0.49163299798965454,-0.38683873414993286,0.5914595127105713,-1.1458548307418823
11.907739639282227,1.6564457416534424,-0.7002990245819092,0.5022201538085938,-0.3879682123661041,0.5897647738456726,-1.1471986770629883
11.927862644195557,1.6583186388015747,-0.7006557583808899,0.5157539248466492,-0.3810630440711975,0.5966188907623291,-1.1487804651260376
11.947933912277222,1.6515522003173828,-0.7025262117385864,0.506697952747345,-0.3890666663646698,0.5903666615486145,-1.1461668014526367
11.968010425567627,1.6381144523620605,-0.7012630105018616,0.4988557696342468,-0.3977029323577881,0.5830742120742798,-1.1444222927093506
11.988081216812134,1.65286123752594,-0.7007172703742981,0.49566495418548584,-0.39390555024147034,0.585455596446991,-1.1456096172332764
12.00820541381836,1.656090259552002,-0.6994063854217529,0.49419325590133667,-0.39075958728790283,0.5848614573478699,-1.1455919742584229
12.028416872024536,1.6585053205490112,-0.6979867219924927,0.49216023087501526,-0.39087608456611633,0.5865919589996338,-1.145662784576416
12.048515319824219,1.6592227220535278,-0.6976004838943481,0.49204713106155396,-0.39445656538009644,0.5898278951644897,-1.1458587646484375
12.06871771812439,1.6604151725769043,-0.6974257230758667,0.49256426095962524,-0.3910887837409973,0.5882046222686768,-1.1458566188812256
12.088829755783081,1.6233190298080444,-0.6967036724090576,0.49464964866638184,-0.40451574325561523,0.5762166380882263,-1.143528699874878
12.108892917633057,1.5937702655792236,-0.6949777603149414,0.5007716417312622,-0.4075365364551544,0.5667494535446167,-1.141040325164795
12.129012823104858,1.6429319381713867,-0.6988670825958252,0.5136472582817078,-0.38677364587783813,0.5864204168319702,-1.1464886665344238
12.149060726165771,1.6461700201034546,-0.6987917423248291,0.5057681798934937,-0.3881557881832123,0.5840142965316772,-1.1461617946624756
12.169120073318481,1.645667552947998,-0.6963546276092529,0.49650371074676514,-0.39355793595314026,0.5841975212097168,-1.144863247871399
12.189216613769531,1.6561721563339233,-0.6948322057723999,0.497593492269516,-0.3872550129890442,0.5873931646347046,-1.1459245681762695
12.209256649017334,1.6558681726455688,-0.6936494708061218,0.49230462312698364,-0.39229997992515564,0.5887933969497681,-1.1453860998153687
12.22941517829895,1.6519782543182373,-0.6934370994567871,0.49296122789382935,-0.39329078793525696,0.5876260995864868,-1.1451308727264404
12.249432802200317,1.6450347900390625,-0.6926956176757812,0.5060499906539917,-0.38559338450431824,0.585131049156189,-1.1458696126937866
12.26947021484375,1.6396647691726685,-0.6925406455993652,0.49670594930648804,-0.39392057061195374,0.5823665261268616,-1.1440452337265015
12.289529085159302,1.606707215309143,-0.6891474723815918,0.49416133761405945,-0.40489161014556885,0.5691678524017334,-1.1409564018249512
12.309605360031128,1.5829508304595947,-0.6857686042785645,0.49258291721343994,-0.40777847170829773,0.5619608163833618,-1.1379036903381348
12.329670190811157,1.6433519124984741,-0.6912472248077393,0.4904269874095917,-0.3975571095943451,0.5814416408538818,-1.1442666053771973
12.349754571914673,1.644243836402893,-0.6866017580032349,0.4875201880931854,-0.3880543112754822,0.5753563642501831,-1.143406629562378
12.369845628738403,1.6387946605682373,-0.6868863701820374,0.48769623041152954,-0.3978830873966217,0.5783901214599609,-1.143568992614746
12.389989614486694,1.6406818628311157,-0.6871539950370789,0.4884757399559021,-0.39508259296417236,0.5789780020713806,-1.1435065269470215
12.410112857818604,1.6394165754318237,-0.6889066696166992,0.4897189736366272,-0.394188791513443,0.5783472061157227,-1.1434690952301025
12.43019437789917,1.641173243522644,-0.6881870031356812,0.4896264672279358,-0.39525899291038513,0.5823978185653687,-1.1436476707458496
12.450203657150269,1.6403656005859375,-0.6881819367408752,0.49301594495773315,-0.39374569058418274,0.5823665857315063,-1.1442879438400269
12.470334529876709,1.6265690326690674,-0.6888554096221924,0.5026344060897827,-0.39177972078323364,0.5765536427497864,-1.1438724994659424
12.49041485786438,1.6193490028381348,-0.6885533332824707,0.5015944242477417,-0.3945431113243103,0.5733205676078796,-1.1425503492355347
12.510498523712158,1.6142964363098145,-0.6852173805236816,0.4927768111228943,-0.3973024785518646,0.5706477165222168,-1.1405813694000244
12.53061819076538,1.6200027465820312,-0.6866377592086792,0.4914335012435913,-0.3998655080795288,0.5687682628631592,-1.1416914463043213
12.55068302154541,1.6283211708068848,-0.6843228936195374,0.48884323239326477,-0.39199966192245483,0.5676636695861816,-1.1414936780929565
12.570780277252197,1.6131196022033691,-0.6846500039100647,0.4876354932785034,-0.40060561895370483,0.5669927000999451,-1.1409662961959839
12.590894222259521,1.6115659475326538,-0.6828145384788513,0.4879630208015442,-0.4014974534511566,0.5667996406555176,-1.140183925628662
12.610991954803467,1.6258630752563477,-0.6836802959442139,0.4922648072242737,-0.3962317407131195,0.5747149586677551,-1.1428475379943848
12.631062507629395,1.6167258024215698,-0.6834031343460083,0.5089676380157471,-0.38672053813934326,0.569278359413147,-1.143991231918335
12.651150465011597,1.6114006042480469,-0.6833771467208862,0.49158579111099243,-0.39626625180244446,0.569054365158081,-1.1409480571746826
12.671240091323853,1.6086361408233643,-0.6790410280227661,0.484651654958725,-0.40345412492752075,0.566138744354248,-1.139504313468933
12.691310405731201,1.6249934434890747,-0.6805499196052551,0.48542913794517517,-0.39907532930374146,0.5721728801727295,-1.1415956020355225
12.7113676071167,1.6269755363464355,-0.6795406341552734,0.4845653772354126,-0.39429885149002075,0.5676546096801758,-1.1413697004318237
12.731545686721802,1.614880084991455,-0.6786779761314392,0.4823228716850281,-0.3987519443035126,0.5590981245040894,-1.1404390335083008
12.751574277877808,1.6244806051254272,-0.6788701415061951,0.4826233685016632,-0.3964148461818695,0.5677851438522339,-1.140673279762268
12.77162480354309,1.5970101356506348,-0.6765093803405762,0.49084341526031494,-0.39996832609176636,0.5613118410110474,-1.1389715671539307
12.791787147521973,1.6074224710464478,-0.6798250675201416,0.5051805973052979,-0.39517736434936523,0.57091224193573,-1.1424269676208496
12.811867952346802,1.6171356439590454,-0.6796844005584717,0.4973149299621582,-0.39448580145835876,0.5750930309295654,-1.1415164470672607
12.83196759223938,1.604162335395813,-0.6767314672470093,0.489218533039093,-0.39641860127449036,0.5586091876029968,-1.1385788917541504
12.852006435394287,1.5957939624786377,-0.6753028631210327,0.4862399697303772,-0.4056541621685028,0.56157386302948,-1.137642502784729
12.872381925582886,1.6145637035369873,-0.6733381748199463,0.48178666830062866,-0.39769309759140015,0.5629695653915405,-1.1389267444610596
12.892520189285278,1.6180168390274048,-0.6731077432632446,0.4816954731941223,-0.3961849808692932,0.5635004043579102,-1.139146089553833
12.912598609924316,1.616748332977295,-0.6727449893951416,0.4805041551589966,-0.3991549015045166,0.5627267956733704,-1.139393925666809
12.932661056518555,1.6097145080566406,-0.6771970987319946,0.5040541887283325,-0.3939077854156494,0.5712697505950928,-1.1415765285491943
12.952897548675537,1.5917296409606934,-0.6738579273223877,0.49058687686920166,-0.4009532332420349,0.5602908730506897,-1.137223482131958
12.972984790802002,1.5969598293304443,-0.6724701523780823,0.48751699924468994,-0.404092937707901,0.5626695156097412,-1.1372979879379272
12.993050575256348,1.604034185409546,-0.6710030436515808,0.4834848642349243,-0.39927005767822266,0.5597723722457886,-1.137670874595642
13.013097524642944,1.577542781829834,-0.6671919822692871,0.482357382774353,-0.4064331650733948,0.5505020618438721,-1.1347017288208008
13.033253908157349,1.6023813486099243,-0.6701033115386963,0.4823721647262573,-0.4030594825744629,0.5598964691162109,-1.1373684406280518
13.053257465362549,1.6094326972961426,-0.67128586769104,0.4873772859573364,-0.40223613381385803,0.5651127696037292,-1.1396050453186035
13.073319673538208,1.5999953746795654,-0.6717965602874756,0.5125941038131714,-0.393106073141098,0.5703964829444885,-1.1421191692352295
13.093470096588135,1.6024675369262695,-0.6730173826217651,0.4932907819747925,-0.39943939447402954,0.5642304420471191,-1.138343334197998
13.11350965499878,1.5976519584655762,-0.6701236367225647,0.48696139454841614,-0.40170004963874817,0.5587069988250732,-1.1372612714767456
13.133578538894653,1.5976749658584595,-0.6693137884140015,0.48562079668045044,-0.4033912718296051,0.56107097864151,-1.1370580196380615
13.153650045394897,1.5954898595809937,-0.6686663031578064,0.4854949116706848,-0.4042539596557617,0.5558369755744934,-1.1369280815124512
13.173723936080933,1.5886273384094238,-0.6664366722106934,0.4838283061981201,-0.4035307466983795,0.5518291592597961,-1.1357371807098389
13.193774461746216,1.6006150245666504,-0.6678798198699951,0.48278510570526123,-0.4032309651374817,0.5613568425178528,-1.1371488571166992
13.213845014572144,1.6018027067184448,-0.6675493717193604,0.48299139738082886,-0.4016285240650177,0.5589860677719116,-1.1374075412750244
13.233935594558716,1.601806640625,-0.6677166223526001,0.4828121066093445,-0.40105873346328735,0.5584716200828552,-1.137323021888733
13.254001379013062,1.5788644552230835,-0.6653319001197815,0.48357975482940674,-0.40901514887809753,0.5510045289993286,-1.1353085041046143
13.274069547653198,1.5730032920837402,-0.6631194949150085,0.4880247116088867,-0.40291455388069153,0.5478995442390442,-1.1341047286987305
13.294212102890015,1.5836409330368042,-0.664893388748169,0.5018947720527649,-0.39498209953308105,0.5570770502090454,-1.1373505592346191
13.314312934875488,1.5770041942596436,-0.6638712882995605,0.4954944849014282,-0.40092775225639343,0.5514605641365051,-1.1356549263000488
13.334408283233643,1.5840694904327393,-0.6633689403533936,0.48642879724502563,-0.39958351850509644,0.5549449920654297,-1.134275197982788
13.354517221450806,1.5910760164260864,-0.6643445491790771,0.4838516414165497,-0.40285250544548035,0.555039644241333,-1.1358805894851685
13.37452507019043,1.5898751020431519,-0.6635937094688416,0.48953109979629517,-0.40050262212753296,0.5572165250778198,-1.1367601156234741
13.394662380218506,1.591541051864624,-0.6632689833641052,0.4902370870113373,-0.397143691778183,0.5574158430099487,-1.1365344524383545
13.414727210998535,1.5903035402297974,-0.6635066270828247,0.4959239363670349,-0.39539292454719543,0.5591484308242798,-1.136440634727478
13.43481993675232,1.5913349390029907,-0.6629160046577454,0.48653316497802734,-0.40096065402030945,0.556281328201294,-1.1355525255203247
13.454880237579346,1.5830150842666626,-0.6608858108520508,0.48451536893844604,-0.40209728479385376,0.5489757657051086,-1.134390950202942
13.475028038024902,1.5644536018371582,-0.6586695313453674,0.4844786524772644,-0.4071604013442993,0.5445279479026794,-1.1327000856399536
13.495072603225708,1.5547574758529663,-0.659177303314209,0.48385894298553467,-0.41385072469711304,0.5428849458694458,-1.1320350170135498
13.515142440795898,1.572439193725586,-0.6579464673995972,0.4816768169403076,-0.40761619806289673,0.5492738485336304,-1.1331017017364502
13.535199880599976,1.5807291269302368,-0.6587848663330078,0.4832483232021332,-0.40409499406814575,0.5510232448577881,-1.1342523097991943
13.55528736114502,1.584106206893921,-0.6573244333267212,0.48157408833503723,-0.4035586416721344,0.5512058734893799,-1.1343801021575928
13.575357437133789,1.5853583812713623,-0.656913161277771,0.4806404709815979,-0.40248289704322815,0.5502429604530334,-1.1341608762741089
13.59551739692688,1.5829811096191406,-0.6563624739646912,0.4799123704433441,-0.4020211100578308,0.5464349389076233,-1.1339842081069946
13.615607500076294,1.5812530517578125,-0.6562831401824951,0.500454306602478,-0.39446818828582764,0.5577677488327026,-1.137071132659912
13.63597297668457,1.571056604385376,-0.6588913798332214,0.4947722554206848,-0.4011547565460205,0.550235390663147,-1.1344462633132935
13.65606164932251,1.5667071342468262,-0.6548543572425842,0.4868543744087219,-0.40124738216400146,0.5427983999252319,-1.1320024728775024
13.676145792007446,1.5287915468215942,-0.6489932537078857,0.48239877820014954,-0.4117972254753113,0.5298366546630859,-1.1273150444030762
13.69623064994812,1.5594173669815063,-0.6491469144821167,0.47897517681121826,-0.3995509743690491,0.5312807559967041,-1.1295127868652344
13.71626591682434,1.588456392288208,-0.6435765027999878,0.4723300337791443,-0.3796999454498291,0.5356972813606262,-1.1290541887283325
13.73643183708191,1.5761961936950684,-0.6443758606910706,0.4768804907798767,-0.39450010657310486,0.5383789539337158,-1.1304253339767456
13.756528615951538,1.5802720785140991,-0.6518882513046265,0.4930265545845032,-0.3957212269306183,0.5543830394744873,-1.1329289674758911
13.776607990264893,1.5762444734573364,-0.6516829133033752,0.4849809408187866,-0.4036455452442169,0.5526541471481323,-1.1316899061203003
13.796650171279907,1.5766336917877197,-0.6504775285720825,0.48233383893966675,-0.4020102024078369,0.5471757054328918,-1.1313683986663818
13.816723585128784,1.571911334991455,-0.6488295793533325,0.4741641879081726,-0.3995981812477112,0.5381022691726685,-1.1297885179519653
13.836819648742676,1.5686888694763184,-0.6477949619293213,0.4774266481399536,-0.40387701988220215,0.5395293235778809,-1.1297131776809692
13.856888055801392,1.5438528060913086,-0.645312488079071,0.4789138734340668,-0.40775585174560547,0.5322504043579102,-1.1269476413726807
13.876954555511475,1.5603421926498413,-0.6480798125267029,0.4821513891220093,-0.4061650335788727,0.5409621000289917,-1.1294065713882446
13.897000551223755,1.5670251846313477,-0.6492767930030823,0.492315411567688,-0.3990781903266907,0.5446531772613525,-1.1318873167037964
13.917125940322876,1.5609302520751953,-0.6494678258895874,0.4951653778553009,-0.40190353989601135,0.548513650894165,-1.1316993236541748
13.937183380126953,1.542525291442871,-0.647093653678894,0.48576295375823975,-0.40887075662612915,0.5358673334121704,-1.1279247999191284
13.957218647003174,1.559283971786499,-0.6445593237876892,0.48119160532951355,-0.40069279074668884,0.5390857458114624,-1.128104567527771
13.977272987365723,1.565279483795166,-0.6452237367630005,0.48006221652030945,-0.4034743309020996,0.5386852622032166,-1.1296733617782593
13.99735426902771,1.5623116493225098,-0.6428583860397339,0.47832727432250977,-0.39928409457206726,0.5364963412284851,-1.128334403038025
14.017432451248169,1.554524302482605,-0.6422946453094482,0.4779151678085327,-0.40826645493507385,0.5388463735580444,-1.128283977508545
14.037501811981201,1.5483226776123047,-0.6422473192214966,0.4776986241340637,-0.4078545570373535,0.537100613117218,-1.1273384094238281
14.05756163597107,1.5654752254486084,-0.6424310207366943,0.47590863704681396,-0.40373700857162476,0.5420709252357483,-1.1292797327041626
14.077657222747803,1.5637869834899902,-0.6417787075042725,0.4755745232105255,-0.4040875732898712,0.5363748073577881,-1.1294147968292236
14.097754716873169,1.5611953735351562,-0.6409528255462646,0.47369036078453064,-0.40336382389068604,0.5396614074707031,-1.1294164657592773
14.11785101890564,1.5543663501739502,-0.643100380897522,0.4750998020172119,-0.4049092233181,0.5377367734909058,-1.130062460899353
14.137900114059448,1.5376099348068237,-0.6376119256019592,0.47587937116622925,-0.4106586277484894,0.5306001901626587,-1.126489520072937
14.157984018325806,1.5437219142913818,-0.6388964653015137,0.4765346646308899,-0.4134693145751953,0.536253809928894,-1.1270482540130615
14.178108215332031,1.5513728857040405,-0.6377594470977783,0.47498559951782227,-0.40472477674484253,0.533550500869751,-1.1270380020141602
14.19815182685852,1.5402628183364868,-0.6354941725730896,0.4730582535266876,-0.4048992991447449,0.5230973958969116,-1.1258565187454224
14.218252182006836,1.5298137664794922,-0.6357970237731934,0.47367268800735474,-0.40888381004333496,0.5211704969406128,-1.1242042779922485
14.238412857055664,1.544061541557312,-0.6377511620521545,0.47730526328086853,-0.4061550199985504,0.5277384519577026,-1.127270221710205
14.258469581604004,1.5509965419769287,-0.6359080076217651,0.4939335286617279,-0.3970320224761963,0.5401504635810852,-1.1302882432937622
14.278562784194946,1.5487843751907349,-0.6385883688926697,0.4806724190711975,-0.4063129127025604,0.5356900095939636,-1.127591848373413
14.298591613769531,1.545243263244629,-0.6364502906799316,0.4757939577102661,-0.4075397551059723,0.5319560766220093,-1.1267833709716797
14.318695545196533,1.5381563901901245,-0.6355490684509277,0.4754714369773865,-0.40928444266319275,0.5289408564567566,-1.1259886026382446
14.338745832443237,1.5236835479736328,-0.6336851119995117,0.4745711088180542,-0.4117533266544342,0.5211828351020813,-1.1241462230682373
14.358805656433105,1.525942087173462,-0.6302107572555542,0.47053593397140503,-0.40825411677360535,0.5229910612106323,-1.1232696771621704
14.378883123397827,1.5260660648345947,-0.6303114891052246,0.4718472957611084,-0.40774816274642944,0.5114606022834778,-1.1235167980194092
14.398957252502441,1.5429235696792603,-0.6321361064910889,0.4688655138015747,-0.4098426103591919,0.5270907282829285,-1.1258573532104492
14.419046878814697,1.5495514869689941,-0.6301960349082947,0.46973055601119995,-0.40482455492019653,0.5304467082023621,-1.1256567239761353
14.43907880783081,1.5477583408355713,-0.6299974322319031,0.47434288263320923,-0.40221431851387024,0.5295336842536926,-1.1263678073883057
14.4591805934906,1.546522855758667,-0.6297552585601807,0.4815428853034973,-0.39987730979919434,0.5320672988891602,-1.127087116241455
14.479274988174438,1.534294843673706,-0.6327991485595703,0.49015286564826965,-0.3989730477333069,0.5283728837966919,-1.1258902549743652
14.499419450759888,1.519639015197754,-0.6301141977310181,0.47862017154693604,-0.4085344076156616,0.5183502435684204,-1.1229441165924072
14.5197114944458,1.5333555936813354,-0.6283801198005676,0.4747310280799866,-0.40516743063926697,0.5241239070892334,-1.1229984760284424
14.539794921875,1.539145588874817,-0.6282747387886047,0.4833385944366455,-0.39933058619499207,0.5267919301986694,-1.1250219345092773
14.55988335609436,1.5298409461975098,-0.6324371695518494,0.4838581085205078,-0.4069772958755493,0.5296451449394226,-1.12465238571167
14.579933643341064,1.5285122394561768,-0.6299515962600708,0.47679877281188965,-0.4109833538532257,0.5295710563659668,-1.1237314939498901
14.600041151046753,1.5161125659942627,-0.6298379898071289,0.47729259729385376,-0.41447871923446655,0.5213017463684082,-1.1228675842285156
14.620163440704346,1.5108413696289062,-0.6240372657775879,0.4739745855331421,-0.4079655110836029,0.511076807975769,-1.1205565929412842
14.64022707939148,1.517728328704834,-0.6244989037513733,0.4715363681316376,-0.41078487038612366,0.5152640342712402,-1.122009038925171
14.660385370254517,1.522504448890686,-0.6233346462249756,0.4694073796272278,-0.40973201394081116,0.5150662660598755,-1.1217803955078125
14.680537462234497,1.5306118726730347,-0.6243103742599487,0.46924254298210144,-0.4095189571380615,0.5211336016654968,-1.1228089332580566
14.700634002685547,1.5325512886047363,-0.624119758605957,0.46979641914367676,-0.40880370140075684,0.5219115018844604,-1.1234418153762817
14.720670938491821,1.5335578918457031,-0.6241592168807983,0.47440946102142334,-0.40762782096862793,0.527340292930603,-1.1244425773620605
14.740729570388794,1.5327348709106445,-0.6253268718719482,0.47200918197631836,-0.40892288088798523,0.5267839431762695,-1.1239557266235352
14.760817766189575,1.5289735794067383,-0.6243089437484741,0.48597970604896545,-0.3985382616519928,0.526041567325592,-1.1261065006256104
14.780903577804565,1.52285635471344,-0.6220142841339111,0.47132018208503723,-0.40082260966300964,0.5149206519126892,-1.122231364250183
14.800943613052368,1.5109902620315552,-0.6144063472747803,0.46466749906539917,-0.40356311202049255,0.5112820863723755,-1.1182937622070312
14.821158647537231,1.4926375150680542,-0.6154608726501465,0.4675663411617279,-0.4124389886856079,0.5015137791633606,-1.1178855895996094
14.841164588928223,1.5117183923721313,-0.6183760166168213,0.46759557723999023,-0.4154411852359772,0.5127698183059692,-1.1209332942962646
14.861210823059082,1.5215431451797485,-0.6195582151412964,0.46699994802474976,-0.41346824169158936,0.5174311399459839,-1.1221041679382324
14.881261110305786,1.5228257179260254,-0.6188727021217346,0.4712243378162384,-0.4089064300060272,0.51863032579422,-1.122618556022644
