liuyurong129/humanoid-gym/humanoid/data/target_q_20250522-041628.csv
timestamp,joint_1,joint_2,joint_3,joint_4,joint_5,joint_6
0.0001621246337890625,0.0,0.0,0.0,0.0,0.0,0.0
0.020232677459716797,0.0,0.0,0.0,0.0,0.0,0.0
0.04029512405395508,0.0,0.0,0.0,0.0,0.0,0.0
0.060369014739990234,0.0,0.0,0.0,0.0,0.0,0.0
0.08042454719543457,0.0,0.0,0.0,0.0,0.0,0.0
0.1004934310913086,-0.4583186209201813,-0.6620935201644897,0.3889639973640442,0.4209443926811218,0.10142406821250916,0.061981264501810074
0.12067055702209473,-0.45967522263526917,-0.6633234620094299,0.38815927505493164,0.4224584698677063,0.1019744724035263,0.06200333312153816
0.14086318016052246,-0.4607661962509155,-0.663883626461029,0.38738682866096497,0.4239042401313782,0.10256613790988922,0.0620194710791111
0.16102886199951172,-0.46119093894958496,-0.6639021635055542,0.38702377676963806,0.4245957136154175,0.10291103273630142,0.062023527920246124
0.18110346794128418,-0.46176818013191223,-0.663317859172821,0.38638177514076233,0.4258962869644165,0.10377135872840881,0.06201838701963425
0.20116162300109863,-0.4619724452495575,-0.6628408432006836,0.386097252368927,0.4265115261077881,0.10429458320140839,0.062010932713747025
0.2212505340576172,-0.4623199701309204,-0.6617147922515869,0.3855893611907959,0.4276944398880005,0.10549891740083694,0.061989761888980865
0.2412891387939453,-0.46256235241889954,-0.6603749394416809,0.38518187403678894,0.4288346767425537,0.10685985535383224,0.06195315718650818
0.2613801956176758,-0.46261680126190186,-0.6596019268035889,0.38502371311187744,0.42938387393951416,0.1075918972492218,0.06192503869533539
0.2814509868621826,-0.4626138508319855,-0.6579413414001465,0.3847816288471222,0.43042993545532227,0.1091260090470314,0.06184779852628708
0.3016061782836914,-0.4625873565673828,-0.6570742130279541,0.3847138285636902,0.43093517422676086,0.10989626497030258,0.061796076595783234
0.32169055938720703,-0.4625077545642853,-0.6553028225898743,0.38466161489486694,0.43191418051719666,0.11147446930408478,0.061672378331422806
0.34177112579345703,-0.46236613392829895,-0.6534895300865173,0.38470613956451416,0.4328794777393341,0.11309830099344254,0.06152430176734924
0.3618640899658203,-0.4622311592102051,-0.6525081396102905,0.38475170731544495,0.4333426058292389,0.11396566033363342,0.06144265830516815
0.38199615478515625,-0.4619150459766388,-0.6506127119064331,0.3848686218261719,0.4342317581176758,0.11573982238769531,0.06126546114683151
0.4021012783050537,-0.46148812770843506,-0.6486144661903381,0.3850611746311188,0.43507128953933716,0.11760833114385605,0.06106492131948471
0.42218589782714844,-0.46125927567481995,-0.64764803647995,0.3851824998855591,0.4354819059371948,0.11856484413146973,0.06095735356211662
0.4423649311065674,-0.46069031953811646,-0.6453323364257812,0.38562339544296265,0.43631047010421753,0.12055660784244537,0.06070885807275772
0.4624807834625244,-0.4603692293167114,-0.6439796686172485,0.3859606087207794,0.4367266297340393,0.12158031761646271,0.06056498363614082
0.482511043548584,-0.4597003757953644,-0.6414031982421875,0.3866772949695587,0.43752893805503845,0.12369266152381897,0.06026597321033478
0.5025882720947266,-0.4589088559150696,-0.6387133002281189,0.38749849796295166,0.43829697370529175,0.12592926621437073,0.0599433109164238
0.5226733684539795,-0.45848774909973145,-0.637457549571991,0.38791579008102417,0.43866676092147827,0.12707698345184326,0.05977741628885269
0.5427606105804443,-0.4575570225715637,-0.634710431098938,0.38891786336898804,0.4394102394580841,0.12943850457668304,0.059414975345134735
0.5630536079406738,-0.4565790295600891,-0.6320218443870544,0.39003077149391174,0.4401334524154663,0.13184711337089539,0.059026461094617844
0.5831499099731445,-0.45604634284973145,-0.6305707693099976,0.39065325260162354,0.44048815965652466,0.13309112191200256,0.058819178491830826
0.6032912731170654,-0.4549238681793213,-0.6279057860374451,0.3918505012989044,0.44114169478416443,0.13569919764995575,0.058405932039022446
0.6233851909637451,-0.4543139934539795,-0.626671552658081,0.3924318552017212,0.4414401054382324,0.1370718777179718,0.05819811671972275
0.6434879302978516,-0.45286083221435547,-0.6238513588905334,0.3936920762062073,0.4419681429862976,0.1400463730096817,0.05775657668709755
0.66391921043396,-0.4520438611507416,-0.6222590804100037,0.3944183588027954,0.4422222375869751,0.1416086107492447,0.05751573666930199
0.6840240955352783,-0.45037421584129333,-0.6193302273750305,0.3958818316459656,0.4427036643028259,0.14483462274074554,0.05702095478773117
0.7040774822235107,-0.44867151975631714,-0.6165125966072083,0.39746445417404175,0.443192720413208,0.14812181890010834,0.05649254098534584
0.7241780757904053,-0.44780999422073364,-0.6152548789978027,0.3982374668121338,0.443423330783844,0.14979475736618042,0.056224435567855835
0.7442729473114014,-0.44599393010139465,-0.6124752163887024,0.3999400734901428,0.4438874423503876,0.15320172905921936,0.05565228313207626
0.7647123336791992,-0.44413262605667114,-0.6096953749656677,0.40175509452819824,0.44433924555778503,0.15668879449367523,0.055047810077667236
0.7848081588745117,-0.4431697428226471,-0.6082372665405273,0.4027288258075714,0.44456255435943604,0.1584550142288208,0.054728418588638306
0.8048827648162842,-0.44122856855392456,-0.6057090759277344,0.40463581681251526,0.4449705183506012,0.16199876368045807,0.05407905578613281
0.8250086307525635,-0.4402519166469574,-0.6046316623687744,0.4055788218975067,0.44517144560813904,0.16374969482421875,0.053748100996017456
0.8450527191162109,-0.43815502524375916,-0.6022934317588806,0.4075472354888916,0.44555753469467163,0.16733108460903168,0.05305788666009903
0.8651926517486572,-0.43602678179740906,-0.6000643372535706,0.4096100330352783,0.44595691561698914,0.1709689497947693,0.05233928933739662
0.8852865695953369,-0.4349222779273987,-0.5988668203353882,0.4106902778148651,0.4461488425731659,0.1728510558605194,0.05196613445878029
0.90535569190979,-0.43282508850097656,-0.5968577265739441,0.41287195682525635,0.4465476870536804,0.17657744884490967,0.051209282130002975
0.9262239933013916,-0.4318278133869171,-0.5960056781768799,0.4139833152294159,0.4467548727989197,0.1784205287694931,0.05082419514656067
0.9463255405426025,-0.429823637008667,-0.5941959023475647,0.4163076877593994,0.44716617465019226,0.18214938044548035,0.05002698302268982
0.9663712978363037,-0.4278102219104767,-0.5924957990646362,0.4187379479408264,0.4475906491279602,0.18589220941066742,0.049198687076568604
0.9864592552185059,-0.42672738432884216,-0.591572105884552,0.41998252272605896,0.44778916239738464,0.18779636919498444,0.048769570887088776
1.0065765380859375,-0.4245747923851013,-0.5900328159332275,0.4224962890148163,0.44821348786354065,0.1915375292301178,0.04789695143699646
1.0266499519348145,-0.4235381782054901,-0.5894335508346558,0.4237816035747528,0.4484473168849945,0.19336426258087158,0.047453753650188446
1.0468037128448486,-0.42148926854133606,-0.5881412029266357,0.4263921082019806,0.44891709089279175,0.19709964096546173,0.046556632965803146
1.0671203136444092,-0.41959095001220703,-0.5871078372001648,0.42907077074050903,0.4494341015815735,0.2008315622806549,0.04565267264842987
1.0872211456298828,-0.41868898272514343,-0.5867035388946533,0.4304354190826416,0.4497084319591522,0.20268574357032776,0.045197419822216034
1.1073062419891357,-0.41709503531455994,-0.5865735411643982,0.43326127529144287,0.45038703083992004,0.20622748136520386,0.044284455478191376
1.1274616718292236,-0.4163943827152252,-0.5868752002716064,0.434709757566452,0.4507860243320465,0.2079208493232727,0.043826762586832047
1.1475541591644287,-0.4150935709476471,-0.5880085825920105,0.4375796616077423,0.4516567885875702,0.21122458577156067,0.04291605204343796
1.1676609516143799,-0.4139326810836792,-0.5897433757781982,0.4403582811355591,0.4525704085826874,0.21442477405071259,0.04201429337263107
1.1877245903015137,-0.41337406635284424,-0.5907367467880249,0.44169333577156067,0.4530213177204132,0.21600235998630524,0.041566960513591766
1.2078156471252441,-0.4123111963272095,-0.5928654670715332,0.44428613781929016,0.4539348781108856,0.21911677718162537,0.04067818447947502
1.2278859615325928,-0.4112142324447632,-0.5950286984443665,0.4467177391052246,0.45479583740234375,0.22226527333259583,0.03980010747909546
1.2480227947235107,-0.41066282987594604,-0.5961047410964966,0.44789138436317444,0.4552110433578491,0.22384458780288696,0.03936237841844559
1.2681703567504883,-0.40956223011016846,-0.5982314348220825,0.45015352964401245,0.45599794387817383,0.2270168960094452,0.03848859667778015
1.2881927490234375,-0.4085315465927124,-0.6003280282020569,0.45238789916038513,0.4567911922931671,0.23013001680374146,0.03760906308889389
1.3083276748657227,-0.4080418646335602,-0.6013702154159546,0.4534915089607239,0.4571947753429413,0.23167072236537933,0.03716922178864479
1.328488826751709,-0.4071042239665985,-0.6034653186798096,0.4556916058063507,0.45803678035736084,0.23467163741588593,0.03628597781062126
1.3487889766693115,-0.4066353142261505,-0.6045181155204773,0.4567715525627136,0.45846396684646606,0.23615184426307678,0.03584471344947815
1.3689360618591309,-0.405684232711792,-0.6066058874130249,0.458903044462204,0.4593089818954468,0.2390764057636261,0.03495972231030464
1.3889915943145752,-0.4047341048717499,-0.6086781620979309,0.46093955636024475,0.46010616421699524,0.24195949733257294,0.03407543897628784
1.4091053009033203,-0.40428438782691956,-0.6096680164337158,0.4619405269622803,0.4604945778846741,0.2433810830116272,0.03363286703824997
1.4291722774505615,-0.40342816710472107,-0.6115522980690002,0.4639105200767517,0.4612736403942108,0.2461855411529541,0.032748784869909286
1.4492409229278564,-0.4026111960411072,-0.6133069396018982,0.46590882539749146,0.46209409832954407,0.2489331066608429,0.031860675662755966
1.46938157081604,-0.4022020399570465,-0.6141793131828308,0.4669071137905121,0.46251586079597473,0.25028595328330994,0.03141586855053902
1.4894530773162842,-0.4013313055038452,-0.6159393787384033,0.46886515617370605,0.4633437395095825,0.2529776394367218,0.030526604503393173
1.5095243453979492,-0.4003946781158447,-0.6177046298980713,0.4707413911819458,0.46411392092704773,0.25567758083343506,0.029638081789016724
1.5296502113342285,-0.3999089300632477,-0.6186025142669678,0.4716305136680603,0.4644772410392761,0.25704240798950195,0.029196759685873985
1.5496792793273926,-0.39897221326828003,-0.6204497814178467,0.4733176529407501,0.46518072485923767,0.25976428389549255,0.02831990085542202
1.5698235034942627,-0.3985343277454376,-0.6214116215705872,0.4741239845752716,0.4655313789844513,0.2611212730407715,0.02788526751101017
1.5899097919464111,-0.3980824053287506,-0.6223982572555542,0.47488313913345337,0.46587467193603516,0.26249974966049194,0.027456380426883698
1.6100239753723145,-0.3971672058105469,-0.6243519186973572,0.47636306285858154,0.4665479362010956,0.26525822281837463,0.026598582044243813
1.6301145553588867,-0.39668896794319153,-0.6252902746200562,0.4770999550819397,0.46687522530555725,0.2666359543800354,0.026165546849370003
1.6503095626831055,-0.39570724964141846,-0.6270638704299927,0.4785832166671753,0.4674891531467438,0.2693614959716797,0.02528361976146698
1.6705107688903809,-0.39523032307624817,-0.6279504299163818,0.47932228446006775,0.46779629588127136,0.27069005370140076,0.024836303666234016
1.690596342086792,-0.3943239450454712,-0.6298004388809204,0.4807431995868683,0.4684421718120575,0.2733321785926819,0.023945879191160202
1.7106502056121826,-0.39343321323394775,-0.6317076086997986,0.48207443952560425,0.46909579634666443,0.2759661078453064,0.023059964179992676
1.7307450771331787,-0.3929991126060486,-0.6326388716697693,0.4827389121055603,0.46942421793937683,0.2772749662399292,0.02261497639119625
1.7508213520050049,-0.3922020494937897,-0.6344481110572815,0.484111487865448,0.47008955478668213,0.27981701493263245,0.02171371690928936
1.770984172821045,-0.3914925456047058,-0.6363114714622498,0.4854812026023865,0.47080349922180176,0.2822888493537903,0.020814070478081703
1.7910842895507812,-0.39115017652511597,-0.6372693777084351,0.4861491024494171,0.47116103768348694,0.2835043668746948,0.020364873111248016
1.8119847774505615,-0.39039337635040283,-0.6392285227775574,0.4873858690261841,0.4718449115753174,0.28595227003097534,0.019472094252705574
1.8320872783660889,-0.38997045159339905,-0.6401733756065369,0.48795831203460693,0.47215500473976135,0.2871876358985901,0.019025836139917374
1.852154016494751,-0.38908183574676514,-0.6420247554779053,0.4890235960483551,0.47274231910705566,0.28966572880744934,0.01813291385769844
1.8722362518310547,-0.38864439725875854,-0.6429539918899536,0.48953232169151306,0.4730372726917267,0.29089999198913574,0.017686570063233376
1.8923184871673584,-0.3877910375595093,-0.6448894739151001,0.49050119519233704,0.47364234924316406,0.2933954894542694,0.016797097399830818
1.9124548435211182,-0.3869613707065582,-0.6469662189483643,0.49144136905670166,0.4742879569530487,0.295877605676651,0.015907006338238716
1.9325459003448486,-0.38653647899627686,-0.6480280756950378,0.49190497398376465,0.47461795806884766,0.2971150875091553,0.015459641814231873
1.9527454376220703,-0.3857123851776123,-0.6500400304794312,0.4928596317768097,0.47530415654182434,0.29952049255371094,0.014555873349308968
1.9727683067321777,-0.38533636927604675,-0.6509809494018555,0.49335479736328125,0.4756632447242737,0.3006802797317505,0.014100446365773678
1.9928479194641113,-0.3846525251865387,-0.6527448892593384,0.4943440556526184,0.47637635469436646,0.30294308066368103,0.013189040124416351
2.0130553245544434,-0.38408491015434265,-0.6545902490615845,0.4953609108924866,0.47713303565979004,0.3051268756389618,0.012278849259018898
2.0331461429595947,-0.38381826877593994,-0.6555766463279724,0.4958805441856384,0.47752171754837036,0.30620282888412476,0.011822857894003391
2.053230047225952,-0.3833003044128418,-0.6576558947563171,0.4969403147697449,0.4783436059951782,0.3083423376083374,0.01091317180544138
2.073507308959961,-0.38302865624427795,-0.6587234139442444,0.4974570870399475,0.4787607491016388,0.3093946874141693,0.010459437035024166
2.093672752380371,-0.3824350833892822,-0.6607755422592163,0.4984287917613983,0.47956448793411255,0.31148889660835266,0.009557097218930721
2.1136624813079834,-0.38210809230804443,-0.6617599725723267,0.49888157844543457,0.47994092106819153,0.3125441074371338,0.009108019061386585
2.13374924659729,-0.38143470883369446,-0.6636412143707275,0.4997519254684448,0.48065948486328125,0.3146982789039612,0.008212820626795292
2.1538188457489014,-0.38109755516052246,-0.6645674109458923,0.5001834630966187,0.48101040720939636,0.3157919645309448,0.00776496808975935
2.1739673614501953,-0.38047081232070923,-0.666422426700592,0.5010462999343872,0.48173126578330994,0.3179764747619629,0.006869401782751083
2.1945154666900635,-0.37990090250968933,-0.6683070659637451,0.501880943775177,0.4824717342853546,0.32006922364234924,0.005972724873572588
2.2146189212799072,-0.3796156048774719,-0.6692469716072083,0.5022770166397095,0.48282814025878906,0.3210819363594055,0.00552243459969759
2.234670639038086,-0.3790086507797241,-0.6711698174476624,0.5030454397201538,0.48352181911468506,0.32303816080093384,0.004614569712430239
2.2547550201416016,-0.3786945939064026,-0.6721413135528564,0.5034276247024536,0.48386022448539734,0.32400915026664734,0.004157774616032839
2.2748382091522217,-0.3780485987663269,-0.6741344332695007,0.5041800737380981,0.48454219102859497,0.3259681165218353,0.0032446410041302443
2.2955143451690674,-0.3773677945137024,-0.6761007905006409,0.5048487186431885,0.48518094420433044,0.32799598574638367,0.0023396392352879047
2.3156254291534424,-0.3770241141319275,-0.6770554184913635,0.5051575303077698,0.4854670763015747,0.32902801036834717,0.0018860457930713892
2.335685968399048,-0.37637290358543396,-0.6788865923881531,0.5057398676872253,0.48600131273269653,0.33109503984451294,0.0009748805896379054
2.3557732105255127,-0.376064270734787,-0.6797720789909363,0.5060240626335144,0.4862552881240845,0.33211833238601685,0.0005154790123924613
2.3758413791656494,-0.3754611909389496,-0.6814897656440735,0.5066090822219849,0.48676514625549316,0.33413490653038025,-0.000413357192883268
2.395944356918335,-0.37516576051712036,-0.6823849678039551,0.5069238543510437,0.48705175518989563,0.3351072669029236,-0.0008825600380077958
2.416025161743164,-0.3745754659175873,-0.6842105984687805,0.5076144337654114,0.4876770079135895,0.33699142932891846,-0.0018332458566874266
2.4360947608947754,-0.3739630877971649,-0.6860722899436951,0.5082966089248657,0.4883274734020233,0.3388395309448242,-0.0027885804884135723
2.456202983856201,-0.37364470958709717,-0.686975359916687,0.5086203813552856,0.4886389970779419,0.33976849913597107,-0.003267255611717701
2.4762752056121826,-0.3729846179485321,-0.688773512840271,0.5092350244522095,0.48925843834877014,0.34166350960731506,-0.004222718067467213
2.4963459968566895,-0.37266331911087036,-0.6897051930427551,0.5095439553260803,0.4895811378955841,0.3426302671432495,-0.00470030028373003
2.516418933868408,-0.3720685541629791,-0.691664457321167,0.5101960301399231,0.4902784526348114,0.34454962611198425,-0.005658977665007114
2.5368471145629883,-0.3717983663082123,-0.6926648020744324,0.510536789894104,0.4906405508518219,0.3455016016960144,-0.0061407811008393764
2.5569517612457275,-0.37123557925224304,-0.6945603489875793,0.511204183101654,0.4913528263568878,0.34739574790000916,-0.0071073416620492935
2.577019691467285,-0.3705936670303345,-0.6962797045707703,0.511832594871521,0.49203601479530334,0.3492414355278015,-0.008080660365521908
2.5971052646636963,-0.3702283799648285,-0.697054922580719,0.5121120810508728,0.49235907196998596,0.35014864802360535,-0.008567674085497856
2.617215633392334,-0.369496613740921,-0.6985473036766052,0.5126345157623291,0.4929751455783844,0.351947158575058,-0.009543712250888348
2.6373648643493652,-0.3691510856151581,-0.6992932558059692,0.5128890872001648,0.49326276779174805,0.35286638140678406,-0.010032041929662228
2.657458543777466,-0.3684636056423187,-0.7008255124092102,0.5133489966392517,0.4937732219696045,0.3547654449939728,-0.011009585112333298
2.67751145362854,-0.36778178811073303,-0.702485978603363,0.5138011574745178,0.49425041675567627,0.356677383184433,-0.01199788972735405
2.6976048946380615,-0.36742594838142395,-0.703334629535675,0.5140203237533569,0.49448978900909424,0.357613205909729,-0.012496489100158215
2.7176480293273926,-0.3667289614677429,-0.7050105929374695,0.5145425796508789,0.4950139820575714,0.35939937829971313,-0.013511905446648598
2.737738609313965,-0.3663891553878784,-0.7058357000350952,0.5148386359214783,0.49531036615371704,0.360256552696228,-0.014025420881807804
2.7578554153442383,-0.36571264266967773,-0.707449734210968,0.5154649615287781,0.4959482252597809,0.361947238445282,-0.0150564881041646
2.777876615524292,-0.3650795817375183,-0.7090699076652527,0.5161257982254028,0.4966140389442444,0.3635944426059723,-0.01609415002167225
2.7979869842529297,-0.364777147769928,-0.7098652124404907,0.516456663608551,0.49694034457206726,0.36441266536712646,-0.016613904386758804
2.8180534839630127,-0.36420977115631104,-0.711458683013916,0.517137348651886,0.49759823083877563,0.36601462960243225,-0.017656397074460983
2.838146686553955,-0.3636246621608734,-0.7130002975463867,0.5178312659263611,0.49824410676956177,0.3676063120365143,-0.01870269700884819
2.858264207839966,-0.3633042871952057,-0.7137641906738281,0.518175482749939,0.4985545575618744,0.3683878183364868,-0.01922999694943428
2.878302812576294,-0.3626117706298828,-0.7152311205863953,0.5188643336296082,0.4991113543510437,0.36995914578437805,-0.020298408344388008
2.898353099822998,-0.36184000968933105,-0.716584324836731,0.5195032954216003,0.49959543347358704,0.37155237793922424,-0.02137698419392109
2.918470621109009,-0.36144545674324036,-0.7172525525093079,0.5198124051094055,0.49982574582099915,0.3723721504211426,-0.02191762439906597
2.938532590866089,-0.36062583327293396,-0.7185946702957153,0.5203998684883118,0.5002772212028503,0.37403950095176697,-0.023001115769147873
2.958655834197998,-0.360212117433548,-0.7192983031272888,0.5206776857376099,0.5004991292953491,0.37488028407096863,-0.02354397624731064
2.978743314743042,-0.35939183831214905,-0.720755934715271,0.5212504863739014,0.5009452700614929,0.3765040338039398,-0.024642474949359894
2.998788833618164,-0.35858410596847534,-0.7222831845283508,0.5218474864959717,0.5014113783836365,0.3780738413333893,-0.02575470134615898
3.018883228302002,-0.3581768274307251,-0.7231191992759705,0.5221732258796692,0.5016694664955139,0.37883439660072327,-0.02631777711212635
3.039025068283081,-0.35738682746887207,-0.7249547839164734,0.5228598117828369,0.5022597312927246,0.3803512752056122,-0.027448853477835655
3.059476613998413,-0.356655478477478,-0.726944625377655,0.5236342549324036,0.5029284358024597,0.38182780146598816,-0.028594186529517174
3.0796167850494385,-0.35632771253585815,-0.7279223799705505,0.5240508317947388,0.503275454044342,0.382564902305603,-0.029171722009778023
3.0996594429016113,-0.3556959927082062,-0.7297197580337524,0.5249736309051514,0.5039352178573608,0.3840290307998657,-0.03034689463675022
3.119781970977783,-0.3553856611251831,-0.7305128574371338,0.5254814624786377,0.5042518973350525,0.384777694940567,-0.03094303421676159
3.1399037837982178,-0.35473769903182983,-0.7318956851959229,0.5265794396400452,0.504883348941803,0.38629382848739624,-0.032148584723472595
3.1604511737823486,-0.35406848788261414,-0.733018159866333,0.5277704000473022,0.5054959654808044,0.3877982497215271,-0.0333741158246994
3.180535078048706,-0.35372328758239746,-0.7334402203559875,0.5284154415130615,0.505786657333374,0.3885214328765869,-0.033998627215623856
3.20062255859375,-0.35304194688796997,-0.734101414680481,0.5298130512237549,0.5063608884811401,0.38991597294807434,-0.035270098596811295
3.2207906246185303,-0.3526943027973175,-0.7343299388885498,0.530572235584259,0.5066422820091248,0.39058631658554077,-0.035918451845645905
3.2408499717712402,-0.35198432207107544,-0.7346986532211304,0.5321558117866516,0.5072235465049744,0.3919030725955963,-0.037225935608148575
3.260897397994995,-0.3512423038482666,-0.7350413203239441,0.5338206887245178,0.507827877998352,0.393189400434494,-0.038547880947589874
3.280991792678833,-0.3508801758289337,-0.7352756857872009,0.5346899032592773,0.5081683397293091,0.39384907484054565,-0.03920988738536835
3.301133155822754,-0.350164532661438,-0.7358582615852356,0.5365163087844849,0.5088809132575989,0.3951954245567322,-0.04054509848356247
3.321235179901123,-0.3498200476169586,-0.7362353801727295,0.5374568700790405,0.5092663764953613,0.3958967626094818,-0.04121316969394684
3.341329574584961,-0.34911906719207764,-0.7371731996536255,0.5393303036689758,0.5100690722465515,0.39729708433151245,-0.04254733771085739
3.3614468574523926,-0.3484409749507904,-0.7384652495384216,0.5411773920059204,0.5109356045722961,0.39872294664382935,-0.04387391731142998
3.3815054893493652,-0.348106324672699,-0.7392534613609314,0.5420941114425659,0.5113894939422607,0.39943498373031616,-0.04453596845269203
3.4016788005828857,-0.3474664092063904,-0.7411260604858398,0.5439183712005615,0.5123221278190613,0.4008522629737854,-0.0458613745868206
3.4216902256011963,-0.34687885642051697,-0.7434728741645813,0.5457015633583069,0.5133148431777954,0.40226516127586365,-0.04717913269996643
3.44185471534729,-0.3466111719608307,-0.7447890043258667,0.5465806126594543,0.5138306021690369,0.40297016501426697,-0.04783530533313751
3.4619157314300537,-0.3461001515388489,-0.7476198077201843,0.5482891798019409,0.5148984789848328,0.4043988883495331,-0.04913752153515816
3.4819984436035156,-0.34583792090415955,-0.7490584850311279,0.5491236448287964,0.5154244303703308,0.40511274337768555,-0.04978850111365318
3.502061367034912,-0.3453042209148407,-0.7519552707672119,0.5507675409317017,0.5164526700973511,0.40653154253959656,-0.051095765084028244
3.522157669067383,-0.3450341820716858,-0.7533848881721497,0.5515775084495544,0.5169543623924255,0.4072394371032715,-0.05175187438726425
3.542276620864868,-0.3444841504096985,-0.7561463117599487,0.553186297416687,0.5179373025894165,0.4086344242095947,-0.0530739352107048
3.56235408782959,-0.34419509768486023,-0.7574520707130432,0.5539834499359131,0.518401026725769,0.40931499004364014,-0.05374319478869438
3.5824191570281982,-0.34360426664352417,-0.7600287795066833,0.5555850267410278,0.5193033814430237,0.41063371300697327,-0.05510041490197182
3.602553606033325,-0.3430301249027252,-0.7626537084579468,0.5571982264518738,0.5202090740203857,0.41192713379859924,-0.0564759336411953
3.6226980686187744,-0.34275421500205994,-0.7640118598937988,0.5580154657363892,0.5206776857376099,0.4125717282295227,-0.05716805160045624
3.6427972316741943,-0.34219467639923096,-0.766742467880249,0.5596556663513184,0.5216107368469238,0.4138287901878357,-0.05856475979089737
3.662832260131836,-0.34190529584884644,-0.7680984139442444,0.5604833960533142,0.5220696330070496,0.4144344925880432,-0.05927092954516411
3.682993173599243,-0.3413046896457672,-0.7707128524780273,0.5621647238731384,0.5229586362838745,0.4156103730201721,-0.06070147827267647
3.7029733657836914,-0.34065964818000793,-0.7731565833091736,0.5638819932937622,0.5237939953804016,0.4167153537273407,-0.062161192297935486
3.7230749130249023,-0.3403167724609375,-0.7742807865142822,0.5647669434547424,0.5241809487342834,0.41723689436912537,-0.06290575116872787
3.7431507110595703,-0.3396061062812805,-0.7764096260070801,0.5665472745895386,0.5249171853065491,0.418279767036438,-0.06441189348697662
3.763352870941162,-0.3388756513595581,-0.7783704996109009,0.5683563947677612,0.525627613067627,0.4193488359451294,-0.06593605130910873
3.783461332321167,-0.33850908279418945,-0.7793537974357605,0.5692728757858276,0.5259870886802673,0.4198904037475586,-0.06670433282852173
3.803544044494629,-0.337753027677536,-0.7812469005584717,0.5711470246315002,0.5266922116279602,0.42095327377319336,-0.06825968623161316
3.823608875274658,-0.33736905455589294,-0.7821977734565735,0.5721087455749512,0.5270500779151917,0.421474426984787,-0.06904672086238861
3.8437561988830566,-0.33660903573036194,-0.7841706275939941,0.5740851163864136,0.5277984142303467,0.4225321114063263,-0.0706358328461647
3.8637914657592773,-0.3358599841594696,-0.7863290309906006,0.5761114358901978,0.5285933613777161,0.4236029088497162,-0.07224205136299133
3.88386607170105,-0.33549055457115173,-0.7875081300735474,0.577132523059845,0.529003381729126,0.42414817214012146,-0.07305116951465607
3.9039440155029297,-0.334770143032074,-0.7900717258453369,0.579187273979187,0.5298590660095215,0.42525309324264526,-0.07468032836914062
3.9239962100982666,-0.3340645432472229,-0.7928616404533386,0.5812883973121643,0.5307061672210693,0.4263596534729004,-0.07634108513593674
3.9441168308258057,-0.3337286412715912,-0.7943292260169983,0.5823628306388855,0.5311399102210999,0.42689403891563416,-0.07718503475189209
3.964198112487793,-0.33309832215309143,-0.797361433506012,0.5845427513122559,0.5320343375205994,0.42797061800956726,-0.07889431715011597
3.9845104217529297,-0.3325568437576294,-0.8004559874534607,0.5867732763290405,0.532991349697113,0.42905622720718384,-0.08062683045864105
4.004596948623657,-0.3323233723640442,-0.8020340800285339,0.5879213809967041,0.5335065126419067,0.42960789799690247,-0.08149976283311844
4.024671792984009,-0.3319145739078522,-0.8052669763565063,0.5902832746505737,0.5346336960792542,0.4306849241256714,-0.08325296640396118
4.044740200042725,-0.331723690032959,-0.8069246411323547,0.5914902091026306,0.5352534055709839,0.43122541904449463,-0.08412867784500122
4.0648980140686035,-0.3313857316970825,-0.8103141188621521,0.5939235687255859,0.5365899801254272,0.4323144853115082,-0.08587313443422318
4.084969997406006,-0.3310588300228119,-0.8136990070343018,0.596349835395813,0.5379632711410522,0.43342453241348267,-0.08761247992515564
4.105102062225342,-0.33091309666633606,-0.8153822422027588,0.5975633263587952,0.5386574268341064,0.4339698553085327,-0.08848068118095398
4.125156402587891,-0.3306140601634979,-0.8187151551246643,0.5999821424484253,0.5400183796882629,0.4350633919239044,-0.09021642059087753
4.145254611968994,-0.33028897643089294,-0.8220121264457703,0.6023896932601929,0.541347324848175,0.43622326850891113,-0.09194698929786682
4.165337562561035,-0.3301047086715698,-0.8236680030822754,0.6035899519920349,0.5420159101486206,0.4368354380130768,-0.0928095206618309
4.1854166984558105,-0.32968682050704956,-0.8268972635269165,0.6059836149215698,0.5433498024940491,0.43811702728271484,-0.09452839195728302
4.205523729324341,-0.3294636011123657,-0.828484296798706,0.6071726679801941,0.5440174341201782,0.43877464532852173,-0.09538514912128448
4.22564959526062,-0.32899945974349976,-0.8316064476966858,0.6095078587532043,0.5453261137008667,0.4401067793369293,-0.09709139168262482
4.245989084243774,-0.328533411026001,-0.8346976041793823,0.6118025779724121,0.5465848445892334,0.44143903255462646,-0.09879565984010696
4.266106367111206,-0.32829833030700684,-0.8362442851066589,0.612939178943634,0.547207236289978,0.44208425283432007,-0.09964773803949356
4.286155462265015,-0.32784050703048706,-0.8393058776855469,0.6152222752571106,0.5484537482261658,0.44330039620399475,-0.10135593265295029
4.306267499923706,-0.3276337683200836,-0.8408489227294922,0.6163821816444397,0.5490987300872803,0.44388067722320557,-0.10221049189567566
4.326321363449097,-0.32729923725128174,-0.8440159559249878,0.6187648177146912,0.5504865050315857,0.44502344727516174,-0.10390795767307281
4.346367597579956,-0.32705655694007874,-0.8471391201019287,0.6212484836578369,0.5519396662712097,0.44617319107055664,-0.10559304058551788
4.366460084915161,-0.32692646980285645,-0.8486599326133728,0.6225086450576782,0.5526718497276306,0.4467410445213318,-0.10643097013235092
4.38651967048645,-0.3266089856624603,-0.851600170135498,0.6250225305557251,0.5540846586227417,0.4478660523891449,-0.10810204595327377
4.406615257263184,-0.32641544938087463,-0.8530728816986084,0.6262623071670532,0.5547583103179932,0.448442280292511,-0.10893455892801285
4.426707744598389,-0.32603296637535095,-0.8560566902160645,0.6287265419960022,0.5560656189918518,0.4496980607509613,-0.1105864942073822
4.446758270263672,-0.3256753981113434,-0.8590242862701416,0.6311918497085571,0.5573484897613525,0.4510391056537628,-0.1122240275144577
4.466856479644775,-0.325501024723053,-0.8604640364646912,0.6324342489242554,0.5579835772514343,0.4517017602920532,-0.11304245889186859
4.486926794052124,-0.32519277930259705,-0.8632615208625793,0.6349480748176575,0.5592644214630127,0.4529494047164917,-0.11468091607093811
4.507046699523926,-0.32506293058395386,-0.8646708726882935,0.6362170577049255,0.5599157810211182,0.4535471200942993,-0.11549913883209229
4.527235746383667,-0.3248354494571686,-0.8676238656044006,0.6387389898300171,0.5612596273422241,0.45472419261932373,-0.11711947619915009
4.547339200973511,-0.324590265750885,-0.870711088180542,0.6411787271499634,0.5626139044761658,0.45587143301963806,-0.11871742457151413
4.567448616027832,-0.32443851232528687,-0.8722507953643799,0.6423609256744385,0.5632702112197876,0.4564208984375,-0.11951161175966263
4.587527513504028,-0.32410186529159546,-0.8752767443656921,0.6446995735168457,0.5645145177841187,0.457511842250824,-0.12110090255737305
4.607617616653442,-0.32376575469970703,-0.8783929944038391,0.6470614671707153,0.5657200813293457,0.4586605429649353,-0.1226876750588417
4.627774000167847,-0.323613703250885,-0.8799868822097778,0.6482736468315125,0.5663089752197266,0.4592728018760681,-0.12348316609859467
4.647793531417847,-0.32336920499801636,-0.8831944465637207,0.6507710218429565,0.5675405263900757,0.4605392813682556,-0.12506729364395142
4.668195486068726,-0.32326817512512207,-0.8847640752792358,0.6520387530326843,0.5681710839271545,0.4611739218235016,-0.12585550546646118
4.68831205368042,-0.32309433817863464,-0.8878830075263977,0.6545775532722473,0.5694855451583862,0.46240973472595215,-0.1274179369211197
4.708377361297607,-0.32293471693992615,-0.8910176753997803,0.6571115255355835,0.570824921131134,0.4635944962501526,-0.1289658099412918
4.7285990715026855,-0.3228487968444824,-0.8925764560699463,0.6583735942840576,0.5714854598045349,0.46417486667633057,-0.12973558902740479
4.748610734939575,-0.3226530849933624,-0.8955790996551514,0.660859227180481,0.5727364420890808,0.465298593044281,-0.1312703937292099
4.769106864929199,-0.32254183292388916,-0.8969944715499878,0.6620752215385437,0.5733248591423035,0.4658564627170563,-0.13203294575214386
4.789230585098267,-0.3222978711128235,-0.8996211290359497,0.6644941568374634,0.5744500160217285,0.46695947647094727,-0.13355176150798798
4.809308767318726,-0.3220675587654114,-0.9021347761154175,0.6669480204582214,0.5755660533905029,0.46810317039489746,-0.135054811835289
4.829575061798096,-0.3219670355319977,-0.9034382700920105,0.6681914925575256,0.5761392712593079,0.46868735551834106,-0.13579872250556946
4.84958815574646,-0.32177969813346863,-0.9061861038208008,0.6706637740135193,0.5772925615310669,0.46984511613845825,-0.1372731626033783
4.869972467422485,-0.3215753138065338,-0.9090148210525513,0.6730635762214661,0.5784271955490112,0.4709402620792389,-0.13873691856861115
4.890045166015625,-0.3214746415615082,-0.9104105234146118,0.674263596534729,0.5789790749549866,0.4714619219303131,-0.13947124779224396
4.9101080894470215,-0.32131704688072205,-0.9132281541824341,0.6767093539237976,0.580086886882782,0.4724963307380676,-0.1409427672624588
4.930219888687134,-0.32126927375793457,-0.9146319031715393,0.6779709458351135,0.5806553959846497,0.4730037748813629,-0.14167891442775726
4.950290203094482,-0.3211875855922699,-0.9172845482826233,0.6805036067962646,0.5817714333534241,0.4739755094051361,-0.14314843714237213
4.970423221588135,-0.3211035132408142,-0.9197555184364319,0.6830126047134399,0.5828571915626526,0.4748753607273102,-0.14461004734039307
4.990550518035889,-0.32106149196624756,-0.9209248423576355,0.6842637658119202,0.5833848714828491,0.47531795501708984,-0.14533743262290955
5.010637044906616,-0.32096531987190247,-0.9234182834625244,0.6867313981056213,0.5844410061836243,0.47622591257095337,-0.1467762291431427
5.030798673629761,-0.32090485095977783,-0.9247147440910339,0.6879512071609497,0.5849547386169434,0.4766932427883148,-0.14749187231063843
5.050890922546387,-0.32074064016342163,-0.9274953007698059,0.690326452255249,0.5859755873680115,0.4776631295681,-0.14890864491462708
5.071064710617065,-0.320555716753006,-0.9303132891654968,0.6926540732383728,0.586953341960907,0.4786513149738312,-0.15031762421131134
5.091057062149048,-0.32046380639076233,-0.9317081570625305,0.6938140392303467,0.5874311923980713,0.47914043068885803,-0.15101970732212067
5.111148118972778,-0.32029449939727783,-0.9344198107719421,0.6961587071418762,0.5883809328079224,0.4801294505596161,-0.15241868793964386
5.131216049194336,-0.3201512098312378,-0.9370297789573669,0.6985563039779663,0.5893547534942627,0.4811195731163025,-0.1538095623254776
5.151298761367798,-0.32009318470954895,-0.9383081197738647,0.6997751593589783,0.5898609757423401,0.48162156343460083,-0.15450002253055573
5.17141580581665,-0.3199958801269531,-0.9409201741218567,0.7022136449813843,0.5908902883529663,0.48262426257133484,-0.15586936473846436
5.191462278366089,-0.3199555277824402,-0.9422786831855774,0.7034223675727844,0.5914064049720764,0.4831259846687317,-0.1565476953983307
5.211568117141724,-0.3198757767677307,-0.9450085163116455,0.7058014273643494,0.592400312423706,0.48413434624671936,-0.15789517760276794
5.231699228286743,-0.3198312222957611,-0.9463846683502197,0.7069635987281799,0.5928831696510315,0.48462462425231934,-0.15856441855430603
5.251751661300659,-0.31973767280578613,-0.9490679502487183,0.7092743515968323,0.5938150882720947,0.4855942130088806,-0.15989834070205688
5.271814584732056,-0.31964999437332153,-0.9516675472259521,0.7115737199783325,0.5947678089141846,0.48653846979141235,-0.16121551394462585
5.29188084602356,-0.31960228085517883,-0.9528853893280029,0.7127134799957275,0.5952372550964355,0.48700734972953796,-0.16186703741550446
5.311953544616699,-0.31948110461235046,-0.9551423192024231,0.7149698734283447,0.5961354374885559,0.48790913820266724,-0.16316325962543488
5.332861423492432,-0.31937238574028015,-0.9573901891708374,0.717237114906311,0.5970255136489868,0.48882076144218445,-0.16444821655750275
5.353055000305176,-0.31932374835014343,-0.9585517048835754,0.7183731198310852,0.5974714756011963,0.48927247524261475,-0.1650875359773636
5.373101472854614,-0.3192453384399414,-0.9609805345535278,0.7206506133079529,0.5983802080154419,0.4901721775531769,-0.16635961830615997
5.393283367156982,-0.3192007541656494,-0.9621789455413818,0.721780002117157,0.5988191366195679,0.4906097948551178,-0.1669946163892746
5.413315773010254,-0.31911319494247437,-0.9645705223083496,0.7240545153617859,0.5996897220611572,0.4914640188217163,-0.1682635396718979
5.433475971221924,-0.3190799951553345,-0.9657599925994873,0.7252105474472046,0.6001233458518982,0.4919073283672333,-0.16889588534832
5.453552484512329,-0.31904590129852295,-0.9682261943817139,0.7275539636611938,0.601043164730072,0.49280229210853577,-0.1701502650976181
5.473720550537109,-0.31903451681137085,-0.9695093631744385,0.7287063002586365,0.6015033721923828,0.49325597286224365,-0.17077083885669708
5.493733882904053,-0.31900984048843384,-0.972134530544281,0.7309467196464539,0.602416455745697,0.49415668845176697,-0.171999990940094
5.513989686965942,-0.3189665377140045,-0.9746733903884888,0.7331247329711914,0.6032646298408508,0.49505069851875305,-0.17322354018688202
5.534095764160156,-0.31893494725227356,-0.9758402109146118,0.7342163324356079,0.6036572456359863,0.495488703250885,-0.1738387644290924
5.554208517074585,-0.31885501742362976,-0.9780036807060242,0.7364116907119751,0.6044096350669861,0.49633148312568665,-0.17507405579090118
5.574254512786865,-0.31881076097488403,-0.9790253043174744,0.73752361536026,0.604777991771698,0.4967367649078369,-0.17569378018379211
5.594354867935181,-0.31873422861099243,-0.980993926525116,0.7397955656051636,0.6055373549461365,0.4975416660308838,-0.1769307255744934
5.614420413970947,-0.3186904489994049,-0.9829822778701782,0.7421278953552246,0.6063380241394043,0.49836117029190063,-0.1781562864780426
5.634504079818726,-0.31867310404777527,-0.9839921593666077,0.7432824373245239,0.6067383289337158,0.49878206849098206,-0.17876046895980835
5.654587984085083,-0.318630188703537,-0.986099898815155,0.7455152869224548,0.6075209379196167,0.4996190071105957,-0.17995114624500275
5.674651384353638,-0.31854820251464844,-0.9882583618164062,0.7476110458374023,0.6082320809364319,0.5004259943962097,-0.1811271756887436
5.69474196434021,-0.31848978996276855,-0.989315927028656,0.7486280202865601,0.6085542440414429,0.5008097887039185,-0.18171681463718414
5.714825868606567,-0.31836679577827454,-0.9913973808288574,0.7506611943244934,0.609180748462677,0.5015625357627869,-0.18290086090564728
5.7349042892456055,-0.31831589341163635,-0.9924547672271729,0.7517059445381165,0.6095077395439148,0.5019355416297913,-0.1834951937198639
5.755020380020142,-0.3182653784751892,-0.9945799112319946,0.7539035677909851,0.6102264523506165,0.5027175545692444,-0.1846836805343628
5.775149822235107,-0.3182753324508667,-0.9967074394226074,0.7562152743339539,0.611026406288147,0.5035377144813538,-0.18586401641368866
5.795334815979004,-0.31828585267066956,-0.9976996779441833,0.7573851943016052,0.6114298701286316,0.5039566159248352,-0.18645066022872925
5.815338850021362,-0.31829553842544556,-0.9996550679206848,0.7596614956855774,0.6122421026229858,0.5047755241394043,-0.18760627508163452
5.8355865478515625,-0.318268746137619,-1.0016673803329468,0.761788010597229,0.6130061149597168,0.5055598020553589,-0.18874050676822662
5.855684041976929,-0.31825095415115356,-1.0027600526809692,0.7627980709075928,0.6133798956871033,0.5059452652931213,-0.18929935991764069
5.875761270523071,-0.3182009756565094,-1.0050636529922485,0.7647470235824585,0.614071249961853,0.5066923499107361,-0.19041360914707184
5.896148204803467,-0.31817805767059326,-1.0062443017959595,0.7657269239425659,0.6144033670425415,0.5070517659187317,-0.1909744143486023
5.916251182556152,-0.31814056634902954,-1.0085309743881226,0.7677538394927979,0.6150340437889099,0.5077565312385559,-0.19210948050022125
5.936319351196289,-0.31813257932662964,-1.0106890201568604,0.7698821425437927,0.6156925559043884,0.5084667801856995,-0.19325131177902222
5.956391334533691,-0.3181324303150177,-1.011650800704956,0.7709745168685913,0.6160338521003723,0.5088256597518921,-0.19382070004940033
5.976456642150879,-0.3181309700012207,-1.0133663415908813,0.7731688618659973,0.6167463064193726,0.5095475912094116,-0.19494816660881042
5.996528148651123,-0.3181138038635254,-1.0147788524627686,0.7753772735595703,0.6174395084381104,0.5102691054344177,-0.19606801867485046
6.016654968261719,-0.31809309124946594,-1.015446662902832,0.7764565944671631,0.6177694797515869,0.5106226205825806,-0.19662299752235413
6.0367350578308105,-0.3180457055568695,-1.0168887376785278,0.7785682082176208,0.6183952689170837,0.5113404393196106,-0.1977228969335556
6.056786298751831,-0.3180258870124817,-1.0186821222305298,0.7806261777877808,0.6190329194068909,0.5120883584022522,-0.19880248606204987
6.076892614364624,-0.31802859902381897,-1.0197209119796753,0.7816388607025146,0.619347333908081,0.5124721527099609,-0.19933730363845825
6.097026348114014,-0.3180418014526367,-1.0219600200653076,0.7836374044418335,0.6199730634689331,0.5131756663322449,-0.2004052996635437
6.1172871589660645,-0.3180457055568695,-1.023097038269043,0.7846269607543945,0.6202797889709473,0.5134760141372681,-0.20094139873981476
6.137389898300171,-0.318058580160141,-1.0253263711929321,0.7865930199623108,0.6208893656730652,0.5140275359153748,-0.20201146602630615
6.157444715499878,-0.31808722019195557,-1.0273505449295044,0.7885977029800415,0.6215378642082214,0.5145791172981262,-0.2030724138021469
6.1775431632995605,-0.3180958032608032,-1.02821946144104,0.7896122932434082,0.6218599081039429,0.5148705840110779,-0.20359936356544495
6.197634935379028,-0.3180710971355438,-1.0296359062194824,0.7916342616081238,0.6224741339683533,0.5154466032981873,-0.2046480029821396
6.217839002609253,-0.31803378462791443,-1.0302197933197021,0.7926222085952759,0.622757077217102,0.5157346725463867,-0.2051679939031601
6.237849473953247,-0.3179336488246918,-1.0313103199005127,0.7945554852485657,0.6232776641845703,0.5163284540176392,-0.20619748532772064
6.257909774780273,-0.3178827464580536,-1.032727599143982,0.7965244650840759,0.6238189935684204,0.5170007348060608,-0.20721431076526642
6.278088092803955,-0.31789058446884155,-1.0336453914642334,0.7975388765335083,0.6241163611412048,0.5173559188842773,-0.20771916210651398
6.298141717910767,-0.3179542124271393,-1.0358792543411255,0.7995738387107849,0.6247456073760986,0.5180590152740479,-0.20872269570827484
6.3182854652404785,-0.31799060106277466,-1.0371071100234985,0.8005661368370056,0.6250726580619812,0.5183741450309753,-0.20922105014324188
6.338274955749512,-0.31805649399757385,-1.0396029949188232,0.8024814128875732,0.6257218718528748,0.5189472436904907,-0.21021117269992828
6.358332633972168,-0.31813061237335205,-1.041971206665039,0.8043718338012695,0.6263578534126282,0.5195114612579346,-0.21119536459445953
6.378544092178345,-0.318183571100235,-1.0430645942687988,0.8053385615348816,0.6266704201698303,0.5198023915290833,-0.21168896555900574
6.398565292358398,-0.3183014988899231,-1.0450299978256226,0.8073107004165649,0.627265453338623,0.5204183459281921,-0.21267876029014587
6.418713569641113,-0.3183556795120239,-1.0459233522415161,0.8082972764968872,0.6275527477264404,0.5207292437553406,-0.2131725549697876
6.438746213912964,-0.3184293508529663,-1.047560214996338,0.8102236986160278,0.6281076073646545,0.5213667154312134,-0.2141462117433548
6.458802700042725,-0.3184581398963928,-1.0490347146987915,0.8120911717414856,0.6286214590072632,0.5219990611076355,-0.21510618925094604
6.4788734912872314,-0.3184729218482971,-1.049786925315857,0.8130238056182861,0.6288751363754272,0.5223156809806824,-0.21558308601379395
6.49901556968689,-0.31851905584335327,-1.05142080783844,0.8149023652076721,0.6293812394142151,0.5229605436325073,-0.21653328835964203
6.519123077392578,-0.31855177879333496,-1.0523256063461304,0.8158453106880188,0.629636824131012,0.5232843160629272,-0.21700672805309296
6.539177894592285,-0.31862398982048035,-1.0541647672653198,0.8177147507667542,0.6301634311676025,0.5239264965057373,-0.21794600784778595
6.559523105621338,-0.31866228580474854,-1.055830955505371,0.8195167183876038,0.6306685209274292,0.5245124101638794,-0.21887797117233276
6.579737186431885,-0.31867095828056335,-1.0566117763519287,0.8203979134559631,0.6309139132499695,0.5247888565063477,-0.21934092044830322
6.599797487258911,-0.31870004534721375,-1.0581499338150024,0.8221920728683472,0.6313983201980591,0.5253610014915466,-0.2202649861574173
6.61987829208374,-0.31873634457588196,-1.0589762926101685,0.8231205940246582,0.6316565871238708,0.5256742238998413,-0.22072401642799377
6.63997483253479,-0.3188338875770569,-1.0606306791305542,0.8250206112861633,0.632182240486145,0.5263316631317139,-0.2216387540102005
6.660254240036011,-0.31892842054367065,-1.0622824430465698,0.8268839716911316,0.6327040791511536,0.5269699096679688,-0.22254310548305511
6.680370092391968,-0.31896668672561646,-1.0630868673324585,0.8277961611747742,0.6329519748687744,0.5272698998451233,-0.2229938507080078
6.700490236282349,-0.31905168294906616,-1.0647666454315186,0.8296228051185608,0.6334550976753235,0.5278515219688416,-0.22389216721057892
6.720645427703857,-0.3191033601760864,-1.0656288862228394,0.8305491209030151,0.633712887763977,0.5281441807746887,-0.22434034943580627
6.740800380706787,-0.3192240595817566,-1.067365050315857,0.8324135541915894,0.6342529058456421,0.5287364721298218,-0.22522874176502228
6.760840177536011,-0.31935006380081177,-1.0690245628356934,0.8342726230621338,0.6347832083702087,0.5293419361114502,-0.2261073738336563
6.780934810638428,-0.3194136917591095,-1.0698206424713135,0.8351974487304688,0.6350494623184204,0.5296440720558167,-0.22654184699058533
6.801018476486206,-0.3195192217826843,-1.0712618827819824,0.8370175957679749,0.6355441808700562,0.5302277207374573,-0.2274068146944046
6.821706295013428,-0.31955814361572266,-1.0719515085220337,0.8378912806510925,0.6357817053794861,0.5304998755455017,-0.22783403098583221
6.8418128490448,-0.31960707902908325,-1.0733822584152222,0.8395392894744873,0.6362308263778687,0.5310132503509521,-0.22867606580257416
6.86186146736145,-0.3196406960487366,-1.0750207901000977,0.8410988450050354,0.6366860270500183,0.5315210819244385,-0.22950144112110138
6.881946802139282,-0.3196386694908142,-1.0759373903274536,0.8418492078781128,0.6369149088859558,0.5317901372909546,-0.22990873456001282
6.902068376541138,-0.3195953965187073,-1.0778239965438843,0.843300998210907,0.6373648643493652,0.5323430895805359,-0.23071733117103577
6.922135829925537,-0.3195679187774658,-1.0787628889083862,0.8440126180648804,0.6375861763954163,0.5326142907142639,-0.23112048208713531
6.9423604011535645,-0.3195441663265228,-1.080502986907959,0.8454915285110474,0.6380037069320679,0.5331522822380066,-0.23193609714508057
6.962539911270142,-0.3196030855178833,-1.0820518732070923,0.847103476524353,0.6384292840957642,0.5336920022964478,-0.23276402056217194
6.982734680175781,-0.31964805722236633,-1.0827579498291016,0.8479508757591248,0.6386417746543884,0.5339688658714294,-0.23318113386631012
7.002873420715332,-0.31974974274635315,-1.0840682983398438,0.8496677279472351,0.6391031742095947,0.534523069858551,-0.23400667309761047
7.022893667221069,-0.3198016285896301,-1.084700107574463,0.8505293130874634,0.6393452286720276,0.5347897410392761,-0.23441490530967712
7.04297137260437,-0.3199003338813782,-1.085984706878662,0.8522218465805054,0.6398281455039978,0.535315990447998,-0.2352202981710434
7.063020706176758,-0.319945752620697,-1.0866754055023193,0.853046715259552,0.6400644183158875,0.5355709195137024,-0.23561878502368927
7.083102226257324,-0.32002875208854675,-1.0881280899047852,0.8546678423881531,0.6405101418495178,0.5360597968101501,-0.23641635477542877
7.10314154624939,-0.32010120153427124,-1.0895988941192627,0.8562703728675842,0.6409326791763306,0.5365204811096191,-0.23721691966056824
7.123252868652344,-0.32013529539108276,-1.0903303623199463,0.8570629954338074,0.6411466598510742,0.536746621131897,-0.2376154661178589
7.143323183059692,-0.32020390033721924,-1.091692328453064,0.8586636185646057,0.6415795087814331,0.537207841873169,-0.23841051757335663
7.163547039031982,-0.3202761709690094,-1.0928887128829956,0.8602953553199768,0.6420265436172485,0.5376829504966736,-0.2391991764307022
7.183658838272095,-0.32031431794166565,-1.0934618711471558,0.8611205220222473,0.6422448754310608,0.5379279851913452,-0.23959173262119293
7.203705549240112,-0.32039985060691833,-1.0946636199951172,0.8627637624740601,0.6426823735237122,0.5384453535079956,-0.24036668241024017
7.223796606063843,-0.32044845819473267,-1.0953469276428223,0.8635825514793396,0.6429003477096558,0.5387157201766968,-0.24075044691562653
7.243877649307251,-0.3205570876598358,-1.096843957901001,0.8652247190475464,0.6433265805244446,0.539279043674469,-0.2415151745080948
7.264397621154785,-0.32064303755760193,-1.09844970703125,0.8668050765991211,0.6437371969223022,0.5398206114768982,-0.24227283895015717
7.284524440765381,-0.3206663131713867,-1.0992449522018433,0.8675503134727478,0.6439250111579895,0.5400804877281189,-0.24264797568321228
7.304600477218628,-0.32068270444869995,-1.1007685661315918,0.8689508438110352,0.6442880630493164,0.5405582785606384,-0.2433881014585495
7.324737787246704,-0.3206897974014282,-1.1014918088912964,0.8696355819702148,0.6444669365882874,0.5407952070236206,-0.24375373125076294
7.344832420349121,-0.32072708010673523,-1.1028721332550049,0.8710250854492188,0.644825279712677,0.5412752628326416,-0.2444821149110794
7.364888429641724,-0.32076701521873474,-1.1042225360870361,0.8724315166473389,0.6451864242553711,0.5417784452438354,-0.24520598351955414
7.384975910186768,-0.3207751214504242,-1.1048848628997803,0.873125433921814,0.6453626751899719,0.542033314704895,-0.2455667108297348
7.405046463012695,-0.320776104927063,-1.1061737537384033,0.8744915127754211,0.6457088589668274,0.5425323247909546,-0.24628528952598572
7.425385475158691,-0.3207840323448181,-1.1068052053451538,0.8751888275146484,0.6458845734596252,0.542779266834259,-0.24664464592933655
7.445566892623901,-0.320846289396286,-1.1080516576766968,0.8766468167304993,0.6462475061416626,0.5432612299919128,-0.24736666679382324
7.465527772903442,-0.32094722986221313,-1.1093170642852783,0.8781667351722717,0.6466240286827087,0.5437370538711548,-0.24809008836746216
7.485619068145752,-0.32100042700767517,-1.1099694967269897,0.8789269924163818,0.6468142867088318,0.5439655184745789,-0.2484513521194458
7.505701541900635,-0.32110247015953064,-1.111249566078186,0.8804351091384888,0.6472015976905823,0.5444026589393616,-0.249170184135437
7.525919437408447,-0.32119613885879517,-1.1125177145004272,0.8819212317466736,0.6475944519042969,0.5448117256164551,-0.24988268315792084
7.54602313041687,-0.3212421238422394,-1.1131395101547241,0.8826567530632019,0.6477915048599243,0.54501873254776,-0.2502346336841583
7.566100358963013,-0.32134413719177246,-1.1144038438796997,0.884141206741333,0.6481766700744629,0.5454514026641846,-0.25093430280685425
7.58629846572876,-0.32140105962753296,-1.11503005027771,0.8848893642425537,0.6483707427978516,0.5456788539886475,-0.25128042697906494
7.606391906738281,-0.3215196430683136,-1.116258978843689,0.8863775134086609,0.6487467885017395,0.5461576581001282,-0.25196564197540283
7.626479625701904,-0.3216262459754944,-1.1174334287643433,0.8878231644630432,0.649100124835968,0.546635627746582,-0.2526426911354065
7.646546125411987,-0.32167989015579224,-1.1180323362350464,0.8885359764099121,0.6492736339569092,0.5468770265579224,-0.25297868251800537
7.666615724563599,-0.32178881764411926,-1.119233250617981,0.8899552822113037,0.6496266722679138,0.5473493933677673,-0.25364670157432556
7.686720848083496,-0.32183653116226196,-1.119808316230774,0.8906460404396057,0.6498051881790161,0.5475698709487915,-0.25397729873657227
7.706849813461304,-0.321898490190506,-1.1208631992340088,0.8919523358345032,0.650142252445221,0.5479666590690613,-0.25463011860847473
7.726873874664307,-0.3219418525695801,-1.1218570470809937,0.8932164907455444,0.6504572629928589,0.5483483672142029,-0.2552749812602997
7.74696946144104,-0.32197514176368713,-1.122387409210205,0.8938676118850708,0.6506218910217285,0.5485535860061646,-0.2555955648422241
7.767090797424316,-0.32206693291664124,-1.123535394668579,0.8952067494392395,0.6509584188461304,0.5489928722381592,-0.25623464584350586
7.787379026412964,-0.3221127390861511,-1.1241183280944824,0.8958746194839478,0.6511217355728149,0.5492054224014282,-0.2565542459487915
7.807476997375488,-0.32219526171684265,-1.1253496408462524,0.8971598148345947,0.6514387130737305,0.5496084094047546,-0.25718721747398376
7.827535152435303,-0.3222627639770508,-1.1266039609909058,0.8983795046806335,0.6517423391342163,0.5499865412712097,-0.25781095027923584
7.8477606773376465,-0.3222983777523041,-1.1272495985031128,0.8989766836166382,0.6518987417221069,0.5501747727394104,-0.25811848044395447
7.86772346496582,-0.3223678171634674,-1.1284902095794678,0.9001747965812683,0.6521968841552734,0.550544798374176,-0.2587333619594574
7.888094663619995,-0.32240742444992065,-1.129103660583496,0.9007903337478638,0.6523505449295044,0.5507239699363708,-0.2590418756008148
7.908257722854614,-0.3225088119506836,-1.1302725076675415,0.9020925164222717,0.6526716947555542,0.5511012673377991,-0.2596626579761505
7.92830753326416,-0.32262516021728516,-1.1313567161560059,0.9034401774406433,0.6530060768127441,0.5514936447143555,-0.2602817416191101
7.9484148025512695,-0.32268404960632324,-1.1318517923355103,0.9041185975074768,0.6531692147254944,0.5516977310180664,-0.26058924198150635
7.968512773513794,-0.32280147075653076,-1.1328685283660889,0.905454695224762,0.6534916162490845,0.5521048307418823,-0.26119664311408997
7.9886744022369385,-0.3228611350059509,-1.1333954334259033,0.9061160087585449,0.6536540389060974,0.5523059368133545,-0.2614966630935669
8.00870966911316,-0.3229823112487793,-1.1345396041870117,0.9074253439903259,0.653980016708374,0.5526885390281677,-0.2620939314365387
8.028785228729248,-0.323095440864563,-1.1357276439666748,0.9087119102478027,0.6542899012565613,0.5530486702919006,-0.26269063353538513
8.048954248428345,-0.3231440484523773,-1.1362974643707275,0.9093489050865173,0.6544268727302551,0.5532227754592896,-0.2629915773868561
8.068976163864136,-0.3232365846633911,-1.137379765510559,0.9106064438819885,0.6546907424926758,0.5535871386528015,-0.2635893225669861
8.089311599731445,-0.323342502117157,-1.1384154558181763,0.9118850231170654,0.6549651026725769,0.5539845824241638,-0.2641814947128296
8.109435319900513,-0.32340309023857117,-1.1389433145523071,0.9125276207923889,0.6551210880279541,0.5541971921920776,-0.2644716799259186
8.129538774490356,-0.32351815700531006,-1.139990210533142,0.913806140422821,0.6554290056228638,0.5546301603317261,-0.2650468647480011
8.149579286575317,-0.3235587179660797,-1.140500783920288,0.9144150614738464,0.6555731296539307,0.5548477172851562,-0.26532965898513794
8.16965937614441,-0.3236231803894043,-1.1415290832519531,0.9155870079994202,0.6558369994163513,0.5552634000778198,-0.26589125394821167
8.189955472946167,-0.3237001597881317,-1.142599105834961,0.9167402982711792,0.656101644039154,0.5556803345680237,-0.26644575595855713
8.21004033088684,-0.3237529695034027,-1.1431368589401245,0.9173315763473511,0.656241238117218,0.5558820366859436,-0.2667231261730194
8.230125188827515,-0.32386553287506104,-1.1441646814346313,0.9185140132904053,0.6565277576446533,0.5562782883644104,-0.2672748267650604
8.250223636627197,-0.3239169716835022,-1.144643783569336,0.919100284576416,0.6566639542579651,0.5564656853675842,-0.2675511837005615
8.270363807678223,-0.3240121603012085,-1.145565390586853,0.9202578663825989,0.6569316983222961,0.5568280816078186,-0.2681018114089966
8.290494918823242,-0.32411882281303406,-1.1465126276016235,0.921435534954071,0.6572115421295166,0.5571936964988708,-0.2686498165130615
8.310719966888428,-0.32417717576026917,-1.147003412246704,0.9220300316810608,0.657357394695282,0.5573766827583313,-0.268921822309494
8.330769538879395,-0.32430148124694824,-1.148016333580017,0.9232219457626343,0.6576487421989441,0.5577546954154968,-0.2694612443447113
8.35081958770752,-0.32434991002082825,-1.1485148668289185,0.9238013625144958,0.6577884554862976,0.5579467415809631,-0.26972776651382446
8.370902299880981,-0.324420690536499,-1.149481177330017,0.9249209761619568,0.6580582857131958,0.5583237409591675,-0.2702556550502777
8.39105749130249,-0.32444503903388977,-1.1499282121658325,0.9254653453826904,0.6581872701644897,0.5585030317306519,-0.2705189883708954
8.411128044128418,-0.32449662685394287,-1.1507856845855713,0.9265355467796326,0.6584359407424927,0.5588598251342773,-0.27104315161705017
8.4312002658844,-0.3245302438735962,-1.151187777519226,0.9270748496055603,0.6585519909858704,0.5590360164642334,-0.27130600810050964
8.451279878616333,-0.3246077597141266,-1.152055263519287,0.9281522631645203,0.6587899923324585,0.559380292892456,-0.27182915806770325
8.471338510513306,-0.32470038533210754,-1.1530081033706665,0.9292590618133545,0.6590340733528137,0.5597057342529297,-0.2723541855812073
8.49142575263977,-0.3247525095939636,-1.1535362005233765,0.9298181533813477,0.6591707468032837,0.5598546862602234,-0.272615909576416
8.511505603790283,-0.3248523473739624,-1.1545863151550293,0.9309104084968567,0.659439206123352,0.5601550936698914,-0.2731338143348694
8.531602144241333,-0.3248937726020813,-1.1550894975662231,0.9314348697662354,0.6595649123191833,0.5602997541427612,-0.27339059114456177
8.551769495010376,-0.32497164607048035,-1.1560423374176025,0.932463526725769,0.6598019003868103,0.5606094598770142,-0.27389851212501526
8.572191715240479,-0.3250578045845032,-1.156959891319275,0.9335088729858398,0.6600322127342224,0.5609465837478638,-0.27440330386161804
8.59229564666748,-0.3251049816608429,-1.1574163436889648,0.9340370893478394,0.660148024559021,0.5611236095428467,-0.2746537923812866
8.612387895584106,-0.3251851201057434,-1.1583620309829712,0.9350408911705017,0.6603597402572632,0.5614728331565857,-0.27514833211898804
8.632492303848267,-0.3252107501029968,-1.158844232559204,0.9355068206787109,0.6604579091072083,0.5616405606269836,-0.27539098262786865
8.652630805969238,-0.32524099946022034,-1.1598540544509888,0.9363939166069031,0.6606611609458923,0.5619701743125916,-0.2758677899837494
8.672700881958008,-0.32525214552879333,-1.1603574752807617,0.9368395209312439,0.6607720851898193,0.5621343851089478,-0.276104599237442
8.692766189575195,-0.3252919316291809,-1.1613191366195679,0.9377964735031128,0.6610123515129089,0.5624672174453735,-0.27658510208129883
8.712959051132202,-0.32532352209091187,-1.1617412567138672,0.9383118748664856,0.6611305475234985,0.5626368522644043,-0.27683085203170776
8.733128070831299,-0.32540544867515564,-1.1625298261642456,0.9393667578697205,0.6613686084747314,0.5629794001579285,-0.2773236334323883
8.75320839881897,-0.32550036907196045,-1.1632418632507324,0.9404347538948059,0.6616003513336182,0.5633293390274048,-0.27781349420547485
8.773373365402222,-0.3255508542060852,-1.1636122465133667,0.9409688115119934,0.661720871925354,0.5634997487068176,-0.27805569767951965
8.793409585952759,-0.32565176486968994,-1.1643965244293213,0.9420230984687805,0.661961019039154,0.5638285279273987,-0.2785353660583496
8.813476324081421,-0.3257507383823395,-1.165259838104248,0.9430620670318604,0.662196934223175,0.5641288757324219,-0.2790122330188751
8.833577871322632,-0.3258037567138672,-1.1657202243804932,0.9435808658599854,0.6623175144195557,0.5642793774604797,-0.2792489528656006
8.85365915298462,-0.32590994238853455,-1.166597843170166,0.9446289539337158,0.6625643968582153,0.5645677447319031,-0.27972152829170227
8.873764753341675,-0.32595863938331604,-1.1670163869857788,0.945137083530426,0.6626856923103333,0.5647130608558655,-0.2799545228481293
8.893818855285645,-0.32603809237480164,-1.1677590608596802,0.946116030216217,0.6629138588905334,0.5649977326393127,-0.2804153561592102
8.913967370986938,-0.3260732591152191,-1.1681163311004639,0.9465928673744202,0.6630187034606934,0.5651423335075378,-0.28064393997192383
8.934022426605225,-0.32615283131599426,-1.1688601970672607,0.9475565552711487,0.6632235646247864,0.5654486417770386,-0.28109869360923767
8.954220533370972,-0.3262341618537903,-1.1696809530258179,0.9484961032867432,0.6634166240692139,0.5657575726509094,-0.28154754638671875
8.9743173122406,-0.3262696862220764,-1.1701006889343262,0.9489458203315735,0.6635026335716248,0.565909743309021,-0.28177016973495483
8.994396686553955,-0.3263292610645294,-1.1708970069885254,0.9498271942138672,0.6636674404144287,0.5661953687667847,-0.2822144031524658
9.014518976211548,-0.3263580799102783,-1.1712851524353027,0.9502745270729065,0.6637541055679321,0.5663336515426636,-0.2824365496635437
9.034605979919434,-0.32642680406570435,-1.1720770597457886,0.9512102603912354,0.66396164894104,0.5666168928146362,-0.28287822008132935
9.0547776222229,-0.3264901340007782,-1.1728800535202026,0.9521690607070923,0.6641896367073059,0.5669202208518982,-0.28331446647644043
9.074863910675049,-0.3265208601951599,-1.173277497291565,0.9526516795158386,0.6643053293228149,0.567077100276947,-0.2835314869880676
9.094940900802612,-0.32657817006111145,-1.1740585565567017,0.9535953402519226,0.664533793926239,0.5673910975456238,-0.28396162390708923
9.115297317504883,-0.32661017775535583,-1.1744396686553955,0.9540610909461975,0.6646417379379272,0.567544162273407,-0.284176766872406
9.135385274887085,-0.32668426632881165,-1.175187349319458,0.9549835324287415,0.664854884147644,0.5678419470787048,-0.2846057415008545
9.155450105667114,-0.3267648220062256,-1.1759074926376343,0.9559032320976257,0.6650639772415161,0.5681325197219849,-0.28503286838531494
9.175548315048218,-0.32680824398994446,-1.1762571334838867,0.9563701748847961,0.6651718616485596,0.5682764053344727,-0.2852455973625183
9.195638179779053,-0.32690247893333435,-1.176938772201538,0.9573229551315308,0.6653907895088196,0.5685716271400452,-0.28566890954971313
9.215703964233398,-0.32700589299201965,-1.1776044368743896,0.9582975506782532,0.6656131744384766,0.5688789486885071,-0.28608837723731995
9.235780477523804,-0.32705366611480713,-1.177933931350708,0.9587764143943787,0.6657225489616394,0.5690330266952515,-0.28629568219184875
9.255842924118042,-0.32712116837501526,-1.1786091327667236,0.959678053855896,0.6659244298934937,0.569338321685791,-0.286703884601593
9.276058197021484,-0.32714077830314636,-1.1789584159851074,0.960098922252655,0.6660129427909851,0.5694913864135742,-0.28690582513809204
9.296154260635376,-0.3271668255329132,-1.1797082424163818,0.9608931541442871,0.6661815047264099,0.5697969794273376,-0.2873038351535797
9.31620478630066,-0.3272024393081665,-1.180477499961853,0.9616779088973999,0.6663320064544678,0.5700936913490295,-0.2877032160758972
9.336291551589966,-0.32722926139831543,-1.180854082107544,0.962084174156189,0.6664078831672668,0.5702374577522278,-0.2879043221473694
9.35636591911316,-0.3272995352745056,-1.1815834045410156,0.9629298448562622,0.6665660738945007,0.5705231428146362,-0.2883087396621704
9.376555919647217,-0.3273906707763672,-1.182299017906189,0.9638198018074036,0.6667555570602417,0.5708102583885193,-0.28871074318885803
9.396655082702637,-0.32743769884109497,-1.182652473449707,0.964263379573822,0.6668611764907837,0.5709479451179504,-0.2889087498188019
9.416719913482666,-0.3275229036808014,-1.1833058595657349,0.9651392102241516,0.6670598983764648,0.5712099075317383,-0.28930315375328064
9.436813592910767,-0.32756078243255615,-1.1836165189743042,0.9655666351318359,0.6671538949012756,0.5713359713554382,-0.28949904441833496
9.456947326660156,-0.32762688398361206,-1.184215784072876,0.9663993716239929,0.6673204302787781,0.5715886950492859,-0.28988882899284363
9.477055072784424,-0.32768645882606506,-1.1847764253616333,0.9672366976737976,0.667464017868042,0.5718387365341187,-0.2902822494506836
9.497164964675903,-0.3277185559272766,-1.1850519180297852,0.9676632285118103,0.6675384640693665,0.5719667673110962,-0.29047876596450806
9.51724648475647,-0.3277921974658966,-1.1856374740600586,0.9685319662094116,0.66769939661026,0.5722272992134094,-0.2908709645271301
9.537446022033691,-0.32783243060112,-1.1859626770019531,0.9689553380012512,0.6677907705307007,0.5723626613616943,-0.29106199741363525
9.557653903961182,-0.3279106616973877,-1.1866590976715088,0.9697781801223755,0.6679785251617432,0.5726190805435181,-0.2914385199546814
9.577649354934692,-0.3279848098754883,-1.187427043914795,0.9705557227134705,0.6681597828865051,0.5728679895401001,-0.29180681705474854
9.597752332687378,-0.3280208110809326,-1.1878044605255127,0.970943808555603,0.6682500243186951,0.5729818940162659,-0.2919909954071045
9.61783218383789,-0.3280796706676483,-1.1884738206863403,0.971729040145874,0.668408989906311,0.5731816291809082,-0.29236599802970886
9.637911558151245,-0.32810309529304504,-1.188751220703125,0.972131073474884,0.6684868335723877,0.5732698440551758,-0.29255586862564087
9.657999515533447,-0.3281453549861908,-1.1892081499099731,0.9729534387588501,0.6686363220214844,0.5734552145004272,-0.29293689131736755
9.678074359893799,-0.32819581031799316,-1.189602255821228,0.973793625831604,0.6688035130500793,0.5736742615699768,-0.2933119535446167
9.698258638381958,-0.32822385430336,-1.1898069381713867,0.9742147326469421,0.6688895225524902,0.5737963914871216,-0.2934969961643219
9.718283891677856,-0.32828035950660706,-1.1903026103973389,0.9750521779060364,0.6690679788589478,0.574048638343811,-0.2938627004623413
9.738425731658936,-0.32830801606178284,-1.1906256675720215,0.9754520654678345,0.6691576242446899,0.5741841793060303,-0.29404059052467346
9.758468389511108,-0.32836025953292847,-1.1913880109786987,0.9761998653411865,0.6693236231803894,0.5744585394859314,-0.2943883240222931
9.778570890426636,-0.32841992378234863,-1.192206859588623,0.9769213795661926,0.6694728136062622,0.5747323632240295,-0.2947333753108978
9.79865550994873,-0.32845357060432434,-1.1926132440567017,0.9772817492485046,0.6695449352264404,0.5748682618141174,-0.29490581154823303
9.818786859512329,-0.3285343647003174,-1.1933953762054443,0.9780248403549194,0.6696968674659729,0.5751503705978394,-0.29525026679039
9.839006423950195,-0.328623503446579,-1.1940977573394775,0.9787840843200684,0.6698670387268066,0.5754279494285583,-0.2955915629863739
9.859091997146606,-0.3286663889884949,-1.194405436515808,0.9791646599769592,0.6699512600898743,0.5755578279495239,-0.29576224088668823
9.879143714904785,-0.32873955368995667,-1.194931983947754,0.9799149036407471,0.6701158285140991,0.5758007764816284,-0.29610174894332886
9.899342775344849,-0.32876864075660706,-1.1951735019683838,0.9802796840667725,0.6701926589012146,0.5759150981903076,-0.29627010226249695
9.91948413848877,-0.3288131356239319,-1.1956288814544678,0.980988085269928,0.6703225374221802,0.5761351585388184,-0.29660654067993164
9.939534902572632,-0.3288607597351074,-1.1961262226104736,0.9816904664039612,0.6704524159431458,0.5763667821884155,-0.2969386577606201
9.9596848487854,-0.328883558511734,-1.1963884830474854,0.9820402264595032,0.6705189347267151,0.5764912962913513,-0.2971027195453644
9.979704856872559,-0.3289007842540741,-1.1969308853149414,0.9827213287353516,0.6706518530845642,0.5767689943313599,-0.29742515087127686
10.000077247619629,-0.328897088766098,-1.197501540184021,0.9833808541297913,0.6707879900932312,0.5770413279533386,-0.29774507880210876
10.020220041275024,-0.3288993239402771,-1.1978026628494263,0.9837081432342529,0.6708542108535767,0.5771772861480713,-0.2979055941104889
10.040334463119507,-0.3289439380168915,-1.1984498500823975,0.9843796491622925,0.6710017323493958,0.5774346590042114,-0.2982272505760193
10.060469388961792,-0.3289767801761627,-1.1987723112106323,0.9847190380096436,0.6710730791091919,0.5775623917579651,-0.2983883023262024
10.080673694610596,-0.329047292470932,-1.1993900537490845,0.9854109287261963,0.6712156534194946,0.5778019428253174,-0.2987116873264313
10.100759029388428,-0.32912397384643555,-1.1999602317810059,0.9861280918121338,0.6713693737983704,0.578029990196228,-0.2990345358848572
10.120854377746582,-0.329162061214447,-1.2002252340316772,0.98649001121521,0.6714487671852112,0.5781396627426147,-0.2991951107978821
10.140902757644653,-0.32923197746276855,-1.2007358074188232,0.987188458442688,0.6716105937957764,0.5783566832542419,-0.29950955510139465
10.161046504974365,-0.3293004333972931,-1.201248049736023,0.9878699779510498,0.6717656850814819,0.5785894989967346,-0.2998168170452118
10.181143999099731,-0.3293348252773285,-1.2015228271484375,0.9882093667984009,0.6718409657478333,0.5787138342857361,-0.2999683618545532
10.20120120048523,-0.32940587401390076,-1.2021108865737915,0.9888768792152405,0.6719917058944702,0.5789697766304016,-0.3002665042877197
10.221352815628052,-0.32943689823150635,-1.2024104595184326,0.9891944527626038,0.672060489654541,0.5790927410125732,-0.3004138469696045
10.241455078125,-0.32949623465538025,-1.2030240297317505,0.9897937178611755,0.6721914410591125,0.5793258547782898,-0.3007045090198517
10.261548042297363,-0.32955673336982727,-1.2036181688308716,0.990386962890625,0.6723092198371887,0.5795461535453796,-0.3009963035583496
10.2816641330719,-0.3295864462852478,-1.203901767730713,0.9906922578811646,0.6723690032958984,0.5796414613723755,-0.3011447787284851
10.301771879196167,-0.32964667677879333,-1.2044123411178589,0.9913263916969299,0.6724920272827148,0.579818606376648,-0.3014448285102844
10.321791648864746,-0.3297117054462433,-1.20489501953125,0.9919775724411011,0.6726232767105103,0.5799993872642517,-0.3017438054084778
10.34189486503601,-0.32974761724472046,-1.2051271200180054,0.9923058152198792,0.6726909279823303,0.5801020860671997,-0.3018908202648163
10.362038373947144,-0.32982176542282104,-1.2055903673171997,0.9929754137992859,0.6728219985961914,0.5803114175796509,-0.3021848499774933
10.382476329803467,-0.32985514402389526,-1.2058227062225342,0.993308961391449,0.6728862524032593,0.5804232358932495,-0.3023300766944885
10.402603149414062,-0.32990312576293945,-1.2062726020812988,0.99396151304245,0.6730025410652161,0.5806536674499512,-0.3026188015937805
10.422638416290283,-0.32993295788764954,-1.206714153289795,0.994562029838562,0.6731060743331909,0.5808963179588318,-0.3029000759124756
10.442739248275757,-0.32994478940963745,-1.2069172859191895,0.9948452711105347,0.6731536984443665,0.5810099840164185,-0.3030393719673157
10.462860584259033,-0.32997453212738037,-1.2073047161102295,0.9954106211662292,0.6732428073883057,0.5812153220176697,-0.30332043766975403
10.482956647872925,-0.32999202609062195,-1.2075080871582031,0.9956973791122437,0.6732914447784424,0.5813058018684387,-0.30346229672431946
10.503045558929443,-0.33003535866737366,-1.2080004215240479,0.9962683320045471,0.6733970046043396,0.5814887881278992,-0.3037444055080414
10.52313232421875,-0.33009034395217896,-1.2085953950881958,0.9968379139900208,0.6735225319862366,0.5816692113876343,-0.304023802280426
10.54321837425232,-0.3301231563091278,-1.2089112997055054,0.9971268177032471,0.6735919713973999,0.5817625522613525,-0.3041623532772064
10.563279151916504,-0.3301928639411926,-1.2095208168029785,0.9977219700813293,0.6737362742424011,0.581939160823822,-0.3044411540031433
10.583328485488892,-0.3302649259567261,-1.2100651264190674,0.9983262419700623,0.6738795638084412,0.5821232795715332,-0.30471768975257874
10.603420972824097,-0.3303004205226898,-1.2103068828582764,0.9986262321472168,0.6739490628242493,0.5822209119796753,-0.3048538565635681
10.623494148254395,-0.33037081360816956,-1.2107574939727783,0.9992217421531677,0.6740818023681641,0.5824238657951355,-0.30512261390686035
10.643601894378662,-0.3304081857204437,-1.2109839916229248,0.9995213747024536,0.674146294593811,0.5825291275978088,-0.3052557110786438
10.66373610496521,-0.3304824233055115,-1.2114776372909546,1.0001176595687866,0.6742773056030273,0.5827420949935913,-0.30551838874816895
10.683775901794434,-0.33053553104400635,-1.2120195627212524,1.0006976127624512,0.6744043827056885,0.5829678177833557,-0.3057768642902374
10.703858375549316,-0.3305515944957733,-1.2122852802276611,1.0009725093841553,0.6744669675827026,0.5830761790275574,-0.3059045672416687
10.723923444747925,-0.3305709958076477,-1.2127671241760254,1.001485824584961,0.6745809316635132,0.5832822918891907,-0.3061576783657074
10.74402642250061,-0.33058419823646545,-1.212968349456787,1.001741886138916,0.6746312379837036,0.5833791494369507,-0.3062855899333954
10.764098167419434,-0.33063459396362305,-1.2133655548095703,1.0022715330123901,0.6747426390647888,0.583580732345581,-0.3065386712551117
10.78415322303772,-0.33070504665374756,-1.2138177156448364,1.002819299697876,0.6748628616333008,0.5837950706481934,-0.3067883849143982
10.804349422454834,-0.3307421803474426,-1.2140883207321167,1.0030795335769653,0.6749282479286194,0.5839002132415771,-0.30690932273864746
10.824418544769287,-0.3308102786540985,-1.2146579027175903,1.003575325012207,0.6750479340553284,0.5840938687324524,-0.30715009570121765
10.844469547271729,-0.33084186911582947,-1.2149502038955688,1.00381338596344,0.6751054525375366,0.5841831564903259,-0.3072696626186371
10.864541053771973,-0.33090147376060486,-1.21549654006958,1.0042850971221924,0.6752175092697144,0.5843513607978821,-0.3075087070465088
10.885008573532104,-0.33095115423202515,-1.21592378616333,1.0047582387924194,0.6753165125846863,0.5845072269439697,-0.3077501356601715
10.905141353607178,-0.33097389340400696,-1.2161016464233398,1.0049961805343628,0.6753619313240051,0.5845869183540344,-0.3078709840774536
10.925211429595947,-0.331022709608078,-1.2164052724838257,1.0054936408996582,0.6754478812217712,0.5847576260566711,-0.30811452865600586
10.945305585861206,-0.33104825019836426,-1.2165518999099731,1.005744457244873,0.6754922866821289,0.5848476886749268,-0.3082352876663208
10.965376615524292,-0.3311033546924591,-1.2168523073196411,1.0062562227249146,0.6755854487419128,0.585028886795044,-0.30847588181495667
10.985428810119629,-0.33115968108177185,-1.2172127962112427,1.006766438484192,0.6756970882415771,0.5851844549179077,-0.30871397256851196
11.005534648895264,-0.3311900794506073,-1.2174205780029297,1.0070215463638306,0.6757535934448242,0.5852614641189575,-0.30883195996284485
11.025611162185669,-0.33125296235084534,-1.2179025411605835,1.0075095891952515,0.675879955291748,0.5854119658470154,-0.3090606927871704
11.045647382736206,-0.33131143450737,-1.2183629274368286,1.00798499584198,0.6759957075119019,0.585559070110321,-0.30928701162338257
11.065732717514038,-0.3313387930393219,-1.2185893058776855,1.0082203149795532,0.6760583519935608,0.5856213569641113,-0.3093995451927185
11.085803747177124,-0.33139634132385254,-1.2190172672271729,1.0087007284164429,0.6761868596076965,0.5857515931129456,-0.30962347984313965
11.105865001678467,-0.33142709732055664,-1.2192310094833374,1.0089455842971802,0.6762535572052002,0.5858186483383179,-0.3097354471683502
11.125986337661743,-0.33148589730262756,-1.219651699066162,1.0094159841537476,0.6763709783554077,0.5859753489494324,-0.3099566698074341
11.146015167236328,-0.3315410614013672,-1.220062017440796,1.0098772048950195,0.6764657497406006,0.5861395001411438,-0.3101794421672821
11.166116952896118,-0.33156725764274597,-1.2202547788619995,1.0101081132888794,0.6765059232711792,0.5862213373184204,-0.310291588306427
11.18619704246521,-0.3316217362880707,-1.220584750175476,1.0106014013290405,0.6765779852867126,0.58637934923172,-0.31052106618881226
11.206324100494385,-0.33167564868927,-1.2208592891693115,1.011114239692688,0.6766435503959656,0.5865373015403748,-0.31075239181518555
11.226479053497314,-0.3317027986049652,-1.2210017442703247,1.0113621950149536,0.6766740679740906,0.5866279006004333,-0.31086477637290955
11.246555089950562,-0.33176517486572266,-1.2213448286056519,1.0118480920791626,0.6767492890357971,0.5868242383003235,-0.31108173727989197
11.26660943031311,-0.3317979574203491,-1.221551775932312,1.0120795965194702,0.6767913103103638,0.5869236588478088,-0.31118670105934143
11.286681175231934,-0.33186230063438416,-1.2219966650009155,1.0125371217727661,0.6768726110458374,0.5871034264564514,-0.311396986246109
11.306834936141968,-0.33191820979118347,-1.2224363088607788,1.0129834413528442,0.6769386529922485,0.5872588157653809,-0.31160953640937805
11.326959133148193,-0.33194226026535034,-1.2226306200027466,1.0132029056549072,0.6769676208496094,0.587332010269165,-0.3117159605026245
11.346959829330444,-0.3319862484931946,-1.2229409217834473,1.0136449337005615,0.6770323514938354,0.5874752998352051,-0.3119273781776428
11.367260694503784,-0.3320111334323883,-1.2230931520462036,1.0138680934906006,0.6770793795585632,0.5875475406646729,-0.3120301365852356
11.387355327606201,-0.3320709466934204,-1.2234294414520264,1.0143234729766846,0.6771815419197083,0.587706446647644,-0.31223195791244507
11.407463312149048,-0.332140177488327,-1.2238366603851318,1.014785885810852,0.6772856116294861,0.5878648161888123,-0.31243211030960083
11.42754578590393,-0.3321714997291565,-1.2240571975708008,1.0150035619735718,0.677331268787384,0.5879385471343994,-0.31253132224082947
11.447618007659912,-0.33221733570098877,-1.2244459390640259,1.0154145956039429,0.6774051189422607,0.5880587100982666,-0.3127313256263733
11.467695713043213,-0.3322499692440033,-1.2247728109359741,1.0158175230026245,0.6774684190750122,0.5881584286689758,-0.31293362379074097
11.487768173217773,-0.3322675824165344,-1.2249046564102173,1.0160300731658936,0.6775017976760864,0.5882143974304199,-0.3130348026752472
11.507833003997803,-0.33231624960899353,-1.2251918315887451,1.0164732933044434,0.6775820255279541,0.5883559584617615,-0.3132331371307373
11.528178215026855,-0.33234578371047974,-1.225354552268982,1.0166895389556885,0.6776299476623535,0.5884437561035156,-0.31332728266716003
11.548265218734741,-0.3324012756347656,-1.2257030010223389,1.0171070098876953,0.677718460559845,0.5886077880859375,-0.313514769077301
11.568314552307129,-0.3324401080608368,-1.226077675819397,1.0175050497055054,0.677801251411438,0.5887347459793091,-0.31370410323143005
11.588456869125366,-0.3324570655822754,-1.226263403892517,1.0177092552185059,0.6778431534767151,0.5887902975082397,-0.313800185918808
11.608529567718506,-0.3324955999851227,-1.226647973060608,1.0181217193603516,0.6779380440711975,0.5889105200767517,-0.31398993730545044
11.629021883010864,-0.33251821994781494,-1.2268255949020386,1.0183268785476685,0.6779864430427551,0.5889821648597717,-0.3140825629234314
11.649144172668457,-0.3325694799423218,-1.227155089378357,1.0187416076660156,0.6780760288238525,0.5891318321228027,-0.31426748633384705
11.669471263885498,-0.3326103389263153,-1.227493405342102,1.0191447734832764,0.678161084651947,0.5892890691757202,-0.314448744058609
11.689565181732178,-0.3326261043548584,-1.2276815176010132,1.0193394422531128,0.6782031655311584,0.5893659591674805,-0.31453844904899597
11.709768533706665,-0.3326541781425476,-1.228072166442871,1.0197159051895142,0.6782843470573425,0.5895180702209473,-0.31471702456474304
11.7300865650177,-0.33268091082572937,-1.2284060716629028,1.02008056640625,0.6783554553985596,0.5896464586257935,-0.3148989677429199
11.7503023147583,-0.33269792795181274,-1.2285457849502563,1.020269513130188,0.6783883571624756,0.5897100567817688,-0.31499114632606506
11.770495176315308,-0.33273786306381226,-1.228792428970337,1.0206658840179443,0.6784669756889343,0.589836061000824,-0.31517496705055237
11.790658950805664,-0.3327604830265045,-1.2289119958877563,1.0208709239959717,0.6785072088241577,0.5899022817611694,-0.3152664303779602
11.810766696929932,-0.33281004428863525,-1.2291771173477173,1.0212846994400024,0.6785920262336731,0.5900376439094543,-0.3154478073120117
11.830811977386475,-0.3328348994255066,-1.2293298244476318,1.0214883089065552,0.678633987903595,0.5901018977165222,-0.31553778052330017
11.850897073745728,-0.33288607001304626,-1.2296746969223022,1.021885633468628,0.6787155270576477,0.5902325510978699,-0.31571531295776367
11.87101149559021,-0.33291080594062805,-1.2298543453216553,1.022080898284912,0.6787583231925964,0.5902920365333557,-0.31580331921577454
11.8911452293396,-0.33295729756355286,-1.2301888465881348,1.0224649906158447,0.6788411736488342,0.590411901473999,-0.315977543592453
11.911169528961182,-0.3330049216747284,-1.2304972410202026,1.022849440574646,0.6789307594299316,0.5905365943908691,-0.31614822149276733
11.931245565414429,-0.333029568195343,-1.2306400537490845,1.0230426788330078,0.6789751648902893,0.5906027555465698,-0.3162321150302887
11.951349020004272,-0.33307814598083496,-1.2309291362762451,1.0234225988388062,0.6790655851364136,0.5907320976257324,-0.3163970410823822
11.971623182296753,-0.3331261873245239,-1.2312431335449219,1.0237977504730225,0.6791562438011169,0.5908509492874146,-0.3165605962276459
11.991748571395874,-0.3331524431705475,-1.2314143180847168,1.023988127708435,0.679202139377594,0.5909108519554138,-0.31664255261421204
12.011845588684082,-0.3332027792930603,-1.2317522764205933,1.0243631601333618,0.679288387298584,0.5910285711288452,-0.3168065547943115
12.031963348388672,-0.33322370052337646,-1.2318960428237915,1.024544596672058,0.679326593875885,0.5910847187042236,-0.3168884813785553
12.052009105682373,-0.33326059579849243,-1.2321621179580688,1.0249038934707642,0.6793957948684692,0.5911911129951477,-0.31705325841903687
12.07207703590393,-0.33328038454055786,-1.2322994470596313,1.0250837802886963,0.6794344782829285,0.5912452936172485,-0.317134290933609
12.092172145843506,-0.3333253562450409,-1.2326180934906006,1.0254464149475098,0.6795105338096619,0.5913596749305725,-0.3172958195209503
12.112226963043213,-0.33337128162384033,-1.2329521179199219,1.0258090496063232,0.6795867085456848,0.5914703011512756,-0.3174574673175812
12.132314205169678,-0.3333916962146759,-1.2331135272979736,1.0259886980056763,0.6796238422393799,0.5915200114250183,-0.3175388276576996
12.152445554733276,-0.3334289789199829,-1.2334399223327637,1.026335597038269,0.6796996593475342,0.5916218161582947,-0.31770023703575134
12.172474384307861,-0.3334660828113556,-1.2337629795074463,1.026669979095459,0.6797715425491333,0.5917434096336365,-0.3178594708442688
12.192659616470337,-0.3334829807281494,-1.2339094877243042,1.0268365144729614,0.6798049807548523,0.5918095707893372,-0.3179391026496887
12.212744235992432,-0.33348900079727173,-1.234178066253662,1.0271556377410889,0.6798547506332397,0.5919495224952698,-0.31809914112091064
12.232814073562622,-0.33348584175109863,-1.2343080043792725,1.0273126363754272,0.6798751950263977,0.5920249223709106,-0.31817904114723206
12.252955436706543,-0.33347541093826294,-1.2345834970474243,1.0276234149932861,0.679918646812439,0.592189610004425,-0.31833669543266296
12.273080348968506,-0.3334687650203705,-1.2348562479019165,1.0279420614242554,0.679965078830719,0.5923697352409363,-0.31849387288093567
12.293309688568115,-0.33346545696258545,-1.2349926233291626,1.0280961990356445,0.6799922585487366,0.5924563407897949,-0.3185717761516571
12.31328797340393,-0.33345866203308105,-1.235255479812622,1.0283962488174438,0.6800360083580017,0.5926176309585571,-0.3187294006347656
12.333348512649536,-0.3334657549858093,-1.2353981733322144,1.0285512208938599,0.6800616383552551,0.59269118309021,-0.31880876421928406
12.353448152542114,-0.33349671959877014,-1.2357059717178345,1.028874397277832,0.6801158785820007,0.5928316116333008,-0.3189680874347687
12.373671770095825,-0.33353281021118164,-1.2360143661499023,1.0291998386383057,0.6801761388778687,0.5929610729217529,-0.3191264867782593
12.393699407577515,-0.33354926109313965,-1.236149787902832,1.029361605644226,0.6802080273628235,0.5930196046829224,-0.31920531392097473
12.413785457611084,-0.33358100056648254,-1.2363954782485962,1.0296881198883057,0.6802817583084106,0.5931256413459778,-0.31936126947402954
12.433845043182373,-0.33361393213272095,-1.2366094589233398,1.0300172567367554,0.6803595423698425,0.5932422280311584,-0.31951260566711426
12.453935623168945,-0.33363068103790283,-1.2367181777954102,1.030173659324646,0.680396556854248,0.5933032631874084,-0.31958577036857605
12.474029064178467,-0.3336727023124695,-1.2369385957717896,1.0304853916168213,0.6804628968238831,0.5934282541275024,-0.3197306990623474
12.494136333465576,-0.3336962163448334,-1.2370636463165283,1.030643105506897,0.6804971098899841,0.5934793949127197,-0.3198035657405853
12.5141921043396,-0.33374810218811035,-1.2373554706573486,1.0309640169143677,0.6805666089057922,0.5935697555541992,-0.3199503421783447
12.534316301345825,-0.33379796147346497,-1.2376781702041626,1.031282901763916,0.6806395649909973,0.5936574935913086,-0.3200949728488922
12.554368257522583,-0.33382177352905273,-1.2378332614898682,1.0314394235610962,0.6806774735450745,0.5937067866325378,-0.3201651871204376
12.574463605880737,-0.3338645100593567,-1.238064169883728,1.03175950050354,0.6807519793510437,0.5938082337379456,-0.3203047215938568
12.595130920410156,-0.33389952778816223,-1.238251805305481,1.0320661067962646,0.6808218359947205,0.5939202904701233,-0.3204398453235626
12.615298986434937,-0.33391624689102173,-1.2383372783660889,1.0322177410125732,0.6808508038520813,0.5939817428588867,-0.3205067813396454
12.635379314422607,-0.3358549475669861,-1.2390190362930298,1.032175064086914,0.6876740455627441,0.5947343111038208,-0.315219521522522
12.655581951141357,-0.33680254220962524,-1.2393503189086914,1.0321460962295532,0.6910367012023926,0.5951001644134521,-0.31260791420936584
12.675681591033936,-0.3386465907096863,-1.2399855852127075,1.0320637226104736,0.6976715922355652,0.5957822203636169,-0.30745023488998413
12.695745468139648,-0.3404223322868347,-1.2405421733856201,1.0319454669952393,0.7041766047477722,0.596422016620636,-0.3023756146430969
12.715839385986328,-0.34128519892692566,-1.2407822608947754,1.0318764448165894,0.7073720693588257,0.5967361927032471,-0.299869567155838
12.73594069480896,-0.34296274185180664,-1.241173505783081,1.0317226648330688,0.7136383056640625,0.5973732471466064,-0.29491978883743286
12.756001949310303,-0.3437687158584595,-1.2413338422775269,1.031633734703064,0.7167044878005981,0.5977007150650024,-0.2924779951572418
12.776095390319824,-0.3453124761581421,-1.2416166067123413,1.0314167737960815,0.722694456577301,0.5983821749687195,-0.28766193985939026
12.796150922775269,-0.3467479646205902,-1.2419432401657104,1.0311342477798462,0.7285207509994507,0.5991133451461792,-0.28293657302856445
12.816248416900635,-0.34742671251296997,-1.2421257495880127,1.0309678316116333,0.7313727140426636,0.5995053052902222,-0.2806072235107422
12.836318492889404,-0.34868836402893066,-1.2424861192703247,1.030572533607483,0.7369678616523743,0.6003339886665344,-0.2760104835033417
12.8563973903656,-0.3492768406867981,-1.2426308393478394,1.0303481817245483,0.7397146821022034,0.6007627248764038,-0.2737411558628082
12.876466989517212,-0.350398451089859,-1.2428356409072876,1.0298638343811035,0.7451164722442627,0.6016313433647156,-0.2692562937736511
12.896549224853516,-0.3509473502635956,-1.242894172668457,1.029620885848999,0.7477906346321106,0.6020516157150269,-0.26703885197639465
12.916610479354858,-0.3519971966743469,-1.242960810661316,1.0291109085083008,0.7530604004859924,0.6028857231140137,-0.262655645608902
12.936813831329346,-0.3524976968765259,-1.2429763078689575,1.0288500785827637,0.7556670904159546,0.6032915711402893,-0.26048997044563293
12.956971168518066,-0.3534775376319885,-1.2430378198623657,1.0283318758010864,0.7608368992805481,0.6040788292884827,-0.2562103569507599
12.976980209350586,-0.35448116064071655,-1.2431926727294922,1.0278533697128296,0.765952467918396,0.6048284769058228,-0.25200456380844116
12.99715280532837,-0.35498395562171936,-1.2433024644851685,1.027613639831543,0.7684765458106995,0.6051984429359436,-0.24992841482162476
13.017149448394775,-0.35593870282173157,-1.2435332536697388,1.027099847793579,0.7734238505363464,0.6059434413909912,-0.24583224952220917
13.037253141403198,-0.356389582157135,-1.2436399459838867,1.0268305540084839,0.7758505940437317,0.6063123941421509,-0.2438117116689682
13.05732536315918,-0.35724517703056335,-1.2438479661941528,1.0262759923934937,0.7806420922279358,0.607038140296936,-0.23982031643390656
13.077572584152222,-0.358065664768219,-1.2440546751022339,1.0257059335708618,0.7853875756263733,0.6077491044998169,-0.23588263988494873
13.097660303115845,-0.3584442138671875,-1.2441526651382446,1.0253915786743164,0.7877354025840759,0.608116090297699,-0.23393113911151886
13.117749452590942,-0.35914888978004456,-1.2442783117294312,1.0247187614440918,0.7923631072044373,0.6088293194770813,-0.23006892204284668
13.137837171554565,-0.35947808623313904,-1.2443091869354248,1.0243686437606812,0.7946393489837646,0.6091779470443726,-0.22816155850887299
13.157919645309448,-0.3601301610469818,-1.2443376779556274,1.023696780204773,0.7991438508033752,0.6098474264144897,-0.22439523041248322
13.17794418334961,-0.360465407371521,-1.2443571090698242,1.0233834981918335,0.8013870716094971,0.6101801991462708,-0.22253191471099854
13.198045015335083,-0.361139714717865,-1.2444218397140503,1.0227792263031006,0.8058496713638306,0.6108623743057251,-0.2188401222229004
13.218288898468018,-0.3618118464946747,-1.2445000410079956,1.0221940279006958,0.8102698922157288,0.6115296483039856,-0.21520063281059265
13.238377094268799,-0.36212357878685,-1.2445087432861328,1.0218816995620728,0.812434196472168,0.6118524670600891,-0.2134031355381012
13.258440494537354,-0.3627060651779175,-1.244504690170288,1.0212290287017822,0.8166903257369995,0.6124730110168457,-0.20985311269760132
13.278534889221191,-0.36297184228897095,-1.2445048093795776,1.0208734273910522,0.8187857866287231,0.612777829170227,-0.20809505879878998
13.298624277114868,-0.36347439885139465,-1.244529128074646,1.0201473236083984,0.8229221701622009,0.6133934855461121,-0.20461775362491608
13.318885803222656,-0.36393576860427856,-1.2446056604385376,1.0193958282470703,0.8269999623298645,0.6140260696411133,-0.20119039714336395
13.338988780975342,-0.36414751410484314,-1.244638204574585,1.0190106630325317,0.8290058970451355,0.6143467426300049,-0.19949765503406525
13.359051942825317,-0.3645528256893158,-1.244703769683838,1.0182205438613892,0.8329688310623169,0.614983320236206,-0.19614918529987335
13.379144191741943,-0.3647588789463043,-1.2447261810302734,1.017835021018982,0.834926962852478,0.6152909398078918,-0.19449542462825775
13.399325370788574,-0.36516273021698,-1.2447577714920044,1.0170788764953613,0.8387988209724426,0.615891695022583,-0.19122831523418427
13.41951298713684,-0.36552125215530396,-1.2448314428329468,1.016324520111084,0.842655599117279,0.6164692640304565,-0.1880081593990326
13.439611911773682,-0.3656904101371765,-1.2448697090148926,1.0159465074539185,0.8445753455162048,0.6167482733726501,-0.18641184270381927
13.459722518920898,-0.36603617668151855,-1.2449193000793457,1.0152020454406738,0.8483877778053284,0.6172794699668884,-0.18324634432792664
13.479812622070312,-0.36622095108032227,-1.2449193000793457,1.014840006828308,0.8502675890922546,0.617534875869751,-0.18167948722839355
13.499904870986938,-0.36658498644828796,-1.2449126243591309,1.014115333557129,0.8539812564849854,0.6180269718170166,-0.17858102917671204
13.519960403442383,-0.3669312000274658,-1.2449190616607666,1.013391137123108,0.857637882232666,0.6184955835342407,-0.17553257942199707
13.540065288543701,-0.36709287762641907,-1.2449251413345337,1.0130215883255005,0.8594435453414917,0.6187232732772827,-0.17402470111846924
13.560149908065796,-0.3673641085624695,-1.2449517250061035,1.012237310409546,0.8629993796348572,0.619192898273468,-0.17104075849056244
13.580298900604248,-0.3674779534339905,-1.2449772357940674,1.011823058128357,0.864753782749176,0.6194303035736084,-0.1695636808872223
13.600408792495728,-0.3676689565181732,-1.2450120449066162,1.0109652280807495,0.868194043636322,0.619902491569519,-0.16664370894432068
13.62050461769104,-0.36785244941711426,-1.2450182437896729,1.0101096630096436,0.8715673685073853,0.6203560829162598,-0.16376720368862152
13.640597581863403,-0.3679427206516266,-1.2450121641159058,1.0096826553344727,0.873235285282135,0.6205787658691406,-0.16234338283538818
13.660685300827026,-0.368100106716156,-1.2450255155563354,1.0088062286376953,0.8765550255775452,0.6210276484489441,-0.1595201939344406
13.680793762207031,-0.3681621849536896,-1.2450401782989502,1.008359432220459,0.8782025575637817,0.6212520599365234,-0.15812332928180695
13.701011657714844,-0.3682602047920227,-1.2450785636901855,1.007474422454834,0.8814684152603149,0.6216806769371033,-0.15536655485630035
13.721038579940796,-0.368343710899353,-1.2451037168502808,1.0066323280334473,0.8846862316131592,0.6220746636390686,-0.15266267955303192
13.741150140762329,-0.3683924376964569,-1.245094895362854,1.0062347650527954,0.8862732648849487,0.6222644448280334,-0.15132831037044525
13.761207342147827,-0.36850064992904663,-1.2450443506240845,1.0054593086242676,0.8894131183624268,0.6226502656936646,-0.1486830860376358
13.78132700920105,-0.368561714887619,-1.2449982166290283,1.0050843954086304,0.8909652829170227,0.6228480935096741,-0.14737199246883392
13.801373958587646,-0.36867478489875793,-1.244903564453125,1.004319667816162,0.8940434455871582,0.6232357025146484,-0.14476889371871948
13.821437120437622,-0.36876413226127625,-1.2448081970214844,1.003517746925354,0.8970765471458435,0.6236026883125305,-0.14219358563423157
13.841537952423096,-0.3687988221645355,-1.2447680234909058,1.0030990839004517,0.8985722661018372,0.6237804889678955,-0.14091798663139343
13.861636400222778,-0.36884942650794983,-1.2446937561035156,1.0022462606430054,0.9015202522277832,0.624119758605957,-0.13839542865753174
13.882771968841553,-0.368877112865448,-1.244661569595337,1.0013883113861084,0.9044370055198669,0.6244325637817383,-0.1359107941389084
13.90287184715271,-0.36887937784194946,-1.2446503639221191,1.0009571313858032,0.9058816432952881,0.6245836019515991,-0.1346820890903473
13.923011302947998,-0.36885857582092285,-1.2446467876434326,1.0000979900360107,0.9087502956390381,0.6248911619186401,-0.13225337862968445
13.943115711212158,-0.3688407838344574,-1.2446327209472656,0.9996742606163025,0.9101619124412537,0.6250531077384949,-0.13105350732803345
13.963213443756104,-0.3687966763973236,-1.2445497512817383,0.9988310933113098,0.9129161834716797,0.625396192073822,-0.12868119776248932
13.983251333236694,-0.3687589168548584,-1.2444043159484863,0.9979939460754395,0.9155951738357544,0.6257414221763611,-0.12634024024009705
14.003386974334717,-0.368741512298584,-1.2443184852600098,0.997577428817749,0.9169126749038696,0.6259124279022217,-0.12518157064914703
14.023464441299438,-0.3687015473842621,-1.2441680431365967,0.996735155582428,0.9195367097854614,0.6262309551239014,-0.12288285046815872
14.04367208480835,-0.3686468303203583,-1.2440557479858398,0.995868444442749,0.9221465587615967,0.6265197992324829,-0.12060751020908356
14.063785314559937,-0.3686138689517975,-1.2439953088760376,0.9954374432563782,0.9234372973442078,0.6266569495201111,-0.11948201805353165
14.083975791931152,-0.3685436546802521,-1.2438771724700928,0.994605541229248,0.9259998202323914,0.6269137263298035,-0.11726123839616776
14.104023218154907,-0.36850661039352417,-1.243820071220398,0.9942010045051575,0.9272710084915161,0.6270353198051453,-0.11616437882184982
14.124118566513062,-0.3684200644493103,-1.2437012195587158,0.9933847784996033,0.9297811388969421,0.6272706389427185,-0.11399198323488235
14.144192457199097,-0.36832135915756226,-1.2435837984085083,0.9925528168678284,0.9322518110275269,0.6275078058242798,-0.11184564232826233
14.164331674575806,-0.36826810240745544,-1.243514895439148,0.9921377301216125,0.9334659576416016,0.6276293992996216,-0.11078456789255142
14.184393882751465,-0.368158221244812,-1.2433770895004272,0.991316556930542,0.9358616471290588,0.6278694272041321,-0.10868759453296661
14.204471588134766,-0.3680998682975769,-1.243308186531067,0.9909067749977112,0.9370478987693787,0.627983808517456,-0.10764887183904648
14.224557161331177,-0.36798107624053955,-1.243148684501648,0.9901122450828552,0.9394069314002991,0.6282088756561279,-0.10559054464101791
14.24463176727295,-0.3678574860095978,-1.2429884672164917,0.9893301129341125,0.9417529106140137,0.6284269690513611,-0.10355542600154877
14.264724493026733,-0.3677944540977478,-1.2429040670394897,0.9889439344406128,0.9429113864898682,0.6285366415977478,-0.10254870355129242
14.28480076789856,-0.3676593601703644,-1.2427558898925781,0.9881510138511658,0.9452002048492432,0.6287431716918945,-0.10055258870124817
14.30503535270691,-0.36750227212905884,-1.2426506280899048,0.9873028993606567,0.9474532008171082,0.6289182305335999,-0.09857457876205444
14.325125455856323,-0.3674164414405823,-1.2426213026046753,0.986860990524292,0.948566198348999,0.6289960145950317,-0.09759378433227539
14.345197439193726,-0.3672386705875397,-1.2426083087921143,0.9859647750854492,0.9507458806037903,0.6291549801826477,-0.09565728157758713
14.365284442901611,-0.36715105175971985,-1.2426174879074097,0.9855279326438904,0.9518184661865234,0.6292363405227661,-0.09470368921756744
14.385395288467407,-0.36697620153427124,-1.2426204681396484,0.9846819043159485,0.9539318084716797,0.6294020414352417,-0.09282326698303223
14.405466079711914,-0.3667902946472168,-1.2425616979599,0.9838477373123169,0.956017255783081,0.6295577883720398,-0.0909683108329773
14.425566911697388,-0.36669301986694336,-1.2425025701522827,0.9834367632865906,0.9570464491844177,0.6296330094337463,-0.09005126357078552
14.44564414024353,-0.36649826169013977,-1.2423900365829468,0.9826268553733826,0.9591060876846313,0.6297732591629028,-0.08823367953300476
14.465790033340454,-0.36640048027038574,-1.2423369884490967,0.9822219014167786,0.9601298570632935,0.6298402547836304,-0.0873323529958725
14.485795021057129,-0.36620545387268066,-1.242232084274292,0.9814153909683228,0.9621599912643433,0.6299616098403931,-0.08554393798112869
14.505870819091797,-0.3661057651042938,-1.242180585861206,0.9810090661048889,0.9631648659706116,0.6300176382064819,-0.0846557542681694
14.525962114334106,-0.36589717864990234,-1.2420668601989746,0.9801927208900452,0.9651504158973694,0.6301185488700867,-0.08289377391338348
14.546101093292236,-0.36579036712646484,-1.2420064210891724,0.9797916412353516,0.9661371111869812,0.6301671266555786,-0.08202097564935684
14.566168785095215,-0.3655714690685272,-1.2418211698532104,0.9790101051330566,0.9680719971656799,0.6302800178527832,-0.08029449731111526
14.58622431755066,-0.36535197496414185,-1.2415850162506104,0.9782619476318359,0.9699622988700867,0.6304070353507996,-0.07859748601913452
14.606379985809326,-0.36524415016174316,-1.2414580583572388,0.9778928756713867,0.9708884954452515,0.6304759979248047,-0.07775890827178955
14.626442670822144,-0.3650396764278412,-1.2412415742874146,0.9771377444267273,0.9727320075035095,0.6305831074714661,-0.07609185576438904
14.64660120010376,-0.3649364113807678,-1.2411350011825562,0.9767503142356873,0.973639965057373,0.6306257247924805,-0.07526390254497528
14.66669249534607,-0.36471569538116455,-1.240940809249878,0.9759502410888672,0.9754207730293274,0.6306882500648499,-0.07362444698810577
14.686779022216797,-0.3644726872444153,-1.240747332572937,0.975141167640686,0.9771522879600525,0.6307416558265686,-0.07201364636421204
