liuyurong129/humanoid-gym/humanoid/data/target_q_20250522-042006.csv
timestamp,joint_1,joint_2,joint_3,joint_4,joint_5,joint_6
5.316734313964844e-05,0.0,0.0,0.0,0.0,0.0,0.0
0.02019524574279785,0.0,0.0,0.0,0.0,0.0,0.0
0.04022526741027832,0.0,0.0,0.0,0.0,0.0,0.0
0.060320377349853516,0.0,0.0,0.0,0.0,0.0,0.0
0.08049893379211426,0.0,0.0,0.0,0.0,0.0,0.0
0.10057544708251953,0.4053511917591095,-0.5479655861854553,0.8921961784362793,0.4708300530910492,-0.17521341145038605,-0.26681703329086304
0.1206507682800293,0.40499866008758545,-0.5523166656494141,0.8952175378799438,0.4743146300315857,-0.176432803273201,-0.2673111855983734
0.14096975326538086,0.4047927260398865,-0.5545233488082886,0.896338701248169,0.47590699791908264,-0.17713427543640137,-0.26755309104919434
0.1610579490661621,0.40426015853881836,-0.5589496493339539,0.8979062438011169,0.4788174629211426,-0.17869067192077637,-0.2680296301841736
0.18116068840026855,0.40360987186431885,-0.5633317232131958,0.8986279964447021,0.481384813785553,-0.18040922284126282,-0.26848387718200684
0.20122551918029785,0.40324118733406067,-0.5655109882354736,0.8989049196243286,0.4826148748397827,-0.18129026889801025,-0.26870816946029663
0.22130537033081055,0.4024322032928467,-0.569841742515564,0.8993566036224365,0.4850026071071625,-0.18308725953102112,-0.2691534757614136
0.24136018753051758,0.4014887809753418,-0.5741376876831055,0.899539053440094,0.4872705042362213,-0.18495336174964905,-0.2695996165275574
0.26145100593566895,0.40097323060035706,-0.5762630701065063,0.8994676470756531,0.4883490800857544,-0.18591228127479553,-0.2698220908641815
0.2816166877746582,0.39988166093826294,-0.5804767608642578,0.8991775512695312,0.49044498801231384,-0.1878460794687271,-0.2702709436416626
0.3016777038574219,0.39929187297821045,-0.5825805068016052,0.8990525007247925,0.49148136377334595,-0.18881846964359283,-0.2705039083957672
0.3218080997467041,0.39807721972465515,-0.5867649912834167,0.8989071249961853,0.49353742599487305,-0.1907477229833603,-0.2709744870662689
0.34188008308410645,0.3968636393547058,-0.5909004211425781,0.8989841341972351,0.4955674707889557,-0.1926238089799881,-0.2714436948299408
0.3619518280029297,0.3962606191635132,-0.5929391384124756,0.8990246057510376,0.49656715989112854,-0.19354751706123352,-0.27167803049087524
0.3820319175720215,0.3949810862541199,-0.5969949960708618,0.8991438746452332,0.49856457114219666,-0.19539551436901093,-0.27216824889183044
0.4020998477935791,0.3943241834640503,-0.5990052819252014,0.8992026448249817,0.49956056475639343,-0.19631431996822357,-0.2724199891090393
0.4221787452697754,0.3929256200790405,-0.6030023694038391,0.899204432964325,0.5014798641204834,-0.1981717199087143,-0.27293986082077026
0.4423055648803711,0.3914470970630646,-0.6069608330726624,0.8991948366165161,0.5033220052719116,-0.20002542436122894,-0.27348142862319946
0.4623756408691406,0.39065831899642944,-0.6089286804199219,0.8991499543190002,0.504219114780426,-0.20096412301063538,-0.273762971162796
0.4825136661529541,0.3890584707260132,-0.6128280162811279,0.8991843461990356,0.5060344338417053,-0.20281441509723663,-0.27433812618255615
0.5027539730072021,0.3874777853488922,-0.6166622638702393,0.8992365002632141,0.5078288912773132,-0.20463739335536957,-0.27491095662117004
0.5228667259216309,0.38670533895492554,-0.618554949760437,0.899350643157959,0.5087242126464844,-0.205528125166893,-0.27519771456718445
0.5429396629333496,0.3850906193256378,-0.6223114728927612,0.8994916677474976,0.5104627013206482,-0.2073383927345276,-0.2757837772369385
0.5630142688751221,0.3842276632785797,-0.6241776347160339,0.8995404839515686,0.5113067626953125,-0.20826083421707153,-0.27609217166900635
0.5831825733184814,0.382436603307724,-0.6278718709945679,0.8998212814331055,0.5130278468132019,-0.21010468900203705,-0.2767384350299835
0.6032474040985107,0.38053157925605774,-0.6315163969993591,0.9001973867416382,0.5147356986999512,-0.21197596192359924,-0.2774203419685364
0.6232929229736328,0.37954044342041016,-0.6333178281784058,0.9005342721939087,0.515622615814209,-0.21291403472423553,-0.27777156233787537
0.6433870792388916,0.37736260890960693,-0.6369110345840454,0.9011202454566956,0.5173452496528625,-0.2148730456829071,-0.27850452065467834
0.6634893417358398,0.3761642575263977,-0.6386972069740295,0.9013820290565491,0.5181711912155151,-0.21588774025440216,-0.2788933217525482
0.6835429668426514,0.3737839162349701,-0.6421741247177124,0.9023739099502563,0.5199046730995178,-0.2178710699081421,-0.27967172861099243
0.7040443420410156,0.37138092517852783,-0.6455499529838562,0.903613805770874,0.5216344594955444,-0.219881072640419,-0.2804611623287201
0.7241530418395996,0.37022051215171814,-0.6471913456916809,0.9044020771980286,0.5225253105163574,-0.22088825702667236,-0.2808479070663452
0.7442164421081543,0.36778804659843445,-0.6504641175270081,0.9056585431098938,0.5241833925247192,-0.22300788760185242,-0.28164201974868774
0.7642881870269775,0.3665074110031128,-0.6520963907241821,0.9061214923858643,0.5249359607696533,-0.22411692142486572,-0.2820523679256439
0.7843961715698242,0.36402496695518494,-0.65522301197052,0.9074863195419312,0.5264976620674133,-0.22627976536750793,-0.28285905718803406
0.8047215938568115,0.3615250885486603,-0.6582353115081787,0.9091395139694214,0.5280306339263916,-0.22848878800868988,-0.2836626172065735
0.8248226642608643,0.36032959818840027,-0.6596713662147522,0.9102092385292053,0.5288300514221191,-0.22958141565322876,-0.2840479016304016
0.844876766204834,0.35784003138542175,-0.6625282764434814,0.9121944904327393,0.5303044319152832,-0.23185475170612335,-0.28482621908187866
0.8649773597717285,0.35650935769081116,-0.6639338135719299,0.9131418466567993,0.530987024307251,-0.23304833471775055,-0.2852242887020111
0.8850789070129395,0.3536686599254608,-0.6665909290313721,0.9153090715408325,0.5323523879051208,-0.23560169339179993,-0.28601762652397156
0.9051625728607178,0.35038796067237854,-0.6691573262214661,0.9172906279563904,0.5335177779197693,-0.23849357664585114,-0.2868587374687195
0.9252638816833496,0.3485785722732544,-0.6704051494598389,0.918244481086731,0.5340349078178406,-0.24007554352283478,-0.2872923016548157
0.9453535079956055,0.3444593548774719,-0.6729167103767395,0.9195681810379028,0.5348129868507385,-0.24351760745048523,-0.2882400453090668
0.9654641151428223,0.34206199645996094,-0.6741812825202942,0.9199384450912476,0.5350827574729919,-0.24542418122291565,-0.2887541353702545
0.9855422973632812,0.3367852568626404,-0.6764989495277405,0.9208706021308899,0.5355963110923767,-0.24953608214855194,-0.28974977135658264
1.0056352615356445,0.3338988125324249,-0.6775524616241455,0.9214154481887817,0.5358071327209473,-0.25173234939575195,-0.2902282476425171
1.0257174968719482,0.3273778259754181,-0.6796252131462097,0.9220620393753052,0.5358982086181641,-0.2564332187175751,-0.29125669598579407
1.0458672046661377,0.32367146015167236,-0.6806563138961792,0.9221265316009521,0.5357415080070496,-0.2589348554611206,-0.29181969165802
1.065931797027588,0.31523531675338745,-0.6824724078178406,0.9222744107246399,0.5351804494857788,-0.26431992650032043,-0.2929258942604065
1.0860931873321533,0.31043240427970886,-0.6831940412521362,0.9223561882972717,0.5347803235054016,-0.2672010064125061,-0.29346147179603577
1.10618257522583,0.2996143102645874,-0.6842790246009827,0.9222305417060852,0.5336523652076721,-0.2732904255390167,-0.29456084966659546
1.1270275115966797,0.28799158334732056,-0.6847280263900757,0.9223245978355408,0.5322604775428772,-0.2796357572078705,-0.29563185572624207
1.1472008228302002,0.2821112275123596,-0.6847795844078064,0.9224116802215576,0.5314416885375977,-0.2828449308872223,-0.29619675874710083
1.1673853397369385,0.2706279456615448,-0.6844745874404907,0.9229884743690491,0.5297524929046631,-0.2893033027648926,-0.2972908616065979
1.1874725818634033,0.2651059925556183,-0.6841831803321838,0.9233570098876953,0.5288798809051514,-0.2925315201282501,-0.29783982038497925
1.2075495719909668,0.2546394467353821,-0.6835324764251709,0.9237889647483826,0.5270679593086243,-0.2988419830799103,-0.2990153729915619
1.2276339530944824,0.2497911900281906,-0.6831929683685303,0.9238276481628418,0.5261340141296387,-0.3018556833267212,-0.29965701699256897
1.2477035522460938,0.24130484461784363,-0.682462751865387,0.9238532185554504,0.5243108868598938,-0.30740201473236084,-0.3010265827178955
1.2677843570709229,0.23757600784301758,-0.6821160912513733,0.9236872792243958,0.523380696773529,-0.30991876125335693,-0.3017805516719818
1.2878639698028564,0.23089155554771423,-0.6815454363822937,0.9227975010871887,0.5213804244995117,-0.3144514262676239,-0.30344507098197937
1.3080551624298096,0.22509567439556122,-0.6809958219528198,0.9210294485092163,0.5190930366516113,-0.3181905746459961,-0.305269330739975
1.328155517578125,0.22242078185081482,-0.6806676983833313,0.9199113845825195,0.51781165599823,-0.31980395317077637,-0.3062033951282501
1.3482205867767334,0.21749994158744812,-0.6798191070556641,0.9174991846084595,0.5150450468063354,-0.3225557506084442,-0.3080581724643707
1.3683438301086426,0.21523433923721313,-0.6793112754821777,0.9162655472755432,0.513597309589386,-0.3237457573413849,-0.3089694082736969
1.388420581817627,0.21093037724494934,-0.6781999468803406,0.9137210845947266,0.5106012225151062,-0.3258669376373291,-0.310781329870224
1.4086143970489502,0.2068103700876236,-0.6770600080490112,0.9110089540481567,0.5076131224632263,-0.3277977406978607,-0.31259047985076904
1.4287126064300537,0.204803928732872,-0.6764929890632629,0.9096018671989441,0.5061484575271606,-0.32872146368026733,-0.31349509954452515
1.448777675628662,0.2009338140487671,-0.6753655672073364,0.9066592454910278,0.5033049583435059,-0.3304569721221924,-0.31529977917671204
1.4688730239868164,0.19911232590675354,-0.674803614616394,0.9051481485366821,0.5019264221191406,-0.3312450647354126,-0.31620150804519653
1.4889554977416992,0.19566193222999573,-0.6736921668052673,0.9020963907241821,0.4992644190788269,-0.33270594477653503,-0.31800636649131775
1.5089952945709229,0.19234424829483032,-0.6726198196411133,0.89909827709198,0.4967598021030426,-0.3341505229473114,-0.31981393694877625
1.5290918350219727,0.19074857234954834,-0.6720908880233765,0.8976545333862305,0.4955679774284363,-0.33485934138298035,-0.32071754336357117
1.549156665802002,0.18772567808628082,-0.6710311770439148,0.8949443101882935,0.4933243989944458,-0.33622077107429504,-0.3225144147872925
1.5692405700683594,0.18630880117416382,-0.6704941391944885,0.8936777114868164,0.49225324392318726,-0.33685457706451416,-0.32340893149375916
1.5894460678100586,0.18367347121238708,-0.6693929433822632,0.8912275433540344,0.4901725947856903,-0.3379729390144348,-0.3251993954181671
1.609600305557251,0.18241439759731293,-0.6688460111618042,0.8899850249290466,0.4891546964645386,-0.3384912312030792,-0.3260992467403412
1.6297156810760498,0.17996416985988617,-0.6677913069725037,0.8874216675758362,0.48718565702438354,-0.3395095765590668,-0.3279031217098236
1.6508047580718994,0.17771445214748383,-0.6667687892913818,0.8847762942314148,0.48536592721939087,-0.3404264450073242,-0.329699844121933
1.670928716659546,0.17671135067939758,-0.6662667393684387,0.8834603428840637,0.484510213136673,-0.3408234715461731,-0.3305954933166504
1.6909716129302979,0.17492356896400452,-0.6652719378471375,0.8809072971343994,0.4828869104385376,-0.3415074348449707,-0.33239004015922546
1.7110545635223389,0.17417876422405243,-0.6647869944572449,0.8796678781509399,0.48212191462516785,-0.34178072214126587,-0.3332878053188324
1.7313041687011719,0.1729697734117508,-0.6638267636299133,0.8773173093795776,0.4806859791278839,-0.342180460691452,-0.33508560061454773
1.7516546249389648,0.1725238710641861,-0.6633474230766296,0.8762117624282837,0.48001742362976074,-0.342290461063385,-0.3359844386577606
1.7717335224151611,0.17194586992263794,-0.6623722910881042,0.874228835105896,0.47876429557800293,-0.3423154652118683,-0.3377816677093506
1.7917931079864502,0.17171162366867065,-0.6613894701004028,0.872519850730896,0.47764602303504944,-0.3421536087989807,-0.33957791328430176
1.811899185180664,0.17170029878616333,-0.6609024405479431,0.8717235326766968,0.4771312475204468,-0.3420127332210541,-0.34047171473503113
1.8320088386535645,0.1719595193862915,-0.6599078178405762,0.8701950311660767,0.4761675000190735,-0.3414989411830902,-0.34225159883499146
1.8520922660827637,0.1722274124622345,-0.6594075560569763,0.869450569152832,0.47572091221809387,-0.34113043546676636,-0.34313249588012695
1.8721587657928467,0.17308136820793152,-0.6583995819091797,0.8680171370506287,0.4749089777469635,-0.34014102816581726,-0.344876229763031
1.893085241317749,0.1742699295282364,-0.6573972105979919,0.8666157722473145,0.47419440746307373,-0.3388931155204773,-0.34661170840263367
1.9132437705993652,0.17505162954330444,-0.656876266002655,0.8659863471984863,0.4738653898239136,-0.33811789751052856,-0.3474770784378052
1.9333016872406006,0.17707763612270355,-0.6557595729827881,0.8649512529373169,0.4732006788253784,-0.3361719250679016,-0.3491992950439453
1.9534342288970947,0.17834466695785522,-0.6551564335823059,0.8645690083503723,0.4728570282459259,-0.3349874019622803,-0.350050687789917
1.97349214553833,0.18129505217075348,-0.6538877487182617,0.8639510273933411,0.4720938205718994,-0.3322693705558777,-0.35174334049224854
1.99361252784729,0.18465904891490936,-0.6525343656539917,0.8633460998535156,0.47117677330970764,-0.3291108310222626,-0.3534345328807831
2.0136630535125732,0.18646229803562164,-0.6518182754516602,0.8630231618881226,0.47065263986587524,-0.3273703455924988,-0.3542868494987488
2.0337421894073486,0.19025421142578125,-0.6503086090087891,0.8623093366622925,0.469494104385376,-0.3236156105995178,-0.3560185432434082
2.054356098175049,0.19402188062667847,-0.6487115621566772,0.8613162040710449,0.4681207835674286,-0.31971025466918945,-0.35784897208213806
2.0744664669036865,0.19578054547309875,-0.6479046940803528,0.8607192039489746,0.46741369366645813,-0.3178549110889435,-0.3588331639766693
2.0945565700531006,0.19878770411014557,-0.646382212638855,0.8593306541442871,0.46618005633354187,-0.3146831691265106,-0.36101236939430237
2.114804267883301,0.19998875260353088,-0.6457130312919617,0.8585250377655029,0.4657427668571472,-0.31343191862106323,-0.36221620440483093
2.1348750591278076,0.20183336734771729,-0.6445719003677368,0.856537938117981,0.4652416408061981,-0.31149640679359436,-0.36479565501213074
2.1549289226531982,0.2032373696565628,-0.6435282230377197,0.8541813492774963,0.46494990587234497,-0.3098916709423065,-0.36752867698669434
2.1750330924987793,0.20390115678310394,-0.6429908275604248,0.8530380129814148,0.46483370661735535,-0.30909448862075806,-0.36894285678863525
2.1951279640197754,0.2053535133600235,-0.6418707966804504,0.851125180721283,0.4647814631462097,-0.30747246742248535,-0.3718600273132324
2.215306043624878,0.20618504285812378,-0.6412749886512756,0.8503879308700562,0.4648886024951935,-0.30662041902542114,-0.37335479259490967
2.23544979095459,0.20806008577346802,-0.6399965882301331,0.8492496609687805,0.46536844968795776,-0.3048035502433777,-0.3763936161994934
2.2554948329925537,0.21024848520755768,-0.638570249080658,0.8482572436332703,0.46605610847473145,-0.30270007252693176,-0.3794725835323334
2.2756245136260986,0.21135640144348145,-0.637832522392273,0.8476482033729553,0.46643081307411194,-0.30160248279571533,-0.38102513551712036
2.29573917388916,0.21344108879566193,-0.6363943815231323,0.8459267616271973,0.4672165513038635,-0.299453467130661,-0.38415229320526123
2.316046953201294,0.21435761451721191,-0.6357091069221497,0.8448466062545776,0.4676254689693451,-0.29846376180648804,-0.3857297897338867
2.336155652999878,0.21596595644950867,-0.6344156265258789,0.842498242855072,0.46848252415657043,-0.29669666290283203,-0.3889131546020508
2.3562498092651367,0.21735122799873352,-0.6331713199615479,0.8403452038764954,0.4694662094116211,-0.2951829731464386,-0.3921366333961487
2.37631893157959,0.21801932156085968,-0.6325452327728271,0.839414119720459,0.46999049186706543,-0.2944600284099579,-0.3937598764896393
2.3964154720306396,0.2194676697254181,-0.6312382221221924,0.8378239274024963,0.4710976183414459,-0.292923241853714,-0.39701032638549805
2.4166083335876465,0.221139058470726,-0.6298597455024719,0.8363958597183228,0.47230228781700134,-0.2912012040615082,-0.4002399742603302
2.4367563724517822,0.2220172882080078,-0.629153847694397,0.8356350064277649,0.4729291498661041,-0.290282666683197,-0.40184393525123596
2.4567933082580566,0.22374649345874786,-0.6277411580085754,0.8338609337806702,0.47421807050704956,-0.2884010970592499,-0.40503355860710144
2.4769363403320312,0.22459819912910461,-0.6270245313644409,0.8328774571418762,0.4748436212539673,-0.28741899132728577,-0.406628280878067
2.497001886367798,0.22618095576763153,-0.6256200671195984,0.8308979868888855,0.47613584995269775,-0.2855744957923889,-0.4098336398601532
2.5171029567718506,0.22690489888191223,-0.6249368190765381,0.8299852609634399,0.47680991888046265,-0.28473928570747375,-0.41144827008247375
2.5371692180633545,0.22813795506954193,-0.6236324906349182,0.8282856941223145,0.4781893491744995,-0.2832954525947571,-0.4146881103515625
2.5572285652160645,0.22915346920490265,-0.6223909854888916,0.8266576528549194,0.4796064794063568,-0.2820485830307007,-0.4179152548313141
2.5773308277130127,0.22962020337581635,-0.6217775940895081,0.8258232474327087,0.480316698551178,-0.2814362645149231,-0.4195186197757721
2.5974326133728027,0.23056542873382568,-0.6205476522445679,0.8240566253662109,0.4817793667316437,-0.2801677882671356,-0.422693133354187
2.617604970932007,0.2310715615749359,-0.6199321746826172,0.8231000900268555,0.482521116733551,-0.27948859333992004,-0.4242618680000305
2.6376945972442627,0.23220065236091614,-0.6186909675598145,0.8210822343826294,0.4840400516986847,-0.27801355719566345,-0.42736467719078064
2.657757043838501,0.23343224823474884,-0.6174426674842834,0.8190706372261047,0.4855603873729706,-0.27643021941185,-0.43044036626815796
2.677851676940918,0.23405924439430237,-0.6168161034584045,0.8181309103965759,0.48633286356925964,-0.275631844997406,-0.43197447061538696
2.697922468185425,0.23522409796714783,-0.6155726909637451,0.8163865208625793,0.48788323998451233,-0.27410686016082764,-0.43503281474113464
2.718001127243042,0.2357071042060852,-0.6149650812149048,0.8155301809310913,0.48865067958831787,-0.27341094613075256,-0.43655267357826233
2.738111972808838,0.23638059198856354,-0.6137832999229431,0.8137825131416321,0.4901127219200134,-0.2721688747406006,-0.4395717978477478
2.7582743167877197,0.23682698607444763,-0.6126356720924377,0.8119878172874451,0.4914788007736206,-0.2710070312023163,-0.4425712525844574
2.7783713340759277,0.23706787824630737,-0.6120722889900208,0.8110840916633606,0.49219340085983276,-0.2704229950904846,-0.44406068325042725
2.7984468936920166,0.23768457770347595,-0.6109625101089478,0.8092745542526245,0.49375680088996887,-0.2692117691040039,-0.4470147490501404
2.8185267448425293,0.23806922137737274,-0.610408365726471,0.8083639144897461,0.49460217356681824,-0.2685697376728058,-0.4484747350215912
2.8386080265045166,0.23891772329807281,-0.6092795133590698,0.8065569400787354,0.4963237941265106,-0.26719608902931213,-0.4513588547706604
2.858665704727173,0.23939290642738342,-0.6086957454681396,0.8056674003601074,0.49716484546661377,-0.2664359211921692,-0.45278218388557434
2.8788046836853027,0.24039480090141296,-0.6075095534324646,0.8039137125015259,0.4987853169441223,-0.2648179531097412,-0.4555981457233429
2.8988685607910156,0.24091292917728424,-0.6069155931472778,0.8031014800071716,0.4995619058609009,-0.2639833092689514,-0.45700210332870483
2.918963670730591,0.2418520301580429,-0.6057722568511963,0.801581621170044,0.5010972619056702,-0.2624121606349945,-0.4598206579685211
2.9392871856689453,0.24249926209449768,-0.6047349572181702,0.7999690175056458,0.5026403665542603,-0.26108893752098083,-0.4626419246196747
2.9593822956085205,0.2426949441432953,-0.6042537689208984,0.7989994883537292,0.5034011602401733,-0.26050233840942383,-0.46403777599334717
2.9794349670410156,0.2428974062204361,-0.6033219695091248,0.7966848611831665,0.5048202276229858,-0.2593400478363037,-0.4667840003967285
2.9995381832122803,0.24300013482570648,-0.6028561592102051,0.795463502407074,0.5054966807365417,-0.258716344833374,-0.4681420624256134
3.0195865631103516,0.24321582913398743,-0.6019262075424194,0.7931799292564392,0.5068890452384949,-0.25747448205947876,-0.4708537459373474
3.0399348735809326,0.24335026741027832,-0.6014592051506042,0.7921994924545288,0.507648766040802,-0.2568714916706085,-0.47221219539642334
3.060142755508423,0.24372847378253937,-0.6005070805549622,0.790595293045044,0.509272038936615,-0.2556478679180145,-0.4749261438846588
3.080129384994507,0.24426428973674774,-0.5995135307312012,0.7892917394638062,0.5109261870384216,-0.25430387258529663,-0.4776138365268707
3.1002190113067627,0.24458961188793182,-0.5990039706230164,0.7886885404586792,0.5117432475090027,-0.2535720765590668,-0.47894492745399475
3.12027907371521,0.2452155202627182,-0.5979878902435303,0.7874524593353271,0.5133724212646484,-0.2520964443683624,-0.481585294008255
3.140450954437256,0.24548038840293884,-0.5974898338317871,0.7867712378501892,0.5141839385032654,-0.2513769268989563,-0.4828944802284241
3.160576581954956,0.2459213137626648,-0.5965098142623901,0.7853490114212036,0.5157915949821472,-0.24998019635677338,-0.48548927903175354
3.1806480884552,0.24611569941043854,-0.596025824546814,0.7846145033836365,0.5165786743164062,-0.2492859810590744,-0.4867731034755707
3.2007334232330322,0.24647866189479828,-0.5950635671615601,0.7832123637199402,0.5181321501731873,-0.24790212512016296,-0.4893256723880768
3.2216074466705322,0.24667653441429138,-0.5945813655853271,0.7825775742530823,0.5189160704612732,-0.2472037374973297,-0.4905945956707001
3.241818904876709,0.24708615243434906,-0.5936070084571838,0.7814732193946838,0.5205284953117371,-0.2458120733499527,-0.4931153357028961
3.2623729705810547,0.24750199913978577,-0.5926036238670349,0.7805147767066956,0.5221644639968872,-0.24439027905464172,-0.49560078978538513
3.2824792861938477,0.24769943952560425,-0.5920888781547546,0.7800645232200623,0.5229707360267639,-0.24366214871406555,-0.4968280494213104
3.3026187419891357,0.24809709191322327,-0.5910271406173706,0.7791934609413147,0.5245321989059448,-0.24213658273220062,-0.4992494285106659
3.322699546813965,0.24830615520477295,-0.5904858708381653,0.7787611484527588,0.5252867937088013,-0.24133647978305817,-0.5004489421844482
3.3428637981414795,0.2486683577299118,-0.5894466638565063,0.7777910232543945,0.5268175005912781,-0.23979216814041138,-0.5028386116027832
3.3628833293914795,0.2487989068031311,-0.5889644622802734,0.7772220969200134,0.5275967121124268,-0.2390729933977127,-0.5040350556373596
3.3830058574676514,0.24890251457691193,-0.5881065726280212,0.7758117914199829,0.5291763544082642,-0.23779313266277313,-0.506428062915802
3.403064012527466,0.2488076090812683,-0.5873420238494873,0.7740381956100464,0.5307378172874451,-0.23664522171020508,-0.5087977647781372
3.4231982231140137,0.24870452284812927,-0.5869776606559753,0.7730534076690674,0.5315032601356506,-0.23609218001365662,-0.509971022605896
3.4433271884918213,0.24849571287631989,-0.5862539410591125,0.7710441946983337,0.5330135822296143,-0.23495423793792725,-0.5123019218444824
3.4634552001953125,0.24836130440235138,-0.5855205059051514,0.7692015171051025,0.5345419645309448,-0.23376111686229706,-0.5146251320838928
3.4836106300354004,0.24831907451152802,-0.5851520299911499,0.7683576941490173,0.5353190898895264,-0.23315371572971344,-0.5157850384712219
3.5036563873291016,0.24824188649654388,-0.5844224095344543,0.7668140530586243,0.5369085073471069,-0.23195916414260864,-0.5180985331535339
3.5237174034118652,0.24820753931999207,-0.5840606093406677,0.7660897374153137,0.5377127528190613,-0.2313634753227234,-0.519249677658081
3.543907642364502,0.24818657338619232,-0.5833293795585632,0.764748752117157,0.5393144488334656,-0.23012898862361908,-0.5215333700180054
3.5638937950134277,0.2482280731201172,-0.5825821161270142,0.7634532451629639,0.5408819913864136,-0.2288067638874054,-0.5237809419631958
3.584035634994507,0.24826264381408691,-0.582204282283783,0.7628192901611328,0.5416550040245056,-0.22812215983867645,-0.5248898863792419
3.6040823459625244,0.24832525849342346,-0.5814508199691772,0.7615882754325867,0.5432116389274597,-0.22675180435180664,-0.527084231376648
3.6246755123138428,0.24836529791355133,-0.5807144641876221,0.7604052424430847,0.5447688102722168,-0.22539469599723816,-0.5292568802833557
3.6447975635528564,0.24837985634803772,-0.580353856086731,0.7598369121551514,0.5455451607704163,-0.2247200906276703,-0.5303382277488708
3.664872169494629,0.24837175011634827,-0.5796524286270142,0.7586734294891357,0.547100841999054,-0.2233923077583313,-0.5324878692626953
3.6850204467773438,0.2483382523059845,-0.5793141722679138,0.7580733895301819,0.5478829741477966,-0.22275066375732422,-0.5335555076599121
3.7050795555114746,0.2482145130634308,-0.5786513090133667,0.7568292617797852,0.5494674444198608,-0.22150255739688873,-0.5356690883636475
3.7251689434051514,0.24805358052253723,-0.577998697757721,0.755558967590332,0.5510221719741821,-0.220245823264122,-0.537757158279419
3.7452213764190674,0.24798566102981567,-0.5776689648628235,0.7549400329589844,0.5517838597297668,-0.21959222853183746,-0.5387940406799316
3.765333414077759,0.24790042638778687,-0.5770083665847778,0.7537691593170166,0.5532659292221069,-0.21822702884674072,-0.5408648252487183
3.785675525665283,0.24783243238925934,-0.5763538479804993,0.752668559551239,0.554750382900238,-0.21685200929641724,-0.5429282784461975
3.8057785034179688,0.24779686331748962,-0.5760286450386047,0.7521305680274963,0.5554943084716797,-0.21616248786449432,-0.5439561605453491
3.8258419036865234,0.2476958930492401,-0.5753784775733948,0.751032292842865,0.5570054650306702,-0.2148008644580841,-0.545992910861969
3.846027374267578,0.24761971831321716,-0.5750552415847778,0.7504512667655945,0.5577685236930847,-0.21413254737854004,-0.5469987392425537
3.8660686016082764,0.24743583798408508,-0.5744240283966064,0.7492901086807251,0.5592975616455078,-0.21282796561717987,-0.5489904284477234
3.8861846923828125,0.2473265677690506,-0.5741186738014221,0.7487066984176636,0.5600590109825134,-0.21218657493591309,-0.5499792098999023
3.906264066696167,0.24708451330661774,-0.573525071144104,0.7475840449333191,0.5616024136543274,-0.2109311819076538,-0.5519487857818604
3.926424741744995,0.24680963158607483,-0.5729430317878723,0.7464756369590759,0.563162624835968,-0.2096828669309616,-0.5539047718048096
3.9466187953948975,0.2466639280319214,-0.5726551413536072,0.7459247708320618,0.5639482736587524,-0.20906320214271545,-0.5548760294914246
3.966681480407715,0.246347576379776,-0.5721014738082886,0.7448107600212097,0.5654808282852173,-0.20783448219299316,-0.5568040609359741
3.986788272857666,0.2461778074502945,-0.5718348622322083,0.7442461252212524,0.5662238597869873,-0.20722247660160065,-0.5577595233917236
4.006904125213623,0.24582813680171967,-0.5713080167770386,0.7431389689445496,0.5676872730255127,-0.2059922069311142,-0.5596520900726318
4.027029514312744,0.24540704488754272,-0.5708045959472656,0.7420201301574707,0.56915283203125,-0.20480316877365112,-0.561526894569397
4.0470781326293945,0.24517109990119934,-0.5705621242523193,0.7414575219154358,0.569892168045044,-0.20422670245170593,-0.5624584555625916
4.067203044891357,0.24463500082492828,-0.5701026320457458,0.7402839660644531,0.5713517069816589,-0.20310479402542114,-0.5643050670623779
4.087295055389404,0.24437519907951355,-0.5698714256286621,0.739698588848114,0.5720686912536621,-0.20252124965190887,-0.5652192234992981
4.10741400718689,0.24388349056243896,-0.5693994164466858,0.7385774850845337,0.5735033750534058,-0.20131194591522217,-0.567033588886261
4.127483367919922,0.24343448877334595,-0.5689141154289246,0.73753821849823,0.5749545097351074,-0.20005302131175995,-0.5688368678092957
4.147562026977539,0.24322082102298737,-0.568670928478241,0.7370614409446716,0.5756888389587402,-0.1994195133447647,-0.5697354674339294
4.167651176452637,0.24284791946411133,-0.5681723356246948,0.736193060874939,0.577164351940155,-0.19810865819454193,-0.5715237855911255
4.188364744186401,0.2425423264503479,-0.5676579475402832,0.7354801297187805,0.5786539316177368,-0.1967637687921524,-0.5732958316802979
4.208465814590454,0.2424076944589615,-0.5673978924751282,0.735155463218689,0.5794001817703247,-0.19608049094676971,-0.5741721987724304
4.22853422164917,0.24217507243156433,-0.5668928623199463,0.7345043420791626,0.5808776021003723,-0.19469401240348816,-0.5759066939353943
4.248617649078369,0.24207450449466705,-0.5666528940200806,0.7341403365135193,0.5816183686256409,-0.19399501383304596,-0.5767627358436584
4.26870059967041,0.24186159670352936,-0.566207230091095,0.7332330942153931,0.5831151008605957,-0.19260340929031372,-0.5784549117088318
4.2887513637542725,0.24162916839122772,-0.5657942891120911,0.7321614027023315,0.5846208333969116,-0.19121913611888885,-0.5801295042037964
4.30898904800415,0.2415071725845337,-0.5655943155288696,0.7316001653671265,0.5853743553161621,-0.19052831828594208,-0.5809624195098877
4.328984022140503,0.2412741482257843,-0.565186619758606,0.7305446863174438,0.5868891477584839,-0.1891358643770218,-0.5826201438903809
4.349163770675659,0.24115639925003052,-0.5649785399436951,0.7300533652305603,0.5876479744911194,-0.18843905627727509,-0.5834435224533081
4.369263172149658,0.2409544587135315,-0.5645514130592346,0.7292045950889587,0.5891497135162354,-0.1870141625404358,-0.5850834846496582
4.389326333999634,0.2406887710094452,-0.5641437768936157,0.7284401059150696,0.5906281471252441,-0.18563690781593323,-0.5867207646369934
4.409409761428833,0.2405048906803131,-0.5639525651931763,0.7280519008636475,0.5913658738136292,-0.18498495221138,-0.5875369310379028
4.429489612579346,0.24000056087970734,-0.5636049509048462,0.7271943688392639,0.5928223133087158,-0.18376997113227844,-0.5891629457473755
4.449564218521118,0.23940294981002808,-0.5632897615432739,0.7262142896652222,0.5942233800888062,-0.1825868785381317,-0.59077388048172
4.469699144363403,0.23909522593021393,-0.5631399750709534,0.7257189154624939,0.5949106216430664,-0.18199680745601654,-0.5915744304656982
4.48974609375,0.23849882185459137,-0.5628383755683899,0.7248072028160095,0.5962779521942139,-0.18079744279384613,-0.593163788318634
4.5098254680633545,0.2382192611694336,-0.5626839995384216,0.724402666091919,0.5969761610031128,-0.18018928170204163,-0.593951940536499
4.529892921447754,0.23774577677249908,-0.5623563528060913,0.7236867547035217,0.5983895063400269,-0.17890183627605438,-0.5955130457878113
4.550105571746826,0.23732095956802368,-0.5620163083076477,0.7230214476585388,0.5998223423957825,-0.1775663197040558,-0.5970631837844849
4.570208549499512,0.2371027171611786,-0.5618460178375244,0.7226807475090027,0.6005401611328125,-0.17689593136310577,-0.5978342294692993
4.590555906295776,0.2366059124469757,-0.561522364616394,0.7219032645225525,0.6019464135169983,-0.17557914555072784,-0.5993660092353821
4.6106486320495605,0.23634564876556396,-0.5613702535629272,0.7214842438697815,0.6026419997215271,-0.1749299168586731,-0.6001232266426086
4.630697250366211,0.23580293357372284,-0.5610917806625366,0.7205978035926819,0.6040318012237549,-0.17366018891334534,-0.6016219258308411
4.650949954986572,0.2355312705039978,-0.5609623193740845,0.7201734185218811,0.6047403216362,-0.17303812503814697,-0.6023666262626648
4.671043634414673,0.2350030094385147,-0.5607075691223145,0.7193872332572937,0.6061646938323975,-0.17178283631801605,-0.6038526296615601
4.691526412963867,0.23457685112953186,-0.5604419112205505,0.71869295835495,0.6075896620750427,-0.17044135928153992,-0.6053289771080017
4.711696147918701,0.2343970388174057,-0.5603074431419373,0.7183560729026794,0.6083073616027832,-0.16974526643753052,-0.6060613393783569
4.731764078140259,0.23407618701457977,-0.5600391626358032,0.7176254391670227,0.6097610592842102,-0.16831323504447937,-0.607514500617981
4.751906633377075,0.2339087426662445,-0.559901773929596,0.7172398567199707,0.6104928255081177,-0.1675923764705658,-0.6082372069358826
4.772002935409546,0.23347318172454834,-0.5596300959587097,0.7164232730865479,0.6119189858436584,-0.16619855165481567,-0.6096761226654053
4.792046070098877,0.2329483926296234,-0.5593663454055786,0.7156220078468323,0.613280713558197,-0.1648508757352829,-0.6111047863960266
4.812141418457031,0.23265962302684784,-0.5592457056045532,0.7152354717254639,0.613942563533783,-0.16419818997383118,-0.6118172407150269
4.832222938537598,0.23200978338718414,-0.5590382218360901,0.7145164012908936,0.6152827739715576,-0.16298258304595947,-0.6132408380508423
4.852282285690308,0.2313418835401535,-0.5588415265083313,0.7138552069664001,0.616649866104126,-0.16179461777210236,-0.6146548986434937
4.872364044189453,0.23100951313972473,-0.5587433576583862,0.7135169506072998,0.617348313331604,-0.16120176017284393,-0.6153519153594971
4.892477750778198,0.23045222461223602,-0.5585260987281799,0.7128278613090515,0.6187417507171631,-0.15990705788135529,-0.6167276501655579
4.91277003288269,0.23020130395889282,-0.5584177374839783,0.712483823299408,0.6194285750389099,-0.15923437476158142,-0.6174107789993286
4.932908535003662,0.22972168028354645,-0.5582025647163391,0.7118166089057922,0.6207627654075623,-0.15785947442054749,-0.6187716126441956
4.952963590621948,0.22920991480350494,-0.5579940676689148,0.7112030982971191,0.6220288872718811,-0.15649524331092834,-0.6201280951499939
4.9730329513549805,0.2289171665906906,-0.5578961968421936,0.7108848094940186,0.622654914855957,-0.15583965182304382,-0.6208011507987976
4.993122577667236,0.22821880877017975,-0.5577362775802612,0.7102126479148865,0.6239422559738159,-0.15464787185192108,-0.6221356391906738
5.013335466384888,0.22747084498405457,-0.5575981140136719,0.709557831287384,0.6252684593200684,-0.15351499617099762,-0.6234533786773682
5.033446550369263,0.22712141275405884,-0.5575315952301025,0.7092451453208923,0.6259270310401917,-0.15292783081531525,-0.6241059899330139
5.053600549697876,0.22654005885124207,-0.5573778748512268,0.7086507081985474,0.6272286772727966,-0.15163712203502655,-0.6253978610038757
5.0736424922943115,0.22629845142364502,-0.5572980642318726,0.7083578109741211,0.627866804599762,-0.15094663202762604,-0.6260396838188171
5.093729496002197,0.2258082777261734,-0.5571436285972595,0.7077752351760864,0.6291596293449402,-0.14958113431930542,-0.6273195147514343
5.113790273666382,0.22555766999721527,-0.5570694804191589,0.707484245300293,0.6298226118087769,-0.14891120791435242,-0.6279550194740295
5.133925676345825,0.22500085830688477,-0.5569256544113159,0.7069118022918701,0.6311614513397217,-0.14761817455291748,-0.6292182803153992
5.154016494750977,0.2244136482477188,-0.5567900538444519,0.7064095735549927,0.6324857473373413,-0.14635471999645233,-0.6304722428321838
5.174141883850098,0.22410111129283905,-0.556727945804596,0.7061789631843567,0.6331343650817871,-0.14573536813259125,-0.6310968995094299
5.194224119186401,0.22347332537174225,-0.5566086769104004,0.7057276368141174,0.63442063331604,-0.14449256658554077,-0.6323365569114685
5.214505195617676,0.22286204993724823,-0.5564837455749512,0.7051792144775391,0.6357340216636658,-0.1432223618030548,-0.6335526704788208
5.2346367835998535,0.2225954532623291,-0.5564166903495789,0.7048754096031189,0.6363991498947144,-0.14255641400814056,-0.6341512203216553
5.254743814468384,0.22216971218585968,-0.5562775135040283,0.704267144203186,0.6377547383308411,-0.1411670744419098,-0.6353293657302856
5.274986982345581,0.22200645506381989,-0.5562039017677307,0.7039936184883118,0.6384340524673462,-0.14044256508350372,-0.6359120607376099
5.295241594314575,0.22171935439109802,-0.5560518503189087,0.7035576701164246,0.639773428440094,-0.13897418975830078,-0.6370752453804016
5.3153746128082275,0.22157900035381317,-0.5559763312339783,0.7033752202987671,0.640425443649292,-0.13823340833187103,-0.637658417224884
5.335429430007935,0.22122517228126526,-0.5558460354804993,0.7030104398727417,0.6416975259780884,-0.13680218160152435,-0.6388327479362488
5.355544567108154,0.22098705172538757,-0.5557981133460999,0.7027970552444458,0.6423249244689941,-0.13613440096378326,-0.6394219398498535
5.375666379928589,0.220393568277359,-0.5557270050048828,0.7022949457168579,0.6435662508010864,-0.134882852435112,-0.6405954957008362
5.395931243896484,0.21965722739696503,-0.5556783676147461,0.7017049193382263,0.6447999477386475,-0.13372576236724854,-0.6417522430419922
5.416025638580322,0.21929170191287994,-0.5556497573852539,0.7014114856719971,0.6454177498817444,-0.13313747942447662,-0.6423253417015076
5.436086177825928,0.21861609816551208,-0.5555845499038696,0.7008771896362305,0.6466715335845947,-0.13192860782146454,-0.6434625387191772
5.456340074539185,0.21805259585380554,-0.5555061101913452,0.7004395723342896,0.6479282379150391,-0.1306496560573578,-0.6445891261100769
5.476429224014282,0.21780294179916382,-0.5554739236831665,0.7002407908439636,0.6485483050346375,-0.12999816238880157,-0.6451462507247925
5.496522426605225,0.2173316776752472,-0.5554171800613403,0.6998528242111206,0.6497658491134644,-0.12867169082164764,-0.6462530493736267
5.516632556915283,0.21710464358329773,-0.5553895235061646,0.699670672416687,0.6503639817237854,-0.12799839675426483,-0.6468042731285095
5.536756992340088,0.21663455665111542,-0.5553286075592041,0.6993542909622192,0.6515414714813232,-0.12665382027626038,-0.6479045748710632
5.556802034378052,0.21616269648075104,-0.5552655458450317,0.6990652084350586,0.6527174711227417,-0.12531407177448273,-0.648991584777832
5.576909303665161,0.215937539935112,-0.5552396774291992,0.6989091038703918,0.6533142924308777,-0.12464488297700882,-0.6495276093482971
5.597106695175171,0.21542872488498688,-0.5552226305007935,0.6985369920730591,0.6545184850692749,-0.12337404489517212,-0.6505898833274841
5.617314100265503,0.21514205634593964,-0.5552268624305725,0.6983410716056824,0.6551096439361572,-0.12276314198970795,-0.6511200070381165
5.6374125480651855,0.21447144448757172,-0.5552584528923035,0.697924017906189,0.6562784910202026,-0.12161371856927872,-0.6521759629249573
5.6575047969818115,0.21378715336322784,-0.5552970767021179,0.69746333360672,0.6574538350105286,-0.1204647570848465,-0.6532137393951416
5.67792272567749,0.21346285939216614,-0.5553193688392639,0.6972234845161438,0.6580489873886108,-0.11987894773483276,-0.6537231802940369
5.6981024742126465,0.2128506451845169,-0.5553608536720276,0.6968034505844116,0.6592299938201904,-0.11867431551218033,-0.6547315120697021
5.71809458732605,0.2122417688369751,-0.5554032325744629,0.696483850479126,0.6603741645812988,-0.11744973063468933,-0.6557384729385376
5.73818564414978,0.21193790435791016,-0.5554187893867493,0.696332573890686,0.6609501838684082,-0.11682587116956711,-0.6562401056289673
5.758294582366943,0.2113397866487503,-0.5554431676864624,0.6959709525108337,0.662116289138794,-0.11554748564958572,-0.6572358012199402
5.7784264087677,0.21079830825328827,-0.5554628968238831,0.6955326199531555,0.6633071899414062,-0.11421762406826019,-0.658217191696167
5.798514127731323,0.2105528563261032,-0.5554758310317993,0.6953080296516418,0.6639000177383423,-0.11353673785924911,-0.6587044596672058
5.8185834884643555,0.2100980281829834,-0.5555023550987244,0.6948908567428589,0.6650903820991516,-0.11215900629758835,-0.6596741676330566
5.838738203048706,0.2098756581544876,-0.5555136203765869,0.6947169303894043,0.6656892895698547,-0.11147364228963852,-0.6601563692092896
5.858776330947876,0.20938941836357117,-0.555536150932312,0.6944445371627808,0.6668651103973389,-0.11012933403253555,-0.6611224412918091
5.8791399002075195,0.20879219472408295,-0.5555744171142578,0.6942061185836792,0.6680223941802979,-0.10886942595243454,-0.6620894074440002
5.899248123168945,0.20844732224941254,-0.5556015968322754,0.694074809551239,0.6685913801193237,-0.10826902091503143,-0.6625730395317078
5.91927170753479,0.2076994925737381,-0.5556733012199402,0.6937770843505859,0.6697235107421875,-0.1071149930357933,-0.6635348200798035
5.93936562538147,0.20732392370700836,-0.5557177066802979,0.6936174035072327,0.6702842116355896,-0.10654149204492569,-0.6640112400054932
5.959442615509033,0.20661021769046783,-0.555820643901825,0.6932553052902222,0.671413004398346,-0.10537023097276688,-0.6649503111839294
5.979526996612549,0.2062751054763794,-0.5558727383613586,0.6930553317070007,0.6719875931739807,-0.10476569831371307,-0.6654125452041626
5.999624490737915,0.20564350485801697,-0.5559660196304321,0.6926742196083069,0.6731266379356384,-0.1035085991024971,-0.66633141040802
6.0199267864227295,0.2050483226776123,-0.5560358762741089,0.6923647522926331,0.6742410063743591,-0.10220024734735489,-0.6672466993331909
6.0400660037994385,0.20474551618099213,-0.5560663342475891,0.6922305822372437,0.6747921109199524,-0.10154718905687332,-0.6677025556564331
6.060091257095337,0.20411257445812225,-0.5561258792877197,0.6919591426849365,0.6758988499641418,-0.10026194900274277,-0.6686072945594788
6.080158472061157,0.20378001034259796,-0.5561630129814148,0.6918147802352905,0.6764505505561829,-0.09963780641555786,-0.6690568923950195
6.100251197814941,0.20308564603328705,-0.5562630891799927,0.6915050148963928,0.6775445938110352,-0.0984339788556099,-0.6699520945549011
6.12032151222229,0.20237362384796143,-0.5563904643058777,0.6911823749542236,0.678656816482544,-0.0972832515835762,-0.6708315014839172
6.140432357788086,0.2020164281129837,-0.5564556121826172,0.6910305023193359,0.6792159080505371,-0.09671179205179214,-0.6712648868560791
6.1605224609375,0.20134443044662476,-0.5565792918205261,0.6907695531845093,0.680332601070404,-0.0955338329076767,-0.6721188426017761
6.180564880371094,0.20077265799045563,-0.5566970109939575,0.69056636095047,0.6814418435096741,-0.09427613765001297,-0.6729593276977539
6.200761318206787,0.20049215853214264,-0.5567566156387329,0.6904730796813965,0.6820011734962463,-0.09364324063062668,-0.6733757257461548
6.220801830291748,0.19993609189987183,-0.5568872094154358,0.690300703048706,0.6831276416778564,-0.0923827588558197,-0.6742053031921387
6.240980625152588,0.19931164383888245,-0.5570276975631714,0.6901040077209473,0.6842470169067383,-0.09116006642580032,-0.6750332117080688
6.261210918426514,0.19899578392505646,-0.5570979714393616,0.6899878978729248,0.6848006248474121,-0.09054214507341385,-0.6754454970359802
6.28127384185791,0.19831983745098114,-0.5572258234024048,0.689720869064331,0.6858855485916138,-0.08930762112140656,-0.6762682199478149
6.301387548446655,0.19796840846538544,-0.5572844743728638,0.689577579498291,0.6864200234413147,-0.08869202435016632,-0.6766778826713562
6.321554660797119,0.19724881649017334,-0.5573951601982117,0.6893115639686584,0.6874657273292542,-0.08747237920761108,-0.6774954199790955
6.341872692108154,0.19651108980178833,-0.5575122833251953,0.6890543699264526,0.6885032653808594,-0.0862879678606987,-0.678303062915802
6.361977577209473,0.19614455103874207,-0.5575726628303528,0.6889371871948242,0.6890199184417725,-0.08570272475481033,-0.6787018179893494
6.382075309753418,0.19544252753257751,-0.5577020049095154,0.6887392401695251,0.6900531053543091,-0.0845361053943634,-0.6794862747192383
6.402156591415405,0.19511647522449493,-0.5577704906463623,0.6886546015739441,0.6905688047409058,-0.0839439332485199,-0.6798720955848694
6.422220945358276,0.19450120627880096,-0.5579107403755188,0.6884862184524536,0.6915998458862305,-0.0827345922589302,-0.6806339025497437
6.44230318069458,0.19391068816184998,-0.5580604672431946,0.6882877945899963,0.6926266551017761,-0.08150006085634232,-0.6813911199569702
6.46245002746582,0.1936202496290207,-0.5581391453742981,0.6881685853004456,0.6931445002555847,-0.08087891340255737,-0.6817681789398193
6.482488632202148,0.19306884706020355,-0.5582999587059021,0.6878695487976074,0.6942033171653748,-0.07960788160562515,-0.682515025138855
6.5035669803619385,0.19253432750701904,-0.5584560036659241,0.6875369548797607,0.6952878832817078,-0.07831792533397675,-0.6832603216171265
6.523675918579102,0.19225628674030304,-0.5585322380065918,0.6874125003814697,0.6958237886428833,-0.07768184691667557,-0.6836394667625427
6.543786287307739,0.19167570769786835,-0.5586798787117004,0.6873263120651245,0.6968898773193359,-0.07645700871944427,-0.6844142079353333
6.563876628875732,0.1913900226354599,-0.5587518811225891,0.6873475313186646,0.6974303722381592,-0.07585811614990234,-0.6848034858703613
6.58394718170166,0.1908697783946991,-0.5589045882225037,0.6874174475669861,0.6985350847244263,-0.07465392351150513,-0.6855653524398804
6.604261159896851,0.19045408070087433,-0.5590701103210449,0.6873970031738281,0.6996625065803528,-0.07337965816259384,-0.6862894892692566
6.624354839324951,0.19025523960590363,-0.5591578483581543,0.6873359084129333,0.7002161741256714,-0.0727192685008049,-0.6866418719291687
6.6444244384765625,0.18982645869255066,-0.5593338012695312,0.6871330738067627,0.7012913823127747,-0.0713723823428154,-0.6873421669006348
6.664578199386597,0.18957915902137756,-0.5594207048416138,0.6870110630989075,0.7018060684204102,-0.07069951295852661,-0.6876958608627319
6.684673547744751,0.18902236223220825,-0.5595957636833191,0.6867797374725342,0.7027944326400757,-0.06938298046588898,-0.6884129047393799
6.704708814620972,0.1887185275554657,-0.5596829652786255,0.6866748332977295,0.7032776474952698,-0.06874308735132217,-0.6887735724449158
6.724799394607544,0.1880401372909546,-0.5598651766777039,0.6864813566207886,0.7042322754859924,-0.06752821058034897,-0.6894949674606323
6.745116472244263,0.18731336295604706,-0.5600601434707642,0.6863119006156921,0.7051730751991272,-0.06636609882116318,-0.6902124285697937
6.765232563018799,0.18693947792053223,-0.5601629614830017,0.6862360835075378,0.7056334614753723,-0.06579587608575821,-0.6905695199966431
6.7853474617004395,0.1861884593963623,-0.5603672862052917,0.6860880255699158,0.7065443396568298,-0.0646512508392334,-0.6912785768508911
6.8054423332214355,0.18581318855285645,-0.5604660511016846,0.6860113739967346,0.7070004940032959,-0.06407540291547775,-0.6916296482086182
6.825557470321655,0.18507832288742065,-0.5606483817100525,0.685847818851471,0.707923173904419,-0.06290361285209656,-0.6923226118087769
6.846064805984497,0.1843748390674591,-0.5608142018318176,0.6856892108917236,0.7088508605957031,-0.061706800013780594,-0.6930044889450073
6.866177558898926,0.18403559923171997,-0.5608987808227539,0.6856122612953186,0.709315836429596,-0.06110873073339462,-0.6933413743972778
6.886269569396973,0.18339523673057556,-0.5610901713371277,0.6854538917541504,0.7102550864219666,-0.05992288887500763,-0.6940036416053772
6.906304836273193,0.18308354914188385,-0.5611993670463562,0.685361921787262,0.710732102394104,-0.05934137478470802,-0.6943285465240479
6.92638897895813,0.18247005343437195,-0.5614325404167175,0.6851544380187988,0.7116954326629639,-0.058182500302791595,-0.6949670910835266
6.946443796157837,0.18190409243106842,-0.5616570711135864,0.6849346160888672,0.7126762866973877,-0.056976351886987686,-0.6955922245979309
6.96666693687439,0.18162694573402405,-0.5617613792419434,0.6848591566085815,0.713161826133728,-0.05636325106024742,-0.6959059834480286
6.986701726913452,0.18106664717197418,-0.5619708299636841,0.6847755312919617,0.7141050696372986,-0.055144332349300385,-0.6965373754501343
7.006814479827881,0.18077050149440765,-0.5620723962783813,0.6847655177116394,0.7145627737045288,-0.054543595761060715,-0.6968547105789185
7.026881694793701,0.1801431030035019,-0.5622801780700684,0.6847233176231384,0.7154643535614014,-0.05336359888315201,-0.6974822282791138
7.046947240829468,0.17943985760211945,-0.5625093579292297,0.6846082806587219,0.7163740396499634,-0.05225346237421036,-0.6980993747711182
7.067096948623657,0.17906634509563446,-0.5626351833343506,0.6845362186431885,0.71682208776474,-0.05172041431069374,-0.6984070539474487
7.0871806144714355,0.1783129870891571,-0.562903881072998,0.6843660473823547,0.7177085280418396,-0.050666771829128265,-0.6990184783935547
7.107224941253662,0.17763455212116241,-0.5631563663482666,0.6842014789581299,0.7186025381088257,-0.049538593739271164,-0.6996201872825623
7.1272923946380615,0.1773124486207962,-0.5632734894752502,0.6841314435005188,0.7190582752227783,-0.04895731434226036,-0.699918806552887
7.147383451461792,0.17668147385120392,-0.5634967088699341,0.6840400099754333,0.7199589610099792,-0.047780461609363556,-0.700518012046814
7.167790651321411,0.1763799786567688,-0.5636051893234253,0.6840139627456665,0.7204025983810425,-0.04718291759490967,-0.7008180022239685
7.187880516052246,0.17578622698783875,-0.5638322830200195,0.6839391589164734,0.7212819457054138,-0.045992590487003326,-0.7014122009277344
7.207977533340454,0.17517152428627014,-0.5640919804573059,0.6838032007217407,0.7221629619598389,-0.044848937541246414,-0.7019956707954407
7.228081226348877,0.17483583092689514,-0.5642338395118713,0.6837180852890015,0.7226017117500305,-0.04430669546127319,-0.7022844552993774
7.248132944107056,0.17415939271450043,-0.5645279884338379,0.6835223436355591,0.7234914898872375,-0.043233320116996765,-0.7028519511222839
7.268242835998535,0.17383527755737305,-0.564669132232666,0.6834381818771362,0.7239523530006409,-0.04268575832247734,-0.7031316161155701
7.288338899612427,0.17321306467056274,-0.5649321675300598,0.6833056211471558,0.7248974442481995,-0.04156208410859108,-0.7036860585212708
7.30854868888855,0.1729104369878769,-0.5650525689125061,0.6832671761512756,0.725367546081543,-0.04098527505993843,-0.7039631009101868
7.328622579574585,0.17230327427387238,-0.5652796030044556,0.6832301020622253,0.7262700200080872,-0.039813946932554245,-0.7045202851295471
7.34895658493042,0.17166222631931305,-0.5655141472816467,0.6831631660461426,0.7271305322647095,-0.03866143524646759,-0.7050760388374329
7.369046211242676,0.17131619155406952,-0.5656412243843079,0.6831099987030029,0.7275559902191162,-0.0381118580698967,-0.7053524255752563
7.389101028442383,0.1705956906080246,-0.565915048122406,0.6829457879066467,0.7284207940101624,-0.03705194592475891,-0.7058960199356079
7.4093217849731445,0.1702495664358139,-0.5660560131072998,0.6828437447547913,0.7288687825202942,-0.036518629640340805,-0.7061610221862793
7.429333686828613,0.1695961207151413,-0.5663298964500427,0.6826720833778381,0.729786217212677,-0.035427313297986984,-0.7066861391067505
7.449489593505859,0.169011652469635,-0.5665920376777649,0.6825524568557739,0.7307023406028748,-0.03428157418966293,-0.7072093486785889
7.469602346420288,0.16873855888843536,-0.5667183995246887,0.682518720626831,0.7311447262763977,-0.0336887389421463,-0.7074724435806274
7.489645481109619,0.16818800568580627,-0.5669723153114319,0.6824370622634888,0.7319982647895813,-0.03249581903219223,-0.7079982161521912
7.509734869003296,0.16788740456104279,-0.567104160785675,0.6823910474777222,0.7324138879776001,-0.03191974386572838,-0.7082613110542297
7.5299012660980225,0.16719861328601837,-0.5673789381980896,0.6822781562805176,0.7332308888435364,-0.030836796388030052,-0.7087864875793457
7.549911260604858,0.1668519526720047,-0.5675191879272461,0.6822144985198975,0.7336390614509583,-0.030299732461571693,-0.7090452909469604
7.570014953613281,0.166213721036911,-0.5677998065948486,0.6820894479751587,0.7344624400138855,-0.029190095141530037,-0.7095527052879333
7.590095520019531,0.1656750738620758,-0.5680647492408752,0.6820574402809143,0.7353233695030212,-0.02803018130362034,-0.7100517153739929
7.610245227813721,0.16542138159275055,-0.5681911706924438,0.6820931434631348,0.7357696294784546,-0.027451783418655396,-0.7103017568588257
7.630331039428711,0.16497397422790527,-0.5684259533882141,0.6822488307952881,0.7367020845413208,-0.026269041001796722,-0.7107982635498047
7.650552272796631,0.16460095345973969,-0.5686416029930115,0.6824354529380798,0.7376380562782288,-0.02501855418086052,-0.7112866640090942
7.670648813247681,0.1644136607646942,-0.5687565803527832,0.6825006008148193,0.738098680973053,-0.02439352683722973,-0.7115267515182495
7.690764904022217,0.1639363020658493,-0.569009006023407,0.6825677752494812,0.7389798760414124,-0.023216506466269493,-0.7120068669319153
7.710819244384766,0.16362649202346802,-0.5691539645195007,0.6825606822967529,0.7394029498100281,-0.022687744349241257,-0.7122471332550049
7.730943918228149,0.16290010511875153,-0.5694645047187805,0.6824984550476074,0.7402194142341614,-0.021709877997636795,-0.7127265334129333
7.750963449478149,0.16214247047901154,-0.5697800517082214,0.6824209094047546,0.7410029172897339,-0.020739857107400894,-0.7132017016410828
7.771057605743408,0.16177235543727875,-0.5699356198310852,0.6823834776878357,0.7413908243179321,-0.020241660997271538,-0.7134373188018799
7.791244983673096,0.1610892415046692,-0.5702443718910217,0.682328462600708,0.742197573184967,-0.019217433407902718,-0.7139034271240234
7.811572551727295,0.16045548021793365,-0.5705519318580627,0.6822996139526367,0.7430431842803955,-0.018179919570684433,-0.7143630981445312
7.831710577011108,0.16015708446502686,-0.5707015991210938,0.6822913885116577,0.7434679865837097,-0.017645660787820816,-0.7145906090736389
7.851795673370361,0.15959922969341278,-0.570993959903717,0.6822460889816284,0.7442962527275085,-0.016521740704774857,-0.7150381803512573
7.8719048500061035,0.15935052931308746,-0.5711373090744019,0.6822025179862976,0.7447018623352051,-0.015922971069812775,-0.7152577638626099
7.89194393157959,0.1588742434978485,-0.5714255571365356,0.6820942163467407,0.7455070614814758,-0.014702540822327137,-0.7156935930252075
7.912122488021851,0.15863795578479767,-0.5715708136558533,0.6820378303527832,0.7459120750427246,-0.01409335806965828,-0.7159109711647034
7.93222713470459,0.15817397832870483,-0.5718546509742737,0.6819688081741333,0.7467383742332458,-0.012882944196462631,-0.7163485288619995
7.952298879623413,0.15770509839057922,-0.5721308588981628,0.6819736361503601,0.7475709915161133,-0.01169720571488142,-0.7167922854423523
7.972929954528809,0.15746235847473145,-0.5722665190696716,0.6820025444030762,0.747974157333374,-0.011111575178802013,-0.7170175313949585
7.993024110794067,0.15691739320755005,-0.572536826133728,0.6820759773254395,0.7487349510192871,-0.009976629167795181,-0.7174725532531738
8.013094902038574,0.1563243716955185,-0.5728176236152649,0.6821374297142029,0.7494724988937378,-0.008888320066034794,-0.7179242968559265
8.033174753189087,0.15601550042629242,-0.5729666352272034,0.682172954082489,0.749851405620575,-0.008373623713850975,-0.7181476950645447
8.053303003311157,0.1554090976715088,-0.5732870697975159,0.682227373123169,0.7506439685821533,-0.007374680135399103,-0.7185832262039185
8.073335886001587,0.1548447608947754,-0.573613166809082,0.6822862029075623,0.7514596581459045,-0.0063570099882781506,-0.7190064787864685
8.093461036682129,0.1545659899711609,-0.5737718939781189,0.6823076605796814,0.7518627047538757,-0.00583385257050395,-0.7192143797874451
8.113532543182373,0.1540077030658722,-0.5740672945976257,0.6823620796203613,0.7526440620422363,-0.004753417335450649,-0.7196280360221863
8.133600950241089,0.15373343229293823,-0.5742108225822449,0.6823669075965881,0.7530314922332764,-0.004199258983135223,-0.7198305130004883
8.15370798110962,0.15322230756282806,-0.5745102763175964,0.6823074221611023,0.7538248896598816,-0.0030719777569174767,-0.7202226519584656
8.173791408538818,0.15273544192314148,-0.5748257040977478,0.6822227835655212,0.7546414732933044,-0.0019479920156300068,-0.7206076979637146
8.193887948989868,0.15248577296733856,-0.5749870538711548,0.6822028160095215,0.755046546459198,-0.0013989363797008991,-0.7208030223846436
8.214026927947998,0.15198735892772675,-0.5753095149993896,0.682201087474823,0.7558467388153076,-0.00030235014855861664,-0.7211983799934387
8.234167575836182,0.15175101161003113,-0.5754671692848206,0.6822017431259155,0.7562437653541565,0.00026088711456395686,-0.7213957905769348
8.254258632659912,0.1512666493654251,-0.5757790803909302,0.6822044253349304,0.7570384740829468,0.0013767671771347523,-0.721790075302124
8.274366617202759,0.15071925520896912,-0.5760861039161682,0.68223637342453,0.7578167915344238,0.002442970871925354,-0.7221880555152893
8.294428825378418,0.15041416883468628,-0.5762397646903992,0.682266116142273,0.75819331407547,0.002951109316200018,-0.7223894596099854
8.31453824043274,0.14979372918605804,-0.5765416622161865,0.6823332905769348,0.7589346766471863,0.003966773394495249,-0.722791314125061
8.334659576416016,0.14947925508022308,-0.5766935348510742,0.682378888130188,0.7593024373054504,0.00446545984596014,-0.7229923605918884
8.354785442352295,0.14884881675243378,-0.5770056247711182,0.6824836730957031,0.7600371837615967,0.005442431196570396,-0.7233914732933044
8.3748459815979,0.14824897050857544,-0.5773264169692993,0.6825721263885498,0.7607746124267578,0.006432275287806988,-0.7237792611122131
8.394968271255493,0.1479741334915161,-0.5774912238121033,0.6825901865959167,0.7611520886421204,0.006944782566279173,-0.7239654660224915
8.415037870407104,0.14749863743782043,-0.5778223276138306,0.6825664639472961,0.7619348168373108,0.008034826256334782,-0.7243207097053528
8.43511700630188,0.14728029072284698,-0.5779913663864136,0.6825387477874756,0.7623282074928284,0.008596024475991726,-0.7244939208030701
8.455206155776978,0.14684996008872986,-0.5783252120018005,0.6824966669082642,0.7630916833877563,0.009739389643073082,-0.7248412370681763
8.475268840789795,0.14638857543468475,-0.5786511898040771,0.6825613975524902,0.7638382315635681,0.010843662545084953,-0.7251992225646973
8.495378971099854,0.14613297581672668,-0.5788142085075378,0.6826333403587341,0.7642120122909546,0.011362492106854916,-0.7253813743591309
8.515475749969482,0.14559154212474823,-0.579132080078125,0.6828233599662781,0.7649664282798767,0.012365458533167839,-0.7257447838783264
8.536117792129517,0.14501738548278809,-0.5794370174407959,0.6829882264137268,0.765690267086029,0.013374635949730873,-0.7261027097702026
8.55624771118164,0.14472904801368713,-0.5795859098434448,0.6830490231513977,0.7660395503044128,0.01389170903712511,-0.7262789607048035
8.576336145401001,0.14412924647331238,-0.5798978209495544,0.6831067204475403,0.7667230367660522,0.014907291159033775,-0.7266260981559753
8.596760988235474,0.14382711052894592,-0.5800649523735046,0.6830971837043762,0.7670684456825256,0.015405969694256783,-0.7267953157424927
8.616873502731323,0.14324907958507538,-0.5804069638252258,0.6830266118049622,0.7677773833274841,0.016420919448137283,-0.7271247506141663
8.636915922164917,0.14270102977752686,-0.5807301998138428,0.6829537749290466,0.7684871554374695,0.017482532188296318,-0.7274520993232727
8.657043933868408,0.14242899417877197,-0.5808789134025574,0.6829370856285095,0.7688370943069458,0.018023774027824402,-0.7276178598403931
8.67711853981018,0.14187265932559967,-0.5811625719070435,0.6829767227172852,0.7695310711860657,0.019079454243183136,-0.7279576659202576
8.697202920913696,0.14159436523914337,-0.5813061594963074,0.6830356121063232,0.769888162612915,0.01958097517490387,-0.7281295657157898
8.717372417449951,0.14102743566036224,-0.5816090106964111,0.6832106709480286,0.7706180810928345,0.0205233097076416,-0.7284738421440125
8.737536191940308,0.14075852930545807,-0.5817644596099854,0.6833137273788452,0.7709951996803284,0.020990030840039253,-0.7286428213119507
8.757630586624146,0.1402929574251175,-0.5820809006690979,0.6834642887115479,0.7717723846435547,0.02198886126279831,-0.728966236114502
8.777760982513428,0.14001113176345825,-0.5823971629142761,0.6835235357284546,0.7725979685783386,0.0231573935598135,-0.7292669415473938
8.797844171524048,0.1399337351322174,-0.5825586915016174,0.683529794216156,0.773030161857605,0.023793116211891174,-0.729411244392395
8.81791377067566,0.13986411690711975,-0.5828862190246582,0.6835204362869263,0.7739169001579285,0.0251357052475214,-0.7296943664550781
8.837993860244751,0.13983912765979767,-0.5830485820770264,0.6835302114486694,0.7743555307388306,0.025818534195423126,-0.7298381924629211
8.85808539390564,0.13978558778762817,-0.5833690166473389,0.6835852265357971,0.7752048969268799,0.027194052934646606,-0.7301331162452698
8.87830924987793,0.13972392678260803,-0.5835258960723877,0.683629035949707,0.7755967974662781,0.027867989614605904,-0.7302869558334351
8.898404836654663,0.1394924521446228,-0.5838497877120972,0.6837316751480103,0.7763184905052185,0.029132794588804245,-0.7306073904037476
8.91847825050354,0.13899952173233032,-0.5842286944389343,0.6837794780731201,0.7769712209701538,0.030153054744005203,-0.73094242811203
8.938660144805908,0.138657346367836,-0.5844437479972839,0.683786153793335,0.7772786617279053,0.030565302819013596,-0.7311124801635742
8.958680868148804,0.13786515593528748,-0.584902286529541,0.6837787628173828,0.7778739929199219,0.03128572180867195,-0.7314490079879761
8.978931665420532,0.13702799379825592,-0.5853393077850342,0.6838403344154358,0.7784279584884644,0.032003238797187805,-0.731783390045166
8.99902868270874,0.13661807775497437,-0.5855368971824646,0.6838992834091187,0.7786957621574402,0.03239142522215843,-0.731948733329773
9.019102573394775,0.13577112555503845,-0.5858939290046692,0.6840880513191223,0.7791958451271057,0.03318113461136818,-0.7322821021080017
9.03968334197998,0.1353425681591034,-0.5860610604286194,0.6841956377029419,0.7794379591941833,0.033580031245946884,-0.7324475646018982
9.059778451919556,0.13451366126537323,-0.5863972306251526,0.6843758821487427,0.7799364328384399,0.03439381346106529,-0.7327672839164734
9.07984209060669,0.13372960686683655,-0.586747944355011,0.6844554543495178,0.7804722189903259,0.03523487597703934,-0.7330713868141174
9.100013732910156,0.13335548341274261,-0.5869258642196655,0.6844639778137207,0.7807576060295105,0.03566662222146988,-0.7332186102867126
9.1202073097229,0.13263483345508575,-0.5872711539268494,0.6844785213470459,0.7813512086868286,0.03654889389872551,-0.7335093021392822
9.140411138534546,0.13230054080486298,-0.5874338150024414,0.6845136880874634,0.7816587686538696,0.037003666162490845,-0.7336533069610596
9.160459756851196,0.1316884607076645,-0.5877406001091003,0.6846582889556885,0.7822949290275574,0.03793581947684288,-0.7339375019073486
9.180522918701172,0.1314086616039276,-0.587883710861206,0.6847630739212036,0.7826210260391235,0.03841627761721611,-0.7340778708457947
9.200587034225464,0.13085706532001495,-0.5881695747375488,0.6849491596221924,0.7832745313644409,0.03938085585832596,-0.7343524694442749
9.22114086151123,0.13058747351169586,-0.5883119106292725,0.6850284934043884,0.7836035490036011,0.03986787423491478,-0.7344862818717957
9.241270065307617,0.13004228472709656,-0.5886118412017822,0.685125470161438,0.7842623591423035,0.0408283956348896,-0.7347463965415955
9.261504173278809,0.1295536756515503,-0.5889297723770142,0.6851585507392883,0.7849504947662354,0.04181446507573128,-0.7349916100502014
9.281605005264282,0.12933970987796783,-0.5890932679176331,0.6851455569267273,0.7853039503097534,0.04233274608850479,-0.7351083159446716
9.30165958404541,0.12897871434688568,-0.5894160866737366,0.6850883960723877,0.7860225439071655,0.04343853145837784,-0.7353338599205017
9.321738719940186,0.12882289290428162,-0.5895745754241943,0.6850691437721252,0.7863834500312805,0.04401193559169769,-0.7354465126991272
9.341886520385742,0.12847527861595154,-0.5898960828781128,0.6850899457931519,0.7870884537696838,0.04510478302836418,-0.7356815338134766
9.361946821212769,0.12802287936210632,-0.5902292132377625,0.68515944480896,0.7877495884895325,0.04609151557087898,-0.735928475856781
9.382088899612427,0.12774690985679626,-0.5903985500335693,0.6851981282234192,0.788059651851654,0.046545784920454025,-0.7360551953315735
9.402156352996826,0.1271575391292572,-0.5907403230667114,0.6852728128433228,0.7886635661125183,0.047424472868442535,-0.7363079190254211
9.422319412231445,0.126857727766037,-0.5909150242805481,0.6853166818618774,0.788966953754425,0.04785051941871643,-0.736433207988739
9.442389011383057,0.12626107037067413,-0.5912773609161377,0.6853963136672974,0.789578378200531,0.04869209602475166,-0.7366799712181091
9.462459325790405,0.125713512301445,-0.5916359424591064,0.6854380369186401,0.7901893854141235,0.0495995357632637,-0.7369208931922913
9.482608079910278,0.12545286118984222,-0.5918105244636536,0.6854385733604431,0.7904905080795288,0.05008072033524513,-0.7370410561561584
9.502671480178833,0.12494015693664551,-0.5921504497528076,0.6854332685470581,0.7910850644111633,0.051063232123851776,-0.7372848987579346
9.522752285003662,0.12468280643224716,-0.5923237204551697,0.6854304075241089,0.7913801074028015,0.05154714733362198,-0.7374075651168823
9.54281997680664,0.12415798753499985,-0.5926915407180786,0.6854241490364075,0.7919742465019226,0.05247136577963829,-0.7376503348350525
9.56288766860962,0.12361792474985123,-0.5930739045143127,0.6854486465454102,0.792584240436554,0.053343355655670166,-0.7378877997398376
9.582989692687988,0.12332987785339355,-0.5932655930519104,0.6854755878448486,0.7928908467292786,0.05375809594988823,-0.7380058169364929
9.60307788848877,0.12275543808937073,-0.5936242341995239,0.6855965852737427,0.7935101389884949,0.05459555611014366,-0.7382414937019348
9.62316083908081,0.12247458845376968,-0.5938007831573486,0.6856645345687866,0.7938221096992493,0.05501905083656311,-0.7383567690849304
9.64333963394165,0.12194690853357315,-0.594150960445404,0.685819685459137,0.7944547533988953,0.05588657781481743,-0.7385821342468262
9.66332197189331,0.12168541550636292,-0.5943269729614258,0.6858940720558167,0.7947648167610168,0.056324996054172516,-0.7386934161186218
9.683430194854736,0.12116311490535736,-0.5946768522262573,0.6860225200653076,0.7953664064407349,0.057219248265028,-0.7389135956764221
9.70350694656372,0.12061949819326401,-0.5950347185134888,0.6860768795013428,0.7959468960762024,0.05811753123998642,-0.7391295433044434
9.723585844039917,0.120342917740345,-0.5952193737030029,0.6860690712928772,0.7962376475334167,0.05856645479798317,-0.7392359972000122
9.74367618560791,0.11977186053991318,-0.5955992937088013,0.6860188841819763,0.7968182563781738,0.05944608524441719,-0.739448070526123
9.763861179351807,0.11948075890541077,-0.5957854390144348,0.6859939694404602,0.7971047163009644,0.05988749489188194,-0.7395548224449158
9.783970594406128,0.11892125010490417,-0.5961484313011169,0.6859617829322815,0.7976752519607544,0.06079108268022537,-0.7397671341896057
9.804086923599243,0.1184149906039238,-0.5964917540550232,0.6860073804855347,0.7982713580131531,0.06171794980764389,-0.7399798035621643
9.824117660522461,0.1181788519024849,-0.5966574549674988,0.6860495209693909,0.7985783219337463,0.062188226729631424,-0.7400866150856018
9.84426736831665,0.11777302622795105,-0.5969767570495605,0.6861888766288757,0.7992281317710876,0.0631558895111084,-0.740297794342041
9.864848613739014,0.11742730438709259,-0.5972955226898193,0.6863030195236206,0.7998812198638916,0.06417505443096161,-0.7405025959014893
9.884937286376953,0.11728134751319885,-0.5974559187889099,0.6863498091697693,0.8002079129219055,0.06470899283885956,-0.740602433681488
9.905014276504517,0.11696028709411621,-0.5977765321731567,0.686448335647583,0.800834059715271,0.06575828045606613,-0.7408065795898438
9.925280570983887,0.11678970605134964,-0.5979357957839966,0.6865125894546509,0.8011417984962463,0.06626944243907928,-0.7409101128578186
9.945376873016357,0.1164231151342392,-0.5982433557510376,0.6866880059242249,0.8017458319664001,0.06726256757974625,-0.7411195039749146
9.965448141098022,0.11605504155158997,-0.5985348224639893,0.686898410320282,0.8023453950881958,0.06825126707553864,-0.7413272857666016
9.985588788986206,0.11586354672908783,-0.5986778140068054,0.6870097517967224,0.8026387691497803,0.06873925775289536,-0.741431713104248
10.005677223205566,0.11545350402593613,-0.5989744067192078,0.6872449517250061,0.8032127022743225,0.06967165321111679,-0.7416437268257141
10.026015996932983,0.1152493953704834,-0.5991315245628357,0.6873683929443359,0.803498387336731,0.07012409716844559,-0.7417500019073486
10.046044111251831,0.11488325148820877,-0.5994638204574585,0.6876198649406433,0.8041045665740967,0.07102727890014648,-0.7419556379318237
10.066109418869019,0.11473295092582703,-0.5996301770210266,0.6877611875534058,0.8044316172599792,0.0714927539229393,-0.7420541644096375
10.08619737625122,0.11449534446001053,-0.5999565720558167,0.6880597472190857,0.8051280975341797,0.07246766984462738,-0.7422402501106262
10.106314897537231,0.11431796103715897,-0.6002613306045532,0.6883965134620667,0.8058507442474365,0.07350414991378784,-0.7424172163009644
10.126423358917236,0.11422959715127945,-0.6004135608673096,0.6885405778884888,0.8062019348144531,0.07404132932424545,-0.7425033450126648
10.14650297164917,0.11398310214281082,-0.6007288694381714,0.6887578368186951,0.8068519830703735,0.0750969722867012,-0.7426789402961731
10.166645526885986,0.11379370093345642,-0.6009025573730469,0.6888086199760437,0.8071413636207581,0.07558507472276688,-0.7427695989608765
10.18671989440918,0.1132754236459732,-0.6012911796569824,0.6888160705566406,0.8076680302619934,0.07644356787204742,-0.742958664894104
10.20686149597168,0.11296471953392029,-0.6015022993087769,0.6887946128845215,0.8079220652580261,0.07681866735219955,-0.7430544495582581
10.226999044418335,0.11229545623064041,-0.601940929889679,0.6887357234954834,0.8084250688552856,0.07751711457967758,-0.7432438135147095
10.247043371200562,0.11161862313747406,-0.6023669242858887,0.6887190937995911,0.8089250922203064,0.0782160609960556,-0.7434295415878296
10.267114639282227,0.11129343509674072,-0.6025688648223877,0.6887310147285461,0.8091753125190735,0.07858484983444214,-0.7435212731361389
10.287192344665527,0.11067702621221542,-0.602949321269989,0.6887783408164978,0.8096834421157837,0.07936844974756241,-0.7437025308609009
10.307366609573364,0.11038809269666672,-0.6031272411346436,0.6888100504875183,0.8099386692047119,0.07978669553995132,-0.7437922954559326
10.327484369277954,0.1098347157239914,-0.6034672260284424,0.6888798475265503,0.8104498982429504,0.08065278828144073,-0.7439704537391663
10.347899436950684,0.10956685245037079,-0.6036310195922852,0.6889188885688782,0.8107072114944458,0.08109342306852341,-0.7440592050552368
10.36809229850769,0.10904624313116074,-0.6039506196975708,0.6890020966529846,0.8112190961837769,0.08198723196983337,-0.7442368268966675
10.388223886489868,0.108785480260849,-0.6041116118431091,0.6890352368354797,0.8114749193191528,0.08243062347173691,-0.7443252205848694
10.40837025642395,0.10824256390333176,-0.6044523119926453,0.6890617609024048,0.8119800090789795,0.0832863301038742,-0.7445028424263
10.428794860839844,0.10765985399484634,-0.6048371195793152,0.6890368461608887,0.8124814629554749,0.08406195789575577,-0.7446779012680054
10.448888301849365,0.10736268013715744,-0.6050426363945007,0.6890174746513367,0.8127307891845703,0.08442918956279755,-0.7447636723518372
10.468952894210815,0.10679799318313599,-0.6054602265357971,0.6889812350273132,0.8132482767105103,0.08517516404390335,-0.7449264526367188
10.489051342010498,0.10654279589653015,-0.6056589484214783,0.688978374004364,0.8135156035423279,0.0855790302157402,-0.7450050115585327
10.509133100509644,0.10607430338859558,-0.6060315370559692,0.6890190839767456,0.8140761256217957,0.08642875403165817,-0.7451587915420532
10.529189825057983,0.10562553256750107,-0.6063727140426636,0.689123272895813,0.8146389722824097,0.08730395883321762,-0.7453136444091797
10.549301385879517,0.10540863126516342,-0.6065356135368347,0.6891957521438599,0.8149241209030151,0.08774369955062866,-0.7453910708427429
10.569425344467163,0.104985810816288,-0.6068639755249023,0.6893503665924072,0.8155039548873901,0.08861302584409714,-0.7455444931983948
10.589747667312622,0.10457293689250946,-0.6071959733963013,0.6895000338554382,0.8160874247550964,0.08948159217834473,-0.7456973791122437
10.60984754562378,0.10436737537384033,-0.6073643565177917,0.6895598769187927,0.8163745403289795,0.0899205356836319,-0.7457728385925293
10.629921436309814,0.10392364114522934,-0.6077067255973816,0.6896454095840454,0.816923201084137,0.09078385680913925,-0.7459243535995483
10.64997935295105,0.10369428247213364,-0.6078820824623108,0.689674973487854,0.8171917200088501,0.09120707213878632,-0.7459989190101624
10.670069694519043,0.10320853441953659,-0.6082436442375183,0.6897076964378357,0.81772381067276,0.09202031046152115,-0.7461454272270203
10.690127849578857,0.10272064805030823,-0.6086064577102661,0.6897435784339905,0.8182535767555237,0.09281955659389496,-0.7462897300720215
10.71021842956543,0.10248694568872452,-0.608785092830658,0.6897850036621094,0.8185243010520935,0.09321711957454681,-0.7463614344596863
10.730321168899536,0.10206426680088043,-0.6091486215591431,0.6899104118347168,0.8190990686416626,0.09400878846645355,-0.7464997172355652
10.750413417816162,0.10189089924097061,-0.6093288660049438,0.6899847388267517,0.8194083571434021,0.09442835301160812,-0.7465638518333435
10.770561218261719,0.1016068384051323,-0.6096842288970947,0.6900993585586548,0.8200530409812927,0.09534233808517456,-0.7466813921928406
10.790576696395874,0.10134761035442352,-0.6100155115127563,0.6902530789375305,0.8206790089607239,0.09630618989467621,-0.7468029856681824
10.81068229675293,0.10121100395917892,-0.6101766228675842,0.6903649568557739,0.8209731578826904,0.09677913039922714,-0.7468694448471069
10.830808639526367,0.1008944883942604,-0.6104971170425415,0.6906482577323914,0.8215226531028748,0.0976734459400177,-0.7470127940177917
10.850872993469238,0.10052669048309326,-0.6108159422874451,0.6909069418907166,0.8220336437225342,0.09854742884635925,-0.7471575736999512
10.871025800704956,0.10031330585479736,-0.6109784245491028,0.6910067796707153,0.8222805857658386,0.09896804392337799,-0.7472293972969055
10.891048431396484,0.09984700381755829,-0.611315131187439,0.6911954879760742,0.8227753639221191,0.09975715726613998,-0.7473734617233276
10.911396503448486,0.0995902568101883,-0.6114950776100159,0.6912831664085388,0.8230221271514893,0.10011652857065201,-0.747445821762085
10.931481122970581,0.09905390441417694,-0.6118689179420471,0.6914321780204773,0.8235058784484863,0.1008119136095047,-0.7475892901420593
10.951541662216187,0.09852827340364456,-0.6122370958328247,0.6915088891983032,0.8239842653274536,0.10156133025884628,-0.7477266788482666
10.97161316871643,0.09828271716833115,-0.6124165654182434,0.6915255188941956,0.8242319822311401,0.10196346044540405,-0.7477930188179016
10.991743087768555,0.09782033413648605,-0.6127745509147644,0.6915420889854431,0.8247609734535217,0.10278400778770447,-0.747921347618103
11.01182222366333,0.0975869819521904,-0.6129604578018188,0.6915465593338013,0.8250364065170288,0.1031760424375534,-0.7479839324951172
11.03199553489685,0.09711568057537079,-0.6133328080177307,0.6915678977966309,0.8255840539932251,0.10394344478845596,-0.7481060028076172
11.05204153060913,0.09665289521217346,-0.6136949062347412,0.6916017532348633,0.8261136412620544,0.10472703725099564,-0.7482255101203918
11.072135925292969,0.09643661975860596,-0.6138672828674316,0.691643476486206,0.8263747096061707,0.10513222962617874,-0.7482858896255493
11.092211484909058,0.09603896737098694,-0.6142074465751648,0.6917634606361389,0.8269081115722656,0.10595394670963287,-0.7484054565429688
11.112655639648438,0.09584257006645203,-0.6143770217895508,0.6918328404426575,0.8271722793579102,0.10636279731988907,-0.7484654188156128
11.132787704467773,0.09543951600790024,-0.6147148013114929,0.6919565796852112,0.8276760578155518,0.10718779265880585,-0.7485858798027039
11.152883768081665,0.09501267224550247,-0.6150469779968262,0.6920782923698425,0.8281431198120117,0.10800996422767639,-0.7487102150917053
11.172962188720703,0.09479378908872604,-0.6152163743972778,0.6921486854553223,0.8283757567405701,0.1084045022726059,-0.748772919178009
11.193045377731323,0.09437229484319687,-0.6155638694763184,0.6922841668128967,0.8288680911064148,0.1091839075088501,-0.7488924860954285
11.213102102279663,0.09398572146892548,-0.6159145832061768,0.6923841238021851,0.8293955326080322,0.109989695250988,-0.7490016222000122
11.233302354812622,0.09380898624658585,-0.6160820722579956,0.6924452781677246,0.8296652436256409,0.11040934175252914,-0.7490553855895996
11.253389835357666,0.09346020221710205,-0.6164088249206543,0.6926413178443909,0.830206573009491,0.11122150719165802,-0.7491680979728699
11.273946523666382,0.09311854839324951,-0.6167303919792175,0.6929196119308472,0.8307434916496277,0.1120055615901947,-0.7492861151695251
11.29405951499939,0.0929558202624321,-0.616891086101532,0.6930656433105469,0.8310152888298035,0.11239991337060928,-0.749343752861023
11.314128160476685,0.09263326227664948,-0.6172059774398804,0.6933406591415405,0.8315517902374268,0.11321202665567398,-0.7494558691978455
11.334221839904785,0.09245862811803818,-0.617362916469574,0.693459689617157,0.8318110704421997,0.11361787468194962,-0.7495104670524597
11.354349374771118,0.09205462038516998,-0.6176807880401611,0.6936445236206055,0.8322999477386475,0.11440865695476532,-0.7496209144592285
11.374404430389404,0.0915745347738266,-0.6180309057235718,0.6936977505683899,0.8327527046203613,0.11515729874372482,-0.7497312426567078
11.394535541534424,0.09132331609725952,-0.6182184219360352,0.6936854124069214,0.8329799771308899,0.11552032828330994,-0.7497848272323608
11.414654016494751,0.09082450717687607,-0.618607759475708,0.6936206221580505,0.8334407210350037,0.11624360829591751,-0.7498885989189148
11.43469786643982,0.09058826416730881,-0.6187983155250549,0.6935963034629822,0.8336758613586426,0.11661599576473236,-0.7499386668205261
11.454769611358643,0.09014394879341125,-0.619151771068573,0.6936162114143372,0.8341429233551025,0.11739060282707214,-0.7500407099723816
11.47490119934082,0.0897269919514656,-0.6194769144058228,0.6937436461448669,0.8346114158630371,0.11816667765378952,-0.7501470446586609
11.495000123977661,0.08952096849679947,-0.6196349859237671,0.6938304901123047,0.8348431587219238,0.11854869872331619,-0.750201940536499
11.515135526657104,0.08911766111850739,-0.6199473142623901,0.6940106749534607,0.8353114724159241,0.1193133145570755,-0.7503114938735962
11.535261154174805,0.08891324698925018,-0.6201077699661255,0.694091796875,0.8355488181114197,0.1196872815489769,-0.7503658533096313
11.555476188659668,0.088490329682827,-0.6204373240470886,0.6942235231399536,0.8360241055488586,0.12042111903429031,-0.7504737377166748
11.575545072555542,0.08807098865509033,-0.620777428150177,0.6943032741546631,0.8365015387535095,0.1211632490158081,-0.7505782246589661
11.595707416534424,0.08785917609930038,-0.6209490299224854,0.6943262219429016,0.836733341217041,0.12153919041156769,-0.7506303787231445
11.615787982940674,0.08743291348218918,-0.6212970018386841,0.6943640112876892,0.8371800780296326,0.12228898704051971,-0.7507359385490417
11.636409997940063,0.087215356528759,-0.6214718818664551,0.6943824291229248,0.8373976349830627,0.12266023457050323,-0.7507897615432739
11.656501054763794,0.0867617204785347,-0.621827244758606,0.6944407820701599,0.8378245234489441,0.12336929887533188,-0.7508997917175293
11.676545143127441,0.08631797134876251,-0.6221702098846436,0.6945355534553528,0.8382657170295715,0.12407926470041275,-0.7510085105895996
11.69664216041565,0.08609496802091599,-0.6223389506340027,0.6945962309837341,0.8384895324707031,0.1244267150759697,-0.7510621547698975
11.71685791015625,0.08567124605178833,-0.6226651668548584,0.6947246789932251,0.8389490246772766,0.12514564394950867,-0.751165509223938
11.736858606338501,0.08546491712331772,-0.6228306293487549,0.6947691440582275,0.839184045791626,0.1255117654800415,-0.7512145042419434
11.757000923156738,0.08506745845079422,-0.623161792755127,0.694845974445343,0.8396607041358948,0.12625867128372192,-0.7513121962547302
11.777062892913818,0.08466175943613052,-0.6235172748565674,0.6949743628501892,0.8401579260826111,0.12692579627037048,-0.7514117956161499
11.797194242477417,0.08445589244365692,-0.6237009763717651,0.6950714588165283,0.8404098749160767,0.1272314041852951,-0.7514616250991821
11.81731128692627,0.08406388014554977,-0.6240607500076294,0.6953649520874023,0.8409390449523926,0.12781445682048798,-0.7515567541122437
11.837347984313965,0.08368414640426636,-0.6243875026702881,0.6956601738929749,0.8414562344551086,0.12846429646015167,-0.7516435384750366
11.85747742652893,0.08349817246198654,-0.6245377063751221,0.6957964301109314,0.8417062163352966,0.1288193166255951,-0.751684844493866
11.877521514892578,0.0830896869301796,-0.6248430609703064,0.6959680914878845,0.8421645164489746,0.12955094873905182,-0.7517650723457336
11.897602319717407,0.08287718147039413,-0.6250008940696716,0.6960187554359436,0.8423827290534973,0.1299205720424652,-0.7518044710159302
11.917685508728027,0.08245950937271118,-0.6253325939178467,0.6960322260856628,0.8428239226341248,0.13068059086799622,-0.7518783807754517
11.937950611114502,0.08206378668546677,-0.6256718039512634,0.6960028409957886,0.843277633190155,0.13145747780799866,-0.7519490122795105
11.958039045333862,0.08187465369701385,-0.6258383393287659,0.6959969997406006,0.8435047268867493,0.13184969127178192,-0.7519850134849548
11.978095054626465,0.08149775862693787,-0.6261641979217529,0.696033775806427,0.8439499139785767,0.13261431455612183,-0.7520610690116882
11.998193264007568,0.08130310475826263,-0.6263285279273987,0.6960639953613281,0.8441665768623352,0.13298070430755615,-0.7521008849143982
12.01826286315918,0.08089090138673782,-0.6266745924949646,0.6961029767990112,0.8445897698402405,0.13367676734924316,-0.752181887626648
12.0383460521698,0.08067027479410172,-0.626860499382019,0.6961046457290649,0.8447973132133484,0.13400305807590485,-0.7522227764129639
12.058424711227417,0.08021384477615356,-0.6272353529930115,0.6960995197296143,0.8452084064483643,0.134646475315094,-0.7523066997528076
12.078510522842407,0.07976440340280533,-0.6276045441627502,0.6960957050323486,0.8456246256828308,0.135303795337677,-0.7523886561393738
12.098609209060669,0.07955575734376907,-0.6277797222137451,0.6960963010787964,0.8458384871482849,0.13565625250339508,-0.7524270415306091
12.11868691444397,0.07919616997241974,-0.6281113624572754,0.6961857676506042,0.8462994694709778,0.13637764751911163,-0.7525007128715515
12.138856410980225,0.07903873175382614,-0.628269374370575,0.6962652802467346,0.8465439081192017,0.1367446631193161,-0.7525362968444824
12.158950328826904,0.07875367254018784,-0.6285738348960876,0.696465015411377,0.8470479249954224,0.13749079406261444,-0.7526060342788696
12.17900824546814,0.07847031950950623,-0.6288714408874512,0.6966305375099182,0.8475290536880493,0.13826647400856018,-0.7526758909225464
12.199102878570557,0.0783337652683258,-0.6290218830108643,0.6966844201087952,0.847759485244751,0.13867183029651642,-0.7527103424072266
12.219200849533081,0.07803810387849808,-0.6293340921401978,0.6967709064483643,0.8481917977333069,0.13946238160133362,-0.7527841925621033
12.239254474639893,0.07771105319261551,-0.6296526193618774,0.696847140789032,0.848604142665863,0.1402219980955124,-0.7528621554374695
12.2592933177948,0.07754103094339371,-0.6298081278800964,0.696910560131073,0.8488138914108276,0.14058484137058258,-0.7529027462005615
12.279357433319092,0.07720907777547836,-0.6301097273826599,0.6970991492271423,0.8492593765258789,0.14128342270851135,-0.7529830932617188
12.299625158309937,0.07705163955688477,-0.6302563548088074,0.6972248554229736,0.8494943380355835,0.14162270724773407,-0.7530224323272705
12.319589614868164,0.0767325907945633,-0.6305536031723022,0.6974679231643677,0.849971354007721,0.14228758215904236,-0.753096878528595
12.339834928512573,0.07657018303871155,-0.6307064294815063,0.6975708603858948,0.8502131700515747,0.14261753857135773,-0.7531309723854065
12.359930038452148,0.07621733099222183,-0.6310297846794128,0.6977028250694275,0.8506850600242615,0.14326702058315277,-0.7531940340995789
12.380070447921753,0.076040118932724,-0.6311965584754944,0.69774329662323,0.8509190678596497,0.14359791576862335,-0.7532228231430054
12.400151252746582,0.07567037642002106,-0.6315290927886963,0.697812557220459,0.8513538837432861,0.14426632225513458,-0.7532836198806763
12.420210838317871,0.07530097663402557,-0.6318461894989014,0.697894275188446,0.8517528772354126,0.1449614018201828,-0.7533507347106934
12.440377712249756,0.07510920614004135,-0.6320017576217651,0.6979436278343201,0.8519407510757446,0.14530427753925323,-0.753387451171875
12.46039891242981,0.07472030073404312,-0.632313072681427,0.6980313658714294,0.8523141741752625,0.1459856480360031,-0.7534618377685547
12.480472087860107,0.07452911138534546,-0.6324706673622131,0.6980602145195007,0.8525058031082153,0.14633014798164368,-0.7534976601600647
12.500565528869629,0.07416393607854843,-0.6327836513519287,0.6980931758880615,0.8529034852981567,0.14704100787639618,-0.7535670399665833
12.520631074905396,0.07384256273508072,-0.6330960988998413,0.6981146931648254,0.8533385992050171,0.14777903258800507,-0.753635823726654
12.540766477584839,0.07368813455104828,-0.6332541108131409,0.6981537938117981,0.8535669445991516,0.148130863904953,-0.7536733150482178
12.560794115066528,0.07339921593666077,-0.6335744857788086,0.6982921957969666,0.8540453314781189,0.14880497753620148,-0.7537491321563721
12.581008434295654,0.07326049357652664,-0.6337277293205261,0.6983912587165833,0.8542843461036682,0.14914092421531677,-0.7537873387336731
12.601165771484375,0.07296904176473618,-0.634025514125824,0.6985723972320557,0.8547379374504089,0.14982470870018005,-0.7538618445396423
12.62159514427185,0.07264162600040436,-0.6343130469322205,0.6987175345420837,0.8551530838012695,0.15051187574863434,-0.7539371848106384
12.641717433929443,0.07245851308107376,-0.6344606280326843,0.6987760663032532,0.8553488850593567,0.1508394181728363,-0.7539754509925842
12.661816358566284,0.0720863789319992,-0.6347565650939941,0.6988657116889954,0.8557344079017639,0.1514967381954193,-0.7540497779846191
12.682234048843384,0.0719233900308609,-0.634899914264679,0.6989028453826904,0.8559318780899048,0.15185214579105377,-0.7540846467018127
12.702358484268188,0.061285387724637985,-0.6405572295188904,0.6987388134002686,0.859255850315094,0.15215975046157837,-0.7513560056686401
12.722452640533447,0.05086740851402283,-0.6461389064788818,0.6986239552497864,0.8625612258911133,0.15248247981071472,-0.7486664056777954
12.742496967315674,0.04574915021657944,-0.6489090323448181,0.6985788941383362,0.8642164468765259,0.15264615416526794,-0.7473317384719849
12.762644529342651,0.03577249497175217,-0.6544359922409058,0.6985403895378113,0.867592990398407,0.15298956632614136,-0.7446647882461548
12.782813310623169,0.026182251051068306,-0.659942090511322,0.698603093624115,0.8710653185844421,0.15339399874210358,-0.7420065999031067
12.802969455718994,0.02155669778585434,-0.662680447101593,0.6986744403839111,0.8728376030921936,0.15365099906921387,-0.740685760974884
12.822995662689209,0.012667132541537285,-0.6681117415428162,0.698907732963562,0.8764309883117676,0.15432049334049225,-0.7380754947662354
12.84304666519165,0.008420133031904697,-0.6708055734634399,0.6990624666213989,0.8782590627670288,0.15474578738212585,-0.7367849946022034
12.863144636154175,0.0003066076897084713,-0.6761578917503357,0.6994231343269348,0.8819565773010254,0.15576224029064178,-0.734236478805542
12.883422136306763,-0.0035690239164978266,-0.6788229942321777,0.6996614336967468,0.8838303089141846,0.156330406665802,-0.7329761385917664
12.90358018875122,-0.011070998385548592,-0.6841181516647339,0.7001454830169678,0.8875679969787598,0.15755268931388855,-0.7304885983467102
12.92404317855835,-0.01836971938610077,-0.6893512010574341,0.7005649209022522,0.8912460207939148,0.15884239971637726,-0.7280489802360535
12.944144248962402,-0.02196710929274559,-0.6919484734535217,0.7007244825363159,0.8930624127388,0.15949445962905884,-0.7268447279930115
12.964205980300903,-0.029017634689807892,-0.6971378922462463,0.7010406851768494,0.8966946601867676,0.16077327728271484,-0.7244564890861511
12.98426604270935,-0.03242829442024231,-0.6997379064559937,0.7012494802474976,0.8985370993614197,0.16140930354595184,-0.7232668995857239
13.004361629486084,-0.03901112824678421,-0.7049264907836914,0.7017189264297485,0.9022528529167175,0.1627328246831894,-0.7209013104438782
13.024457931518555,-0.04519001394510269,-0.7100679874420166,0.7023269534111023,0.9060142636299133,0.16422604024410248,-0.7185643911361694
13.044533729553223,-0.048153042793273926,-0.7126132845878601,0.7026309370994568,0.9078899025917053,0.1650412231683731,-0.7174119353294373
13.064619064331055,-0.053825490176677704,-0.7176709175109863,0.7033092379570007,0.911646842956543,0.16676408052444458,-0.7151371836662292
13.084831237792969,-0.059276919811964035,-0.7226880192756653,0.7039299607276917,0.9153633117675781,0.16855238378047943,-0.7129046320915222
13.104963779449463,-0.06191915273666382,-0.7251865863800049,0.7042312622070312,0.9172148704528809,0.16946148872375488,-0.7118011116981506
13.125070333480835,-0.06708824634552002,-0.7301771640777588,0.704864501953125,0.9209188222885132,0.1712464690208435,-0.7096102833747864
13.145128011703491,-0.06959300488233566,-0.7326709032058716,0.7052280306816101,0.9227848052978516,0.17213138937950134,-0.7085199356079102
13.165191650390625,-0.07441124320030212,-0.7376553416252136,0.7061367630958557,0.9265739321708679,0.17389540374279022,-0.7063442468643188
13.185332298278809,-0.07898158580064774,-0.7426007986068726,0.7071295976638794,0.9303686618804932,0.17573772370815277,-0.7041922807693481
13.205415964126587,-0.08118350803852081,-0.7450494766235352,0.7076276540756226,0.9322504997253418,0.17670206725597382,-0.7031293511390686
13.225581645965576,-0.0854313001036644,-0.7499023675918579,0.7086421251296997,0.9359717965126038,0.17869742214679718,-0.7010316848754883
13.245731353759766,-0.08948519825935364,-0.7547361850738525,0.7097341418266296,0.9396971464157104,0.18069882690906525,-0.6989519000053406
13.265839338302612,-0.09145043045282364,-0.7571448683738708,0.7102793455123901,0.9415539503097534,0.18170402944087982,-0.6979210376739502
13.285921812057495,-0.09528936445713043,-0.7619381546974182,0.7113310098648071,0.9452385306358337,0.18372195959091187,-0.695879340171814
13.306057691574097,-0.09714619070291519,-0.7643170952796936,0.7118322253227234,0.9470627307891846,0.18475690484046936,-0.6948708295822144
13.326176643371582,-0.10072016716003418,-0.7690548896789551,0.7128738164901733,0.950724720954895,0.18685078620910645,-0.6928637623786926
13.34629225730896,-0.10243791341781616,-0.7714172601699829,0.7134078741073608,0.9525653719902039,0.18790623545646667,-0.6918644309043884
13.36642575263977,-0.10578909516334534,-0.7761162519454956,0.7145426273345947,0.9562259912490845,0.19000734388828278,-0.6898844242095947
13.386486530303955,-0.10896588861942291,-0.7807832360267639,0.7158096432685852,0.9598958492279053,0.19212311506271362,-0.687920331954956
13.40657663345337,-0.11051962524652481,-0.7831194400787354,0.7165044546127319,0.9617276191711426,0.1931387037038803,-0.686940610408783
13.426662921905518,-0.11349469423294067,-0.7877855896949768,0.7179496884346008,0.9654096364974976,0.19517049193382263,-0.6849789023399353
13.446847915649414,-0.11494054645299911,-0.7901009321212769,0.7186660170555115,0.9672369956970215,0.196202352643013,-0.6840052008628845
13.466884136199951,-0.11775796115398407,-0.7946791052818298,0.7199989557266235,0.9708327054977417,0.19833460450172424,-0.6820836067199707
13.486976146697998,-0.1191418245434761,-0.7969563603401184,0.7206414937973022,0.9726170301437378,0.1993977576494217,-0.6811304688453674
13.507123231887817,-0.12189394980669022,-0.8015106916427612,0.7218629121780396,0.976147472858429,0.20146191120147705,-0.6792367100715637
13.527193069458008,-0.12458764016628265,-0.8060411214828491,0.7229997515678406,0.9796276092529297,0.2035122960805893,-0.6773581504821777
13.547353506088257,-0.12590768933296204,-0.8082778453826904,0.7235389351844788,0.9813396334648132,0.20456582307815552,-0.6764301657676697
13.567551851272583,-0.128416508436203,-0.8127255439758301,0.7246962785720825,0.9847721457481384,0.2067016363143921,-0.6745822429656982
13.587637186050415,-0.12962669134140015,-0.8149551749229431,0.7253537178039551,0.986508846282959,0.20773229002952576,-0.6736548542976379
13.607712745666504,-0.1319071352481842,-0.819395899772644,0.7268062829971313,0.9899970889091492,0.20980682969093323,-0.6718038320541382
13.627785444259644,-0.13297660648822784,-0.8215939998626709,0.7275677919387817,0.9917460680007935,0.21088068187236786,-0.6708816289901733
13.647895336151123,-0.1350102573633194,-0.8259387612342834,0.7291115522384644,0.9952439665794373,0.21309761703014374,-0.6690490245819092
13.667968511581421,-0.13594289124011993,-0.8281010985374451,0.7299625277519226,0.9970211386680603,0.21422071754932404,-0.6681331992149353
13.688051700592041,-0.13766686618328094,-0.8324276208877563,0.7318141460418701,1.0006399154663086,0.2164459079504013,-0.6662932634353638
13.708152055740356,-0.13920031487941742,-0.8367352485656738,0.733871579170227,1.0042973756790161,0.21867792308330536,-0.6644529700279236
13.728246212005615,-0.13993287086486816,-0.8388667106628418,0.7348845601081848,1.0061004161834717,0.21981947124004364,-0.6635421514511108
13.76076889038086,-0.1406681090593338,-0.840981125831604,0.7358719706535339,1.007872223854065,0.22096610069274902,-0.6626396775245667
13.780860185623169,-0.14140990376472473,-0.8430806994438171,0.7368330359458923,1.0096126794815063,0.222113236784935,-0.661745548248291
13.800915241241455,-0.1430540531873703,-0.8472676277160645,0.7385307550430298,1.0129541158676147,0.22429779171943665,-0.6599773168563843
13.821071147918701,-0.14392806589603424,-0.849358856678009,0.7393088340759277,1.01457941532135,0.22533929347991943,-0.6590967774391174
13.841176509857178,-0.1457023322582245,-0.8535550236701965,0.7408115267753601,1.0178096294403076,0.22732971608638763,-0.6573269367218018
13.861266374588013,-0.14740601181983948,-0.8577143549919128,0.7423509955406189,1.0210342407226562,0.22932876646518707,-0.6555554270744324
13.881356000900269,-0.14819535613059998,-0.859757125377655,0.7431277632713318,1.0226465463638306,0.23039421439170837,-0.6546756029129028
13.901416063308716,-0.14961715042591095,-0.8637580871582031,0.7446989417076111,1.0258539915084839,0.23268771171569824,-0.6529402732849121
13.921483278274536,-0.15024612843990326,-0.865728497505188,0.7454979419708252,1.0274579524993896,0.23389564454555511,-0.652083158493042
13.941587686538696,-0.15142257511615753,-0.869663417339325,0.7471228241920471,1.0306590795516968,0.2362895905971527,-0.6503798961639404
13.961646795272827,-0.15250591933727264,-0.8736072778701782,0.7488489747047424,1.0338917970657349,0.23860996961593628,-0.6486769914627075
13.98172402381897,-0.1530275046825409,-0.8755813837051392,0.7497543096542358,1.0355099439620972,0.23973438143730164,-0.6478254199028015
14.001870155334473,-0.1540519744157791,-0.8794987201690674,0.751620888710022,1.0387216806411743,0.24196206033229828,-0.6461331248283386
14.02196979522705,-0.15507130324840546,-0.8833506107330322,0.7534318566322327,1.0418651103973389,0.24421629309654236,-0.6444641351699829
14.042066097259521,-0.15557381510734558,-0.8852548599243164,0.7543306350708008,1.0434222221374512,0.2453485131263733,-0.64363694190979
14.062125444412231,-0.15655255317687988,-0.88905930519104,0.7561378479003906,1.0465394258499146,0.2475644201040268,-0.6419832110404968
14.082475900650024,-0.15707601606845856,-0.890964686870575,0.7570232152938843,1.0480730533599854,0.24861428141593933,-0.6411590576171875
14.102563858032227,-0.1581539511680603,-0.8947414755821228,0.7586882710456848,1.0510648488998413,0.250711053609848,-0.6395269632339478
14.122665166854858,-0.15921105444431305,-0.8984432816505432,0.7602126002311707,1.0539647340774536,0.2528911232948303,-0.6379209756851196
14.142741203308105,-0.15971150994300842,-0.9002834558486938,0.760994017124176,1.0554184913635254,0.2539817988872528,-0.6371193528175354
14.162855386734009,-0.16065624356269836,-0.9039541482925415,0.7626428604125977,1.0583466291427612,0.2561317980289459,-0.6355137228965759
14.183159589767456,-0.1611051857471466,-0.9057799577713013,0.7635110020637512,1.0598182678222656,0.25719478726387024,-0.6347095966339111
14.203237533569336,-0.16192187368869781,-0.9093915820121765,0.7653273940086365,1.0627630949020386,0.25935107469558716,-0.6331034898757935
14.223371505737305,-0.16257433593273163,-0.9129519462585449,0.7672830820083618,1.0657275915145874,0.2615719139575958,-0.6314982175827026
14.243568897247314,-0.16286179423332214,-0.9147298336029053,0.768324077129364,1.067218542098999,0.26266077160835266,-0.6306927800178528
14.263949632644653,-0.16340026259422302,-0.9182912111282349,0.7704620361328125,1.0702087879180908,0.2647777795791626,-0.6290741562843323
14.284123659133911,-0.16364821791648865,-0.9200648665428162,0.7715556025505066,1.0717135667800903,0.2658265233039856,-0.6282622814178467
14.304235935211182,-0.1641710102558136,-0.9235788583755493,0.7737023830413818,1.0746700763702393,0.2679130733013153,-0.6266528964042664
14.32431960105896,-0.16443100571632385,-0.9253033399581909,0.7747308611869812,1.076113224029541,0.2689923346042633,-0.6258605718612671
14.344476699829102,-0.16504614055156708,-0.9287292957305908,0.7766553163528442,1.0789175033569336,0.2710942327976227,-0.6242947578430176
14.364497184753418,-0.16539092361927032,-0.9304400682449341,0.7775603532791138,1.0803015232086182,0.27210864424705505,-0.6235156655311584
14.38456106185913,-0.16618524491786957,-0.93390291929245,0.7793456315994263,1.0830684900283813,0.2739483416080475,-0.6219476461410522
14.404725313186646,-0.16660059988498688,-0.9356358647346497,0.780231237411499,1.0844436883926392,0.27482813596725464,-0.6211630702018738
14.424814701080322,-0.1674032211303711,-0.9390734434127808,0.782010018825531,1.0871715545654297,0.27659693360328674,-0.6195986270904541
14.444836139678955,-0.16807277500629425,-0.9424132108688354,0.7838122844696045,1.0898512601852417,0.27853354811668396,-0.6180569529533386
14.46494460105896,-0.1683327555656433,-0.9440479278564453,0.7847594618797302,1.0911921262741089,0.27956655621528625,-0.6172914505004883
14.485043048858643,-0.16875618696212769,-0.9472720623016357,0.7867305278778076,1.0938690900802612,0.28168758749961853,-0.6157702803611755
14.505204200744629,-0.1691252887248993,-0.950456440448761,0.7887014746665955,1.0965373516082764,0.28382518887519836,-0.6142610311508179
14.52535080909729,-0.16932761669158936,-0.9520416855812073,0.7896690368652344,1.0978553295135498,0.28486543893814087,-0.6135110855102539
14.545386791229248,-0.16977952420711517,-0.9552083611488342,0.7915997505187988,1.1004451513290405,0.2868543565273285,-0.6120153069496155
14.565460443496704,-0.17002922296524048,-0.9567931890487671,0.7925612330436707,1.1017200946807861,0.28779998421669006,-0.6112669110298157
14.58570909500122,-0.17057913541793823,-0.9599716663360596,0.7944871187210083,1.104260802268982,0.28958436846733093,-0.6097621917724609
14.605783462524414,-0.17113898694515228,-0.9631108641624451,0.7963811755180359,1.1067765951156616,0.2913646399974823,-0.6082642674446106
14.625895977020264,-0.1713966727256775,-0.9646573066711426,0.7973307371139526,1.1080275774002075,0.29228004813194275,-0.6075202822685242
14.646013498306274,-0.17183654010295868,-0.9677039980888367,0.7992197871208191,1.1104964017868042,0.2941856384277344,-0.606046199798584
14.666123628616333,-0.17204809188842773,-0.9692123532295227,0.8001366853713989,1.1117063760757446,0.29514819383621216,-0.6053133606910706
14.686193704605103,-0.17242431640625,-0.972183883190155,0.8019189834594727,1.1140953302383423,0.297139048576355,-0.6038554310798645
