liuyurong129/humanoid-gym/humanoid/data/target_q_20250521-000152.csv
timestamp,joint_1,joint_2,joint_3,joint_4,joint_5,joint_6
5.817413330078125e-05,0.0,0.0,0.0,0.0,0.0,0.0
0.020151138305664062,0.0,0.0,0.0,0.0,0.0,0.0
0.04023337364196777,0.0,0.0,0.0,0.0,0.0,0.0
0.060286521911621094,0.0,0.0,0.0,0.0,0.0,0.0
0.08036136627197266,0.0,0.0,0.0,0.0,0.0,0.0
0.10045218467712402,0.5303415060043335,-1.0116567611694336,0.5973452925682068,-0.09382715076208115,0.23251217603683472,-0.49407288432121277
0.12051606178283691,0.46404415369033813,-1.0773595571517944,0.6580398082733154,-0.09734966605901718,0.2378769963979721,-0.49746188521385193
0.1406078338623047,0.4110584259033203,-1.1141928434371948,0.6925161480903625,-0.1155475601553917,0.24654632806777954,-0.4953068792819977
0.16074347496032715,0.3999859690666199,-1.1215494871139526,0.7017353773117065,-0.1193632259964943,0.24916905164718628,-0.4946305751800537
0.181077241897583,0.39749908447265625,-1.121619701385498,0.7041913270950317,-0.12015766650438309,0.250268816947937,-0.4942447543144226
0.20118021965026855,0.397214412689209,-1.1210155487060547,0.7038196921348572,-0.12030068784952164,0.25027361512184143,-0.49418121576309204
0.2212543487548828,0.3980798125267029,-1.120782732963562,0.7025439143180847,-0.12014687806367874,0.2500459849834442,-0.49426472187042236
0.24131488800048828,0.39841023087501526,-1.120834469795227,0.7019626498222351,-0.1201215460896492,0.24965396523475647,-0.494425892829895
0.2614006996154785,0.39842528104782104,-1.1208815574645996,0.701939582824707,-0.12023479491472244,0.2493773102760315,-0.49443578720092773
0.28148412704467773,0.3986090421676636,-1.120902180671692,0.7017031908035278,-0.12021587044000626,0.249471515417099,-0.4944956302642822
0.30153965950012207,0.3984304964542389,-1.1203150749206543,0.7025640606880188,-0.12009037286043167,0.24981003999710083,-0.49438151717185974
0.32163047790527344,0.39865201711654663,-1.120006799697876,0.7022395133972168,-0.11996114999055862,0.24987974762916565,-0.494296669960022
0.3417038917541504,0.3985620141029358,-1.1193430423736572,0.7017207741737366,-0.1198478415608406,0.24963164329528809,-0.4942103326320648
0.36177587509155273,0.3990010619163513,-1.1188219785690308,0.7018591165542603,-0.11955990642309189,0.24980494379997253,-0.49406909942626953
0.38199710845947266,0.398592472076416,-1.1183583736419678,0.7017261385917664,-0.11937517672777176,0.2495121955871582,-0.4939797818660736
0.40210795402526855,0.39802542328834534,-1.1178885698318481,0.7009457349777222,-0.11979422718286514,0.2490333616733551,-0.4940948486328125
0.4221072196960449,0.3983542025089264,-1.1170488595962524,0.7012676000595093,-0.11954996734857559,0.2493470013141632,-0.49399328231811523
0.44219279289245605,0.3987315893173218,-1.1167112588882446,0.7004739046096802,-0.11945638805627823,0.24919480085372925,-0.4940071105957031
0.4622626304626465,0.398719847202301,-1.1160520315170288,0.7001677751541138,-0.1195254698395729,0.24908825755119324,-0.4940044581890106
0.482316255569458,0.39910411834716797,-1.115959882736206,0.6998546123504639,-0.11934789270162582,0.24896883964538574,-0.4940289258956909
0.5024309158325195,0.39916348457336426,-1.1157881021499634,0.700072169303894,-0.11923152953386307,0.24904361367225647,-0.49396535754203796
0.5225005149841309,0.399245947599411,-1.1152383089065552,0.7001641988754272,-0.11908265203237534,0.24931350350379944,-0.4938681721687317
0.5425927639007568,0.3991926908493042,-1.1145744323730469,0.6995007991790771,-0.11915507167577744,0.24907639622688293,-0.49391287565231323
0.5626883506774902,0.39971446990966797,-1.114174485206604,0.6999446153640747,-0.11888212710618973,0.24935027956962585,-0.4938812851905823
0.5827341079711914,0.3997972011566162,-1.1137629747390747,0.6992285251617432,-0.11892928928136826,0.24903756380081177,-0.493877112865448
0.6028149127960205,0.4000164568424225,-1.113084077835083,0.6992956399917603,-0.11879310756921768,0.2491433024406433,-0.4938320815563202
0.622891902923584,0.4002119302749634,-1.1129248142242432,0.6989344358444214,-0.11873970180749893,0.24893620610237122,-0.493808776140213
0.6429736614227295,0.4003216326236725,-1.1124155521392822,0.6992793083190918,-0.1185000017285347,0.24928805232048035,-0.4936917722225189
0.6630263328552246,0.4005145728588104,-1.111742377281189,0.6998584270477295,-0.11815617233514786,0.24959537386894226,-0.493509978055954
0.6831562519073486,0.40027403831481934,-1.111552119255066,0.6992056369781494,-0.11820771545171738,0.2493305206298828,-0.49346619844436646
0.7032480239868164,0.3997129797935486,-1.1109659671783447,0.6983249187469482,-0.11841731518507004,0.24870917201042175,-0.49349358677864075
0.7233238220214844,0.3997533917427063,-1.110608458518982,0.6978263258934021,-0.11838776618242264,0.24834606051445007,-0.4935600459575653
0.7434971332550049,0.39947253465652466,-1.1102122068405151,0.6976109743118286,-0.11847392469644547,0.2482014298439026,-0.4936082363128662
0.7635879516601562,0.3996785283088684,-1.1098241806030273,0.6975815892219543,-0.11842993646860123,0.2483198642730713,-0.4936026930809021
0.7836799621582031,0.39994221925735474,-1.1091299057006836,0.6976727843284607,-0.11830361932516098,0.24828875064849854,-0.49354708194732666
0.8037185668945312,0.40034735202789307,-1.108430027961731,0.6977823972702026,-0.11788631230592728,0.2486344873905182,-0.49335819482803345
0.8238327503204346,0.40061426162719727,-1.1080440282821655,0.6973207592964172,-0.11785409599542618,0.24866175651550293,-0.4932812750339508
0.8439123630523682,0.40084993839263916,-1.1075094938278198,0.6970460414886475,-0.11792241781949997,0.2485855519771576,-0.49331825971603394
0.8639674186706543,0.4012238383293152,-1.1069098711013794,0.6970843076705933,-0.11758094280958176,0.24874448776245117,-0.49330592155456543
0.8842089176177979,0.4015023112297058,-1.106749176979065,0.696804940700531,-0.11752594262361526,0.24874553084373474,-0.4932538568973541
0.9043009281158447,0.40179669857025146,-1.1063318252563477,0.6962862610816956,-0.11755923181772232,0.24850964546203613,-0.4933062493801117
0.9243621826171875,0.4020541310310364,-1.105952262878418,0.6964194178581238,-0.11745349317789078,0.2485276162624359,-0.4932491183280945
0.9446961879730225,0.4017658531665802,-1.1051419973373413,0.6962218284606934,-0.1174163892865181,0.24854815006256104,-0.4931419789791107
0.9647886753082275,0.40183135867118835,-1.1047651767730713,0.6964288949966431,-0.1173379197716713,0.24881261587142944,-0.4931551516056061
0.9848732948303223,0.4011584520339966,-1.103963851928711,0.6957182884216309,-0.11752348393201828,0.2480783462524414,-0.49309536814689636
1.0049235820770264,0.4002959430217743,-1.1032695770263672,0.6948380470275879,-0.11785585433244705,0.24758023023605347,-0.4931855797767639
1.0250120162963867,0.4007171094417572,-1.1032030582427979,0.6943222284317017,-0.11772655695676804,0.24730560183525085,-0.4931532144546509
1.045140027999878,0.40141618251800537,-1.102738857269287,0.6947173476219177,-0.11730799823999405,0.24767926335334778,-0.49307531118392944
1.0651838779449463,0.4014327824115753,-1.1022632122039795,0.694231390953064,-0.1172952726483345,0.24747562408447266,-0.493041455745697
1.085313320159912,0.40132245421409607,-1.1018280982971191,0.6946986317634583,-0.11721063405275345,0.24769869446754456,-0.49297934770584106
1.1054084300994873,0.4016455411911011,-1.101124882698059,0.6946158409118652,-0.11697756499052048,0.24778997898101807,-0.4928877055644989
1.125462532043457,0.4021645188331604,-1.1008102893829346,0.6938965916633606,-0.1168399229645729,0.24762871861457825,-0.4929482936859131
1.145566463470459,0.40242642164230347,-1.1005237102508545,0.6938315629959106,-0.11670777946710587,0.24769651889801025,-0.49286597967147827
1.165618658065796,0.40282607078552246,-1.0997179746627808,0.6938849091529846,-0.11629555374383926,0.2477666437625885,-0.492654025554657
1.185713768005371,0.40302982926368713,-1.0992296934127808,0.6938814520835876,-0.11619479209184647,0.2478102147579193,-0.4926174283027649
1.2060017585754395,0.4032517373561859,-1.0989370346069336,0.6937615871429443,-0.11614387482404709,0.24788600206375122,-0.49254757165908813
1.226121425628662,0.4035443663597107,-1.0982489585876465,0.6938254833221436,-0.1158529743552208,0.24801623821258545,-0.4924563765525818
1.2461791038513184,0.4032699465751648,-1.0977203845977783,0.6936017274856567,-0.1158960834145546,0.2477681040763855,-0.4923504590988159
1.266284704208374,0.4032366871833801,-1.097269892692566,0.6925211548805237,-0.11602116376161575,0.24736592173576355,-0.4924594759941101
1.2863757610321045,0.40337803959846497,-1.0969517230987549,0.6931452751159668,-0.11584881693124771,0.2475453019142151,-0.492428719997406
1.306457281112671,0.4033083915710449,-1.0964370965957642,0.6927630305290222,-0.11590117961168289,0.24736982583999634,-0.4924144446849823
1.3265414237976074,0.4037041664123535,-1.0960665941238403,0.6920808553695679,-0.11577815562486649,0.24719271063804626,-0.49241989850997925
1.3466243743896484,0.40387582778930664,-1.0959538221359253,0.6920371055603027,-0.11571285873651505,0.24723979830741882,-0.4923946261405945
1.36672043800354,0.40337079763412476,-1.0951426029205322,0.692118763923645,-0.11576160043478012,0.2471802532672882,-0.49223124980926514
1.386786937713623,0.4034302234649658,-1.094570517539978,0.6917112469673157,-0.11560402065515518,0.24704250693321228,-0.4921680986881256
1.406848430633545,0.40363609790802,-1.0943387746810913,0.6917819976806641,-0.11549095064401627,0.2470724880695343,-0.49213457107543945
1.4269142150878906,0.40392038226127625,-1.0936973094940186,0.6917184591293335,-0.11524812132120132,0.247219055891037,-0.4920666217803955
1.4469974040985107,0.4043017625808716,-1.0931423902511597,0.6915018558502197,-0.11505339294672012,0.2472154200077057,-0.4920229911804199
1.4670774936676025,0.4044256806373596,-1.0927165746688843,0.6917645931243896,-0.11488630622625351,0.24712103605270386,-0.4918936491012573
1.487189769744873,0.4048445224761963,-1.0922040939331055,0.6915044784545898,-0.11467083543539047,0.24696579575538635,-0.4918226897716522
1.5072433948516846,0.4047199487686157,-1.0915707349777222,0.69117271900177,-0.11471471935510635,0.2468636929988861,-0.4917375445365906
1.5273151397705078,0.4048016667366028,-1.0911921262741089,0.690952718257904,-0.11459121853113174,0.24688971042633057,-0.49165022373199463
1.5474140644073486,0.4046517014503479,-1.0906766653060913,0.6903678774833679,-0.11470181494951248,0.24658402800559998,-0.49159497022628784
1.5676074028015137,0.4044715166091919,-1.0901767015457153,0.6906409859657288,-0.11452458053827286,0.24664178490638733,-0.4914945363998413
1.5875849723815918,0.4047832787036896,-1.089768648147583,0.6902515292167664,-0.11450362950563431,0.24651220440864563,-0.491594135761261
1.607680082321167,0.4050615429878235,-1.0895459651947021,0.6898539066314697,-0.1144867017865181,0.24649885296821594,-0.49156641960144043
1.6277987957000732,0.4054049551486969,-1.0891224145889282,0.6896551251411438,-0.11432982236146927,0.24641913175582886,-0.4915834665298462
1.6478564739227295,0.40567654371261597,-1.088671088218689,0.6896651983261108,-0.11419763416051865,0.24643439054489136,-0.49145224690437317
1.6679539680480957,0.40575116872787476,-1.088250994682312,0.6898061037063599,-0.11402928084135056,0.24661755561828613,-0.4913775622844696
1.6880533695220947,0.4054497480392456,-1.0875592231750488,0.6898531317710876,-0.11406687647104263,0.24653637409210205,-0.49131470918655396
1.7081060409545898,0.40512436628341675,-1.0868743658065796,0.6896724700927734,-0.11413433402776718,0.24646010994911194,-0.49123668670654297
1.7282776832580566,0.405477911233902,-1.086544156074524,0.689193069934845,-0.11396927386522293,0.2465595304965973,-0.4912117123603821
1.7483041286468506,0.4056929349899292,-1.0860694646835327,0.6886731386184692,-0.11384177953004837,0.24621912837028503,-0.491195410490036
1.7683792114257812,0.4058939218521118,-1.085774540901184,0.6883060932159424,-0.11387813836336136,0.24604445695877075,-0.4912358820438385
1.7884490489959717,0.40600860118865967,-1.0857813358306885,0.688038170337677,-0.11391828209161758,0.24592995643615723,-0.49130767583847046
1.8085463047027588,0.40520691871643066,-1.0849878787994385,0.6878091096878052,-0.1141415610909462,0.24556758999824524,-0.4912245273590088
1.828634262084961,0.40568816661834717,-1.0843708515167236,0.6876481175422668,-0.11381802707910538,0.24575987458229065,-0.49113044142723083
1.8487119674682617,0.40573936700820923,-1.0838059186935425,0.6883297562599182,-0.11360204964876175,0.2460590898990631,-0.49103906750679016
1.8687849044799805,0.4060521721839905,-1.083047866821289,0.6883044242858887,-0.11325877159833908,0.2459459900856018,-0.49086999893188477
1.8888790607452393,0.40609005093574524,-1.0826284885406494,0.6877573728561401,-0.11316906660795212,0.24559172987937927,-0.4908277988433838
1.9089415073394775,0.4063064455986023,-1.082389235496521,0.6872567534446716,-0.11323084682226181,0.24554875493049622,-0.49079304933547974
1.9290335178375244,0.40627774596214294,-1.0818462371826172,0.68660569190979,-0.11322323232889175,0.2451973855495453,-0.4908151924610138
1.9490742683410645,0.4060544967651367,-1.0812433958053589,0.6865360736846924,-0.11317075043916702,0.24500510096549988,-0.4907868504524231
1.969162940979004,0.40625670552253723,-1.080985188484192,0.6863971948623657,-0.1131390854716301,0.24515360593795776,-0.4907459318637848
1.989234447479248,0.4064610004425049,-1.0804251432418823,0.6868287324905396,-0.11279816180467606,0.24531373381614685,-0.490570604801178
2.009298086166382,0.40572595596313477,-1.0796234607696533,0.6861847639083862,-0.11301245540380478,0.2448802888393402,-0.49053600430488586
2.0293893814086914,0.4056433439254761,-1.0793695449829102,0.6855136752128601,-0.11303282529115677,0.244581937789917,-0.4905868172645569
2.0494630336761475,0.4061776399612427,-1.0789517164230347,0.6857355237007141,-0.11267652362585068,0.24441620707511902,-0.49046599864959717
2.069566249847412,0.4065673053264618,-1.0785225629806519,0.6853751540184021,-0.11239681392908096,0.24426594376564026,-0.4903632402420044
2.0897107124328613,0.4066557288169861,-1.0781584978103638,0.6855357885360718,-0.1121656522154808,0.2440890371799469,-0.4902002215385437
2.1097638607025146,0.40688979625701904,-1.0776653289794922,0.6854771375656128,-0.11213655024766922,0.24417290091514587,-0.49016305804252625
2.12978196144104,0.407207190990448,-1.077174425125122,0.6852819919586182,-0.11192885786294937,0.24427446722984314,-0.4900253713130951
2.149873733520508,0.407242089509964,-1.076545238494873,0.6857608556747437,-0.11170122772455215,0.2444857656955719,-0.48986732959747314
2.1699435710906982,0.4077192544937134,-1.0760467052459717,0.6852391362190247,-0.1115756407380104,0.24441638588905334,-0.48987430334091187
2.190218210220337,0.407587468624115,-1.07584547996521,0.6845755577087402,-0.11169622093439102,0.24400091171264648,-0.4898532032966614
2.210310459136963,0.40728306770324707,-1.075121521949768,0.6844778060913086,-0.1119009479880333,0.2439464032649994,-0.48983362317085266
2.2303857803344727,0.4075983762741089,-1.074697494506836,0.684267520904541,-0.11173970252275467,0.24391087889671326,-0.48986533284187317
2.2504451274871826,0.407847136259079,-1.0743199586868286,0.6841933727264404,-0.11163387447595596,0.2439577281475067,-0.48975273966789246
2.2705562114715576,0.4080985188484192,-1.0737109184265137,0.6841025352478027,-0.11150196939706802,0.24390000104904175,-0.4896654188632965
2.2906036376953125,0.40849700570106506,-1.0732660293579102,0.6835968494415283,-0.11133015900850296,0.24351951479911804,-0.48968860507011414
2.3107175827026367,0.4087556302547455,-1.0730773210525513,0.6833589673042297,-0.11136002093553543,0.24369186162948608,-0.4897286295890808
2.330780267715454,0.40853822231292725,-1.07258141040802,0.6832683682441711,-0.11131653934717178,0.24352380633354187,-0.48968440294265747
2.3516297340393066,0.408052921295166,-1.071531057357788,0.6832866668701172,-0.11140384525060654,0.2433253824710846,-0.48954591155052185
2.371699810028076,0.40807464718818665,-1.0713902711868286,0.682525634765625,-0.11157301813364029,0.24306556582450867,-0.4895925521850586
2.3917970657348633,0.4082299768924713,-1.0707776546478271,0.6821883916854858,-0.11115799099206924,0.24274888634681702,-0.489514023065567
2.4126105308532715,0.40843647718429565,-1.0699764490127563,0.6822939515113831,-0.11099883168935776,0.2428951859474182,-0.48938530683517456
2.4327054023742676,0.40807604789733887,-1.0695499181747437,0.6822802424430847,-0.11112815886735916,0.24268615245819092,-0.4894081950187683
2.4527785778045654,0.4087294340133667,-1.0693501234054565,0.681290864944458,-0.11099473387002945,0.24228328466415405,-0.48943957686424255
2.4731695652008057,0.40840256214141846,-1.0686969757080078,0.6817018389701843,-0.11100182682275772,0.2424093782901764,-0.48934754729270935
2.49330472946167,0.4086074233055115,-1.0685670375823975,0.6812044382095337,-0.11102885752916336,0.24225005507469177,-0.4893370270729065
2.513331413269043,0.4087168574333191,-1.0677601099014282,0.6814584136009216,-0.11084740608930588,0.24255257844924927,-0.4892229437828064
2.5334928035736084,0.4090283513069153,-1.0672332048416138,0.6814481019973755,-0.11054589599370956,0.2426748275756836,-0.48912298679351807
2.5535035133361816,0.4092753529548645,-1.0669842958450317,0.6810688972473145,-0.11055507510900497,0.24255552887916565,-0.4891328811645508
2.5735795497894287,0.4095543622970581,-1.0664740800857544,0.6807873249053955,-0.11047828942537308,0.2425280213356018,-0.4891381561756134
2.593635082244873,0.409527450799942,-1.0657273530960083,0.680042564868927,-0.11049742251634598,0.2422133982181549,-0.48918744921684265
2.6137242317199707,0.4086160957813263,-1.0651845932006836,0.6803088188171387,-0.11080289632081985,0.24188628792762756,-0.4891406297683716
2.6337969303131104,0.4081588387489319,-1.0643715858459473,0.6797875761985779,-0.11075503379106522,0.24161377549171448,-0.4890815317630768
2.653870105743408,0.4086523652076721,-1.0639961957931519,0.6796132326126099,-0.11052752286195755,0.24161860346794128,-0.4890059530735016
2.6739542484283447,0.40875837206840515,-1.0638854503631592,0.679413914680481,-0.1104356124997139,0.24154812097549438,-0.48896563053131104
2.6940126419067383,0.4090734124183655,-1.0632261037826538,0.6794545650482178,-0.11010352522134781,0.2416461706161499,-0.48880863189697266
2.714092969894409,0.4095597267150879,-1.062723159790039,0.6790683269500732,-0.10974324494600296,0.2414661943912506,-0.48871004581451416
2.7341883182525635,0.409531831741333,-1.0623490810394287,0.679436981678009,-0.10970812290906906,0.2413521707057953,-0.48869574069976807
2.7542481422424316,0.40998440980911255,-1.0617938041687012,0.679140031337738,-0.10959339886903763,0.2416478991508484,-0.4886903762817383
2.774308681488037,0.41015416383743286,-1.0610004663467407,0.679421603679657,-0.10942605882883072,0.2419154942035675,-0.48855888843536377
2.794398069381714,0.41045892238616943,-1.0606931447982788,0.6790326833724976,-0.10934946686029434,0.24188759922981262,-0.4885270297527313
2.814470052719116,0.4102800786495209,-1.0601152181625366,0.6788525581359863,-0.10915673524141312,0.24167200922966003,-0.48844680190086365
2.8345398902893066,0.4105135202407837,-1.0594069957733154,0.6785868406295776,-0.10919751971960068,0.24171552062034607,-0.4884537160396576
2.8547353744506836,0.4097249209880829,-1.0586732625961304,0.6778983473777771,-0.10957825928926468,0.24093341827392578,-0.488419771194458
2.8748183250427246,0.40969395637512207,-1.058357834815979,0.6775764226913452,-0.10952695459127426,0.2410661280155182,-0.4884219765663147
2.894928216934204,0.4091835618019104,-1.0576947927474976,0.6773741841316223,-0.10957411676645279,0.24051469564437866,-0.4883779287338257
2.915131092071533,0.4098826050758362,-1.0569087266921997,0.6775636076927185,-0.10917236655950546,0.24065780639648438,-0.48825886845588684
2.9352192878723145,0.4102117717266083,-1.0566819906234741,0.6770086884498596,-0.1092011108994484,0.2409001886844635,-0.4882385730743408
2.955275774002075,0.41013577580451965,-1.0559476613998413,0.6767913699150085,-0.10920432955026627,0.24065911769866943,-0.4881359338760376
2.9755797386169434,0.4106491506099701,-1.0553580522537231,0.6764214634895325,-0.1088356003165245,0.24050167202949524,-0.48808130621910095
2.9956655502319336,0.410886287689209,-1.0552139282226562,0.6761307120323181,-0.10874984413385391,0.2403261363506317,-0.4880353510379791
3.015735149383545,0.4111846685409546,-1.0549089908599854,0.6763083934783936,-0.10839677602052689,0.2404191941022873,-0.48787224292755127
3.0358223915100098,0.4112406373023987,-1.0543240308761597,0.6764446496963501,-0.10833708196878433,0.24041271209716797,-0.4877776801586151
3.055903434753418,0.41133618354797363,-1.0538653135299683,0.6766071319580078,-0.10818842798471451,0.24056664109230042,-0.48771318793296814
3.075984477996826,0.4116544723510742,-1.053045392036438,0.6768852472305298,-0.10789895802736282,0.24071533977985382,-0.4875427186489105
3.09603214263916,0.41157570481300354,-1.052333116531372,0.6762123107910156,-0.10797839611768723,0.2404191493988037,-0.4875575304031372
3.116121530532837,0.41187548637390137,-1.0520981550216675,0.6755807399749756,-0.10797303169965744,0.24039730429649353,-0.4875669777393341
3.1361889839172363,0.4117913246154785,-1.0514651536941528,0.6752841472625732,-0.1080043688416481,0.24021384119987488,-0.4875265657901764
3.15625,0.41168954968452454,-1.051116704940796,0.6750319004058838,-0.10796760767698288,0.23996418714523315,-0.4875885248184204
3.176332950592041,0.4118746817111969,-1.050824761390686,0.6747929453849792,-0.10793732851743698,0.2399713099002838,-0.48758482933044434
3.1964056491851807,0.41138601303100586,-1.0499993562698364,0.6749783158302307,-0.10804740339517593,0.23977890610694885,-0.4874819815158844
3.216479539871216,0.41143250465393066,-1.0494862794876099,0.6741832494735718,-0.10800869017839432,0.2394384741783142,-0.4874749779701233
3.2373454570770264,0.41175591945648193,-1.048776626586914,0.674430251121521,-0.10785523802042007,0.2396080195903778,-0.48745423555374146
3.257436513900757,0.41207969188690186,-1.0486339330673218,0.6736482381820679,-0.10792481154203415,0.23946601152420044,-0.4874776303768158
3.2775423526763916,0.4124305248260498,-1.048083782196045,0.6734696626663208,-0.10777214914560318,0.2392677515745163,-0.4874316155910492
3.29768705368042,0.4125692546367645,-1.047384262084961,0.6739400029182434,-0.10753019899129868,0.2395704984664917,-0.48732712864875793
3.3177735805511475,0.41277697682380676,-1.0470795631408691,0.673534631729126,-0.1075165644288063,0.23957306146621704,-0.48732057213783264
3.337864875793457,0.4125247001647949,-1.0467960834503174,0.6732090711593628,-0.10763900727033615,0.23924842476844788,-0.4873516857624054
3.357913017272949,0.4119701385498047,-1.0463306903839111,0.672214925289154,-0.10804133862257004,0.23864060640335083,-0.48745980858802795
3.378002882003784,0.41220831871032715,-1.0460432767868042,0.6722128391265869,-0.10772860795259476,0.2386631816625595,-0.487415075302124
3.3980681896209717,0.41251060366630554,-1.0454397201538086,0.6722862124443054,-0.10768898576498032,0.23878434300422668,-0.4874275028705597
3.4181394577026367,0.4127435088157654,-1.0447661876678467,0.6723383069038391,-0.10744086652994156,0.2384990006685257,-0.4872397184371948
3.4382505416870117,0.4127700924873352,-1.0442490577697754,0.6725311279296875,-0.10734064131975174,0.2385101318359375,-0.48710164427757263
3.458314895629883,0.4128010869026184,-1.043554663658142,0.6718949675559998,-0.1073845699429512,0.23816803097724915,-0.4870374798774719
3.478389263153076,0.4125070571899414,-1.0428178310394287,0.6711562871932983,-0.1074870303273201,0.23756776750087738,-0.486991822719574
3.4984655380249023,0.4123033285140991,-1.0424747467041016,0.6710758805274963,-0.10752975195646286,0.23741641640663147,-0.48698630928993225
3.5185391902923584,0.4127708077430725,-1.0420305728912354,0.6706721782684326,-0.1074695959687233,0.2372754067182541,-0.48701006174087524
3.538601875305176,0.4128377437591553,-1.0414631366729736,0.6709386706352234,-0.1073935255408287,0.23739014565944672,-0.4869280457496643
3.558664560317993,0.4130582809448242,-1.0411646366119385,0.6707710027694702,-0.10722272843122482,0.23728981614112854,-0.48683470487594604
3.578795909881592,0.4120984375476837,-1.0404194593429565,0.6706244945526123,-0.10739462822675705,0.237124502658844,-0.4867095947265625
3.598845958709717,0.4126633405685425,-1.0397686958312988,0.6703341007232666,-0.10708341747522354,0.23726795613765717,-0.4867347180843353
3.6190762519836426,0.41310158371925354,-1.0396846532821655,0.6699053049087524,-0.10701955109834671,0.23715758323669434,-0.4868101179599762
3.6391892433166504,0.4128751754760742,-1.0390629768371582,0.669526994228363,-0.10703197866678238,0.23664669692516327,-0.4867398738861084
3.6592464447021484,0.4133024215698242,-1.038325548171997,0.6694778800010681,-0.10688561946153641,0.2369089126586914,-0.48670029640197754
3.679929494857788,0.41355258226394653,-1.03751802444458,0.6694899797439575,-0.10665067285299301,0.2370152473449707,-0.48652195930480957
3.70002818107605,0.4134278893470764,-1.0371912717819214,0.6693147420883179,-0.10656432062387466,0.23678520321846008,-0.4863978326320648
3.720099449157715,0.4131329655647278,-1.0363764762878418,0.6691443920135498,-0.1062905564904213,0.23653742671012878,-0.4861266613006592
3.740144968032837,0.4134508967399597,-1.0356793403625488,0.6684979796409607,-0.10603145509958267,0.23618394136428833,-0.4859910309314728
3.7602343559265137,0.4133567214012146,-1.0350908041000366,0.6690458655357361,-0.10602424293756485,0.23611018061637878,-0.48593178391456604
3.7802915573120117,0.4128086566925049,-1.0346107482910156,0.668235182762146,-0.10620824247598648,0.23549804091453552,-0.48588651418685913
3.8003690242767334,0.41344302892684937,-1.0343259572982788,0.6678621768951416,-0.10611061006784439,0.2356126308441162,-0.4859388768672943
3.8204562664031982,0.4134443998336792,-1.0340698957443237,0.6680984497070312,-0.10597508400678635,0.23547348380088806,-0.48583894968032837
3.8405444622039795,0.41359901428222656,-1.033031702041626,0.6683322191238403,-0.10572005063295364,0.2360619604587555,-0.48569750785827637
3.8606107234954834,0.41403335332870483,-1.0322144031524658,0.6677341461181641,-0.10570210963487625,0.23592427372932434,-0.4856700599193573
3.880723476409912,0.4141758680343628,-1.0318552255630493,0.6678870916366577,-0.1055387333035469,0.23592564463615417,-0.4857136607170105
3.900789499282837,0.41478395462036133,-1.0310882329940796,0.6677242517471313,-0.10516700893640518,0.2362121194601059,-0.4855635464191437
3.920855760574341,0.4145984947681427,-1.0306448936462402,0.66716468334198,-0.1054241731762886,0.23596429824829102,-0.4856315851211548
3.940948247909546,0.4146323800086975,-1.030320644378662,0.6671761870384216,-0.10538814216852188,0.23578855395317078,-0.4855951964855194
3.9610188007354736,0.41447126865386963,-1.0296536684036255,0.6668720245361328,-0.10534089058637619,0.23565985262393951,-0.4855025112628937
3.9810900688171387,0.4148564338684082,-1.0291166305541992,0.6666250228881836,-0.10510323196649551,0.23576860129833221,-0.48546212911605835
4.001174449920654,0.41504380106925964,-1.029042363166809,0.6665921211242676,-0.1050579622387886,0.23570413887500763,-0.4854543209075928
4.0212578773498535,0.4149443507194519,-1.0286871194839478,0.6661911606788635,-0.10507441312074661,0.2354598343372345,-0.48545050621032715
4.041306495666504,0.4150884449481964,-1.02791166305542,0.6662375926971436,-0.10489293187856674,0.23553679883480072,-0.4853479564189911
4.061400890350342,0.4154875874519348,-1.0276684761047363,0.6660650968551636,-0.1046404018998146,0.23545321822166443,-0.48530569672584534
4.08146333694458,0.41536927223205566,-1.0270711183547974,0.6659933924674988,-0.10446102172136307,0.23548932373523712,-0.4851868450641632
4.1015098094940186,0.41466379165649414,-1.0262771844863892,0.6654918789863586,-0.10458532720804214,0.23508276045322418,-0.48514607548713684
4.1215996742248535,0.4147269129753113,-1.0259277820587158,0.6655277609825134,-0.1045306995511055,0.2349826544523239,-0.4850994050502777
4.141665935516357,0.4152190387248993,-1.0256863832473755,0.6649891138076782,-0.10447943955659866,0.23499780893325806,-0.48516660928726196
4.161734342575073,0.4150497019290924,-1.0249385833740234,0.6647866368293762,-0.10448307543992996,0.234659343957901,-0.48508381843566895
4.1818201541900635,0.4149901866912842,-1.0244423151016235,0.6644517779350281,-0.10448501259088516,0.23451972007751465,-0.48511964082717896
4.201907634735107,0.41552484035491943,-1.0244207382202148,0.6642652750015259,-0.10451515763998032,0.234675794839859,-0.4851507544517517
4.22196364402771,0.4153735637664795,-1.0240644216537476,0.6641985774040222,-0.10438258200883865,0.23445330560207367,-0.4850914776325226
4.242037057876587,0.4155570864677429,-1.023428201675415,0.6642976999282837,-0.10419148951768875,0.2345975637435913,-0.4850035011768341
4.262162685394287,0.4157000184059143,-1.0233234167099,0.6642600893974304,-0.10408373922109604,0.23463499546051025,-0.48497602343559265
4.2822301387786865,0.4160829782485962,-1.0226309299468994,0.6642763614654541,-0.10351971536874771,0.2346617877483368,-0.4847787618637085
4.302276611328125,0.41650712490081787,-1.0218499898910522,0.6641168594360352,-0.10334856063127518,0.23471614718437195,-0.4846652150154114
4.322365045547485,0.4165295362472534,-1.0212857723236084,0.6644547581672668,-0.10328539460897446,0.23462165892124176,-0.4846264719963074
4.342433452606201,0.4166700839996338,-1.0205146074295044,0.6636251211166382,-0.10333449393510818,0.2345927655696869,-0.4846276044845581
4.362521171569824,0.4158816337585449,-1.019707202911377,0.6633221507072449,-0.10342108458280563,0.23413537442684174,-0.4844702482223511
4.382598876953125,0.41555255651474,-1.0195503234863281,0.6628903746604919,-0.10360778123140335,0.23388123512268066,-0.48447248339653015
4.402726173400879,0.4155655801296234,-1.0192922353744507,0.6620666980743408,-0.10366380959749222,0.23354113101959229,-0.48463988304138184
4.42279052734375,0.415982186794281,-1.0186268091201782,0.6623210906982422,-0.10336368530988693,0.2333868145942688,-0.48454493284225464
4.442830562591553,0.41623300313949585,-1.0179882049560547,0.6621753573417664,-0.10319728404283524,0.2333303987979889,-0.48443901538848877
4.46289587020874,0.4165082275867462,-1.0176047086715698,0.6620745658874512,-0.10312468558549881,0.23349106311798096,-0.48432719707489014
4.482976198196411,0.41670650243759155,-1.0171849727630615,0.6622218489646912,-0.10296731442213058,0.23354505002498627,-0.4842134416103363
4.503028631210327,0.41656041145324707,-1.0165892839431763,0.6620302200317383,-0.10283630341291428,0.23341724276542664,-0.4840904772281647
4.523118019104004,0.4166077971458435,-1.0161828994750977,0.6620680689811707,-0.10287367552518845,0.23351962864398956,-0.48409780859947205
4.543212890625,0.4169985353946686,-1.0156043767929077,0.6617331504821777,-0.1026209220290184,0.23349855840206146,-0.48399871587753296
4.563260555267334,0.41737306118011475,-1.0150947570800781,0.6613940596580505,-0.10252959281206131,0.2333717793226242,-0.48399633169174194
4.583375692367554,0.4174572229385376,-1.0148613452911377,0.6612811088562012,-0.10258028656244278,0.23315250873565674,-0.48401182889938354
4.603447675704956,0.41634029150009155,-1.01414155960083,0.660402774810791,-0.10299887508153915,0.2325599491596222,-0.48399680852890015
4.6235105991363525,0.41595059633255005,-1.0138113498687744,0.6598560810089111,-0.10297351330518723,0.2321547567844391,-0.4840141236782074
4.6435911655426025,0.4161105155944824,-1.0134469270706177,0.6601611971855164,-0.10269004851579666,0.23208212852478027,-0.48392006754875183
4.663670301437378,0.4160630404949188,-1.012633204460144,0.6601525545120239,-0.10260487347841263,0.23200131952762604,-0.48381295800209045
4.6837241649627686,0.4163862466812134,-1.0119539499282837,0.6600872874259949,-0.10265917330980301,0.2317447066307068,-0.48381105065345764
4.703858137130737,0.41675445437431335,-1.0115933418273926,0.6598172187805176,-0.10249165445566177,0.23207618296146393,-0.4837397634983063
4.723977565765381,0.41710758209228516,-1.01118004322052,0.659487247467041,-0.10241828113794327,0.23204049468040466,-0.4838238060474396
4.744033098220825,0.41729795932769775,-1.0103282928466797,0.6599394679069519,-0.10215509682893753,0.23222805559635162,-0.4836846888065338
4.764184951782227,0.41751396656036377,-1.009348750114441,0.6602632999420166,-0.10186756402254105,0.23257754743099213,-0.48354268074035645
4.784291744232178,0.41750580072402954,-1.0092779397964478,0.6592189073562622,-0.10196415334939957,0.23221252858638763,-0.483518123626709
4.804356098175049,0.41783857345581055,-1.0084705352783203,0.6587507128715515,-0.10193005949258804,0.23212966322898865,-0.4835353195667267
4.824530601501465,0.41754841804504395,-1.007321834564209,0.6586973071098328,-0.1019696369767189,0.23194044828414917,-0.4833846092224121
4.844644784927368,0.4174516499042511,-1.0068845748901367,0.6586236953735352,-0.10182330757379532,0.2317897230386734,-0.4833754301071167
4.864701747894287,0.4180414378643036,-1.0063146352767944,0.6583238840103149,-0.10149130970239639,0.2318326085805893,-0.48327547311782837
4.884753704071045,0.4183719754219055,-1.0054354667663574,0.6587569117546082,-0.10093153268098831,0.23206312954425812,-0.4829915165901184
4.904852628707886,0.4180910885334015,-1.0052002668380737,0.6584770679473877,-0.10100332647562027,0.23177467286586761,-0.48302653431892395
4.924999237060547,0.41784316301345825,-1.004624843597412,0.657793402671814,-0.10119409114122391,0.23147429525852203,-0.4830504059791565
4.9450461864471436,0.41836583614349365,-1.0042147636413574,0.6574733257293701,-0.10097113996744156,0.2314167320728302,-0.48309969902038574
4.965211391448975,0.4185633063316345,-1.0038772821426392,0.6575018167495728,-0.10082200914621353,0.23140764236450195,-0.48300066590309143
4.985270023345947,0.41837990283966064,-1.0032625198364258,0.6570298075675964,-0.10103268176317215,0.2311282902956009,-0.4829863905906677
5.00538444519043,0.41844460368156433,-1.0026111602783203,0.6574628353118896,-0.10083223134279251,0.23123770952224731,-0.4829162061214447
5.025464773178101,0.4180159568786621,-1.0020365715026855,0.6574438810348511,-0.10090524703264236,0.2312028408050537,-0.48284468054771423
5.045534372329712,0.4180726110935211,-1.0013208389282227,0.6568176746368408,-0.1008855476975441,0.23096059262752533,-0.48286938667297363
5.065600872039795,0.4186587333679199,-1.0009300708770752,0.6562523245811462,-0.10065712779760361,0.23083585500717163,-0.48288455605506897
5.085680723190308,0.41883158683776855,-1.000675916671753,0.6561493873596191,-0.10067082196474075,0.23084498941898346,-0.48288124799728394
5.1057515144348145,0.4187784194946289,-1.0003559589385986,0.6555702686309814,-0.10071323066949844,0.23031969368457794,-0.4828995168209076
5.12582802772522,0.4189150929450989,-0.9995468258857727,0.6557462811470032,-0.1004563644528389,0.23036803305149078,-0.4826975464820862
5.14606499671936,0.4182610511779785,-0.9986297488212585,0.6552734971046448,-0.10058078914880753,0.23004364967346191,-0.4825829267501831
5.167042255401611,0.4184335768222809,-0.9980354309082031,0.6556616425514221,-0.10033721476793289,0.23024418950080872,-0.4825344681739807
5.1871654987335205,0.41908004879951477,-0.9978776574134827,0.6547752618789673,-0.10037191957235336,0.23006007075309753,-0.48264041543006897
5.207296371459961,0.41930264234542847,-0.9971364736557007,0.6547257900238037,-0.10006255656480789,0.23020216822624207,-0.48256224393844604
5.227395534515381,0.4191339910030365,-0.9968758225440979,0.6542502641677856,-0.10015971213579178,0.22981351613998413,-0.48259246349334717
5.2475011348724365,0.41844499111175537,-0.9962174892425537,0.6538017988204956,-0.10046801716089249,0.22935651242733002,-0.48257333040237427
5.2676239013671875,0.4187546372413635,-0.9956175088882446,0.6537657380104065,-0.1002330556511879,0.22955410182476044,-0.4825010597705841
5.287741184234619,0.4187494218349457,-0.9949908256530762,0.654502272605896,-0.09992039948701859,0.22982783615589142,-0.4823959171772003
5.307794094085693,0.4190557301044464,-0.9940215349197388,0.654352068901062,-0.09979093819856644,0.2297411859035492,-0.4823010563850403
5.327867269515991,0.4194488525390625,-0.9937999248504639,0.6536154747009277,-0.09989232569932938,0.22974619269371033,-0.48231205344200134
5.347929000854492,0.41949164867401123,-0.992847204208374,0.653175950050354,-0.0997144803404808,0.22945716977119446,-0.482174277305603
5.368061542510986,0.4194990396499634,-0.9925933480262756,0.6523458361625671,-0.09981343895196915,0.2289055734872818,-0.4821770489215851
5.388124465942383,0.4191506505012512,-0.9923375844955444,0.6523734331130981,-0.09983483701944351,0.22867809236049652,-0.4821218252182007
5.408193349838257,0.41924598813056946,-0.9919019341468811,0.6524224877357483,-0.09962297230958939,0.22875156998634338,-0.48204126954078674
5.428252696990967,0.4187172055244446,-0.9905774593353271,0.6518337726593018,-0.09979356080293655,0.2283574938774109,-0.48193055391311646
5.448380947113037,0.4188980460166931,-0.9898514747619629,0.6522773504257202,-0.09955062717199326,0.22855554521083832,-0.4818626046180725
5.468428134918213,0.4196319282054901,-0.9893743991851807,0.6517106294631958,-0.09938979893922806,0.22837617993354797,-0.48181840777397156
5.488483905792236,0.41986560821533203,-0.9890491962432861,0.6518401503562927,-0.09916707128286362,0.2284701019525528,-0.4817148745059967
5.508564472198486,0.4200109839439392,-0.9888038039207458,0.6518323421478271,-0.09903555363416672,0.2287544310092926,-0.4816887378692627
5.528642416000366,0.41975224018096924,-0.9884797930717468,0.6516276597976685,-0.09910968691110611,0.22824355959892273,-0.48174139857292175
5.548718452453613,0.4199973940849304,-0.9874535202980042,0.651854395866394,-0.09874279052019119,0.22840167582035065,-0.48155689239501953
5.5688090324401855,0.42039525508880615,-0.9872630834579468,0.6510471701622009,-0.09875643998384476,0.22843968868255615,-0.48155859112739563
5.5888776779174805,0.420112282037735,-0.9864280223846436,0.6511608362197876,-0.0987791195511818,0.22838295996189117,-0.4815090000629425
5.608927249908447,0.4200374484062195,-0.9855319261550903,0.6509000658988953,-0.09867648035287857,0.2281617820262909,-0.48138266801834106
5.6290223598480225,0.42018017172813416,-0.9851272702217102,0.6508959531784058,-0.09859269112348557,0.228236585855484,-0.4814053773880005
5.649084568023682,0.4205954670906067,-0.9842659831047058,0.6509580612182617,-0.09831995517015457,0.22832231223583221,-0.481369286775589
5.669143915176392,0.421159029006958,-0.9836351871490479,0.6501206755638123,-0.09819028526544571,0.22820788621902466,-0.48131418228149414
5.689240217208862,0.4207766056060791,-0.9829280972480774,0.6505345106124878,-0.09807348996400833,0.22821621596813202,-0.4811834394931793
5.70931339263916,0.42020905017852783,-0.9821533560752869,0.649753749370575,-0.09828533977270126,0.22765196859836578,-0.48114174604415894
5.72939395904541,0.4207953214645386,-0.9820461273193359,0.6491219401359558,-0.09817218035459518,0.2276005893945694,-0.48118168115615845
5.749488592147827,0.4208841025829315,-0.9814562201499939,0.6498359441757202,-0.09769504517316818,0.22780393064022064,-0.48104244470596313
5.769574880599976,0.4203181266784668,-0.9805768132209778,0.6499965190887451,-0.09773045033216476,0.22754813730716705,-0.4808811545372009
5.789638042449951,0.42040008306503296,-0.9798167943954468,0.6495965719223022,-0.09756848961114883,0.22752825915813446,-0.48083949089050293
5.809712648391724,0.4210502803325653,-0.9790615439414978,0.6488957405090332,-0.0975063219666481,0.2276514619588852,-0.4808022975921631
5.82981276512146,0.42131462693214417,-0.978850245475769,0.6486891508102417,-0.09731972962617874,0.22756676375865936,-0.4808020293712616
5.849873065948486,0.4215984344482422,-0.9781986474990845,0.6486663818359375,-0.09721208363771439,0.22779563069343567,-0.48071151971817017
5.8699798583984375,0.42189109325408936,-0.977532148361206,0.6485572457313538,-0.09700588136911392,0.22781282663345337,-0.48062247037887573
5.890101671218872,0.4214151203632355,-0.9769191145896912,0.6489921808242798,-0.09700282663106918,0.22757211327552795,-0.4805445671081543
5.91018009185791,0.4219677150249481,-0.976632833480835,0.6477721333503723,-0.09703467041254044,0.22741073369979858,-0.4806619882583618
5.930272102355957,0.4214766323566437,-0.9760677814483643,0.6481163501739502,-0.09704454988241196,0.22733525931835175,-0.4806101322174072
5.950347900390625,0.42047566175460815,-0.9750585556030273,0.6466670632362366,-0.09754375368356705,0.2264941930770874,-0.4805668592453003
5.970406532287598,0.4207787811756134,-0.9744521975517273,0.6464413404464722,-0.09732391685247421,0.22637146711349487,-0.48055773973464966
5.990502595901489,0.4209110736846924,-0.9739251136779785,0.6466418504714966,-0.09705374389886856,0.226022407412529,-0.4803674817085266
6.010572910308838,0.42115911841392517,-0.9731636643409729,0.6467056274414062,-0.09669450670480728,0.22610504925251007,-0.4801785945892334
6.030648946762085,0.4216935634613037,-0.9724581241607666,0.6464173793792725,-0.09652138501405716,0.22618843615055084,-0.48006823658943176
6.050731658935547,0.42173007130622864,-0.9718530178070068,0.6470363736152649,-0.09629734605550766,0.22632241249084473,-0.48000070452690125
6.0708229541778564,0.42253512144088745,-0.9714130759239197,0.6460862159729004,-0.09605769068002701,0.22635594010353088,-0.4799838364124298
6.090875864028931,0.4222508668899536,-0.9708273410797119,0.6458538770675659,-0.09624836593866348,0.22620108723640442,-0.47996965050697327
6.110972166061401,0.42162731289863586,-0.9700759649276733,0.6459746360778809,-0.09629716724157333,0.2258484661579132,-0.4798673987388611
6.131033897399902,0.41996702551841736,-0.9691665768623352,0.6446051597595215,-0.09690458327531815,0.22466318309307098,-0.47992897033691406
6.151113986968994,0.42118293046951294,-0.9682600498199463,0.6451185941696167,-0.0962829515337944,0.22509540617465973,-0.47987163066864014
6.171264410018921,0.4216170012950897,-0.9682106375694275,0.644088864326477,-0.09632793813943863,0.22493931651115417,-0.47986936569213867
6.191354513168335,0.4213811159133911,-0.9668853878974915,0.6445974111557007,-0.09609944373369217,0.22473008930683136,-0.4796057939529419
6.2114081382751465,0.42209547758102417,-0.9664300084114075,0.6444823145866394,-0.09601367264986038,0.22482603788375854,-0.47966060042381287
6.231510400772095,0.42208725214004517,-0.9661651253700256,0.6438174247741699,-0.09603535383939743,0.2245013564825058,-0.47965407371520996
6.251586675643921,0.4225618839263916,-0.9658386707305908,0.6438088417053223,-0.09549147635698318,0.22430013120174408,-0.4795079529285431
6.2716710567474365,0.42271631956100464,-0.9653815031051636,0.6435058116912842,-0.09558556228876114,0.2242819368839264,-0.47953587770462036
6.291783571243286,0.4224315285682678,-0.9647030830383301,0.643434464931488,-0.09557982534170151,0.22398872673511505,-0.4794034957885742
6.311887979507446,0.4218066930770874,-0.9644774198532104,0.6428607106208801,-0.0959644690155983,0.2233467549085617,-0.47950083017349243
6.331942558288574,0.42229023575782776,-0.9638933539390564,0.6428969502449036,-0.09570347517728806,0.22354277968406677,-0.4794205129146576
6.352050065994263,0.42204713821411133,-0.9628735184669495,0.6429307460784912,-0.09582961350679398,0.22349613904953003,-0.47934722900390625
6.3721394538879395,0.422161728143692,-0.9623855948448181,0.6428089141845703,-0.09566060453653336,0.22320878505706787,-0.47928184270858765
6.392243146896362,0.4219641089439392,-0.9616241455078125,0.642756998538971,-0.09573934227228165,0.22315888106822968,-0.47929009795188904
6.412279844284058,0.4218047857284546,-0.9609382152557373,0.6425421833992004,-0.0956970825791359,0.22306787967681885,-0.47924521565437317
6.432370901107788,0.4221931993961334,-0.9609636664390564,0.6414322853088379,-0.09585244208574295,0.2228989154100418,-0.47936850786209106
6.452453851699829,0.4225795865058899,-0.9596774578094482,0.6419575214385986,-0.09547027200460434,0.22324787080287933,-0.4792173206806183
6.47252082824707,0.4229224920272827,-0.9585843086242676,0.6421915292739868,-0.09528491646051407,0.2235468327999115,-0.4791242480278015
6.4926276206970215,0.42288124561309814,-0.9585493206977844,0.6413949728012085,-0.09524852782487869,0.22313150763511658,-0.4791124165058136
6.512694597244263,0.42251449823379517,-0.9576978087425232,0.6411222219467163,-0.09533172100782394,0.22290194034576416,-0.47899988293647766
6.5327746868133545,0.4225562810897827,-0.9568983912467957,0.6408572196960449,-0.09508643299341202,0.22277145087718964,-0.4789230227470398
6.552893877029419,0.4226238429546356,-0.9565024375915527,0.6412298083305359,-0.09497616440057755,0.22286154329776764,-0.4789641499519348
6.57298469543457,0.4230661690235138,-0.9558066129684448,0.6409503817558289,-0.09468305855989456,0.22272905707359314,-0.47892656922340393
6.593055009841919,0.4227762818336487,-0.9549534320831299,0.640896737575531,-0.09480739384889603,0.22253122925758362,-0.47884348034858704
6.6131370067596436,0.4227622151374817,-0.9546858668327332,0.6398378610610962,-0.09492314606904984,0.2224402278661728,-0.4788331985473633
6.633215427398682,0.422625333070755,-0.953568160533905,0.6399836540222168,-0.09480302780866623,0.22247715294361115,-0.47874951362609863
6.653290033340454,0.4231013059616089,-0.9529455900192261,0.6397026777267456,-0.0945020243525505,0.22221405804157257,-0.4786600172519684
6.6733925342559814,0.42249271273612976,-0.9522452354431152,0.6397042274475098,-0.09462291747331619,0.221999853849411,-0.47860583662986755
6.693481683731079,0.4221625328063965,-0.9516488313674927,0.6390886902809143,-0.09467402845621109,0.22173404693603516,-0.4786795973777771
6.713564872741699,0.4225632846355438,-0.9510652422904968,0.6390112638473511,-0.09461233764886856,0.22168152034282684,-0.4786965548992157
6.733707904815674,0.4227472245693207,-0.9502787590026855,0.6387917399406433,-0.09451637417078018,0.22122478485107422,-0.4785296618938446
6.753796815872192,0.4230962097644806,-0.9500596523284912,0.6383190155029297,-0.09446168690919876,0.22131289541721344,-0.4784924387931824
6.773863792419434,0.4221857786178589,-0.9491004943847656,0.6380709409713745,-0.09470944851636887,0.22098416090011597,-0.4783942401409149
6.79413628578186,0.4222325086593628,-0.9484957456588745,0.6376058459281921,-0.09454459697008133,0.220733642578125,-0.4783186614513397
6.814214468002319,0.4219265580177307,-0.9481919407844543,0.6371560096740723,-0.09458298236131668,0.22030115127563477,-0.4783005714416504
6.834294319152832,0.42213428020477295,-0.9470340013504028,0.637295126914978,-0.09393147379159927,0.21996323764324188,-0.4780725836753845
6.854443073272705,0.42248713970184326,-0.9465379118919373,0.6367181539535522,-0.09401074796915054,0.21925653517246246,-0.47797808051109314
6.8745129108428955,0.4224700927734375,-0.946275532245636,0.6369885206222534,-0.09400657564401627,0.21913328766822815,-0.47792503237724304
6.8946006298065186,0.42265063524246216,-0.9456220865249634,0.6371009945869446,-0.09396373480558395,0.21939381957054138,-0.4778982996940613
6.914802312850952,0.4229992628097534,-0.9446806907653809,0.6372911334037781,-0.09377244859933853,0.21954448521137238,-0.4777970612049103
6.934886932373047,0.42329123616218567,-0.9441049098968506,0.6368752717971802,-0.09367875009775162,0.2196400761604309,-0.47774559259414673
6.954957008361816,0.42318055033683777,-0.9431134462356567,0.6370554566383362,-0.09353245049715042,0.21958991885185242,-0.47764453291893005
6.975610971450806,0.42292320728302,-0.941991925239563,0.6370124220848083,-0.09350249916315079,0.21953856945037842,-0.477546364068985
6.995715379714966,0.4233440160751343,-0.9414779543876648,0.6363812685012817,-0.09329197555780411,0.2196331024169922,-0.4774492084980011
7.015855312347412,0.42375123500823975,-0.9407976865768433,0.6357756853103638,-0.09309358149766922,0.21925896406173706,-0.4774642586708069
7.036156415939331,0.42388004064559937,-0.9398674368858337,0.636174738407135,-0.09286250919103622,0.21901147067546844,-0.47736310958862305
7.056251287460327,0.4237143397331238,-0.9393728971481323,0.6355502605438232,-0.09299040585756302,0.2190435528755188,-0.47730687260627747
7.076331615447998,0.42368781566619873,-0.9391258955001831,0.634416401386261,-0.09314156323671341,0.21861666440963745,-0.47739899158477783
7.096385955810547,0.42355772852897644,-0.9388065338134766,0.6345400810241699,-0.09305623918771744,0.21845220029354095,-0.47743842005729675
7.116486310958862,0.4237007200717926,-0.9385371804237366,0.6342945098876953,-0.09315554052591324,0.21850615739822388,-0.47744038701057434
7.136559963226318,0.4233294129371643,-0.9376397132873535,0.6338931322097778,-0.09320227056741714,0.21813638508319855,-0.47737249732017517
7.156617641448975,0.4233946204185486,-0.9371806979179382,0.6334640383720398,-0.0931372418999672,0.21778610348701477,-0.4773351848125458
7.176719427108765,0.4231433570384979,-0.9365800619125366,0.6343700885772705,-0.09297893196344376,0.21809080243110657,-0.47727692127227783
7.196834564208984,0.42369765043258667,-0.9357449412345886,0.6338522434234619,-0.09283647686243057,0.21826907992362976,-0.4772176444530487
7.21688985824585,0.42432066798210144,-0.9351320862770081,0.6332667469978333,-0.09263540059328079,0.21818535029888153,-0.4772147238254547
7.237032890319824,0.4242275357246399,-0.9343982934951782,0.6342018246650696,-0.09249062091112137,0.21851345896720886,-0.477120578289032
7.257160902023315,0.4234529137611389,-0.9336864352226257,0.633344292640686,-0.09281817823648453,0.21813653409481049,-0.4771251380443573
7.277182102203369,0.42276906967163086,-0.9332318305969238,0.6323099732398987,-0.09314104169607162,0.21746543049812317,-0.47715193033218384
7.2972753047943115,0.4227638244628906,-0.9329921007156372,0.6319386959075928,-0.09319282323122025,0.21735943853855133,-0.4772188067436218
7.317346572875977,0.42316025495529175,-0.9322268962860107,0.6316421031951904,-0.09293738752603531,0.21712657809257507,-0.47713780403137207
7.337417125701904,0.4235832393169403,-0.9318491220474243,0.6313598155975342,-0.09285096079111099,0.21695438027381897,-0.4771481454372406
7.357511520385742,0.4234626591205597,-0.9312242865562439,0.6321728825569153,-0.09265222400426865,0.21697068214416504,-0.4770437479019165
7.377587556838989,0.4241269826889038,-0.9304311871528625,0.6320108771324158,-0.0921880230307579,0.21761521697044373,-0.4768582582473755
7.397664308547974,0.42420315742492676,-0.9299461841583252,0.6312953233718872,-0.09209822863340378,0.2171962708234787,-0.47682759165763855
7.418738603591919,0.42430534958839417,-0.9291415214538574,0.631278932094574,-0.09195739775896072,0.21726660430431366,-0.4767451584339142
7.438824892044067,0.4238211512565613,-0.9285925030708313,0.6316143274307251,-0.0919589176774025,0.2171536237001419,-0.47671273350715637
7.458898544311523,0.4224671721458435,-0.9280141592025757,0.6293188333511353,-0.09271352738142014,0.21567407250404358,-0.47680890560150146
7.479245662689209,0.4226642847061157,-0.9272269010543823,0.6303293704986572,-0.09240186959505081,0.21577535569667816,-0.47675496339797974
7.499343395233154,0.4229167699813843,-0.9268805384635925,0.6297920942306519,-0.092350535094738,0.21578313410282135,-0.4767153859138489
7.519443988800049,0.423267662525177,-0.9262505173683167,0.6298483610153198,-0.09217626601457596,0.21552391350269318,-0.47666460275650024
7.539472818374634,0.4235667884349823,-0.9255598783493042,0.6299327611923218,-0.09196657687425613,0.21601612865924835,-0.4766126275062561
7.5595574378967285,0.42383021116256714,-0.9251810312271118,0.6296030282974243,-0.09182832390069962,0.2160302996635437,-0.4765481650829315
7.57964015007019,0.424267441034317,-0.9244605302810669,0.6299490928649902,-0.09136896580457687,0.21621036529541016,-0.47645679116249084
7.599692106246948,0.4242241084575653,-0.923431396484375,0.6296151280403137,-0.0912131741642952,0.21596139669418335,-0.47636765241622925
7.6197662353515625,0.4243115186691284,-0.9229393005371094,0.6294476389884949,-0.09121827036142349,0.21609541773796082,-0.4763091504573822
7.639844179153442,0.42394423484802246,-0.9226579666137695,0.6285905838012695,-0.09134819358587265,0.2155434936285019,-0.4763083755970001
7.659924507141113,0.42351967096328735,-0.9225506782531738,0.6278687119483948,-0.09157656878232956,0.2148049771785736,-0.47631174325942993
7.680218458175659,0.4228801429271698,-0.9218529462814331,0.6282994747161865,-0.09155071526765823,0.21469974517822266,-0.47618189454078674
7.700335264205933,0.4235309958457947,-0.9210323691368103,0.6283604502677917,-0.09121499210596085,0.2147621512413025,-0.4761117100715637
7.720398187637329,0.42397964000701904,-0.9204820990562439,0.6279913187026978,-0.09118621796369553,0.2147674709558487,-0.4761548340320587
7.740574359893799,0.42371299862861633,-0.9192751049995422,0.6284338235855103,-0.09101379662752151,0.214845210313797,-0.47593024373054504
7.76066255569458,0.42398184537887573,-0.9189125299453735,0.6276991367340088,-0.09099481254816055,0.21487805247306824,-0.4758557081222534
7.780736207962036,0.4235418736934662,-0.9182154536247253,0.6269152760505676,-0.09111186116933823,0.21450605988502502,-0.47587084770202637
7.800926208496094,0.42401519417762756,-0.9171632528305054,0.6266844272613525,-0.09084480255842209,0.21446503698825836,-0.4757821559906006
7.821016550064087,0.4243813455104828,-0.9171653985977173,0.6263079047203064,-0.09085259586572647,0.21409766376018524,-0.47580358386039734
7.841092824935913,0.42410585284233093,-0.9169439077377319,0.6261516213417053,-0.09094376116991043,0.21367597579956055,-0.4758492112159729
7.86126184463501,0.42400068044662476,-0.916113018989563,0.6269851326942444,-0.0906519666314125,0.21402183175086975,-0.47572460770606995
7.881351947784424,0.42388594150543213,-0.9160400629043579,0.6254702210426331,-0.09094107896089554,0.2135409116744995,-0.47579461336135864
7.901442527770996,0.42405104637145996,-0.9149528741836548,0.6255223751068115,-0.09061195701360703,0.21362973749637604,-0.47572898864746094
7.921493053436279,0.4243268072605133,-0.9142482280731201,0.6253054738044739,-0.09055834263563156,0.21352295577526093,-0.4756473898887634
7.941588878631592,0.4243767261505127,-0.913605809211731,0.6261731386184692,-0.09028605371713638,0.21382541954517365,-0.4755984842777252
7.961684703826904,0.4233931005001068,-0.9123740196228027,0.6258978843688965,-0.09042882174253464,0.21339991688728333,-0.4754709005355835
7.981756687164307,0.42388999462127686,-0.9116086959838867,0.6243360042572021,-0.0903848186135292,0.21279409527778625,-0.4754592478275299
8.001848220825195,0.42435067892074585,-0.9115943908691406,0.6239750385284424,-0.0903439000248909,0.21295446157455444,-0.4755421578884125
8.021927833557129,0.42437681555747986,-0.9113414883613586,0.6242959499359131,-0.09020251780748367,0.21264588832855225,-0.4755149781703949
8.042004585266113,0.4236375689506531,-0.9104020595550537,0.6241947412490845,-0.09031382948160172,0.21236170828342438,-0.47541922330856323
8.062412977218628,0.42308831214904785,-0.9100019335746765,0.6229002475738525,-0.09055506438016891,0.2115761786699295,-0.47547364234924316
