liuyurong129/humanoid-gym/humanoid/data/target_q_20250523-001606.csv
timestamp,joint_1,joint_2,joint_3,joint_4,joint_5,joint_6
0.00011777877807617188,0.0,0.0,0.0,0.0,0.0,0.0
0.020193099975585938,0.0,0.0,0.0,0.0,0.0,0.0
0.04028201103210449,0.0,0.0,0.0,0.0,0.0,0.0
0.060356855392456055,0.0,0.0,0.0,0.0,0.0,0.0
0.08048868179321289,-0.12149503082036972,-0.045437365770339966,-0.087,-0.2522270381450653,0.041083455085754395,0.12510256469249725
0.10112142562866211,-0.5519059300422668,-0.7642203569412231,-0.012922108173370361,-0.49417778849601746,-0.06427349895238876,0.05243668705224991
0.12127494812011719,-0.48976650834083557,-0.7478688955307007,-0.049682363867759705,-0.47261515259742737,-0.0005452074110507965,0.0844302698969841
0.14127826690673828,-0.4650633931159973,-0.7187870144844055,-0.05635842680931091,-0.4593198299407959,0.007445596158504486,0.09688527882099152
0.16134023666381836,-0.45573732256889343,-0.7079892754554749,-0.05937044322490692,-0.45314356684684753,0.017022810876369476,0.10626819729804993
0.181410551071167,-0.23233520984649658,-0.09762342274188995,-0.087,-0.3744586110115051,-0.06419457495212555,0.10657817125320435
0.20148253440856934,-0.21226215362548828,-0.059757962822914124,-0.058344557881355286,-0.3810422718524933,-0.09137440472841263,0.09832726418972015
0.22158503532409668,-0.19332778453826904,-0.032171279191970825,-0.041577279567718506,-0.39099547266960144,-0.09392952173948288,0.09540382772684097
0.2417006492614746,-0.4773576557636261,-0.7927528023719788,-0.04787708818912506,-0.4518727958202362,0.04749012738466263,0.14345362782478333
0.26187992095947266,-0.49159154295921326,-0.8132150173187256,-0.018747061491012573,-0.4560084640979767,0.03938882797956467,0.1487674117088318
0.2819082736968994,-0.5047833919525146,-0.8168023228645325,0.013504602015018463,-0.4643629491329193,0.024451598525047302,0.15617777407169342
0.30201077461242676,-0.504526674747467,-0.8172264099121094,0.035920314490795135,-0.4732549488544464,0.021345175802707672,0.1667519360780716
0.32219362258911133,-0.12055801600217819,0.04123128950595856,0.02825292944908142,-0.41160890460014343,-0.1125766858458519,0.10031735897064209
0.34224534034729004,-0.11522308737039566,0.045553386211395264,0.04312600940465927,-0.41883575916290283,-0.1131470799446106,0.10269508510828018
0.36231160163879395,-0.12088405340909958,0.03187723457813263,0.04161061346530914,-0.4292103350162506,-0.10320157557725906,0.10791394859552383
0.3824021816253662,-0.4946546256542206,-0.8286284804344177,0.08665802329778671,-0.4892301559448242,0.022350594401359558,0.19019483029842377
0.40249013900756836,-0.4730747640132904,-0.8094784617424011,0.09981148689985275,-0.49084487557411194,0.019638873636722565,0.19309784471988678
0.4225902557373047,-0.4484912157058716,-0.7875145077705383,0.10747426748275757,-0.4923233091831207,0.019840389490127563,0.1937713921070099
0.4429469108581543,-0.4228385090827942,-0.7592560648918152,0.10710921883583069,-0.4986394941806793,0.02064889669418335,0.19588442146778107
0.46317601203918457,-0.1985628753900528,-0.05230134725570679,0.07891961187124252,-0.46928948163986206,-0.10702149569988251,0.13832391798496246
0.4832577705383301,-0.20418313145637512,-0.08370335400104523,0.08423662930727005,-0.4743053913116455,-0.09889404475688934,0.14759622514247894
0.5039281845092773,-0.40080878138542175,-0.7075598835945129,0.1137721985578537,-0.5119350552558899,0.010822057723999023,0.2020726501941681
0.5241246223449707,-0.39477160573005676,-0.6745231747627258,0.12924791872501373,-0.5180997848510742,-0.007743366062641144,0.2045118808746338
0.5441117286682129,-0.37980353832244873,-0.6181285381317139,0.15616893768310547,-0.5229273438453674,-0.0336587056517601,0.20281058549880981
0.5641968250274658,-0.2147989422082901,-0.22014199197292328,0.083060622215271,-0.4968484342098236,-0.05293910950422287,0.18203425407409668
0.5842545032501221,-0.23178687691688538,-0.3058977723121643,0.08643855154514313,-0.5058536529541016,-0.03571143373847008,0.19978109002113342
0.6043241024017334,-0.2335432767868042,-0.37000375986099243,0.1141665130853653,-0.5112219452857971,-0.03429266810417175,0.21517346799373627
0.624859094619751,-0.22947558760643005,-0.3672879934310913,0.1790001094341278,-0.5158926248550415,-0.06581079959869385,0.22113944590091705
0.6449611186981201,-0.2860559821128845,-0.46960824728012085,0.19487611949443817,-0.5465771555900574,-0.052632372826337814,0.22368980944156647
0.665036678314209,-0.29121100902557373,-0.5164490342140198,0.2063351273536682,-0.5542080402374268,-0.03657517582178116,0.2367466390132904
0.685100793838501,-0.26949721574783325,-0.5213228464126587,0.2510981559753418,-0.5516372919082642,-0.04076867550611496,0.24280931055545807
0.7051641941070557,-0.20029392838478088,-0.4371630549430847,0.23634403944015503,-0.5455266833305359,-0.011420667171478271,0.2478543519973755
0.7252223491668701,-0.23054823279380798,-0.50449538230896,0.24516338109970093,-0.5547376275062561,0.009815014898777008,0.25313302874565125
0.7452921867370605,-0.25509220361709595,-0.5392730236053467,0.29033511877059937,-0.5585853457450867,0.004604823887348175,0.2534383237361908
0.765369176864624,-0.16411271691322327,-0.5952516794204712,0.29135972261428833,-0.5517632365226746,0.061851806938648224,0.25404584407806396
0.7854330539703369,-0.18709711730480194,-0.6535170674324036,0.3040069341659546,-0.569442629814148,0.08150442689657211,0.2610199749469757
0.8055069446563721,-0.22866466641426086,-0.7139791250228882,0.3252412676811218,-0.5850010514259338,0.08294113725423813,0.2727198302745819
0.8255734443664551,-0.25326359272003174,-0.7749568819999695,0.3446400761604309,-0.591279923915863,0.0879736915230751,0.28585225343704224
0.8456587791442871,-0.19776268303394318,-0.5799666047096252,0.4434084892272949,-0.6001095771789551,-0.002260848879814148,0.273084431886673
0.8657560348510742,-0.19322286546230316,-0.6253690123558044,0.457277774810791,-0.6174798607826233,0.008081503212451935,0.2745392918586731
0.8857889175415039,-0.2172456681728363,-0.7382504940032959,0.4490572214126587,-0.6335034966468811,0.04383306950330734,0.2794124484062195
0.9058399200439453,-0.2558753788471222,-0.8532812595367432,0.4481191635131836,-0.6068900227546692,0.07257621735334396,0.31307703256607056
0.9259495735168457,-0.2512625455856323,-0.8969404101371765,0.4624561667442322,-0.6218352913856506,0.08210013061761856,0.32071107625961304
0.9460203647613525,-0.23943516612052917,-0.9316360354423523,0.4869876503944397,-0.6378998160362244,0.08104630559682846,0.32933396100997925
0.9661283493041992,-0.25508928298950195,-0.9889238476753235,0.5111664533615112,-0.6626971960067749,0.075943224132061,0.35172420740127563
0.9862298965454102,-0.23397445678710938,-0.7669776082038879,0.5746197700500488,-0.6831902861595154,-0.04754185676574707,0.33232444524765015
1.006335973739624,-0.23714163899421692,-0.7969791293144226,0.5881149768829346,-0.7089430689811707,-0.053631968796253204,0.3486897051334381
1.0264501571655273,-0.2553894817829132,-0.9081015586853027,0.5695767402648926,-0.7362439632415771,-0.019123878329992294,0.3663117587566376
1.0464930534362793,-0.29497072100639343,-0.9854163527488708,0.5798384547233582,-0.7572281360626221,-0.013009130954742432,0.3995676040649414
1.0665547847747803,-0.2080978900194168,-0.8536882400512695,0.6191617846488953,-0.7390822768211365,-0.030619632452726364,0.4139009416103363
1.086620569229126,-0.2543177008628845,-1.0111057758331299,0.5666036605834961,-0.7764418721199036,0.020247943699359894,0.43091005086898804
1.1066913604736328,-0.3098827302455902,-1.0444774627685547,0.6014392971992493,-0.8013522028923035,-0.009858131408691406,0.4628710150718689
1.1267354488372803,-0.31537559628486633,-0.9640830755233765,0.6685577034950256,-0.816318154335022,-0.07669511437416077,0.487856388092041
1.1468234062194824,-0.2192607820034027,-0.954024612903595,0.5563313961029053,-0.8382322192192078,0.009644024074077606,0.47149786353111267
1.1668908596038818,-0.27265292406082153,-1.0062308311462402,0.579805314540863,-0.8596158623695374,-0.013806439936161041,0.5042961239814758
1.1869735717773438,-0.2806178033351898,-0.9733322858810425,0.6501467227935791,-0.8730316758155823,-0.06718949973583221,0.5272737145423889
1.2070181369781494,-0.24510619044303894,-0.8780578970909119,0.6879087090492249,-0.886264443397522,-0.09494277834892273,0.5461929440498352
1.2271037101745605,-0.26584193110466003,-0.9556507468223572,0.607342004776001,-0.9099684357643127,-0.045903611928224564,0.5550345182418823
1.2471709251403809,-0.25801345705986023,-0.9343762397766113,0.6459177732467651,-0.9340718984603882,-0.07178562134504318,0.5822713375091553
1.2672312259674072,-0.23780304193496704,-0.9456179738044739,0.6192565560340881,-0.9670028686523438,-0.030440986156463623,0.6150292754173279
1.2873189449310303,-0.24769434332847595,-0.9196292757987976,0.608326256275177,-0.989989697933197,-0.050904713571071625,0.6260347366333008
1.3074090480804443,-0.24530541896820068,-0.9498205780982971,0.5982630848884583,-1.0311678647994995,-0.03806910663843155,0.6625566482543945
1.327448844909668,-0.24004486203193665,-0.9172031283378601,0.6180264353752136,-1.0688484907150269,-0.06582289934158325,0.7004218101501465
1.3474974632263184,-0.24107873439788818,-0.9215927720069885,0.5919128656387329,-1.1059365272521973,-0.0533040426671505,0.7338992953300476
1.3676161766052246,-0.24100783467292786,-0.9003481268882751,0.6055235862731934,-1.1226038932800293,-0.0720304399728775,0.7538765668869019
1.3876838684082031,-0.24985471367835999,-0.891349732875824,0.6023731827735901,-1.1639186143875122,-0.08254595100879669,0.7904549837112427
1.4077603816986084,-0.2464466691017151,-0.9017416834831238,0.590113639831543,-1.1999876499176025,-0.07475489377975464,0.8208229541778564
1.4279139041900635,-0.24425843358039856,-0.9037879705429077,0.5835362672805786,-1.2145289182662964,-0.06980767846107483,0.8344814777374268
1.4479968547821045,-0.2409721314907074,-0.906664252281189,0.5781483054161072,-1.2452901601791382,-0.07404404878616333,0.8586764335632324
1.4680795669555664,-0.24360474944114685,-0.9004403948783875,0.5700194239616394,-1.2780953645706177,-0.08381286263465881,0.8877230286598206
1.488114595413208,-0.24217990040779114,-0.8908872008323669,0.5717253684997559,-1.3075754642486572,-0.09801717102527618,0.9142643213272095
1.5082025527954102,-0.2386326789855957,-0.893454909324646,0.5677453279495239,-1.3212891817092896,-0.0943700298666954,0.9280232787132263
1.528304100036621,-0.23898130655288696,-0.8898998498916626,0.5636260509490967,-1.3495219945907593,-0.09635721147060394,0.9521349668502808
1.5483331680297852,-0.23967650532722473,-0.8832154870033264,0.5642332434654236,-1.3783127069473267,-0.10523132234811783,0.9748356938362122
1.5685298442840576,-0.23763754963874817,-0.8914079070091248,0.5524235367774963,-1.3914319276809692,-0.10062915086746216,0.9834157824516296
1.5886273384094238,-0.23659858107566833,-0.8869627118110657,0.5500653386116028,-1.4155265092849731,-0.10501234978437424,1.0028095245361328
1.6086561679840088,-0.23434951901435852,-0.8801097273826599,0.5425820350646973,-1.4363795518875122,-0.10942317545413971,1.0224950313568115
1.6291320323944092,-0.23384469747543335,-0.8816915154457092,0.540041983127594,-1.4481226205825806,-0.11593224108219147,1.0324386358261108
1.6492197513580322,-0.23160043358802795,-0.8772773146629333,0.5357298851013184,-1.4679564237594604,-0.11867478489875793,1.0506380796432495
1.6693260669708252,-0.23151904344558716,-0.8748694658279419,0.5386372208595276,-1.487722396850586,-0.1277821958065033,1.0666446685791016
1.6893701553344727,-0.23054152727127075,-0.8724847435951233,0.5311524868011475,-1.5024577379226685,-0.12674608826637268,1.0807679891586304
1.7094805240631104,-0.22914975881576538,-0.8661230206489563,0.5338939428329468,-1.5131644010543823,-0.13590696454048157,1.0871191024780273
1.7295784950256348,-0.22730234265327454,-0.8672106862068176,0.5210567116737366,-1.5295058488845825,-0.13202832639217377,1.100495457649231
1.749675989151001,-0.22611665725708008,-0.8667851090431213,0.520219624042511,-1.5450074672698975,-0.13926813006401062,1.1132410764694214
1.7697789669036865,-0.2268584668636322,-0.8649033308029175,0.5162542462348938,-1.5580832958221436,-0.14364230632781982,1.126494288444519
1.789917230606079,-0.22363534569740295,-0.8566138744354248,0.5206655263900757,-1.5668333768844604,-0.15083296597003937,1.1311196088790894
1.8099620342254639,-0.22286096215248108,-0.8584285378456116,0.5100827813148499,-1.577708125114441,-0.14641660451889038,1.1403049230575562
1.8301105499267578,-0.22269096970558167,-0.8602519035339355,0.5071964263916016,-1.5891584157943726,-0.1501033753156662,1.1499223709106445
1.8507723808288574,-0.22206702828407288,-0.8535639643669128,0.5099255442619324,-1.5939234495162964,-0.15372687578201294,1.154312252998352
1.870896816253662,-0.2201177179813385,-0.8490741848945618,0.5062371492385864,-1.6051942110061646,-0.1572960913181305,1.1629849672317505
1.891016960144043,-0.21934327483177185,-0.8497651815414429,0.5014262795448303,-1.6140886545181274,-0.16286039352416992,1.1722630262374878
1.9110276699066162,-0.21714159846305847,-0.8502377271652222,0.4945594072341919,-1.621665120124817,-0.16161185503005981,1.1799176931381226
1.9311408996582031,-0.21799179911613464,-0.8492270708084106,0.4998089075088501,-1.6284559965133667,-0.1694713830947876,1.183487057685852
1.951235294342041,-0.2165195643901825,-0.8429173827171326,0.4987757205963135,-1.635839581489563,-0.17405109107494354,1.1911038160324097
1.9713020324707031,-0.21530231833457947,-0.8432976007461548,0.49329304695129395,-1.6431864500045776,-0.17347532510757446,1.1971200704574585
1.991379976272583,-0.2147444188594818,-0.8425934910774231,0.4911816716194153,-1.648280382156372,-0.17253521084785461,1.1992576122283936
2.0115036964416504,-0.21392247080802917,-0.8395143151283264,0.49210548400878906,-1.6557068824768066,-0.1786099225282669,1.205198049545288
2.031581401824951,-0.21274808049201965,-0.8396332263946533,0.4862310290336609,-1.662244200706482,-0.17827588319778442,1.2114776372909546
2.0516111850738525,-0.21117255091667175,-0.8368510007858276,0.4835479259490967,-1.6688282489776611,-0.18216577172279358,1.2181395292282104
2.0717196464538574,-0.21104148030281067,-0.8374547958374023,0.481611430644989,-1.670538067817688,-0.18357539176940918,1.2210328578948975
2.0918710231781006,-0.2104884684085846,-0.8311293721199036,0.4841073155403137,-1.6768133640289307,-0.18900790810585022,1.2248740196228027
2.112048625946045,-0.21023020148277283,-0.8377553820610046,0.474270761013031,-1.6795002222061157,-0.18446671962738037,1.2274243831634521
2.1320269107818604,-0.2094905972480774,-0.8349370360374451,0.47649312019348145,-1.6853954792022705,-0.1892809271812439,1.2313324213027954
2.1521155834198,-0.20947995781898499,-0.8342105150222778,0.4731631278991699,-1.6899291276931763,-0.18742364645004272,1.233682632446289
2.172233819961548,-0.2088531255722046,-0.8338337540626526,0.4708707928657532,-1.695016860961914,-0.18993252515792847,1.2375258207321167
2.19230055809021,-0.2058297097682953,-0.8247399926185608,0.47227901220321655,-1.6959432363510132,-0.19156000018119812,1.2394317388534546
2.212371587753296,-0.2059359848499298,-0.8249173164367676,0.4678887724876404,-1.6977025270462036,-0.1953861117362976,1.2446941137313843
2.2324767112731934,-0.20548415184020996,-0.8262105584144592,0.46979862451553345,-1.7032791376113892,-0.1980701982975006,1.2462220191955566
2.252505302429199,-0.2056157886981964,-0.8230936527252197,0.4662683606147766,-1.704387903213501,-0.19728893041610718,1.2474507093429565
2.272584915161133,-0.20440253615379333,-0.8201444745063782,0.46250420808792114,-1.7082078456878662,-0.1965099573135376,1.2498420476913452
2.2926132678985596,-0.2044428288936615,-0.8194833993911743,0.46179133653640747,-1.711051106452942,-0.19812002778053284,1.2514244318008423
2.312706708908081,-0.20479056239128113,-0.8220111727714539,0.46053606271743774,-1.713997721672058,-0.19953635334968567,1.2541632652282715
2.3328697681427,-0.20309731364250183,-0.8173636198043823,0.4620800018310547,-1.7148357629776,-0.19972968101501465,1.2559921741485596
2.3529696464538574,-0.2037249505519867,-0.8156773447990417,0.46250665187835693,-1.7161943912506104,-0.20377793908119202,1.2579621076583862
2.3730225563049316,-0.20318514108657837,-0.8154646754264832,0.46173006296157837,-1.7183924913406372,-0.20538005232810974,1.2597249746322632
2.3930904865264893,-0.20260176062583923,-0.8163414001464844,0.45779645442962646,-1.7208577394485474,-0.20443496108055115,1.2618929147720337
2.4131674766540527,-0.2021203637123108,-0.8164456486701965,0.4562867283821106,-1.72124445438385,-0.20534655451774597,1.2635689973831177
2.4333441257476807,-0.20071011781692505,-0.8139074444770813,0.45420634746551514,-1.7234129905700684,-0.20575416088104248,1.265374779701233
2.453361988067627,-0.20099714398384094,-0.8128629326820374,0.45444750785827637,-1.7258704900741577,-0.20850127935409546,1.267342448234558
2.473402500152588,-0.20102253556251526,-0.8099800944328308,0.4559764266014099,-1.7269057035446167,-0.2111794352531433,1.2682037353515625
2.49348521232605,-0.20067042112350464,-0.8113132119178772,0.4489666223526001,-1.7284622192382812,-0.20784619450569153,1.2681951522827148
2.5135531425476074,-0.2006281316280365,-0.8128951191902161,0.44846075773239136,-1.730014681816101,-0.20783939957618713,1.2695297002792358
2.533649206161499,-0.20050212740898132,-0.8101942539215088,0.44876033067703247,-1.73019278049469,-0.20812377333641052,1.270511269569397
2.55373477935791,-0.19996574521064758,-0.8079562187194824,0.4499325752258301,-1.7319378852844238,-0.21040824055671692,1.2708231210708618
2.5738914012908936,-0.20000723004341125,-0.8069276213645935,0.44714951515197754,-1.7315181493759155,-0.20853722095489502,1.2712923288345337
2.593940496444702,-0.19907528162002563,-0.8057079315185547,0.4456097483634949,-1.7322462797164917,-0.20939785242080688,1.2718766927719116
2.6140224933624268,-0.1993902623653412,-0.8066266179084778,0.44590461254119873,-1.733070969581604,-0.2097327709197998,1.272215485572815
2.634080648422241,-0.19893720746040344,-0.8060281872749329,0.446536123752594,-1.7325671911239624,-0.20949283242225647,1.2727110385894775
2.6541433334350586,-0.1989765465259552,-0.8054372668266296,0.4462588429450989,-1.7339296340942383,-0.2107188105583191,1.2729980945587158
2.6742124557495117,-0.19937926530838013,-0.8057805299758911,0.4456043243408203,-1.7333256006240845,-0.2094358503818512,1.2729870080947876
2.6942641735076904,-0.19920626282691956,-0.802776575088501,0.4476781487464905,-1.732707142829895,-0.21353274583816528,1.2745999097824097
2.714353322982788,-0.19947373867034912,-0.8070511221885681,0.4438072443008423,-1.7342299222946167,-0.20942065119743347,1.2740987539291382
2.7344913482666016,-0.19948121905326843,-0.8073257207870483,0.4434271454811096,-1.7357211112976074,-0.21104106307029724,1.2749207019805908
2.7545812129974365,-0.19917353987693787,-0.8054656386375427,0.4415683150291443,-1.7360217571258545,-0.20930320024490356,1.275395154953003
2.774689197540283,-0.1987909972667694,-0.802422285079956,0.44599491357803345,-1.7363393306732178,-0.21374669671058655,1.2755886316299438
2.794768810272217,-0.19791379570960999,-0.8021053075790405,0.44269585609436035,-1.7361582517623901,-0.21174490451812744,1.2762960195541382
2.8148088455200195,-0.198257714509964,-0.8018378615379333,0.4424496293067932,-1.7365800142288208,-0.21242785453796387,1.2764530181884766
2.834879159927368,-0.19900867342948914,-0.8002395033836365,0.44665390253067017,-1.7374378442764282,-0.2158789038658142,1.2766484022140503
2.8550050258636475,-0.198507159948349,-0.8010275363922119,0.44252389669418335,-1.7379459142684937,-0.212985098361969,1.2766612768173218
2.87506103515625,-0.1984943449497223,-0.8041983246803284,0.4396291971206665,-1.738413691520691,-0.21079936623573303,1.2778847217559814
2.895219564437866,-0.19835320115089417,-0.8026743531227112,0.4389493465423584,-1.7386568784713745,-0.2105746865272522,1.2783002853393555
2.915339469909668,-0.19824686646461487,-0.8012036681175232,0.43649905920028687,-1.7379344701766968,-0.21134862303733826,1.279708981513977
2.935439348220825,-0.19851204752922058,-0.8004468679428101,0.439922571182251,-1.7385895252227783,-0.21450111269950867,1.2795976400375366
2.9555134773254395,-0.1976553499698639,-0.799333393573761,0.43980246782302856,-1.7392019033432007,-0.21451842784881592,1.2791575193405151
2.9755773544311523,-0.19856396317481995,-0.79799485206604,0.44101446866989136,-1.7390724420547485,-0.21487289667129517,1.279036045074463
2.9956560134887695,-0.1981658637523651,-0.80067378282547,0.43882614374160767,-1.7403209209442139,-0.21302530169487,1.2790855169296265
3.0157272815704346,-0.1985858976840973,-0.8005052804946899,0.4396730065345764,-1.740681767463684,-0.21379512548446655,1.2793512344360352
3.035796642303467,-0.197867751121521,-0.8011929392814636,0.4373100996017456,-1.7406977415084839,-0.21198460459709167,1.2798527479171753
3.05596923828125,-0.19825026392936707,-0.8002447485923767,0.4381437301635742,-1.7412179708480835,-0.21315377950668335,1.280104160308838
3.0760719776153564,-0.19771122932434082,-0.7973320484161377,0.4380882978439331,-1.7410001754760742,-0.21336424350738525,1.2802335023880005
3.096141815185547,-0.19779357314109802,-0.7973032593727112,0.4403117299079895,-1.741560459136963,-0.21625971794128418,1.280969500541687
3.1163580417633057,-0.19751697778701782,-0.7969301342964172,0.43782252073287964,-1.740922212600708,-0.21436282992362976,1.2813105583190918
3.136476516723633,-0.19782906770706177,-0.7982663512229919,0.437671959400177,-1.7418419122695923,-0.21450060606002808,1.281107783317566
3.1564886569976807,-0.19777551293373108,-0.7970046401023865,0.4373622536659241,-1.7415026426315308,-0.21502870321273804,1.2812368869781494
3.1765193939208984,-0.19768205285072327,-0.7968629002571106,0.43780410289764404,-1.7419952154159546,-0.21463528275489807,1.2813342809677124
3.1965739727020264,-0.19765141606330872,-0.7994105815887451,0.4361305236816406,-1.7427858114242554,-0.21281370520591736,1.2815192937850952
3.216661214828491,-0.1977677047252655,-0.7981469035148621,0.436586856842041,-1.7426862716674805,-0.21440806984901428,1.281607985496521
3.2368123531341553,-0.19728294014930725,-0.7971678972244263,0.43576472997665405,-1.7424167394638062,-0.214124858379364,1.2819658517837524
3.257016181945801,-0.19720348715782166,-0.796938955783844,0.43620628118515015,-1.7423624992370605,-0.214036762714386,1.2819726467132568
3.277103900909424,-0.1975139081478119,-0.7967761754989624,0.43622303009033203,-1.7427424192428589,-0.21421760320663452,1.2820631265640259
3.2972052097320557,-0.19738999009132385,-0.796043336391449,0.43617624044418335,-1.7427479028701782,-0.21507540345191956,1.282250165939331
3.317232370376587,-0.19733622670173645,-0.7964401245117188,0.4359850287437439,-1.743014931678772,-0.2145005166530609,1.282371163368225
3.3373310565948486,-0.19707366824150085,-0.795708954334259,0.43532639741897583,-1.7428817749023438,-0.2140076458454132,1.282601237297058
3.3573832511901855,-0.19712939858436584,-0.7967113852500916,0.43407005071640015,-1.7432148456573486,-0.21336665749549866,1.2830007076263428
3.377603769302368,-0.1972440779209137,-0.7960653901100159,0.4348651170730591,-1.7431293725967407,-0.2156505286693573,1.2833621501922607
3.397562265396118,-0.19719237089157104,-0.7959558963775635,0.4343253970146179,-1.743424415588379,-0.21543774008750916,1.2833653688430786
3.417673349380493,-0.19677165150642395,-0.7943474650382996,0.43441444635391235,-1.74248206615448,-0.21612879633903503,1.284194827079773
3.4378912448883057,-0.1969209611415863,-0.7950350642204285,0.4348209500312805,-1.7436888217926025,-0.21531453728675842,1.2835484743118286
3.4579644203186035,-0.19693967700004578,-0.7952901721000671,0.4360865354537964,-1.7441651821136475,-0.21614700555801392,1.2835770845413208
3.478085994720459,-0.1971844732761383,-0.7962263226509094,0.43331265449523926,-1.744118094444275,-0.21479859948158264,1.2835794687271118
3.498213768005371,-0.1973312497138977,-0.7949464321136475,0.43505585193634033,-1.7443159818649292,-0.21671974658966064,1.2837929725646973
3.518245220184326,-0.1964782178401947,-0.794684648513794,0.43431729078292847,-1.7440907955169678,-0.21624302864074707,1.2842448949813843
3.5383307933807373,-0.19680052995681763,-0.7944080233573914,0.4347957968711853,-1.7438246011734009,-0.21646952629089355,1.2845008373260498
3.558486223220825,-0.19667592644691467,-0.7937762141227722,0.43472999334335327,-1.7441705465316772,-0.21645784378051758,1.2844728231430054
3.578794479370117,-0.19662654399871826,-0.7937860488891602,0.43402159214019775,-1.7443903684616089,-0.21605506539344788,1.284503698348999
3.59883713722229,-0.19688764214515686,-0.7953317761421204,0.43372607231140137,-1.744594931602478,-0.21593952178955078,1.2846102714538574
3.619009017944336,-0.19668269157409668,-0.7948921322822571,0.43442630767822266,-1.7444804906845093,-0.21653616428375244,1.2846592664718628
3.6390342712402344,-0.19666633009910583,-0.795017421245575,0.4335656762123108,-1.7444877624511719,-0.21571364998817444,1.2847826480865479
3.6592628955841064,-0.19684362411499023,-0.7947805523872375,0.43237632513046265,-1.744240403175354,-0.21534034609794617,1.2845487594604492
3.6793711185455322,-0.19662663340568542,-0.7933127284049988,0.4339282512664795,-1.7444193363189697,-0.21617737412452698,1.2846678495407104
3.6994714736938477,-0.19665369391441345,-0.7934889197349548,0.43301087617874146,-1.7444528341293335,-0.2155691683292389,1.2846354246139526
3.719499349594116,-0.1967184841632843,-0.79354327917099,0.43319571018218994,-1.7443861961364746,-0.21596944332122803,1.284692645072937
3.7396161556243896,-0.1968766748905182,-0.7942840456962585,0.4338444471359253,-1.7446452379226685,-0.21628668904304504,1.2846721410751343
3.759864568710327,-0.1967676281929016,-0.7940086126327515,0.43347084522247314,-1.7444263696670532,-0.21599209308624268,1.2846919298171997
3.779871702194214,-0.19672951102256775,-0.7939760088920593,0.4331567883491516,-1.744347095489502,-0.21581745147705078,1.284792423248291
3.7999651432037354,-0.19681993126869202,-0.7939346432685852,0.4334726929664612,-1.7445719242095947,-0.2160806655883789,1.284652829170227
3.820042133331299,-0.19685658812522888,-0.7945298552513123,0.4328885078430176,-1.7445768117904663,-0.21554893255233765,1.2847051620483398
3.8400959968566895,-0.19673043489456177,-0.7939895987510681,0.433103084564209,-1.7447240352630615,-0.2157197892665863,1.2846421003341675
3.860159397125244,-0.19679293036460876,-0.7938725352287292,0.433871865272522,-1.7447837591171265,-0.21637189388275146,1.2846890687942505
3.880258321762085,-0.19696864485740662,-0.7938744425773621,0.4327505826950073,-1.7445887327194214,-0.21589019894599915,1.284699559211731
3.9003896713256836,-0.19690316915512085,-0.7938057780265808,0.43326109647750854,-1.7446800470352173,-0.2164020836353302,1.2847093343734741
3.920395612716675,-0.19678851962089539,-0.7938409447669983,0.4327724575996399,-1.744557499885559,-0.21609625220298767,1.2847553491592407
3.940570592880249,-0.19686082005500793,-0.79360431432724,0.4329566955566406,-1.7447131872177124,-0.2160990834236145,1.2847048044204712
3.960690498352051,-0.19686689972877502,-0.7928142547607422,0.4329494833946228,-1.744573712348938,-0.21590515971183777,1.2847611904144287
3.980966806411743,-0.19673430919647217,-0.7929847836494446,0.4330679178237915,-1.7446955442428589,-0.21620360016822815,1.2847936153411865
4.000928640365601,-0.19675302505493164,-0.7930988669395447,0.4326660633087158,-1.7448421716690063,-0.2161097526550293,1.284801959991455
4.021148681640625,-0.19664201140403748,-0.7929592132568359,0.4330880641937256,-1.744565725326538,-0.2161870300769806,1.2849035263061523
4.0412421226501465,-0.19664722681045532,-0.7929325699806213,0.43270301818847656,-1.7446014881134033,-0.21593230962753296,1.2848395109176636
4.061355352401733,-0.19678828120231628,-0.793171226978302,0.43295174837112427,-1.7447298765182495,-0.21615231037139893,1.2848187685012817
4.081505537033081,-0.19684109091758728,-0.7932154536247253,0.432608962059021,-1.7447103261947632,-0.215861976146698,1.284781575202942
4.101525545120239,-0.19681867957115173,-0.7930970788002014,0.43293333053588867,-1.7447682619094849,-0.2160121202468872,1.284794569015503
4.1216888427734375,-0.19674089550971985,-0.793050229549408,0.4327464699745178,-1.7447091341018677,-0.2159968614578247,1.2848583459854126
4.1417553424835205,-0.19687986373901367,-0.7931445240974426,0.43289023637771606,-1.7447540760040283,-0.21597427129745483,1.2848025560379028
4.161855697631836,-0.1967490017414093,-0.793106198310852,0.432735800743103,-1.744690179824829,-0.21590328216552734,1.2847858667373657
4.181983232498169,-0.19679740071296692,-0.7931331396102905,0.4328051209449768,-1.7447540760040283,-0.2159518003463745,1.284789800643921
4.202073812484741,-0.1968061327934265,-0.7939019799232483,0.431357204914093,-1.7448369264602661,-0.21490734815597534,1.2849022150039673
4.222102642059326,-0.19691887497901917,-0.7934916615486145,0.4320070147514343,-1.7449404001235962,-0.21509212255477905,1.284777283668518
4.242214918136597,-0.19680237770080566,-0.7929310202598572,0.4327072501182556,-1.74472177028656,-0.21554410457611084,1.2848235368728638
4.262367010116577,-0.1966346800327301,-0.7929507493972778,0.43223971128463745,-1.7446174621582031,-0.21557366847991943,1.2848445177078247
4.282814025878906,-0.19687405228614807,-0.7925257086753845,0.43384939432144165,-1.7449241876602173,-0.21671432256698608,1.2847450971603394
4.302922487258911,-0.19699156284332275,-0.7930209040641785,0.43281930685043335,-1.744632363319397,-0.2159961760044098,1.2847381830215454
4.323047399520874,-0.19698455929756165,-0.7929255962371826,0.43242067098617554,-1.7448557615280151,-0.21554386615753174,1.2846795320510864
4.343088150024414,-0.1969720423221588,-0.7929203510284424,0.43248581886291504,-1.7448954582214355,-0.2156350016593933,1.2846771478652954
4.363160133361816,-0.19673359394073486,-0.7927910089492798,0.43244755268096924,-1.7448850870132446,-0.21566545963287354,1.2847743034362793
4.383224964141846,-0.19674429297447205,-0.7927278280258179,0.4321399927139282,-1.7447338104248047,-0.2152864634990692,1.2847321033477783
4.403285503387451,-0.19682493805885315,-0.7928664684295654,0.4323467016220093,-1.744803547859192,-0.21550923585891724,1.28473699092865
4.423433780670166,-0.19692710041999817,-0.7928849458694458,0.4328550100326538,-1.7449158430099487,-0.21582680940628052,1.284716010093689
4.443536996841431,-0.19695121049880981,-0.7929658889770508,0.43247711658477783,-1.744814395904541,-0.2156369388103485,1.2847621440887451
4.463606595993042,-0.1968955099582672,-0.7928902506828308,0.43253231048583984,-1.7448443174362183,-0.21560949087142944,1.2847306728363037
4.483669281005859,-0.1969335973262787,-0.7929096221923828,0.43259507417678833,-1.7449296712875366,-0.2156655192375183,1.2847238779067993
4.503864288330078,-0.1968485414981842,-0.7928172945976257,0.43248236179351807,-1.7448394298553467,-0.21555915474891663,1.284735083580017
4.524052858352661,-0.19678765535354614,-0.7928295731544495,0.431999146938324,-1.7447683811187744,-0.21528249979019165,1.2848671674728394
4.544111013412476,-0.19675883650779724,-0.7929210066795349,0.4324025511741638,-1.7448521852493286,-0.21555352210998535,1.284876823425293
4.564138889312744,-0.1968192160129547,-0.7929033041000366,0.4324991703033447,-1.7449164390563965,-0.21561047434806824,1.2848674058914185
4.584368944168091,-0.19687551259994507,-0.7928784489631653,0.43253201246261597,-1.7449134588241577,-0.2156566083431244,1.28486967086792
4.604346036911011,-0.19689151644706726,-0.7928902506828308,0.43242698907852173,-1.744909405708313,-0.21555811166763306,1.2848626375198364
4.6243908405303955,-0.197011798620224,-0.7930908799171448,0.43247371912002563,-1.7449617385864258,-0.21575072407722473,1.284886360168457
4.644579172134399,-0.19695469737052917,-0.7930074334144592,0.4326006770133972,-1.744994878768921,-0.21575254201889038,1.284869909286499
4.664739608764648,-0.19679152965545654,-0.7928110361099243,0.4324730634689331,-1.7449016571044922,-0.21557646989822388,1.2848809957504272
4.684955596923828,-0.19678643345832825,-0.792820930480957,0.43243706226348877,-1.7448387145996094,-0.21555301547050476,1.2848676443099976
4.70492959022522,-0.19691184163093567,-0.7929931282997131,0.4329700469970703,-1.7450761795043945,-0.21596777439117432,1.2848520278930664
4.725022315979004,-0.19687649607658386,-0.7929929494857788,0.43243110179901123,-1.7448607683181763,-0.2157076895236969,1.2849090099334717
4.745134353637695,-0.19698885083198547,-0.7929911017417908,0.43267548084259033,-1.7449394464492798,-0.21560868620872498,1.284833312034607
4.7652928829193115,-0.1968924105167389,-0.7928637266159058,0.4322923421859741,-1.74479341506958,-0.21544566750526428,1.284868597984314
4.785392999649048,-0.19698065519332886,-0.792975902557373,0.43278414011001587,-1.744990348815918,-0.21566498279571533,1.2848100662231445
4.805513620376587,-0.19707950949668884,-0.7931997776031494,0.4326639771461487,-1.7449082136154175,-0.2157973349094391,1.2848422527313232
4.825543642044067,-0.19700881838798523,-0.7930925488471985,0.43295609951019287,-1.7449951171875,-0.21586763858795166,1.2848129272460938
4.845615386962891,-0.19690284132957458,-0.7928633093833923,0.43245136737823486,-1.7449084520339966,-0.21548983454704285,1.2848140001296997
4.86580228805542,-0.19688454270362854,-0.7928125262260437,0.43273019790649414,-1.7450429201126099,-0.21560093760490417,1.284796118736267
4.885771751403809,-0.1969754993915558,-0.7930238842964172,0.4328707456588745,-1.7450357675552368,-0.21582522988319397,1.284828543663025
4.90599513053894,-0.19696319103240967,-0.7929307818412781,0.4325672388076782,-1.7449818849563599,-0.21557524800300598,1.2848314046859741
4.926097869873047,-0.19696125388145447,-0.7929130792617798,0.43238914012908936,-1.7449545860290527,-0.21544545888900757,1.2848385572433472
4.946149110794067,-0.1970055103302002,-0.7929803729057312,0.432508647441864,-1.7449898719787598,-0.21559211611747742,1.2848126888275146
4.966193675994873,-0.19699618220329285,-0.7930789589881897,0.4328109622001648,-1.74496591091156,-0.21581688523292542,1.2848175764083862
4.986293792724609,-0.19691208004951477,-0.7928650975227356,0.4325231909751892,-1.744917631149292,-0.21550977230072021,1.2848176956176758
5.006426572799683,-0.1968514621257782,-0.7927270531654358,0.4327561855316162,-1.7450069189071655,-0.21556106209754944,1.2847789525985718
5.026472330093384,-0.19685205817222595,-0.7927491068840027,0.4325970411300659,-1.7448972463607788,-0.21550095081329346,1.2848082780838013
5.046556711196899,-0.19688889384269714,-0.7928376793861389,0.4328879117965698,-1.7450073957443237,-0.21574115753173828,1.2848089933395386
5.066643238067627,-0.19701290130615234,-0.7930486798286438,0.43258136510849,-1.744981050491333,-0.21562516689300537,1.284826397895813
5.086774587631226,-0.19698688387870789,-0.7930642366409302,0.43247079849243164,-1.7448781728744507,-0.21559053659439087,1.2848721742630005
5.1068243980407715,-0.19699054956436157,-0.7930265069007874,0.4326779842376709,-1.7450045347213745,-0.2156686782836914,1.2848294973373413
5.126941204071045,-0.19700822234153748,-0.7930752038955688,0.4327859878540039,-1.7450028657913208,-0.2158200442790985,1.2848650217056274
5.147006273269653,-0.19694611430168152,-0.7929599285125732,0.43252527713775635,-1.7448588609695435,-0.21554234623908997,1.2848097085952759
5.167069911956787,-0.1969102919101715,-0.7929708361625671,0.4325036406517029,-1.7448234558105469,-0.2155357003211975,1.2848321199417114
5.18712043762207,-0.19690757989883423,-0.7928194403648376,0.43242013454437256,-1.7449754476547241,-0.2153853178024292,1.2847925424575806
5.207233667373657,-0.1969347894191742,-0.7929838299751282,0.4327458143234253,-1.7449289560317993,-0.21566960215568542,1.2848495244979858
5.227346420288086,-0.1969083845615387,-0.7929098010063171,0.4329574704170227,-1.74500572681427,-0.21577507257461548,1.2848204374313354
5.2474634647369385,-0.19695207476615906,-0.7929868102073669,0.43265801668167114,-1.7449201345443726,-0.21562403440475464,1.2848328351974487
5.267471075057983,-0.1969340741634369,-0.7929122447967529,0.4326013922691345,-1.7449437379837036,-0.21558645367622375,1.2848151922225952
5.2876105308532715,-0.19688808917999268,-0.7928465008735657,0.432298481464386,-1.7448135614395142,-0.21534237265586853,1.2848256826400757
5.3076395988464355,-0.1968812644481659,-0.7928792834281921,0.43251121044158936,-1.7449042797088623,-0.21551820635795593,1.284837007522583
5.328423500061035,-0.19695428013801575,-0.7929579615592957,0.4326247572898865,-1.744953989982605,-0.21561354398727417,1.2848058938980103
5.348508596420288,-0.19692537188529968,-0.7929233908653259,0.4326280355453491,-1.7449268102645874,-0.2155860960483551,1.284828543663025
5.368768215179443,-0.19689401984214783,-0.7928089499473572,0.4323815107345581,-1.744853138923645,-0.2153620421886444,1.2848081588745117
5.388681650161743,-0.19692832231521606,-0.7929404377937317,0.4328083395957947,-1.7449724674224854,-0.2157478928565979,1.2848154306411743
5.408888101577759,-0.19694724678993225,-0.7929446697235107,0.4325411915779114,-1.7449150085449219,-0.21554812788963318,1.28482186794281
5.429015874862671,-0.1969776153564453,-0.7930291295051575,0.43301618099212646,-1.7450230121612549,-0.21588176488876343,1.2848073244094849
5.4490087032318115,-0.196892648935318,-0.7928334474563599,0.4328482747077942,-1.7449935674667358,-0.21562862396240234,1.2847929000854492
5.469111204147339,-0.19690808653831482,-0.7929630279541016,0.4324709177017212,-1.7448314428329468,-0.21552875638008118,1.2848254442214966
5.48914361000061,-0.19691482186317444,-0.7929548621177673,0.43272000551223755,-1.7449520826339722,-0.21564283967018127,1.2848297357559204
5.50919508934021,-0.19693484902381897,-0.7929681539535522,0.43277937173843384,-1.7449620962142944,-0.21572095155715942,1.2848162651062012
5.529801607131958,-0.19699135422706604,-0.7929713129997253,0.43261563777923584,-1.744997262954712,-0.2156224548816681,1.28481924533844
5.549906492233276,-0.19709447026252747,-0.7932297587394714,0.4327775239944458,-1.7449969053268433,-0.21589094400405884,1.2848552465438843
5.569966077804565,-0.1970842182636261,-0.7931910753250122,0.43263834714889526,-1.7449743747711182,-0.2157357633113861,1.284865379333496
5.59002161026001,-0.1970290243625641,-0.7930681109428406,0.43272948265075684,-1.7450124025344849,-0.2157086730003357,1.2848308086395264
5.610176086425781,-0.19687917828559875,-0.792853057384491,0.43256205320358276,-1.7449240684509277,-0.21553605794906616,1.2848330736160278
5.630242824554443,-0.1969190239906311,-0.7929122447967529,0.43260037899017334,-1.7449382543563843,-0.2155785858631134,1.2848206758499146
5.650288343429565,-0.1968965232372284,-0.792895495891571,0.4325829744338989,-1.7449216842651367,-0.21555519104003906,1.2848362922668457
5.670393466949463,-0.19695699214935303,-0.7929714322090149,0.4327675700187683,-1.744978666305542,-0.21568459272384644,1.284812092781067
5.6905858516693115,-0.19687944650650024,-0.7929173707962036,0.43274420499801636,-1.7448886632919312,-0.21568265557289124,1.2848204374313354
5.710590600967407,-0.1969638168811798,-0.7930336594581604,0.43252772092819214,-1.744890570640564,-0.2155979871749878,1.2848613262176514
5.730724573135376,-0.19693660736083984,-0.7929197549819946,0.43224483728408813,-1.7448577880859375,-0.2153474986553192,1.284829020500183
5.750904560089111,-0.19691839814186096,-0.7930178046226501,0.4326862096786499,-1.744869589805603,-0.21570372581481934,1.2848217487335205
5.771049737930298,-0.19701138138771057,-0.7929127812385559,0.43239790201187134,-1.7449700832366943,-0.21544799208641052,1.2848056554794312
5.791161775588989,-0.19691979885101318,-0.7928300499916077,0.4326903820037842,-1.744982123374939,-0.2155931293964386,1.2847808599472046
5.811248302459717,-0.1969870626926422,-0.7930446267127991,0.4326804280281067,-1.744989275932312,-0.21566665172576904,1.284833312034607
5.831329345703125,-0.19701477885246277,-0.793044924736023,0.43239134550094604,-1.7448862791061401,-0.21548059582710266,1.2848200798034668
5.851404428482056,-0.19701924920082092,-0.7930994033813477,0.43246322870254517,-1.7448816299438477,-0.2156081199645996,1.28485906124115
5.871448993682861,-0.19690051674842834,-0.7928357124328613,0.43267834186553955,-1.7449671030044556,-0.2155773937702179,1.2848166227340698
5.891531944274902,-0.19687196612358093,-0.7927965521812439,0.43287110328674316,-1.7450107336044312,-0.21564450860023499,1.2847901582717896
5.911709308624268,-0.1967948079109192,-0.7926586270332336,0.4328829050064087,-1.7449650764465332,-0.21556776762008667,1.284783959388733
5.931737899780273,-0.19689282774925232,-0.7928006052970886,0.43251878023147583,-1.7449195384979248,-0.2154412567615509,1.284828782081604
5.951786041259766,-0.19701722264289856,-0.7931665182113647,0.43281859159469604,-1.7449532747268677,-0.21585649251937866,1.284857153892517
5.971868276596069,-0.19698670506477356,-0.7930375933647156,0.4327346682548523,-1.7449558973312378,-0.21567538380622864,1.2848185300827026
5.991916656494141,-0.19696715474128723,-0.7929633259773254,0.43257319927215576,-1.7449719905853271,-0.2155810296535492,1.2848376035690308
6.011976480484009,-0.19695207476615906,-0.7929535508155823,0.43261635303497314,-1.7449396848678589,-0.2156040370464325,1.2848221063613892
6.032098293304443,-0.19687291979789734,-0.7928085923194885,0.43275290727615356,-1.7449817657470703,-0.215582937002182,1.284789800643921
6.052331447601318,-0.1968693733215332,-0.7927740812301636,0.4327583909034729,-1.7449902296066284,-0.2155771553516388,1.2847832441329956
6.072262525558472,-0.19683381915092468,-0.7927276492118835,0.4327213764190674,-1.744974136352539,-0.21553939580917358,1.2847968339920044
6.092350959777832,-0.19688454270362854,-0.7929008603096008,0.43266868591308594,-1.7448824644088745,-0.21556323766708374,1.2847970724105835
6.112401485443115,-0.19686022400856018,-0.7927480340003967,0.4323800206184387,-1.7449060678482056,-0.21531999111175537,1.2847900390625
6.132511377334595,-0.196944922208786,-0.7929695248603821,0.43238532543182373,-1.7448725700378418,-0.21552592515945435,1.284862756729126
6.15259313583374,-0.19694170355796814,-0.7929065823554993,0.43273138999938965,-1.7449692487716675,-0.21562159061431885,1.2848224639892578
6.17268705368042,-0.19689184427261353,-0.7928987145423889,0.43278831243515015,-1.7449182271957397,-0.21564358472824097,1.2848714590072632
6.19274640083313,-0.1969972550868988,-0.7929894924163818,0.4327651858329773,-1.7450239658355713,-0.21569004654884338,1.2848182916641235
6.2128472328186035,-0.1968008577823639,-0.792901873588562,0.4325485825538635,-1.7448712587356567,-0.21551105380058289,1.2849417924880981
6.233018159866333,-0.1970318853855133,-0.7929487824440002,0.43264657258987427,-1.7449864149093628,-0.21566203236579895,1.2848082780838013
6.25311803817749,-0.196946918964386,-0.7929830551147461,0.4326481819152832,-1.744860053062439,-0.2156360149383545,1.2848323583602905
6.273166179656982,-0.19691947102546692,-0.7928670048713684,0.43283194303512573,-1.7450484037399292,-0.2156546413898468,1.2847951650619507
6.293207883834839,-0.196936696767807,-0.7930155396461487,0.43279558420181274,-1.7449449300765991,-0.2157643735408783,1.2848352193832397
6.313270807266235,-0.19687554240226746,-0.7928791642189026,0.43248265981674194,-1.7448395490646362,-0.21542301774024963,1.2848376035690308
6.333374261856079,-0.19691148400306702,-0.7929160594940186,0.43259304761886597,-1.7449222803115845,-0.21556028723716736,1.2848280668258667
6.353410959243774,-0.19687223434448242,-0.7928135991096497,0.43274056911468506,-1.7449811697006226,-0.21557888388633728,1.2847884893417358
6.373485088348389,-0.19702628254890442,-0.793170154094696,0.43271976709365845,-1.7449127435684204,-0.21581140160560608,1.2848602533340454
6.393633604049683,-0.19698935747146606,-0.7930800914764404,0.4329666495323181,-1.7449973821640015,-0.21585780382156372,1.2848142385482788
6.4137632846832275,-0.19695016741752625,-0.7929683923721313,0.4327215552330017,-1.7449439764022827,-0.21563571691513062,1.2848303318023682
6.433825492858887,-0.19693511724472046,-0.792963445186615,0.4328262209892273,-1.7449842691421509,-0.21576985716819763,1.284812331199646
6.453907251358032,-0.19693991541862488,-0.7928267121315002,0.4329320788383484,-1.745113492012024,-0.21569854021072388,1.2847654819488525
6.473999738693237,-0.19701558351516724,-0.7930278778076172,0.4326696991920471,-1.744938611984253,-0.215691477060318,1.2848527431488037
6.494034767150879,-0.19687551259994507,-0.7927214503288269,0.4324396848678589,-1.7449309825897217,-0.21534690260887146,1.2847895622253418
6.514090299606323,-0.1969018280506134,-0.7929343581199646,0.43286871910095215,-1.744984745979309,-0.21568521857261658,1.284803032875061
6.534235715866089,-0.19688740372657776,-0.7928614616394043,0.43251848220825195,-1.744903564453125,-0.21544063091278076,1.2848490476608276
6.554276466369629,-0.19692203402519226,-0.792915403842926,0.4325975179672241,-1.7449287176132202,-0.2155681550502777,1.2848259210586548
6.574597120285034,-0.1969113051891327,-0.7928466796875,0.4325330853462219,-1.7449376583099365,-0.21551334857940674,1.284812331199646
6.5947160720825195,-0.19694772362709045,-0.7929831743240356,0.4326833486557007,-1.7449365854263306,-0.21563023328781128,1.2848320007324219
6.614780902862549,-0.1968878209590912,-0.7929149866104126,0.4327065944671631,-1.744881272315979,-0.21559888124465942,1.2848327159881592
6.634867429733276,-0.19687411189079285,-0.7927952408790588,0.4324031472206116,-1.7448464632034302,-0.21535137295722961,1.2848138809204102
6.6549248695373535,-0.1970217525959015,-0.7930628657341003,0.43281036615371704,-1.7450435161590576,-0.21576395630836487,1.2848151922225952
6.674992084503174,-0.19703525304794312,-0.7930319309234619,0.4326530694961548,-1.7450274229049683,-0.21563312411308289,1.2848073244094849
6.695128440856934,-0.19694802165031433,-0.7929316759109497,0.4324831962585449,-1.7449021339416504,-0.215526282787323,1.2848314046859741
6.715160846710205,-0.1970038115978241,-0.793026328086853,0.4322490692138672,-1.7448996305465698,-0.2154402732849121,1.2848759889602661
6.735243320465088,-0.19689759612083435,-0.7928548455238342,0.432789146900177,-1.7449792623519897,-0.2156345248222351,1.284835934638977
6.7554075717926025,-0.1968662440776825,-0.7927946448326111,0.4326621890068054,-1.7449482679367065,-0.215542733669281,1.2848347425460815
6.775400161743164,-0.19691702723503113,-0.7928882241249084,0.4326174855232239,-1.7449380159378052,-0.21557629108428955,1.2848223447799683
6.795468807220459,-0.19694873690605164,-0.7929646372795105,0.4326357841491699,-1.744936466217041,-0.2156088948249817,1.284825325012207
6.815531253814697,-0.1968870460987091,-0.79286789894104,0.43300920724868774,-1.745028018951416,-0.21577918529510498,1.2847851514816284
6.835623741149902,-0.1969268023967743,-0.7928988933563232,0.4326990246772766,-1.7449522018432617,-0.21560955047607422,1.284821629524231
6.855662107467651,-0.1970168948173523,-0.792960524559021,0.43248265981674194,-1.7449854612350464,-0.2155119776725769,1.284812569618225
6.875740051269531,-0.19682061672210693,-0.79278564453125,0.43281984329223633,-1.744981288909912,-0.2155955731868744,1.284809947013855
6.8958353996276855,-0.19690290093421936,-0.792839765548706,0.4323968291282654,-1.7448984384536743,-0.21538755297660828,1.284825325012207
6.915894269943237,-0.19695726037025452,-0.7929869294166565,0.4321587085723877,-1.7447841167449951,-0.21537432074546814,1.2848349809646606
6.935990810394287,-0.19701239466667175,-0.7931684255599976,0.43248826265335083,-1.7448731660842896,-0.21565791964530945,1.2848676443099976
6.9561052322387695,-0.19690963625907898,-0.7927982211112976,0.43265748023986816,-1.7449661493301392,-0.2155621349811554,1.2848118543624878
6.976194381713867,-0.1969226896762848,-0.7929798364639282,0.43291759490966797,-1.744968056678772,-0.21581652760505676,1.2848403453826904
6.996270418167114,-0.1969209611415863,-0.7928948998451233,0.43244749307632446,-1.744895100593567,-0.21542763710021973,1.284834384918213
7.016318321228027,-0.19695281982421875,-0.7929745316505432,0.4324148893356323,-1.7448797225952148,-0.2154642641544342,1.2848385572433472
7.036427021026611,-0.19703081250190735,-0.7930275201797485,0.43240588903427124,-1.7449496984481812,-0.2155265212059021,1.28485906124115
7.056500434875488,-0.19701814651489258,-0.7930790781974792,0.43221503496170044,-1.744933009147644,-0.21538123488426208,1.2847973108291626
7.076620817184448,-0.1969069242477417,-0.7928951382637024,0.4323424696922302,-1.7448927164077759,-0.21537911891937256,1.2848044633865356
7.096832513809204,-0.19705557823181152,-0.793148398399353,0.4329625368118286,-1.7450294494628906,-0.21593788266181946,1.2848613262176514
7.116826772689819,-0.19695690274238586,-0.7929033637046814,0.4330242872238159,-1.745123028755188,-0.21587586402893066,1.2847975492477417
7.136883020401001,-0.19693851470947266,-0.7928765416145325,0.43287068605422974,-1.7450124025344849,-0.21574968099594116,1.2848014831542969
7.157282829284668,-0.19691598415374756,-0.792957603931427,0.43277108669281006,-1.7449026107788086,-0.2156718671321869,1.2848734855651855
7.177469730377197,-0.19697237014770508,-0.7930096387863159,0.4323534369468689,-1.7448337078094482,-0.21552416682243347,1.284837007522583
7.197583913803101,-0.19690737128257751,-0.7929614186286926,0.43267154693603516,-1.7449309825897217,-0.21567821502685547,1.284830093383789
7.217597484588623,-0.19700267910957336,-0.7931325435638428,0.43247395753860474,-1.7448710203170776,-0.215620756149292,1.284863829612732
7.2376933097839355,-0.1969430148601532,-0.7929649949073792,0.43236905336380005,-1.7448803186416626,-0.21542146801948547,1.2848349809646606
7.257807731628418,-0.19693291187286377,-0.7929083704948425,0.432742178440094,-1.7449649572372437,-0.2156553566455841,1.284824252128601
7.278008222579956,-0.19688591361045837,-0.7928377985954285,0.43233269453048706,-1.7448136806488037,-0.21534818410873413,1.2848297357559204
7.297959089279175,-0.1968921422958374,-0.7928355932235718,0.43259167671203613,-1.7449461221694946,-0.21554121375083923,1.2848175764083862
7.318078517913818,-0.1970081329345703,-0.7930358648300171,0.43272072076797485,-1.745010495185852,-0.21569201350212097,1.2848294973373413
7.3381898403167725,-0.1970292627811432,-0.7930701375007629,0.43252772092819214,-1.7449101209640503,-0.21561184525489807,1.2848109006881714
7.358235597610474,-0.19699648022651672,-0.79306960105896,0.43275773525238037,-1.7448889017105103,-0.21585166454315186,1.2848615646362305
7.378642797470093,-0.19693174958229065,-0.7929171919822693,0.43279290199279785,-1.7449957132339478,-0.21569159626960754,1.2847963571548462
7.398742198944092,-0.19691979885101318,-0.7928420305252075,0.432572603225708,-1.7449486255645752,-0.21553197503089905,1.2848095893859863
7.41884183883667,-0.19690093398094177,-0.7928244471549988,0.4321902394294739,-1.7448500394821167,-0.2152996063232422,1.2848331928253174
7.438855409622192,-0.1968921422958374,-0.7928838729858398,0.4324802756309509,-1.7449097633361816,-0.21552011370658875,1.2848316431045532
7.458966255187988,-0.19696524739265442,-0.792960524559021,0.43270188570022583,-1.7449456453323364,-0.2156330943107605,1.2848280668258667
7.479185104370117,-0.19689741730690002,-0.7928955554962158,0.4325845241546631,-1.7448557615280151,-0.21553859114646912,1.2848284244537354
7.499172925949097,-0.19703373312950134,-0.7931202054023743,0.4324420690536499,-1.7450071573257446,-0.21560406684875488,1.2848354578018188
7.519241809844971,-0.19691923260688782,-0.7928434610366821,0.4327627420425415,-1.7450076341629028,-0.21563249826431274,1.2848509550094604
7.539304494857788,-0.19681689143180847,-0.7927517890930176,0.4326404929161072,-1.744844913482666,-0.21549704670906067,1.284861445426941
7.559391021728516,-0.19688627123832703,-0.7928622364997864,0.4326164722442627,-1.7449226379394531,-0.215552419424057,1.2848310470581055
7.5794594287872314,-0.19700631499290466,-0.792995274066925,0.43262678384780884,-1.745093584060669,-0.21563038229942322,1.2847883701324463
7.599567651748657,-0.19679376482963562,-0.7926749587059021,0.43294936418533325,-1.7449368238449097,-0.21572935581207275,1.2847877740859985
7.619597911834717,-0.1969223916530609,-0.7929133772850037,0.43307143449783325,-1.7450348138809204,-0.21586662530899048,1.2848044633865356
7.639952182769775,-0.19683510065078735,-0.7928416132926941,0.43279844522476196,-1.7448533773422241,-0.2156004011631012,1.2848726511001587
7.660072565078735,-0.19710108637809753,-0.7930737733840942,0.4325929880142212,-1.745195984840393,-0.21570035815238953,1.2847543954849243
7.680130481719971,-0.1970222294330597,-0.7930850982666016,0.432667076587677,-1.7449547052383423,-0.21576443314552307,1.2848116159439087
7.700202465057373,-0.19695863127708435,-0.7930586338043213,0.43251097202301025,-1.7447929382324219,-0.21559098362922668,1.2848845720291138
7.720274925231934,-0.1969507932662964,-0.7928773164749146,0.4326501488685608,-1.7449926137924194,-0.2156035304069519,1.2847893238067627
7.740439414978027,-0.1969148814678192,-0.7928604483604431,0.43282967805862427,-1.7449699640274048,-0.21567180752754211,1.28484046459198
7.7605602741241455,-0.19693782925605774,-0.7930333018302917,0.4329361915588379,-1.7449191808700562,-0.21583682298660278,1.2849048376083374
7.781167268753052,-0.1968573033809662,-0.792879581451416,0.4326663613319397,-1.744957685470581,-0.21553048491477966,1.2848528623580933
7.801307439804077,-0.1970151662826538,-0.7929387092590332,0.43234574794769287,-1.7450449466705322,-0.21545502543449402,1.2847963571548462
7.821343183517456,-0.19698873162269592,-0.7929700613021851,0.43254923820495605,-1.744951844215393,-0.21561101078987122,1.284806489944458
7.841442108154297,-0.19693976640701294,-0.7928851246833801,0.43240106105804443,-1.7450352907180786,-0.21539711952209473,1.2848049402236938
7.861517906188965,-0.1970108151435852,-0.7930445075035095,0.4324415326118469,-1.745012879371643,-0.21558108925819397,1.2848526239395142
7.881619930267334,-0.19697126746177673,-0.792995274066925,0.43259257078170776,-1.744946837425232,-0.2156178057193756,1.2848175764083862
7.901682615280151,-0.19699588418006897,-0.792995274066925,0.43204933404922485,-1.744895339012146,-0.2153036892414093,1.284824013710022
7.921781063079834,-0.19689112901687622,-0.7928636074066162,0.43289899826049805,-1.7449678182601929,-0.21567785739898682,1.2848511934280396
7.94184684753418,-0.19691795110702515,-0.7928356528282166,0.433052659034729,-1.7450401782989502,-0.21587243676185608,1.2848275899887085
7.961973428726196,-0.19688227772712708,-0.7928498387336731,0.4327263832092285,-1.7449063062667847,-0.21560117602348328,1.2848671674728394
7.982040882110596,-0.19702699780464172,-0.7930400967597961,0.43264180421829224,-1.7450345754623413,-0.21568021178245544,1.284806728363037
8.002082586288452,-0.196978360414505,-0.7929820418357849,0.43263477087020874,-1.7449499368667603,-0.21563199162483215,1.2848175764083862
8.022146940231323,-0.19689825177192688,-0.7928748726844788,0.4330095648765564,-1.7450295686721802,-0.21578869223594666,1.284783959388733
8.042217254638672,-0.19684645533561707,-0.7928310632705688,0.43268507719039917,-1.744890809059143,-0.2155545949935913,1.2848786115646362
8.062282800674438,-0.19703811407089233,-0.7930192351341248,0.432586669921875,-1.7451157569885254,-0.21564316749572754,1.284773349761963
8.082371711730957,-0.196989506483078,-0.7930374145507812,0.43249601125717163,-1.7448958158493042,-0.21556001901626587,1.2848387956619263
8.10250186920166,-0.1969655156135559,-0.7930951118469238,0.43245887756347656,-1.7448346614837646,-0.2155359387397766,1.2848657369613647
8.122703790664673,-0.19691428542137146,-0.7929450869560242,0.43278616666793823,-1.7449687719345093,-0.21570003032684326,1.284818410873413
8.142877101898193,-0.19700944423675537,-0.7930564880371094,0.43242567777633667,-1.7448734045028687,-0.21557533740997314,1.2848562002182007
8.162932395935059,-0.19693171977996826,-0.7929003834724426,0.4327559471130371,-1.7449895143508911,-0.21563425660133362,1.2847776412963867
8.182955741882324,-0.19691720604896545,-0.7929105162620544,0.4324512481689453,-1.7449876070022583,-0.21544122695922852,1.2848575115203857
8.2030029296875,-0.19694390892982483,-0.792956531047821,0.43266499042510986,-1.7449744939804077,-0.2156272530555725,1.2848602533340454
8.223178386688232,-0.19693270325660706,-0.7929167151451111,0.43260031938552856,-1.7449411153793335,-0.21558502316474915,1.2848286628723145
8.243207454681396,-0.19684138894081116,-0.7928532361984253,0.4325704574584961,-1.7448155879974365,-0.21550726890563965,1.2848650217056274
8.263378143310547,-0.19689998030662537,-0.7929590940475464,0.4324643611907959,-1.7449657917022705,-0.21551364660263062,1.284891128540039
8.283422231674194,-0.19699296355247498,-0.7929104566574097,0.43268418312072754,-1.745106816291809,-0.21563652157783508,1.2848068475723267
8.3035147190094,-0.1969207227230072,-0.7929283380508423,0.4323645830154419,-1.7448116540908813,-0.21547025442123413,1.2848297357559204
8.323577404022217,-0.19678950309753418,-0.7928224205970764,0.432489275932312,-1.7447843551635742,-0.21544945240020752,1.284881830215454
8.343659400939941,-0.1968587338924408,-0.7927998900413513,0.4328843951225281,-1.7450989484786987,-0.21575874090194702,1.2847951650619507
8.363714694976807,-0.19696933031082153,-0.7930108904838562,0.4325321316719055,-1.7448722124099731,-0.21555247902870178,1.2848544120788574
8.38378381729126,-0.196964830160141,-0.7929131388664246,0.433027982711792,-1.7451543807983398,-0.21589472889900208,1.284820318222046
8.40390682220459,-0.1969986855983734,-0.7929412722587585,0.4326942563056946,-1.7451186180114746,-0.21565011143684387,1.2847843170166016
8.423930883407593,-0.19698384404182434,-0.7929560542106628,0.43262779712677,-1.7449618577957153,-0.21562960743904114,1.2848094701766968
8.444076538085938,-0.19699367880821228,-0.7929806709289551,0.432680606842041,-1.745158314704895,-0.21564671397209167,1.2847963571548462
8.464115619659424,-0.19695326685905457,-0.7928820252418518,0.432675302028656,-1.7451014518737793,-0.21560290455818176,1.2848106622695923
8.484266757965088,-0.19702047109603882,-0.7929913401603699,0.43220067024230957,-1.7450001239776611,-0.21540239453315735,1.2848329544067383
8.504266023635864,-0.19686362147331238,-0.7927798628807068,0.43288689851760864,-1.7449547052383423,-0.2157825231552124,1.2848418951034546
8.524377822875977,-0.19707557559013367,-0.7930641770362854,0.43231892585754395,-1.745105266571045,-0.21543991565704346,1.2847856283187866
8.544440746307373,-0.19700932502746582,-0.7930012345314026,0.4325631856918335,-1.7450653314590454,-0.21561220288276672,1.284813642501831
8.564550638198853,-0.19695141911506653,-0.7930164337158203,0.4323890209197998,-1.7448132038116455,-0.2155294120311737,1.284863829612732
8.584578037261963,-0.19699493050575256,-0.7929943799972534,0.432564377784729,-1.7451015710830688,-0.21554946899414062,1.2848312854766846
8.604658603668213,-0.19691359996795654,-0.7928779721260071,0.43264585733413696,-1.7450628280639648,-0.21559494733810425,1.2848354578018188
8.624926090240479,-0.19689860939979553,-0.7928975820541382,0.43263375759124756,-1.7449110746383667,-0.2155800461769104,1.2848564386367798
8.644875526428223,-0.19696715474128723,-0.7929637432098389,0.43269282579421997,-1.7450095415115356,-0.21565034985542297,1.2848271131515503
8.665642976760864,-0.1968979835510254,-0.7928327918052673,0.4327659010887146,-1.7449901103973389,-0.21560457348823547,1.2847869396209717
8.68569278717041,-0.196989506483078,-0.7930165529251099,0.4325670003890991,-1.7450612783432007,-0.21560683846473694,1.2847973108291626
8.705825090408325,-0.19710183143615723,-0.7931105494499207,0.4322555661201477,-1.745033860206604,-0.21548447012901306,1.2848018407821655
8.725842952728271,-0.19709178805351257,-0.7932369112968445,0.4326656460762024,-1.7450056076049805,-0.2158048152923584,1.2848153114318848
8.745917558670044,-0.19688555598258972,-0.792767345905304,0.4325682520866394,-1.7450668811798096,-0.21549290418624878,1.2848025560379028
8.76598596572876,-0.1969352662563324,-0.7928710579872131,0.4325052499771118,-1.7450313568115234,-0.21552613377571106,1.284774899482727
8.786057233810425,-0.19691112637519836,-0.7929009795188904,0.43259304761886597,-1.7449126243591309,-0.2155795395374298,1.2848478555679321
8.806100368499756,-0.19692429900169373,-0.7929241061210632,0.4326168894767761,-1.744933843612671,-0.21558725833892822,1.2848254442214966
8.8262197971344,-0.1970500648021698,-0.7931044697761536,0.4325715899467468,-1.7449702024459839,-0.21567818522453308,1.2848573923110962
8.84627079963684,-0.19688120484352112,-0.7929313778877258,0.43337929248809814,-1.744979977607727,-0.21615052223205566,1.2848142385482788
8.866374731063843,-0.1969287097454071,-0.7930333614349365,0.432569682598114,-1.7448009252548218,-0.2155921459197998,1.2848759889602661
8.886433601379395,-0.19691893458366394,-0.7928516864776611,0.4325617551803589,-1.7449067831039429,-0.2155427634716034,1.2847886085510254
8.906529903411865,-0.19684061408042908,-0.7927597761154175,0.43237173557281494,-1.7449383735656738,-0.2153225541114807,1.2848035097122192
8.926562309265137,-0.19687512516975403,-0.7929131388664246,0.4329339265823364,-1.7449685335159302,-0.21578389406204224,1.2848526239395142
8.9467134475708,-0.19698426127433777,-0.7929666638374329,0.4324764013290405,-1.7449227571487427,-0.2155507504940033,1.284811019897461
8.966799974441528,-0.19692090153694153,-0.7928513884544373,0.43255800008773804,-1.7450354099273682,-0.2155284881591797,1.2847813367843628
8.98686957359314,-0.1968860924243927,-0.7928095459938049,0.43276071548461914,-1.744974136352539,-0.21560460329055786,1.2847996950149536
9.007001399993896,-0.19687902927398682,-0.7928452491760254,0.43257349729537964,-1.744864583015442,-0.21552222967147827,1.2848209142684937
9.027133226394653,-0.19698229432106018,-0.7930403351783752,0.4329109787940979,-1.7449995279312134,-0.21582689881324768,1.2848049402236938
9.04726505279541,-0.19684568047523499,-0.7927964329719543,0.4329240322113037,-1.7451063394546509,-0.21563532948493958,1.2848200798034668
9.06767749786377,-0.19701343774795532,-0.7928991913795471,0.4323490262031555,-1.745116114616394,-0.2154124677181244,1.284784197807312
9.087847232818604,-0.1968005895614624,-0.7928677201271057,0.4334110617637634,-1.7450398206710815,-0.21599310636520386,1.2848457098007202
9.107951879501343,-0.19693133234977722,-0.7929671406745911,0.43324291706085205,-1.7451001405715942,-0.21592608094215393,1.2848354578018188
9.128032684326172,-0.1968460977077484,-0.7928854823112488,0.43297773599624634,-1.7448776960372925,-0.21573293209075928,1.2848705053329468
9.14807653427124,-0.19705381989479065,-0.7929705381393433,0.43270283937454224,-1.7451521158218384,-0.21570652723312378,1.2847450971603394
9.168138980865479,-0.19698390364646912,-0.7929461598396301,0.4330422878265381,-1.7450659275054932,-0.21588873863220215,1.2847970724105835
9.188244581222534,-0.19701924920082092,-0.7929098606109619,0.4328104257583618,-1.7452086210250854,-0.2157004177570343,1.2847834825515747
9.208284139633179,-0.19688645005226135,-0.7928935885429382,0.43229663372039795,-1.7449688911437988,-0.21534767746925354,1.2848548889160156
9.228446245193481,-0.19688433408737183,-0.7928661704063416,0.4323887825012207,-1.745010256767273,-0.215391606092453,1.2848472595214844
9.248646974563599,-0.196880042552948,-0.7928344011306763,0.43280577659606934,-1.745017409324646,-0.21562927961349487,1.2847825288772583
9.26865291595459,-0.19691357016563416,-0.7929352521896362,0.43311524391174316,-1.7449723482131958,-0.21599557995796204,1.284826636314392
9.288748264312744,-0.19686737656593323,-0.7929002642631531,0.4330887198448181,-1.745108962059021,-0.21582844853401184,1.2848540544509888
9.308805704116821,-0.19698140025138855,-0.7929626107215881,0.43242305517196655,-1.7450376749038696,-0.21544483304023743,1.2848033905029297
9.328943729400635,-0.1969721019268036,-0.7928723692893982,0.4326876401901245,-1.7450075149536133,-0.21569398045539856,1.284811019897461
9.349029302597046,-0.19691231846809387,-0.7929689288139343,0.43261027336120605,-1.7449151277542114,-0.21555447578430176,1.2848409414291382
9.369152545928955,-0.1970263421535492,-0.7930788397789001,0.43269509077072144,-1.745110034942627,-0.21568754315376282,1.2848261594772339
9.38923978805542,-0.19702276587486267,-0.7930371761322021,0.43268340826034546,-1.744974970817566,-0.21567457914352417,1.2848020792007446
9.409408569335938,-0.19688168168067932,-0.7928383946418762,0.43233829736709595,-1.7448761463165283,-0.21536248922348022,1.28483247756958
9.429405212402344,-0.19698408246040344,-0.7929542660713196,0.43212300539016724,-1.7449843883514404,-0.21532776951789856,1.2847918272018433
9.449459552764893,-0.19690030813217163,-0.7928342223167419,0.4329158663749695,-1.74506676197052,-0.21575671434402466,1.2847570180892944
9.469553470611572,-0.19693198800086975,-0.7927973866462708,0.4328330159187317,-1.7451173067092896,-0.21577000617980957,1.2847700119018555
9.489685535430908,-0.19697803258895874,-0.7931252121925354,0.43243807554244995,-1.7448209524154663,-0.21553948521614075,1.2848986387252808
9.509826421737671,-0.19696542620658875,-0.7929944396018982,0.4324009418487549,-1.7448855638504028,-0.21543997526168823,1.2848275899887085
9.529835224151611,-0.19695356488227844,-0.7929977178573608,0.4321441650390625,-1.7447558641433716,-0.21533966064453125,1.284863829612732
9.549901723861694,-0.1968696117401123,-0.7928109765052795,0.4324045777320862,-1.7449095249176025,-0.21536868810653687,1.2847980260849
9.569953680038452,-0.19697663187980652,-0.7929410934448242,0.4324968457221985,-1.7449897527694702,-0.21556445956230164,1.2848089933395386
9.590075969696045,-0.19685855507850647,-0.7929120063781738,0.4328826665878296,-1.7448936700820923,-0.21571487188339233,1.2848436832427979
9.6101553440094,-0.1969001591205597,-0.792945921421051,0.43294161558151245,-1.7449785470962524,-0.21577340364456177,1.2848292589187622
9.630266904830933,-0.19686055183410645,-0.7928150296211243,0.4327082633972168,-1.7449513673782349,-0.21555694937705994,1.284838318824768
9.650330543518066,-0.1969803273677826,-0.7930095195770264,0.43259721994400024,-1.7449368238449097,-0.21562880277633667,1.2848223447799683
9.670485973358154,-0.19695064425468445,-0.7929628491401672,0.4326275587081909,-1.7449370622634888,-0.21560963988304138,1.2848237752914429
9.69049882888794,-0.1969200074672699,-0.7928020358085632,0.43249112367630005,-1.7450865507125854,-0.21541088819503784,1.2847609519958496
9.710628747940063,-0.19696786999702454,-0.7929208278656006,0.43256139755249023,-1.7449599504470825,-0.21559029817581177,1.2848018407821655
9.730721950531006,-0.19691768288612366,-0.7929795980453491,0.43291711807250977,-1.7449742555618286,-0.21577778458595276,1.284830927848816
9.750794410705566,-0.19692587852478027,-0.7929359078407288,0.4326995611190796,-1.74494206905365,-0.21561112999916077,1.2848296165466309
9.770908832550049,-0.1969541609287262,-0.7929657101631165,0.43235278129577637,-1.74486243724823,-0.21542111039161682,1.2848371267318726
9.79099702835083,-0.19702306389808655,-0.7930407524108887,0.4326140284538269,-1.7450777292251587,-0.21566817164421082,1.2848223447799683
9.811100959777832,-0.19698220491409302,-0.7929899096488953,0.4326269030570984,-1.7449556589126587,-0.21563324332237244,1.2848151922225952
9.831202983856201,-0.19693300127983093,-0.7929229140281677,0.4329233169555664,-1.7450116872787476,-0.21578559279441833,1.2848119735717773
9.85124921798706,-0.19696581363677979,-0.7928823828697205,0.43291062116622925,-1.7450878620147705,-0.215713232755661,1.2847731113433838
9.871411800384521,-0.19685408473014832,-0.7929239869117737,0.43244314193725586,-1.7448045015335083,-0.21547874808311462,1.2848459482192993
9.891464710235596,-0.196909099817276,-0.7928627729415894,0.4324645400047302,-1.7450066804885864,-0.21554115414619446,1.284796118736267
9.911588668823242,-0.19698044657707214,-0.7929688692092896,0.4325982332229614,-1.7449740171432495,-0.21563223004341125,1.284791111946106
9.931725025177002,-0.19690707325935364,-0.7929132580757141,0.4326438307762146,-1.7449175119400024,-0.21557211875915527,1.2848366498947144
9.951850414276123,-0.19696149230003357,-0.7929611206054688,0.43266260623931885,-1.7449506521224976,-0.21562305092811584,1.2848113775253296
9.971901655197144,-0.19693702459335327,-0.7929136157035828,0.4325617551803589,-1.7450116872787476,-0.2155444324016571,1.2847912311553955
9.991935968399048,-0.196953684091568,-0.7929436564445496,0.4325984716415405,-1.7449508905410767,-0.21560007333755493,1.284812331199646
10.01224970817566,-0.19701656699180603,-0.7930203676223755,0.4322546124458313,-1.7449898719787598,-0.21541735529899597,1.284835696220398
10.032291173934937,-0.19698014855384827,-0.7929975390434265,0.4325457811355591,-1.744942545890808,-0.21560323238372803,1.284813642501831
10.05232858657837,-0.19699853658676147,-0.7930715680122375,0.43245577812194824,-1.7448334693908691,-0.215587317943573,1.2848403453826904
10.072510957717896,-0.19686707854270935,-0.7928255200386047,0.4333159923553467,-1.7451086044311523,-0.21595704555511475,1.2847607135772705
10.09253478050232,-0.19697996973991394,-0.7929900288581848,0.43263477087020874,-1.7449198961257935,-0.2156352996826172,1.284854769706726
10.112585306167603,-0.19689708948135376,-0.7929158806800842,0.4326578974723816,-1.744885802268982,-0.21558496356010437,1.2848721742630005
10.132647514343262,-0.19698569178581238,-0.7930260896682739,0.4323004484176636,-1.7448921203613281,-0.21549049019813538,1.2848726511001587
10.152783155441284,-0.19696879386901855,-0.7929782867431641,0.43264102935791016,-1.7449285984039307,-0.2156306505203247,1.284866213798523
10.172815799713135,-0.1968466341495514,-0.792734682559967,0.4324374794960022,-1.7450454235076904,-0.21533939242362976,1.2847976684570312
10.192915916442871,-0.1968429982662201,-0.7928699254989624,0.43287551403045654,-1.7449041604995728,-0.21572759747505188,1.284847378730774
10.213490962982178,-0.19698959589004517,-0.7930644154548645,0.43279820680618286,-1.745089054107666,-0.21578630805015564,1.284828543663025
10.23361086845398,-0.1968500316143036,-0.7927817106246948,0.4330911636352539,-1.7449696063995361,-0.2159140706062317,1.2848418951034546
10.25364899635315,-0.19688645005226135,-0.7928144335746765,0.4325159192085266,-1.7449951171875,-0.2154817283153534,1.2847920656204224
10.273794889450073,-0.19690588116645813,-0.7927649617195129,0.4328044652938843,-1.7450988292694092,-0.21562761068344116,1.2847678661346436
10.293822765350342,-0.1969655454158783,-0.7930009961128235,0.43231338262557983,-1.7449828386306763,-0.21540367603302002,1.2848299741744995
10.313930988311768,-0.19688546657562256,-0.7930005192756653,0.4324778914451599,-1.7447826862335205,-0.2155388593673706,1.2849112749099731
10.334005117416382,-0.1969831883907318,-0.7929970622062683,0.4325472116470337,-1.745119571685791,-0.21557587385177612,1.2848005294799805
10.354055404663086,-0.19693267345428467,-0.7928819060325623,0.43290209770202637,-1.7449926137924194,-0.21583467721939087,1.284803032875061
10.374123334884644,-0.19694647192955017,-0.7929850220680237,0.4325060248374939,-1.7449018955230713,-0.21551856398582458,1.2848235368728638
10.394267797470093,-0.1968776285648346,-0.7928645610809326,0.43308115005493164,-1.7449579238891602,-0.21588298678398132,1.2848509550094604
10.414531946182251,-0.19690239429473877,-0.7928827404975891,0.43272650241851807,-1.744939923286438,-0.21560829877853394,1.2848340272903442
10.434448957443237,-0.19695839285850525,-0.792958676815033,0.43280088901519775,-1.7449774742126465,-0.21569019556045532,1.284815788269043
10.454545021057129,-0.19698390364646912,-0.7930881381034851,0.4326685070991516,-1.7449240684509277,-0.21575665473937988,1.2848514318466187
10.474684000015259,-0.19689905643463135,-0.7929803729057312,0.4322335720062256,-1.7447223663330078,-0.21535420417785645,1.284909963607788
10.494692087173462,-0.19691291451454163,-0.7929727435112,0.4325924515724182,-1.7449296712875366,-0.21554231643676758,1.2848268747329712
10.515042066574097,-0.1969534456729889,-0.7929530739784241,0.4328894019126892,-1.744986891746521,-0.2158074676990509,1.2848175764083862
10.535181283950806,-0.19699051976203918,-0.7930126190185547,0.43300408124923706,-1.7450690269470215,-0.21587657928466797,1.2848199605941772
10.555217742919922,-0.19688335061073303,-0.7927843928337097,0.433183491230011,-1.7450306415557861,-0.21590593457221985,1.2848201990127563
10.575359344482422,-0.1969551146030426,-0.7929326891899109,0.43301916122436523,-1.7450131177902222,-0.21584084630012512,1.2848080396652222
10.595385551452637,-0.1970413625240326,-0.7931079864501953,0.432575523853302,-1.7449123859405518,-0.21561890840530396,1.2848092317581177
10.61557388305664,-0.19677531719207764,-0.792677640914917,0.4326897859573364,-1.744911551475525,-0.21549150347709656,1.2847832441329956
10.635580778121948,-0.19684186577796936,-0.7928091883659363,0.43262189626693726,-1.7448971271514893,-0.2155311405658722,1.2848581075668335
10.655632495880127,-0.19684159755706787,-0.7927834987640381,0.4328622817993164,-1.7450014352798462,-0.21562179923057556,1.284796118736267
10.675718069076538,-0.19694015383720398,-0.7930316925048828,0.4327232241630554,-1.7448729276657104,-0.21572908759117126,1.2848232984542847
10.695780992507935,-0.19700661301612854,-0.7930812835693359,0.4328957796096802,-1.74503755569458,-0.21585506200790405,1.2848531007766724
10.715856313705444,-0.19698292016983032,-0.7929804921150208,0.43224698305130005,-1.7449841499328613,-0.21537119150161743,1.2848172187805176
10.736117839813232,-0.19688615202903748,-0.7928312420845032,0.43255680799484253,-1.7448936700820923,-0.2154671847820282,1.2848650217056274
10.756256103515625,-0.19691720604896545,-0.792900562286377,0.4326053857803345,-1.7449253797531128,-0.21556797623634338,1.284829020500183
10.776276350021362,-0.19688227772712708,-0.7928804755210876,0.432553231716156,-1.7448571920394897,-0.21552228927612305,1.2848244905471802
10.79634714126587,-0.19697609543800354,-0.7930627465248108,0.4328508973121643,-1.7449674606323242,-0.21581101417541504,1.28481125831604
10.816429376602173,-0.1968749463558197,-0.7928337454795837,0.4324420094490051,-1.744835376739502,-0.21544954180717468,1.2848163843154907
10.836505651473999,-0.19695308804512024,-0.7930253148078918,0.43269431591033936,-1.744949460029602,-0.2156934142112732,1.284807801246643
10.856561422348022,-0.19699504971504211,-0.7930916547775269,0.43264836072921753,-1.744922161102295,-0.21568447351455688,1.2848619222640991
10.876640319824219,-0.1969108283519745,-0.7928069233894348,0.43233776092529297,-1.7449051141738892,-0.21536913514137268,1.284818410873413
10.896862506866455,-0.19700011610984802,-0.792904257774353,0.4325549006462097,-1.7450296878814697,-0.2155950665473938,1.284788727760315
10.916894674301147,-0.19697454571723938,-0.7929414510726929,0.43259453773498535,-1.7449508905410767,-0.21561819314956665,1.284811019897461
10.937087774276733,-0.19686639308929443,-0.7928867936134338,0.4325794577598572,-1.7448533773422241,-0.21551412343978882,1.284830927848816
10.957226037979126,-0.19686970114707947,-0.7928788065910339,0.43258166313171387,-1.7449098825454712,-0.21553140878677368,1.284842610359192
10.97734808921814,-0.19693681597709656,-0.7928381562232971,0.4323391318321228,-1.744966983795166,-0.21537631750106812,1.284816861152649
10.997349977493286,-0.19690531492233276,-0.7928733825683594,0.43322110176086426,-1.7450395822525024,-0.2160443365573883,1.2848082780838013
11.017549276351929,-0.1969693899154663,-0.793006956577301,0.4323539137840271,-1.744877576828003,-0.21545526385307312,1.2848149538040161
11.037652254104614,-0.196946382522583,-0.7929831147193909,0.43269526958465576,-1.7449549436569214,-0.2156529426574707,1.2848252058029175
11.057640552520752,-0.19689205288887024,-0.7929057478904724,0.43258315324783325,-1.7448612451553345,-0.21553882956504822,1.2848258018493652
11.07780385017395,-0.1970425844192505,-0.7931044697761536,0.432140588760376,-1.744862675666809,-0.21541285514831543,1.284866452217102
11.097889423370361,-0.19682952761650085,-0.7927646040916443,0.4327687621116638,-1.744909644126892,-0.21556857228279114,1.2848336696624756
11.11815881729126,-0.19689497351646423,-0.7928261756896973,0.4323897361755371,-1.744884967803955,-0.21537959575653076,1.2848317623138428
11.13815426826477,-0.19698011875152588,-0.7929868102073669,0.4321836829185486,-1.7448357343673706,-0.21538469195365906,1.284859538078308
11.158369779586792,-0.1968662142753601,-0.792802631855011,0.43250858783721924,-1.7448632717132568,-0.21540722250938416,1.2848302125930786
11.178548574447632,-0.19688889384269714,-0.7928176522254944,0.43262791633605957,-1.7449504137039185,-0.21554455161094666,1.284819483757019
11.198601007461548,-0.19701090455055237,-0.7929779291152954,0.4327070713043213,-1.7450348138809204,-0.2156861424446106,1.2848036289215088
11.218637228012085,-0.19707992672920227,-0.7931563854217529,0.4328361749649048,-1.7450276613235474,-0.2158903181552887,1.2848477363586426
11.23872184753418,-0.19680696725845337,-0.7926620841026306,0.43254953622817993,-1.744898796081543,-0.2154902219772339,1.2848299741744995
11.258869171142578,-0.1968092918395996,-0.792766273021698,0.4324760437011719,-1.7448421716690063,-0.21545276045799255,1.2848328351974487
11.278882265090942,-0.19698432087898254,-0.7930211424827576,0.43235665559768677,-1.744878888130188,-0.21553218364715576,1.284835696220398
11.299067258834839,-0.1969606876373291,-0.7928805351257324,0.43255615234375,-1.744990587234497,-0.21548783779144287,1.2848297357559204
11.319117546081543,-0.1968701183795929,-0.7928089499473572,0.4322538375854492,-1.744794249534607,-0.2153029441833496,1.2848411798477173
11.339282989501953,-0.19691812992095947,-0.7928714156150818,0.4323110580444336,-1.7449312210083008,-0.2153875231742859,1.2848416566848755
11.359447717666626,-0.1969415843486786,-0.7929878234863281,0.4330369830131531,-1.7450031042099,-0.21585658192634583,1.284839153289795
11.379426956176758,-0.19694247841835022,-0.7929575443267822,0.43240588903427124,-1.7448086738586426,-0.21542009711265564,1.284828782081604
11.399631023406982,-0.19694361090660095,-0.7929301857948303,0.43272072076797485,-1.7449802160263062,-0.21566110849380493,1.2848024368286133
11.419759511947632,-0.1969766914844513,-0.7930794954299927,0.4324144124984741,-1.7447949647903442,-0.21556299924850464,1.2848619222640991
11.439757347106934,-0.19692930579185486,-0.7929890155792236,0.4321889281272888,-1.7448283433914185,-0.21530982851982117,1.2848435640335083
11.459980010986328,-0.19689717888832092,-0.7928842902183533,0.43301165103912354,-1.7449530363082886,-0.2158169448375702,1.2848182916641235
11.480000495910645,-0.19684472680091858,-0.7928637266159058,0.4328973889350891,-1.744951605796814,-0.21572095155715942,1.284855842590332
11.500095129013062,-0.19686254858970642,-0.7928608059883118,0.4326510429382324,-1.7449222803115845,-0.2155505120754242,1.2848454713821411
11.520180940628052,-0.19704285264015198,-0.7931398153305054,0.4327460527420044,-1.7449465990066528,-0.215827077627182,1.2848480939865112
11.540246963500977,-0.19693687558174133,-0.7929326891899109,0.4325450658798218,-1.7449349164962769,-0.21545091271400452,1.2847963571548462
11.560303449630737,-0.1968425214290619,-0.7927799820899963,0.4326658844947815,-1.7449007034301758,-0.21550872921943665,1.284787654876709
11.58038878440857,-0.19682565331459045,-0.7926473021507263,0.4325253963470459,-1.7449594736099243,-0.21535778045654297,1.284783959388733
11.600450038909912,-0.19693505764007568,-0.7929921746253967,0.43301594257354736,-1.7449544668197632,-0.215913325548172,1.2848371267318726
11.6205415725708,-0.1970054805278778,-0.7930668592453003,0.43278199434280396,-1.745018720626831,-0.21569785475730896,1.2848272323608398
11.640644788742065,-0.19704601168632507,-0.7931699156761169,0.432513952255249,-1.7448712587356567,-0.2156471312046051,1.2848681211471558
11.660698175430298,-0.19683542847633362,-0.7927218079566956,0.43301963806152344,-1.7450642585754395,-0.21573829650878906,1.2847684621810913
11.680782556533813,-0.1969546377658844,-0.7928894758224487,0.4327104687690735,-1.744977355003357,-0.21563470363616943,1.2847988605499268
11.70078992843628,-0.19694891571998596,-0.7929192185401917,0.43263566493988037,-1.7449415922164917,-0.21560662984848022,1.284820318222046
11.720929145812988,-0.19692930579185486,-0.7928610444068909,0.43295973539352417,-1.744982361793518,-0.2158503532409668,1.2848037481307983
11.741008281707764,-0.19695106148719788,-0.7930036187171936,0.43247872591018677,-1.7449042797088623,-0.2155158817768097,1.2848167419433594
11.761088371276855,-0.19696977734565735,-0.7930291295051575,0.4324367046356201,-1.74488365650177,-0.21554139256477356,1.2848236560821533
11.781158447265625,-0.19700244069099426,-0.7930437326431274,0.4323342442512512,-1.7448768615722656,-0.21546006202697754,1.2848179340362549
11.801230192184448,-0.19689926505088806,-0.7928627133369446,0.4327528476715088,-1.7449615001678467,-0.2156282365322113,1.2848254442214966
11.82136344909668,0.08274031430482864,-1.140026569366455,0.8440776467323303,-1.0404939651489258,-0.16862162947654724,1.3335331678390503
11.841395378112793,0.24626344442367554,-1.061428189277649,0.9363924264907837,-0.9329249858856201,-0.07804016768932343,1.4128104448318481
11.861539840698242,0.29900744557380676,-1.004786729812622,0.9439696073532104,-0.8988214135169983,-0.04007604718208313,1.4396275281906128
11.881761074066162,0.3239603340625763,-0.9268324971199036,0.9307411909103394,-0.8591358661651611,-0.022102221846580505,1.4533740282058716
11.901750087738037,0.31722065806388855,-0.9450342059135437,0.9338231086730957,-0.8689688444137573,-0.02710457146167755,1.4506784677505493
11.921856880187988,0.31651821732521057,-0.9528307318687439,0.9353941679000854,-0.8729854226112366,-0.027769140899181366,1.450165867805481
11.941912412643433,0.3156573474407196,-0.9613964557647705,0.9358581304550171,-0.8761267066001892,-0.026178650557994843,1.448876976966858
11.96208667755127,0.3165641725063324,-0.9596682190895081,0.9364234209060669,-0.8754048943519592,-0.027031607925891876,1.4494810104370117
11.982080936431885,0.3159768879413605,-0.9598191380500793,0.9351094961166382,-0.8745720982551575,-0.02601044625043869,1.4490021467208862
12.002159833908081,0.315311998128891,-0.9593037962913513,0.9366716742515564,-0.8739083409309387,-0.027555130422115326,1.449371099472046
12.022217988967896,0.31337571144104004,-0.9604642987251282,0.9348307847976685,-0.8734829425811768,-0.02747323364019394,1.4499670267105103
12.042336225509644,0.316502183675766,-0.960453450679779,0.9380270838737488,-0.8748365640640259,-0.02957310527563095,1.4511839151382446
12.06240200996399,0.31193307042121887,-0.961279571056366,0.9335289001464844,-0.8730927109718323,-0.0284811332821846,1.4499303102493286
12.082521915435791,0.31064191460609436,-0.9615504741668701,0.9368953108787537,-0.8721185922622681,-0.03161906450986862,1.4502780437469482
12.102644205093384,0.3108450472354889,-0.9606254696846008,0.9361989498138428,-0.8722057938575745,-0.0317063108086586,1.4505215883255005
12.122760534286499,0.31730780005455017,-0.9640927910804749,0.9366722106933594,-0.8747898936271667,-0.02855110913515091,1.4524353742599487
12.142837285995483,0.3139522969722748,-0.9641801714897156,0.934699296951294,-0.8736858367919922,-0.02983880788087845,1.4525790214538574
12.163029909133911,0.3167617917060852,-0.9646815657615662,0.9370840787887573,-0.8744668960571289,-0.029351934790611267,1.4531151056289673
12.183105230331421,0.3148636519908905,-0.9638243317604065,0.9355520009994507,-0.8739704489707947,-0.030622422695159912,1.453346848487854
12.203187465667725,0.31216081976890564,-0.9640374183654785,0.9345337152481079,-0.8726320862770081,-0.031194031238555908,1.4525848627090454
12.223259210586548,0.3166702687740326,-0.9648022055625916,0.9355505108833313,-0.8740754127502441,-0.029810935258865356,1.4540785551071167
12.243319272994995,0.3164137005805969,-0.9660937786102295,0.9347460865974426,-0.8744764924049377,-0.02917436510324478,1.4542840719223022
12.263450384140015,0.3166920244693756,-0.9663845300674438,0.9350042343139648,-0.8740808367729187,-0.028888128697872162,1.453942894935608
12.28349256515503,0.31815677881240845,-0.9661961197853088,0.9369823932647705,-0.8743736743927002,-0.030144736170768738,1.4547278881072998
12.303659915924072,0.31688424944877625,-0.9676993489265442,0.934302568435669,-0.8748160600662231,-0.02932020276784897,1.4555160999298096
12.323684453964233,0.31750234961509705,-0.9674844741821289,0.936007022857666,-0.8741971850395203,-0.030237190425395966,1.4551690816879272
12.343784809112549,0.31531038880348206,-0.9681518077850342,0.935125470161438,-0.8729302883148193,-0.030854009091854095,1.4546093940734863
12.363925218582153,0.3137611448764801,-0.9679199457168579,0.9337954521179199,-0.8718526363372803,-0.031178854405879974,1.4544848203659058
12.383931636810303,0.3159637451171875,-0.9686310291290283,0.9358764886856079,-0.8730648159980774,-0.031105615198612213,1.4552706480026245
12.403996467590332,0.31255900859832764,-0.9695097804069519,0.9346698522567749,-0.8717899918556213,-0.03227882832288742,1.4555221796035767
12.42424988746643,0.31621208786964417,-0.9700905680656433,0.9349789619445801,-0.8737720847129822,-0.0314437672495842,1.4571431875228882
12.444367170333862,0.31453844904899597,-0.9707972407341003,0.9322089552879333,-0.8730697631835938,-0.030596762895584106,1.4565879106521606
12.464545488357544,0.31372737884521484,-0.9706156253814697,0.9356799125671387,-0.8718402981758118,-0.03417026251554489,1.4574576616287231
12.484620571136475,0.31822845339775085,-0.9720603227615356,0.9341464042663574,-0.8740770220756531,-0.031136035919189453,1.4581438302993774
12.504674434661865,0.3164133131504059,-0.9712442755699158,0.9348084330558777,-0.8735579252243042,-0.03177822381258011,1.4578741788864136
12.524742126464844,0.3166893422603607,-0.9719796180725098,0.93520188331604,-0.8737037777900696,-0.031756408512592316,1.4580317735671997
12.544859409332275,0.31348249316215515,-0.9731847643852234,0.93257737159729,-0.8718590140342712,-0.03231719881296158,1.457499623298645
12.56494402885437,0.31737759709358215,-0.9730051159858704,0.9358422756195068,-0.8733418583869934,-0.032463036477565765,1.4584510326385498
12.585027694702148,0.3163531720638275,-0.9739726781845093,0.9331945776939392,-0.8731305003166199,-0.0315747931599617,1.4582041501998901
12.605103731155396,0.3170338571071625,-0.9747907519340515,0.9343593716621399,-0.8734508752822876,-0.03233364224433899,1.4594931602478027
12.62522006034851,0.31155142188072205,-0.97515469789505,0.9312595129013062,-0.8706774115562439,-0.033294156193733215,1.4587279558181763
12.645408630371094,0.3158813714981079,-0.9760040044784546,0.9344139099121094,-0.8728246688842773,-0.03324825316667557,1.4599378108978271
12.665433645248413,0.315552681684494,-0.9766232371330261,0.932762086391449,-0.8726159930229187,-0.0328851118683815,1.4597374200820923
12.685651779174805,0.3133283257484436,-0.976984977722168,0.9322752356529236,-0.8716719150543213,-0.034970059990882874,1.4604412317276
12.705777168273926,0.31725063920021057,-0.9763174653053284,0.9335547089576721,-0.8725892901420593,-0.033048443496227264,1.4601908922195435
12.72581148147583,0.31758132576942444,-0.9779596328735352,0.9346082210540771,-0.8723469972610474,-0.033490486443042755,1.4607322216033936
12.745882272720337,0.3178548216819763,-0.9797303676605225,0.9341362714767456,-0.8732599020004272,-0.03325929492712021,1.4622243642807007
12.766045093536377,0.31595125794410706,-0.9776374101638794,0.9340142011642456,-0.8725094199180603,-0.036209240555763245,1.4627621173858643
12.786059856414795,0.31294718384742737,-0.9784624576568604,0.931808590888977,-0.8710315227508545,-0.035789623856544495,1.4616461992263794
12.806131601333618,0.3171713650226593,-0.9790518879890442,0.9343893527984619,-0.8726435303688049,-0.03568311780691147,1.4628030061721802
12.826188087463379,0.31646570563316345,-0.9793905019760132,0.9332275390625,-0.872197687625885,-0.035205431282520294,1.462522268295288
12.846283674240112,0.3168204724788666,-0.9803473353385925,0.9339330196380615,-0.8718851804733276,-0.03566231578588486,1.4633660316467285
12.866340398788452,0.31817689538002014,-0.980916440486908,0.9347370862960815,-0.8721251487731934,-0.0356680303812027,1.463765025138855
12.886428117752075,0.3176932632923126,-0.9810304045677185,0.9345306158065796,-0.8717353940010071,-0.03544911742210388,1.4634757041931152
12.906492948532104,0.316086083650589,-0.9807937145233154,0.9339372515678406,-0.8715804219245911,-0.036928690969944,1.4637374877929688
12.92658805847168,0.3157843053340912,-0.9818681478500366,0.9321537017822266,-0.8710912466049194,-0.03539738804101944,1.4638758897781372
12.946699857711792,0.3163490891456604,-0.9822021126747131,0.933672308921814,-0.8709939122200012,-0.03721150755882263,1.4641962051391602
12.966721534729004,0.3189319968223572,-0.9837795495986938,0.9332644939422607,-0.8715890049934387,-0.034731216728687286,1.4643436670303345
12.987118005752563,0.31255075335502625,-0.9832421541213989,0.9322808384895325,-0.8697324395179749,-0.03907827287912369,1.464683175086975
13.007161617279053,0.3194061815738678,-0.9837621450424194,0.9339712262153625,-0.8719289898872375,-0.03761618584394455,1.4662030935287476
13.027239084243774,0.3169635534286499,-0.9854474663734436,0.931455135345459,-0.8716270327568054,-0.03600464016199112,1.4666591882705688
13.047279119491577,0.3169272243976593,-0.9856290221214294,0.9332950115203857,-0.871231734752655,-0.03775904327630997,1.4668785333633423
13.067442417144775,0.3163340091705322,-0.9859607815742493,0.9327589273452759,-0.8713729977607727,-0.03737583011388779,1.4668956995010376
13.087498426437378,0.31696462631225586,-0.9862828254699707,0.9330766201019287,-0.871028482913971,-0.03747672587633133,1.4667190313339233
13.107583999633789,0.3168720006942749,-0.9875109791755676,0.932829737663269,-0.87127286195755,-0.03805438429117203,1.4678468704223633
13.127667665481567,0.3164561986923218,-0.9876788854598999,0.9311316609382629,-0.8709757924079895,-0.037647269666194916,1.4676035642623901
13.147754669189453,0.31296172738075256,-0.9887861013412476,0.9307305812835693,-0.8693079352378845,-0.039221979677677155,1.467063546180725
13.16778826713562,0.31554803252220154,-0.9882352948188782,0.9350388050079346,-0.8697939515113831,-0.04205717891454697,1.4688619375228882
13.187939405441284,0.31302353739738464,-0.9891347289085388,0.9312236905097961,-0.869326651096344,-0.04044574499130249,1.4686357975006104
13.208092212677002,0.3178768455982208,-0.990746259689331,0.9326025247573853,-0.8709959387779236,-0.03845147043466568,1.4691267013549805
13.228140354156494,0.3178679645061493,-0.9907518029212952,0.9328255653381348,-0.8715583682060242,-0.038714416325092316,1.4698251485824585
13.248192548751831,0.3178696632385254,-0.9913431406021118,0.9322295188903809,-0.8710482716560364,-0.03867322951555252,1.4697595834732056
13.268263578414917,0.3167576491832733,-0.9912969470024109,0.9324465394020081,-0.8707602620124817,-0.0406295508146286,1.4706627130508423
13.288347482681274,0.3166537582874298,-0.9917923212051392,0.9330183267593384,-0.8699634075164795,-0.04041523486375809,1.4703420400619507
13.308391094207764,0.3167020082473755,-0.9922875761985779,0.932537853717804,-0.8706008791923523,-0.03994675725698471,1.4706951379776
13.328596115112305,0.31760451197624207,-0.9922633171081543,0.9316474199295044,-0.8706560730934143,-0.03976043313741684,1.470749020576477
13.348673582077026,0.31497082114219666,-0.9928434491157532,0.9315320253372192,-0.8695432543754578,-0.0410519614815712,1.4704662561416626
13.368762969970703,0.315623015165329,-0.9939824938774109,0.9310212731361389,-0.870448112487793,-0.04086577147245407,1.4718023538589478
13.388885736465454,0.31797781586647034,-0.9949230551719666,0.9317023754119873,-0.8707877397537231,-0.039933837950229645,1.4718631505966187
13.40899133682251,0.3136272430419922,-0.9931989312171936,0.9334734678268433,-0.8685944676399231,-0.04414045065641403,1.4718626737594604
13.429064273834229,0.31501203775405884,-0.9944595098495483,0.931856632232666,-0.8689429759979248,-0.04251077026128769,1.4723471403121948
13.449127674102783,0.3171367347240448,-0.9957602024078369,0.9313315153121948,-0.8696458339691162,-0.04000716656446457,1.4720488786697388
13.469429969787598,0.3183611333370209,-0.9967123866081238,0.9326658844947815,-0.870741605758667,-0.04094844311475754,1.4735320806503296
13.489574193954468,0.3166230618953705,-0.9970266222953796,0.9322380423545837,-0.8695395588874817,-0.04192015528678894,1.4735944271087646
13.509622812271118,0.31814172863960266,-0.9970861077308655,0.9309346675872803,-0.8700175881385803,-0.041001059114933014,1.4737718105316162
13.529671430587769,0.3188150227069855,-0.9968920946121216,0.9336039423942566,-0.8699636459350586,-0.04295751452445984,1.4742082357406616
13.549773693084717,0.31777533888816833,-0.9978933930397034,0.9316551685333252,-0.8701619505882263,-0.04225023835897446,1.4746161699295044
13.569831609725952,0.3120008707046509,-0.9985917210578918,0.9313981533050537,-0.8675097227096558,-0.045507967472076416,1.4738882780075073
13.589944839477539,0.31694480776786804,-0.9986411929130554,0.9322210550308228,-0.8703672289848328,-0.04347578436136246,1.4754174947738647
13.610231637954712,0.31764551997184753,-0.9988569021224976,0.9320143461227417,-0.8705127835273743,-0.04334035515785217,1.4758764505386353
13.630367994308472,0.315248966217041,-0.9992653727531433,0.9313679933547974,-0.8693651556968689,-0.04438366740942001,1.4758636951446533
13.650537014007568,0.31477805972099304,-1.000279426574707,0.9308134317398071,-0.8684006333351135,-0.04434945434331894,1.4758561849594116
13.670550107955933,0.3171299993991852,-1.000605821609497,0.9298077821731567,-0.8697313666343689,-0.043026939034461975,1.4766091108322144
13.69061541557312,0.31769895553588867,-1.0010660886764526,0.9319446086883545,-0.8694039583206177,-0.043905869126319885,1.4767032861709595
13.71078896522522,0.3183048367500305,-1.002089023590088,0.9301427602767944,-0.8699619174003601,-0.04270908981561661,1.4768928289413452
13.730808734893799,0.3164399564266205,-1.0022954940795898,0.9321901798248291,-0.8680667281150818,-0.045523613691329956,1.4761631488800049
13.75098729133606,0.3142096698284149,-1.0029881000518799,0.9310848712921143,-0.8678244948387146,-0.046735890209674835,1.4776806831359863
13.771073341369629,0.3197343945503235,-1.003683090209961,0.9305343627929688,-0.8697441816329956,-0.04343033581972122,1.477929711341858
13.791221380233765,0.316450297832489,-1.0046859979629517,0.9305189847946167,-0.8686563372612,-0.04543951898813248,1.4783886671066284
13.811238288879395,0.3179350793361664,-1.005878210067749,0.9296826124191284,-0.8692599534988403,-0.04322022944688797,1.4783611297607422
13.831303834915161,0.3190899193286896,-1.0055930614471436,0.930487871170044,-0.8701222538948059,-0.04491324722766876,1.4800447225570679
13.851439476013184,0.3173691928386688,-1.005014419555664,0.929671049118042,-0.86939936876297,-0.044999949634075165,1.4790987968444824
13.87160873413086,0.3186170756816864,-1.0045406818389893,0.9314863681793213,-0.8693560361862183,-0.046981193125247955,1.4796185493469238
13.89168906211853,0.3171754777431488,-1.0066328048706055,0.9285906553268433,-0.8681473731994629,-0.04452374577522278,1.4787132740020752
13.911681890487671,0.3173084259033203,-1.0070065259933472,0.931492269039154,-0.8678749203681946,-0.04626544564962387,1.4792864322662354
13.931770086288452,0.31382325291633606,-1.0071344375610352,0.929973840713501,-0.866659939289093,-0.047971583902835846,1.479538917541504
13.951916694641113,0.31651362776756287,-1.0072447061538696,0.9306994676589966,-0.8679534792900085,-0.04855360835790634,1.481213927268982
13.972080707550049,0.319026380777359,-1.0084788799285889,0.9306432604789734,-0.8689118027687073,-0.04669516533613205,1.4810820817947388
13.992172241210938,0.3172362744808197,-1.008889079093933,0.9302210807800293,-0.8678117394447327,-0.04645809531211853,1.480462670326233
14.012281656265259,0.31781572103500366,-1.0095906257629395,0.9307712316513062,-0.8685300946235657,-0.04791080951690674,1.4817695617675781
14.032396793365479,0.3180500566959381,-1.0096977949142456,0.9307210445404053,-0.8689387440681458,-0.0479598343372345,1.4824568033218384
14.052514553070068,0.32077768445014954,-1.0100691318511963,0.9308019876480103,-0.8699079751968384,-0.047197937965393066,1.483729362487793
14.072673082351685,0.3186478912830353,-1.010128378868103,0.9303945899009705,-0.8686532378196716,-0.047315433621406555,1.4823812246322632
14.092817544937134,0.316481351852417,-1.0107181072235107,0.9290214776992798,-0.8673087358474731,-0.048311591148376465,1.4824317693710327
14.112835884094238,0.31587111949920654,-1.0110738277435303,0.9304571747779846,-0.8667635321617126,-0.04972133785486221,1.4826198816299438
14.132908344268799,0.3175838887691498,-1.0123432874679565,0.9281933307647705,-0.8681284189224243,-0.04772646725177765,1.4838180541992188
14.153002738952637,0.3164130747318268,-1.0125209093093872,0.9304084777832031,-0.8677260279655457,-0.050917357206344604,1.4845467805862427
14.173038482666016,0.3176543414592743,-1.012734055519104,0.9301466941833496,-0.8679017424583435,-0.04971296340227127,1.4845906496047974
14.193116664886475,0.3204449415206909,-1.0139292478561401,0.9281700253486633,-0.8692668676376343,-0.04745274782180786,1.4850552082061768
14.213244915008545,0.3202272355556488,-1.0153206586837769,0.9298670291900635,-0.8685411810874939,-0.04831673949956894,1.4847533702850342
14.23327350616455,0.315752774477005,-1.0139172077178955,0.929661750793457,-0.8666347861289978,-0.05078894644975662,1.484871745109558
14.25345778465271,0.3208177387714386,-1.0154954195022583,0.9299523234367371,-0.8687443137168884,-0.0494999885559082,1.4870637655258179
14.273630380630493,0.3149053454399109,-1.0157636404037476,0.9274800419807434,-0.8661917448043823,-0.050483278930187225,1.4853166341781616
14.293589115142822,0.3172775208950043,-1.0161473751068115,0.9301457405090332,-0.8667662143707275,-0.05277741700410843,1.4867362976074219
14.313677072525024,0.31737619638442993,-1.017012596130371,0.9292486310005188,-0.8674759268760681,-0.05154237896203995,1.4871875047683716
14.33378529548645,0.31967583298683167,-1.0179579257965088,0.9286505579948425,-0.8684815764427185,-0.050014786422252655,1.4873610734939575
14.353882074356079,0.31925448775291443,-1.0187599658966064,0.9289820194244385,-0.8684025406837463,-0.051196545362472534,1.4886910915374756
14.37397813796997,0.3179905414581299,-1.016183614730835,0.9293585419654846,-0.8672941327095032,-0.052690692245960236,1.4877561330795288
14.394032716751099,0.31865212321281433,-1.0179864168167114,0.9294154644012451,-0.867331326007843,-0.05192871391773224,1.4877604246139526
14.414150953292847,0.31526729464530945,-1.0194190740585327,0.9280725717544556,-0.8655748963356018,-0.05260317772626877,1.4872283935546875
14.434209823608398,0.3206477463245392,-1.0207575559616089,0.9293613433837891,-0.8673815727233887,-0.05103367567062378,1.4893242120742798
14.454349279403687,0.31662264466285706,-1.0208370685577393,0.9285141825675964,-0.8654521107673645,-0.05236852914094925,1.4879682064056396
14.474406719207764,0.319749116897583,-1.0212252140045166,0.9285314083099365,-0.8682416677474976,-0.05248010903596878,1.4907962083816528
14.4945228099823,0.31631776690483093,-1.0200811624526978,0.9295449256896973,-0.865806519985199,-0.05429559201002121,1.488817811012268
14.514635801315308,0.3205464780330658,-1.0222253799438477,0.9286523461341858,-0.8672622442245483,-0.052407510578632355,1.4899200201034546
14.534662961959839,0.3176886737346649,-1.0235354900360107,0.9278134107589722,-0.8661286234855652,-0.05225839465856552,1.490103840827942
