liuyurong129/humanoid-gym/humanoid/data/target_q_20250521-003824.csv
timestamp,joint_1,joint_2,joint_3,joint_4,joint_5,joint_6
6.151199340820312e-05,0.0,0.0,0.0,0.0,0.0,0.0
0.020200252532958984,0.0,0.0,0.0,0.0,0.0,0.0
0.040257930755615234,0.0,0.0,0.0,0.0,0.0,0.0
0.06030726432800293,-0.4312133193016052,-0.7692168951034546,0.8252221941947937,1.85787034034729,-0.3220351040363312,0.4731581211090088
0.08058428764343262,-0.9799302220344543,-1.0998916625976562,1.410024642944336,1.8483598232269287,0.11369022727012634,0.6207942962646484
0.10069704055786133,-1.0361465215682983,-1.1130502223968506,1.3492809534072876,1.765280842781067,0.10058827698230743,0.6411085724830627
0.12077069282531738,-1.0613206624984741,-1.1223344802856445,1.296243667602539,1.741899013519287,0.06616656482219696,0.6425588130950928
0.14114761352539062,-1.0535227060317993,-1.1251088380813599,1.280742883682251,1.7463058233261108,0.06255501508712769,0.641376256942749
0.16124796867370605,-1.035800576210022,-1.1291747093200684,1.2948943376541138,1.7501728534698486,0.07073794305324554,0.6391539573669434
0.1813199520111084,-0.9859154224395752,-1.1440448760986328,1.3569934368133545,1.767149806022644,0.09563932567834854,0.6302722692489624
0.20136189460754395,-0.9857439994812012,-1.137453317642212,1.3663159608840942,1.7591817378997803,0.10637263208627701,0.6313737630844116
0.221449613571167,-0.9631603956222534,-1.1405354738235474,1.4151690006256104,1.7655255794525146,0.11446273326873779,0.622273325920105
0.24152207374572754,-0.9525049924850464,-1.1490150690078735,1.3659510612487793,1.7293084859848022,0.09395204484462738,0.6223266124725342
0.26161980628967285,-0.98466557264328,-1.1367533206939697,1.3253068923950195,1.7405116558074951,0.08416818082332611,0.626795768737793
0.28165721893310547,-0.9551264047622681,-1.1435354948043823,1.3404548168182373,1.7461886405944824,0.09267052263021469,0.6211966276168823
0.3017544746398926,-0.9593183398246765,-1.1332674026489258,1.3454242944717407,1.7370654344558716,0.09578068554401398,0.6216467618942261
0.3218109607696533,-0.9681238532066345,-1.1237759590148926,1.3644394874572754,1.7503416538238525,0.10594752430915833,0.6195275187492371
0.3419189453125,-0.9347578287124634,-1.1386394500732422,1.3736639022827148,1.761298656463623,0.11259423941373825,0.6137986183166504
0.36195826530456543,-0.9399386644363403,-1.1362305879592896,1.3713147640228271,1.7579845190048218,0.10749687999486923,0.6136518716812134
0.38205909729003906,-0.9512186050415039,-1.134615182876587,1.3152635097503662,1.7269244194030762,0.09189026057720184,0.619845449924469
0.40212464332580566,-0.9526582360267639,-1.1312589645385742,1.3086297512054443,1.7347345352172852,0.08488380908966064,0.616513729095459
0.4222080707550049,-0.9281532168388367,-1.135033130645752,1.3460254669189453,1.7389287948608398,0.10299728810787201,0.6113169193267822
0.4422476291656494,-0.941831111907959,-1.1238353252410889,1.352613925933838,1.7561583518981934,0.1049022451043129,0.6100904941558838
0.4623401165008545,-0.9500096440315247,-1.1200692653656006,1.347510576248169,1.7572309970855713,0.10559318214654922,0.6111022233963013
0.4824211597442627,-0.9187071919441223,-1.130004644393921,1.3609073162078857,1.7532566785812378,0.11353833228349686,0.6069862246513367
0.5024852752685547,-0.9458101987838745,-1.1149797439575195,1.3120510578155518,1.7247751951217651,0.09422780573368073,0.611081063747406
0.5225443840026855,-0.9462423324584961,-1.114048719406128,1.3033138513565063,1.7307078838348389,0.09024395048618317,0.6086922883987427
0.5427916049957275,-0.9164219498634338,-1.1251729726791382,1.3427695035934448,1.7578771114349365,0.10448937118053436,0.6001547574996948
0.5628707408905029,-0.8892519474029541,-1.1387534141540527,1.3263477087020874,1.7261552810668945,0.09905208647251129,0.600028932094574
0.5829489231109619,-0.888095498085022,-1.1364794969558716,1.341019630432129,1.7420157194137573,0.10133810341358185,0.5958675742149353
0.6030299663543701,-0.8733540773391724,-1.1336835622787476,1.3512192964553833,1.7395687103271484,0.11127937585115433,0.5924009084701538
0.6230940818786621,-0.8958718776702881,-1.1293840408325195,1.3081607818603516,1.72548246383667,0.09687182307243347,0.5974915027618408
0.6433298587799072,-0.8942347168922424,-1.126130223274231,1.3303295373916626,1.7442677021026611,0.10105421394109726,0.5928536653518677
0.6633396148681641,-0.8764568567276001,-1.1253366470336914,1.351973056793213,1.7575138807296753,0.10957152396440506,0.5889804363250732
0.6834161281585693,-0.8609901666641235,-1.1263933181762695,1.35979425907135,1.7342276573181152,0.11254604905843735,0.5861445665359497
0.7035372257232666,-0.8583678603172302,-1.1243524551391602,1.347029209136963,1.7269059419631958,0.11901120841503143,0.586695671081543
0.723607063293457,-0.826854944229126,-1.1333680152893066,1.3784091472625732,1.7441577911376953,0.12866516411304474,0.5781830549240112
0.7440083026885986,-0.8340724110603333,-1.1288831233978271,1.3736302852630615,1.741004228591919,0.12846823036670685,0.5790531635284424
0.7641091346740723,-0.8285983800888062,-1.1274665594100952,1.359755039215088,1.7326984405517578,0.12568756937980652,0.5787029266357422
0.7842485904693604,-0.795190691947937,-1.1382167339324951,1.361600399017334,1.7571684122085571,0.12487596273422241,0.5704019665718079
0.8042950630187988,-0.8313590884208679,-1.1260263919830322,1.3386662006378174,1.7270421981811523,0.11633578687906265,0.5764070749282837
0.8243777751922607,-0.7802798748016357,-1.1388617753982544,1.3766474723815918,1.7473801374435425,0.14046010375022888,0.5679793953895569
0.8444457054138184,-0.7892886400222778,-1.1279327869415283,1.3721064329147339,1.7417875528335571,0.1350206732749939,0.566361665725708
0.8645191192626953,-0.8577327132225037,-1.1022322177886963,1.3043861389160156,1.7200788259506226,0.10343876481056213,0.5751664638519287
0.8847148418426514,-0.8328104019165039,-1.1070871353149414,1.343070387840271,1.7435388565063477,0.11817651987075806,0.5675743818283081
0.9048161506652832,-0.8219314813613892,-1.1106027364730835,1.3378684520721436,1.7360634803771973,0.1162920594215393,0.5667845606803894
0.9248874187469482,-0.7732148170471191,-1.125204086303711,1.3579440116882324,1.7331607341766357,0.13144232332706451,0.5602042078971863
0.94492506980896,-0.7730411291122437,-1.1179070472717285,1.383398175239563,1.7493948936462402,0.13946756720542908,0.5549733638763428
0.9651362895965576,-0.7876430749893188,-1.1154563426971436,1.3342092037200928,1.7273812294006348,0.13030821084976196,0.5623284578323364
0.9851329326629639,-0.7545181512832642,-1.1289470195770264,1.3248424530029297,1.7324621677398682,0.12983058393001556,0.5577229261398315
1.0051968097686768,-0.770870566368103,-1.1184555292129517,1.3107460737228394,1.7209056615829468,0.12868757545948029,0.5597898960113525
1.0252985954284668,-0.7598944902420044,-1.1179314851760864,1.320108413696289,1.711836338043213,0.12663491070270538,0.5550307035446167
1.0455758571624756,-0.7736445665359497,-1.1118135452270508,1.3219594955444336,1.720207929611206,0.1204509437084198,0.5524401664733887
1.0656721591949463,-0.7701973915100098,-1.1088964939117432,1.347440481185913,1.7362046241760254,0.1306466907262802,0.5496459603309631
1.0857505798339844,-0.7730650305747986,-1.1040416955947876,1.3228429555892944,1.714850902557373,0.12176073342561722,0.5496193170547485
1.105804204940796,-0.7484558820724487,-1.1092445850372314,1.3443071842193604,1.731034517288208,0.13480934500694275,0.5431618690490723
1.1259031295776367,-0.7340388298034668,-1.1204899549484253,1.3279979228973389,1.7168688774108887,0.12183943390846252,0.5423140525817871
1.1459534168243408,-0.7377099990844727,-1.1098039150238037,1.35560142993927,1.7279462814331055,0.1419360637664795,0.5413745641708374
1.1661145687103271,-0.7315532565116882,-1.1076072454452515,1.332820177078247,1.7112817764282227,0.1393185555934906,0.5416168570518494
1.1861340999603271,-0.7009395956993103,-1.1147531270980835,1.3332916498184204,1.7125649452209473,0.14513778686523438,0.5361731052398682
1.2063236236572266,-0.7211368083953857,-1.1045717000961304,1.3600564002990723,1.730637550354004,0.1405717134475708,0.5324723720550537
1.226417064666748,-0.7234803438186646,-1.10243558883667,1.3305014371871948,1.7087783813476562,0.13644921779632568,0.5342978239059448
1.246509075164795,-0.7156599164009094,-1.1038365364074707,1.326414704322815,1.7180782556533813,0.12689253687858582,0.5283114910125732
1.2665863037109375,-0.7302692532539368,-1.104753851890564,1.2794907093048096,1.7001360654830933,0.10463643819093704,0.5326712131500244
1.2866315841674805,-0.6769559979438782,-1.1164605617523193,1.3497028350830078,1.741544485092163,0.1412271112203598,0.5212055444717407
1.3067195415496826,-0.7001235485076904,-1.1000370979309082,1.357360601425171,1.7286765575408936,0.14239972829818726,0.5215854644775391
1.3268311023712158,-0.6714519262313843,-1.1096320152282715,1.3556050062179565,1.7273881435394287,0.13974392414093018,0.5147544145584106
1.3468618392944336,-0.675206184387207,-1.1060936450958252,1.3519891500473022,1.7390215396881104,0.1437588632106781,0.514460563659668
1.3669333457946777,-0.680266261100769,-1.1050631999969482,1.306121587753296,1.7104215621948242,0.13827471435070038,0.5209749937057495
1.387019395828247,-0.6824216246604919,-1.0984917879104614,1.3074328899383545,1.717376947402954,0.14216502010822296,0.5194231867790222
1.4070942401885986,-0.6561172008514404,-1.1026250123977661,1.3202064037322998,1.7079252004623413,0.14830267429351807,0.5140738487243652
1.4272358417510986,-0.6823652982711792,-1.0923985242843628,1.313496708869934,1.7217224836349487,0.14017683267593384,0.5150215029716492
1.447352409362793,-0.6584998965263367,-1.098433256149292,1.3488285541534424,1.7302663326263428,0.15140339732170105,0.508614182472229
1.4674978256225586,-0.6571910381317139,-1.0954010486602783,1.3342968225479126,1.7164510488510132,0.14440464973449707,0.5075542330741882
1.4875245094299316,-0.6444800496101379,-1.1002345085144043,1.3086727857589722,1.704559564590454,0.12926697731018066,0.5047485828399658
1.507594347000122,-0.6410019397735596,-1.1010663509368896,1.3048672676086426,1.7128527164459229,0.13195890188217163,0.5025048851966858
1.5276591777801514,-0.663931131362915,-1.0936946868896484,1.2774155139923096,1.7039834260940552,0.12975497543811798,0.5076912045478821
1.5476813316345215,-0.6456236839294434,-1.0950658321380615,1.2924885749816895,1.7019450664520264,0.13814310729503632,0.503149688243866
1.5678091049194336,-0.6427147388458252,-1.091078519821167,1.2770395278930664,1.6932109594345093,0.1350690722465515,0.5022244453430176
1.5878474712371826,-0.6274774670600891,-1.0938942432403564,1.2953028678894043,1.706369400024414,0.14415313303470612,0.4992067515850067
1.607926368713379,-0.598990797996521,-1.097502589225769,1.3564860820770264,1.7349729537963867,0.16378486156463623,0.4891780614852905
1.6279847621917725,-0.6083410382270813,-1.091517448425293,1.3292193412780762,1.706820011138916,0.14639556407928467,0.4898310899734497
1.6480486392974854,-0.5823153853416443,-1.0953760147094727,1.3259469270706177,1.6907782554626465,0.14786770939826965,0.4834772050380707
1.6681008338928223,-0.5937399864196777,-1.0882644653320312,1.3306310176849365,1.7058839797973633,0.14915108680725098,0.4819372594356537
1.688201904296875,-0.612625002861023,-1.0824127197265625,1.266679048538208,1.671605110168457,0.134473979473114,0.48834434151649475
1.708333969116211,-0.595054566860199,-1.0866358280181885,1.2845078706741333,1.699448585510254,0.14913621544837952,0.4828553795814514
1.7284188270568848,-0.5559788346290588,-1.097400188446045,1.2840734720230103,1.6851365566253662,0.15380752086639404,0.4785686731338501
1.7485346794128418,-0.5673705339431763,-1.083380937576294,1.349457025527954,1.7144626379013062,0.15602242946624756,0.4702583849430084
1.7686376571655273,-0.5705782175064087,-1.0732145309448242,1.3655658960342407,1.7323572635650635,0.16917911171913147,0.46606680750846863
1.7886674404144287,-0.5523009300231934,-1.078269362449646,1.3514153957366943,1.7205092906951904,0.1673721969127655,0.46404701471328735
1.809016466140747,-0.5661615133285522,-1.0784521102905273,1.2826759815216064,1.689674735069275,0.15356150269508362,0.47278904914855957
1.8291027545928955,-0.5477190017700195,-1.0783288478851318,1.3143867254257202,1.702630877494812,0.16747668385505676,0.4661036431789398
1.8492255210876465,-0.5754054188728333,-1.0642285346984863,1.3055481910705566,1.7098413705825806,0.1657567173242569,0.4681786894798279
1.8693017959594727,-0.5445166230201721,-1.0709750652313232,1.322084903717041,1.7218784093856812,0.17453764379024506,0.4614064693450928
1.8894245624542236,-0.5032182931900024,-1.0836737155914307,1.3167874813079834,1.7033584117889404,0.17029421031475067,0.4546786844730377
1.9095916748046875,-0.5469536781311035,-1.073868751525879,1.257620096206665,1.672283411026001,0.13718265295028687,0.46153154969215393
1.9296250343322754,-0.5246004462242126,-1.077148199081421,1.2723731994628906,1.682931900024414,0.15407058596611023,0.4568879306316376
1.949690341949463,-0.4963500201702118,-1.080353856086731,1.29703950881958,1.6890567541122437,0.16795077919960022,0.450431227684021
1.969857931137085,-0.4952213168144226,-1.0756864547729492,1.3016626834869385,1.6933990716934204,0.1659391075372696,0.44683679938316345
1.989957571029663,-0.505047082901001,-1.0684020519256592,1.3214598894119263,1.7126142978668213,0.17468145489692688,0.44579824805259705
2.010035753250122,-0.5280242562294006,-1.059082269668579,1.269532561302185,1.6885640621185303,0.16361309587955475,0.4507099986076355
2.030109405517578,-0.5288963317871094,-1.0574190616607666,1.24028742313385,1.666518211364746,0.14837168157100677,0.4498853087425232
2.050380229949951,-0.5306783318519592,-1.0546146631240845,1.2467989921569824,1.687035083770752,0.1476113200187683,0.4457138478755951
2.0704405307769775,-0.4819803237915039,-1.0653983354568481,1.3111906051635742,1.7100545167922974,0.16655126214027405,0.4341379702091217
2.0905356407165527,-0.4486842155456543,-1.0709855556488037,1.3248448371887207,1.7019778490066528,0.16623476147651672,0.42639827728271484
2.1106910705566406,-0.468596875667572,-1.0593678951263428,1.334640622138977,1.714087724685669,0.17243218421936035,0.4256301820278168
2.1307404041290283,-0.4870593547821045,-1.053399920463562,1.2800579071044922,1.6935880184173584,0.18124684691429138,0.4348500072956085
2.15080189704895,-0.46931999921798706,-1.0550224781036377,1.2663078308105469,1.6766786575317383,0.17453843355178833,0.43154051899909973
2.1710574626922607,-0.4322435259819031,-1.0639798641204834,1.2702587842941284,1.6777799129486084,0.17436903715133667,0.42338883876800537
2.190985679626465,-0.43235036730766296,-1.060541033744812,1.2791959047317505,1.6900852918624878,0.17981892824172974,0.4204334020614624
2.211073875427246,-0.47694772481918335,-1.050615906715393,1.24609375,1.665992021560669,0.13744446635246277,0.4219669997692108
2.2311604022979736,-0.46671801805496216,-1.047480821609497,1.2261360883712769,1.6558789014816284,0.1403031349182129,0.41967201232910156
2.251262903213501,-0.42083171010017395,-1.0582904815673828,1.2702500820159912,1.6910673379898071,0.1635545790195465,0.4113461673259735
2.2714035511016846,-0.4229835867881775,-1.0496525764465332,1.2984051704406738,1.6964483261108398,0.16932085156440735,0.40721046924591064
2.29150390625,-0.4543705880641937,-1.0395731925964355,1.231887698173523,1.6585819721221924,0.16131113469600677,0.41625648736953735
2.311558485031128,-0.44896501302719116,-1.0326001644134521,1.2726404666900635,1.6901675462722778,0.17458876967430115,0.40914246439933777
2.331634044647217,-0.45652270317077637,-1.0257469415664673,1.2811307907104492,1.6993153095245361,0.17771384119987488,0.4073444902896881
2.3520469665527344,-0.43984338641166687,-1.0290981531143188,1.2581429481506348,1.6769753694534302,0.17025810480117798,0.40494105219841003
2.3722174167633057,-0.43006646633148193,-1.0343163013458252,1.2480679750442505,1.6790809631347656,0.15960180759429932,0.401387482881546
2.392249822616577,-0.4359322190284729,-1.029896855354309,1.2693650722503662,1.7021065950393677,0.16053029894828796,0.398200660943985
2.41233229637146,-0.39456212520599365,-1.0387191772460938,1.2538429498672485,1.6622289419174194,0.16297149658203125,0.39392656087875366
2.43239426612854,-0.4140526056289673,-1.029496669769287,1.2598336935043335,1.6936150789260864,0.16562223434448242,0.390988290309906
2.452505350112915,-0.40592414140701294,-1.0361205339431763,1.2025197744369507,1.6576223373413086,0.15583445131778717,0.39471110701560974
2.47257924079895,-0.4020273685455322,-1.0354106426239014,1.194397211074829,1.651132583618164,0.1406424641609192,0.3902030289173126
2.492656707763672,-0.4138302803039551,-1.0296881198883057,1.183759331703186,1.6592164039611816,0.1404295265674591,0.391496479511261
2.512708902359009,-0.421935498714447,-1.0196142196655273,1.2007910013198853,1.6748073101043701,0.1596379280090332,0.3902808129787445
2.532811164855957,-0.40653687715530396,-1.021969199180603,1.2220568656921387,1.6788729429244995,0.15215250849723816,0.3836376965045929
2.5528769493103027,-0.36618080735206604,-1.0338026285171509,1.2166229486465454,1.6560275554656982,0.1380256563425064,0.3748120069503784
2.5729498863220215,-0.38133466243743896,-1.0273339748382568,1.2043107748031616,1.6664375066757202,0.13602283596992493,0.3755718469619751
2.593001127243042,-0.3643929064273834,-1.0229759216308594,1.2408900260925293,1.6768827438354492,0.1595861315727234,0.3697372078895569
2.6130645275115967,-0.3732915222644806,-1.0214849710464478,1.1702874898910522,1.6390671730041504,0.15341532230377197,0.3768945336341858
2.633166551589966,-0.38383448123931885,-1.0165557861328125,1.174184799194336,1.664621353149414,0.1573595255613327,0.3750002682209015
2.653273820877075,-0.372488409280777,-1.0175679922103882,1.1827200651168823,1.6652288436889648,0.15185075998306274,0.37062644958496094
2.6733036041259766,-0.38917356729507446,-1.0069243907928467,1.1899352073669434,1.670518398284912,0.15267688035964966,0.36833539605140686
2.6933791637420654,-0.3679095208644867,-1.0063211917877197,1.2428114414215088,1.695415735244751,0.17170757055282593,0.3614797294139862
2.7134833335876465,-0.35194188356399536,-1.010338544845581,1.2152079343795776,1.6691890954971313,0.1602974534034729,0.3584134578704834
2.733578681945801,-0.3239111304283142,-1.015681505203247,1.2183605432510376,1.6673450469970703,0.1618138551712036,0.3524950444698334
2.7536261081695557,-0.34032535552978516,-1.010508418083191,1.1990188360214233,1.6703174114227295,0.15336668491363525,0.35279038548469543
2.7737011909484863,-0.32498809695243835,-1.0198891162872314,1.1396222114562988,1.6535215377807617,0.14652863144874573,0.35607725381851196
2.7937729358673096,-0.3131849467754364,-1.011230230331421,1.1939892768859863,1.6615421772003174,0.17079296708106995,0.3496047258377075
2.8138375282287598,-0.32370442152023315,-1.0050978660583496,1.1677521467208862,1.6448185443878174,0.1683456003665924,0.350807249546051
2.83388352394104,-0.3286847770214081,-0.9987335205078125,1.160020112991333,1.6380791664123535,0.15528658032417297,0.3470671474933624
2.853985071182251,-0.2810186445713043,-1.0037832260131836,1.2443230152130127,1.6795690059661865,0.17389856278896332,0.33126839995384216
2.874105930328369,-0.2855589985847473,-0.9962630271911621,1.2634621858596802,1.7014625072479248,0.18559961020946503,0.33058249950408936
2.8942341804504395,-0.28417685627937317,-0.9973711967468262,1.210876226425171,1.674762487411499,0.1683904528617859,0.33017078042030334
2.9142701625823975,-0.3001540005207062,-0.9941859245300293,1.1557728052139282,1.65207839012146,0.15359431505203247,0.3315848410129547
2.9343721866607666,-0.2934824228286743,-0.9982597827911377,1.1322978734970093,1.6323813199996948,0.1420510709285736,0.3308422267436981
2.954439401626587,-0.30343231558799744,-0.9933863282203674,1.1181352138519287,1.6335220336914062,0.13407526910305023,0.3282088339328766
2.9745144844055176,-0.2697010338306427,-1.0039470195770264,1.1174068450927734,1.6429917812347412,0.14132679998874664,0.3237069249153137
2.9945764541625977,-0.2477821558713913,-0.9978287816047668,1.1740971803665161,1.6622734069824219,0.1743500679731369,0.3172968029975891
3.0146801471710205,-0.26279282569885254,-0.9856303930282593,1.2108618021011353,1.6606805324554443,0.1671418845653534,0.31310656666755676
3.034754753112793,-0.24874846637248993,-0.9821789264678955,1.2199112176895142,1.6625404357910156,0.1717691570520401,0.3055548667907715
3.054825782775879,-0.25042814016342163,-0.9807173013687134,1.1890896558761597,1.6589078903198242,0.17021667957305908,0.30494585633277893
3.0748913288116455,-0.2612811028957367,-0.9788089990615845,1.161011815071106,1.6586512327194214,0.1526620090007782,0.3036612272262573
3.0953662395477295,-0.29615268111228943,-0.9699220061302185,1.1143373250961304,1.655048131942749,0.1419820487499237,0.3092903196811676
3.1154613494873047,-0.292936772108078,-0.9720100164413452,1.1021308898925781,1.6509407758712769,0.1356615424156189,0.30839741230010986
3.13559889793396,-0.2819181978702545,-0.9745747447013855,1.0875275135040283,1.6383934020996094,0.13066816329956055,0.30605316162109375
3.1556344032287598,-0.24745702743530273,-0.976144552230835,1.151893138885498,1.6709563732147217,0.1562797576189041,0.29542526602745056
3.175684928894043,-0.2581673860549927,-0.9806554317474365,1.0721027851104736,1.6310718059539795,0.13165652751922607,0.30219149589538574
3.1957755088806152,-0.21685181558132172,-0.9835206270217896,1.0929867029190063,1.6159327030181885,0.14931468665599823,0.29484543204307556
3.215850830078125,-0.23953454196453094,-0.9710286855697632,1.0906628370285034,1.6166667938232422,0.15087677538394928,0.2950969636440277
3.235902786254883,-0.24251340329647064,-0.9606356620788574,1.1319284439086914,1.647294282913208,0.16046863794326782,0.2886028587818146
3.255964517593384,-0.2393038272857666,-0.9593679904937744,1.131856083869934,1.6354527473449707,0.1503431797027588,0.28461962938308716
3.276054620742798,-0.25043976306915283,-0.9556937217712402,1.1241354942321777,1.6628258228302002,0.15260626375675201,0.2845657169818878
3.2961950302124023,-0.2127918004989624,-0.9612680673599243,1.122792363166809,1.6297202110290527,0.15350940823554993,0.2776898443698883
3.3161964416503906,-0.2152467966079712,-0.960375189781189,1.1164145469665527,1.6499125957489014,0.14593318104743958,0.27411171793937683
3.336322069168091,-0.19441375136375427,-0.9688687324523926,1.0769038200378418,1.6315710544586182,0.14463990926742554,0.27507486939430237
3.356383800506592,-0.1933363527059555,-0.9614512920379639,1.1109862327575684,1.6427533626556396,0.1511559933423996,0.2677555978298187
3.3764631748199463,-0.20577365159988403,-0.9505024552345276,1.145923376083374,1.6637052297592163,0.15921401977539062,0.26323527097702026
3.396545171737671,-0.18871212005615234,-0.9550055265426636,1.0970971584320068,1.6307401657104492,0.1484116017818451,0.26212090253829956
3.4166817665100098,-0.19326317310333252,-0.9529439210891724,1.0959558486938477,1.6297338008880615,0.14181126654148102,0.2602645456790924
3.4367520809173584,-0.18492254614830017,-0.9496344923973083,1.0983684062957764,1.630203366279602,0.1390914022922516,0.25464144349098206
3.456817865371704,-0.1609746813774109,-0.9521421790122986,1.096742868423462,1.6342517137527466,0.1429283618927002,0.2497882843017578
3.4768669605255127,-0.19035203754901886,-0.943063497543335,1.053265929222107,1.6199421882629395,0.12830251455307007,0.25338056683540344
3.4970078468322754,-0.17630499601364136,-0.9399409294128418,1.0877537727355957,1.6323813199996948,0.15332600474357605,0.24837061762809753
3.517073631286621,-0.16566523909568787,-0.9437082409858704,1.0651854276657104,1.6289019584655762,0.14355769753456116,0.24504703283309937
3.5371809005737305,-0.1555040180683136,-0.9445178508758545,1.0509904623031616,1.61549711227417,0.13551709055900574,0.24024301767349243
3.557211399078369,-0.17082566022872925,-0.934894323348999,1.073547124862671,1.640596628189087,0.14354532957077026,0.2381923496723175
3.5772817134857178,-0.17844776809215546,-0.9333345890045166,1.0406503677368164,1.624096393585205,0.13340520858764648,0.24122387170791626
3.5973594188690186,-0.1595466434955597,-0.9316803216934204,1.0326052904129028,1.6086933612823486,0.13717436790466309,0.23597946763038635
3.617464065551758,-0.15157178044319153,-0.9308815598487854,1.0049681663513184,1.5834860801696777,0.12045259773731232,0.2314482033252716
3.637490749359131,-0.14404356479644775,-0.9261399507522583,1.0484883785247803,1.6265907287597656,0.13682596385478973,0.22414422035217285
3.6576108932495117,-0.10852210968732834,-0.9300016164779663,1.067603588104248,1.6319618225097656,0.16130809485912323,0.21963030099868774
3.6776857376098633,-0.1203286349773407,-0.9169985055923462,1.0928738117218018,1.6390595436096191,0.16752174496650696,0.21550214290618896
3.697749137878418,-0.1340247392654419,-0.9126957654953003,1.0542160272598267,1.6173244714736938,0.14438790082931519,0.2146725356578827
3.7177886962890625,-0.13380706310272217,-0.9124170541763306,1.0465073585510254,1.6293572187423706,0.13660532236099243,0.20952823758125305
3.7379233837127686,-0.15043595433235168,-0.9140486717224121,0.9856241941452026,1.6088948249816895,0.12039732933044434,0.21534112095832825
3.757972478866577,-0.13376744091510773,-0.9131425023078918,0.9788720011711121,1.587731122970581,0.1100895032286644,0.20844495296478271
3.778080701828003,-0.12130945175886154,-0.9106495380401611,0.9859598278999329,1.5985565185546875,0.1197085753083229,0.20298275351524353
3.798088312149048,-0.11135365068912506,-0.9096392393112183,0.9851629734039307,1.598978877067566,0.11755652725696564,0.1958475410938263
3.81820011138916,-0.1408659815788269,-0.9099485874176025,0.9186549782752991,1.590863585472107,0.09646289795637131,0.20366725325584412
3.838280200958252,-0.12173207849264145,-0.9018093347549438,0.9512640237808228,1.5861314535140991,0.12764844298362732,0.19870615005493164
3.8584227561950684,-0.11251810938119888,-0.8998030424118042,0.9389940500259399,1.5844695568084717,0.11474380642175674,0.19346392154693604
3.878732681274414,-0.11623522639274597,-0.8959003686904907,0.9074751138687134,1.5715067386627197,0.10371796041727066,0.19139352440834045
3.8988444805145264,-0.09131934493780136,-0.8850519061088562,1.0499036312103271,1.6458165645599365,0.1350371539592743,0.17401184141635895
3.9188990592956543,-0.08614552766084671,-0.8857691287994385,0.9813914895057678,1.5903515815734863,0.12100893259048462,0.17469856142997742
3.9389588832855225,-0.07128822803497314,-0.885931670665741,0.9766035079956055,1.5819344520568848,0.12480872869491577,0.1696118712425232
3.9590232372283936,-0.07318080216646194,-0.8837194442749023,0.9871746897697449,1.6141630411148071,0.13449260592460632,0.16838520765304565
3.9791054725646973,-0.06832077354192734,-0.8779225945472717,0.9741302132606506,1.5830508470535278,0.1305345743894577,0.16366881132125854
3.9991743564605713,-0.06927572935819626,-0.8772789239883423,0.9530045986175537,1.5911872386932373,0.12348686903715134,0.15960516035556793
4.019268035888672,-0.06680116802453995,-0.8757085204124451,0.9490190148353577,1.5915675163269043,0.11956827342510223,0.1547260284423828
4.039509057998657,-0.0776265412569046,-0.8730812072753906,0.9348087310791016,1.593878984451294,0.11462272703647614,0.15615537762641907
4.059625864028931,-0.07139594852924347,-0.8704853057861328,0.9250357151031494,1.5881457328796387,0.10848809033632278,0.15170758962631226
4.079714775085449,-0.05483238399028778,-0.8643913269042969,0.9463797211647034,1.5897912979125977,0.12900850176811218,0.14570441842079163
4.099749803543091,-0.04572868347167969,-0.8601081371307373,0.9758850336074829,1.6073920726776123,0.1250373125076294,0.13571178913116455
4.119884252548218,-0.05690893530845642,-0.8623543381690979,0.9163751006126404,1.578466773033142,0.12562255561351776,0.14146244525909424
4.139915466308594,-0.05105726420879364,-0.8588899970054626,0.9113821983337402,1.5724951028823853,0.12332850694656372,0.13649651408195496
4.159976959228516,-0.045231692492961884,-0.8547408580780029,0.914861261844635,1.582078456878662,0.12176299095153809,0.13048997521400452
4.1801652908325195,-0.04291408509016037,-0.8464301824569702,0.9285584688186646,1.591553807258606,0.1293584257364273,0.12429099529981613
4.2002527713775635,-0.029887357726693153,-0.8479099273681641,0.902972936630249,1.552740454673767,0.10530529171228409,0.11949314922094345
4.220322847366333,-0.02965099923312664,-0.8460400104522705,0.8864688873291016,1.5644330978393555,0.0969356819987297,0.11498091369867325
4.240403413772583,-0.028508713468909264,-0.8402583003044128,0.9066674709320068,1.5928800106048584,0.10764209926128387,0.10962798446416855
4.26047945022583,-0.019436029717326164,-0.8388299942016602,0.8977081775665283,1.5747510194778442,0.12020932137966156,0.1090385690331459
4.280652284622192,-0.01826453022658825,-0.832084059715271,0.9020404815673828,1.571578025817871,0.11174192279577255,0.10384898632764816
4.3006792068481445,-0.0064590442925691605,-0.8319252729415894,0.8824169635772705,1.5602850914001465,0.1051541268825531,0.09610949456691742
4.320727825164795,-0.00012176670134067535,-0.8211040496826172,0.9501752853393555,1.5952509641647339,0.1286015510559082,0.0878690779209137
4.3409974575042725,-0.0060654859989881516,-0.822575569152832,0.8789706230163574,1.5613131523132324,0.12042141705751419,0.09320057183504105
4.361111640930176,-0.0012762900441884995,-0.8188782334327698,0.8640308976173401,1.5419129133224487,0.10154376178979874,0.0867617055773735
4.38119649887085,0.008350750431418419,-0.8175668716430664,0.8375403881072998,1.523647427558899,0.09508316963911057,0.08021452277898788
4.401246786117554,-0.008275380358099937,-0.8072224855422974,0.8455170392990112,1.5315525531768799,0.08490671217441559,0.07138361781835556
4.421344041824341,-0.005535190925002098,-0.809098482131958,0.8210436105728149,1.543137788772583,0.09128399938344955,0.07132595032453537
4.441431045532227,0.0027232300490140915,-0.8099901676177979,0.8070375323295593,1.5441455841064453,0.08520622551441193,0.06807097792625427
4.461490631103516,0.002536715939640999,-0.807986319065094,0.806592583656311,1.5365324020385742,0.0858164057135582,0.06415551155805588
4.481580495834351,0.023078011348843575,-0.8009264469146729,0.8236997127532959,1.5270776748657227,0.09706751257181168,0.05441395193338394
4.501631498336792,0.020039526745676994,-0.7954626083374023,0.849285364151001,1.5603322982788086,0.0926319882273674,0.04905583709478378
4.521726369857788,0.04435037821531296,-0.7930328249931335,0.8213723301887512,1.5158146619796753,0.0913633480668068,0.03896322101354599
4.541802167892456,0.057375431060791016,-0.7902358770370483,0.8038380146026611,1.5080032348632812,0.08950681239366531,0.02912018448114395
4.5618510246276855,0.05434393882751465,-0.7835049033164978,0.8027286529541016,1.5261142253875732,0.08566094934940338,0.02309361845254898
4.581933498382568,0.050752341747283936,-0.7828778028488159,0.7728348970413208,1.513766884803772,0.08116719871759415,0.024360962212085724
4.602029323577881,0.04885543882846832,-0.7786706686019897,0.7684119939804077,1.517765760421753,0.07639617472887039,0.018269822001457214
4.6221067905426025,0.05342422425746918,-0.7666738629341125,0.7994014620780945,1.5362745523452759,0.09051945805549622,0.01020698994398117
4.6421730518341064,0.034797266125679016,-0.7503970861434937,0.8006102442741394,1.5174983739852905,0.10467108339071274,0.004817336797714233
4.662254333496094,0.040713146328926086,-0.7470687627792358,0.7914156317710876,1.5204541683197021,0.08723770827054977,0.0003339126706123352
4.682361364364624,0.06261514872312546,-0.7462186813354492,0.7671827077865601,1.5064232349395752,0.08957860618829727,-0.00799654796719551
4.702438831329346,0.06331080198287964,-0.7400803565979004,0.784672737121582,1.5150418281555176,0.09081729501485825,-0.017213378101587296
4.722488880157471,0.03612605482339859,-0.732633113861084,0.7668187022209167,1.5116000175476074,0.07276012748479843,-0.019792847335338593
4.742576837539673,0.03226121515035629,-0.7328994274139404,0.7314795255661011,1.5072815418243408,0.07578664273023605,-0.018225666135549545
4.762673854827881,0.0417560338973999,-0.7438768744468689,0.648004412651062,1.4733223915100098,0.03608029708266258,-0.0225665420293808
4.782809257507324,0.04492110759019852,-0.7306053638458252,0.6860538721084595,1.4717037677764893,0.046293679624795914,-0.037753455340862274
4.802865743637085,0.04901699721813202,-0.7173579335212708,0.7261559963226318,1.503738284111023,0.07804975658655167,-0.04661150649189949
4.823374032974243,0.016774071380496025,-0.7083593010902405,0.6705678701400757,1.466768503189087,0.05786021053791046,-0.04959166422486305
4.843483924865723,0.014750177040696144,-0.6958918571472168,0.7123867273330688,1.4884276390075684,0.04925702512264252,-0.05817906931042671
4.863536357879639,0.07010380923748016,-0.6896423101425171,0.7501323223114014,1.4803937673568726,0.08234464377164841,-0.07521286606788635
4.883638858795166,0.04201555997133255,-0.6770923733711243,0.71014404296875,1.451639175415039,0.04716525971889496,-0.08110412210226059
4.9040491580963135,0.02173052541911602,-0.6650391817092896,0.6723629236221313,1.4230746030807495,0.04211030527949333,-0.09285751730203629
4.924160957336426,0.048432543873786926,-0.6808359622955322,0.6060131788253784,1.3981051445007324,0.033723440021276474,-0.0949309915304184
4.9442243576049805,0.02343790791928768,-0.6619395613670349,0.5990899801254272,1.4046709537506104,0.04456863924860954,-0.10541200637817383
4.9643168449401855,-0.024225080385804176,-0.6413245797157288,0.6071317195892334,1.4009747505187988,0.02433016523718834,-0.11475806683301926
4.984429597854614,0.01791452430188656,-0.6282210946083069,0.6378422379493713,1.4096548557281494,0.03450092300772667,-0.1298879086971283
5.004510402679443,1.576356589794159e-05,-0.6006455421447754,0.6894155740737915,1.403369426727295,0.051021918654441833,-0.14626075327396393
5.024564266204834,0.01635783724486828,-0.595616340637207,0.6373302340507507,1.3664878606796265,0.04452822729945183,-0.16440388560295105
5.044708251953125,-0.05424293130636215,-0.5847270488739014,0.5548449754714966,1.2852890491485596,-0.006062683649361134,-0.167337566614151
5.06486177444458,-0.04674766957759857,-0.5584821701049805,0.5974831581115723,1.2610771656036377,0.012922371737658978,-0.1999279260635376
5.08488130569458,-0.043652892112731934,-0.5469248294830322,0.5363275408744812,1.1969908475875854,0.012720289640128613,-0.2244579792022705
5.104930877685547,-0.05005394667387009,-0.5290313959121704,0.5034880638122559,1.0797574520111084,0.009081314317882061,-0.2673315405845642
5.125003099441528,-0.02462032623589039,-0.5279749631881714,0.5576803684234619,0.9702455997467041,0.04749523848295212,-0.3001004457473755
5.145087242126465,-0.0854664146900177,-0.5414260029792786,0.43922120332717896,0.7530432343482971,0.019600290805101395,-0.32203245162963867
5.165271043777466,0.05727652460336685,-0.5338757634162903,0.6823694705963135,0.9604676961898804,0.1565333902835846,-0.36993151903152466
5.185297012329102,-0.043458059430122375,-0.6017741560935974,0.5621011257171631,1.1758967638015747,0.07924262434244156,-0.33001285791397095
5.205368280410767,-0.08399052917957306,-0.6057666540145874,0.34554383158683777,1.0710046291351318,-0.007261116988956928,-0.3230462670326233
5.225431442260742,-0.06344003975391388,-0.5767316818237305,0.5494337677955627,1.116337537765503,0.026710335165262222,-0.381404846906662
5.245506048202515,0.04051279276609421,-0.5979300737380981,0.6227437257766724,1.0650660991668701,0.11970824003219604,-0.39849913120269775
5.265557050704956,-0.060125865042209625,-0.5809433460235596,0.5098338723182678,1.0142760276794434,0.1312856823205948,-0.4147147536277771
5.28571081161499,-0.22292020916938782,-0.5512313842773438,0.5277769565582275,0.9580737948417664,0.09640377759933472,-0.42975914478302
5.3057239055633545,0.1799323856830597,-0.6298157572746277,0.3999532163143158,1.0042974948883057,-0.02842298522591591,-0.465096116065979
5.325817108154297,0.03930574655532837,-0.6099990606307983,0.4324888586997986,1.1699892282485962,0.00796437542885542,-0.4604794979095459
5.345891952514648,-0.29098522663116455,-0.5877864360809326,0.7473706007003784,1.2420343160629272,0.033547621220350266,-0.45228347182273865
5.365986108779907,0.08660891652107239,-0.6653372049331665,0.5487931966781616,1.047127604484558,0.08712644129991531,-0.48345011472702026
5.386090040206909,-0.10263553261756897,-0.5497933030128479,0.8729853630065918,1.2007859945297241,0.1306111216545105,-0.5271819233894348
5.406174421310425,-0.18219472467899323,-0.5170011520385742,0.8861984610557556,1.3298101425170898,0.05810431391000748,-0.5088530778884888
5.426228046417236,0.009654393419623375,-0.5495951771736145,0.8388079404830933,1.3348126411437988,0.19197800755500793,-0.5219631195068359
5.446326017379761,0.022207600995898247,-0.6124304533004761,0.4989057779312134,1.2682254314422607,0.04185095801949501,-0.502713680267334
5.466384649276733,-0.5056726932525635,-0.5491687059402466,0.6161872148513794,1.3264329433441162,-0.046709705144166946,-0.4945584535598755
5.486469268798828,-0.3056351840496063,-0.6533035635948181,0.38226062059402466,1.1830649375915527,-0.14827479422092438,-0.5072806477546692
5.506518125534058,-0.058021850883960724,-0.6512558460235596,0.4538566470146179,1.1997398138046265,-0.017470184713602066,-0.5372974872589111
5.526636362075806,0.07087679952383041,-0.6337099671363831,0.68133544921875,1.374855399131775,0.12313315272331238,-0.5429365634918213
5.546821594238281,-0.14231464266777039,-0.6225780248641968,0.8022454977035522,1.2127923965454102,0.11469614505767822,-0.5484955906867981
5.566838026046753,-0.025483349338173866,-0.6099937558174133,0.7415153980255127,1.2561078071594238,0.18583735823631287,-0.566706657409668
5.587360382080078,0.05816880613565445,-0.6326833963394165,0.45477238297462463,1.2179241180419922,0.09231504052877426,-0.5810583829879761
5.60759162902832,-0.27927565574645996,-0.6204949617385864,0.43383362889289856,1.1615771055221558,0.0009345738217234612,-0.5732644200325012
5.627599239349365,-0.26166921854019165,-0.6616473197937012,0.6161429286003113,1.3721407651901245,-0.10471605509519577,-0.5618236064910889
5.647728681564331,0.24531996250152588,-0.6843404173851013,0.5469021797180176,1.321215033531189,0.09761671721935272,-0.5827494263648987
5.667771339416504,0.07086881995201111,-0.6586217284202576,0.6136376857757568,1.3175052404403687,0.07628651708364487,-0.5902161598205566
5.6878626346588135,-0.595714807510376,-0.5683555603027344,0.6586130857467651,1.2152241468429565,-0.10228924453258514,-0.5692031979560852
5.707965850830078,-0.3868400752544403,-0.6074920892715454,0.49165454506874084,1.2464057207107544,-0.1011008620262146,-0.6007634401321411
5.727996349334717,-0.06549636274576187,-0.607461154460907,0.6882508993148804,1.3831727504730225,0.07757516205310822,-0.622346043586731
5.748084783554077,0.02839588187634945,-0.6318928599357605,0.6796069741249084,1.251607060432434,0.14840520918369293,-0.6354015469551086
5.768198251724243,-0.06671857833862305,-0.6793948411941528,0.1269885152578354,1.060455322265625,-0.07946927100419998,-0.6294180154800415
5.788247346878052,-0.1885955035686493,-0.6851221323013306,0.2766265869140625,1.3832449913024902,-0.18876361846923828,-0.6198210716247559
5.808705568313599,-0.0940367728471756,-0.6735502481460571,0.486952006816864,1.4122507572174072,-0.03236963227391243,-0.6236269474029541
5.828795909881592,0.0544094517827034,-0.6511285305023193,0.6708047986030579,1.4619468450546265,0.09592779725790024,-0.6333760023117065
5.848850727081299,-0.175287663936615,-0.6263668537139893,0.7664242386817932,1.2955412864685059,0.12242113053798676,-0.637647271156311
5.868933916091919,-0.07970035821199417,-0.6242792010307312,0.7236781120300293,1.2979906797409058,0.12295757979154587,-0.6577790975570679
5.88897442817688,-0.017141947522759438,-0.6719739437103271,0.3280002474784851,1.2668248414993286,-0.023547355085611343,-0.655884325504303
5.909060478210449,-0.10235007852315903,-0.6968352794647217,0.2352273166179657,1.2513259649276733,-0.14689385890960693,-0.6579509973526001
5.929156541824341,-0.1330874115228653,-0.7038999795913696,0.3650819659233093,1.3831804990768433,-0.13032087683677673,-0.6505770683288574
5.949223279953003,-0.041080258786678314,-0.6744922399520874,0.6001683473587036,1.4399340152740479,0.013249422423541546,-0.6560178995132446
5.969422101974487,-0.023539351299405098,-0.6222259998321533,0.9618488550186157,1.2722593545913696,0.24333888292312622,-0.6927815079689026
5.989526748657227,-0.009416872635483742,-0.6646771430969238,0.7363660335540771,1.181140661239624,0.15910311043262482,-0.6877624988555908
6.009638547897339,-0.015041844919323921,-0.6252435445785522,0.6987208127975464,1.2578024864196777,0.1361558735370636,-0.6991723775863647
6.029704809188843,-0.11423548310995102,-0.6592174172401428,0.31881967186927795,1.2838433980941772,-0.06378715485334396,-0.6860420107841492
6.049733638763428,-0.3300616145133972,-0.6765019297599792,0.42781466245651245,1.4484964609146118,-0.1398993730545044,-0.6712998747825623
6.0698137283325195,-0.28477028012275696,-0.7250311374664307,0.3086482882499695,1.4089957475662231,-0.21549059450626373,-0.6632004976272583
6.089874744415283,-0.19239822030067444,-0.7018648982048035,0.39781853556632996,1.4381890296936035,-0.13038982450962067,-0.6654651761054993
6.109947443008423,-0.08582795411348343,-0.6323819160461426,0.8013943433761597,1.512573480606079,0.12058109045028687,-0.6811915040016174
6.130006790161133,-0.018639469519257545,-0.6367575526237488,0.9152246117591858,1.3629831075668335,0.21039482951164246,-0.7001240253448486
6.150122404098511,0.000547824427485466,-0.6018165946006775,1.0070525407791138,1.3973338603973389,0.2877933979034424,-0.7090296149253845
6.17017388343811,0.019489606842398643,-0.5911862850189209,1.041170358657837,1.4072893857955933,0.3111197352409363,-0.7177245616912842
6.190310716629028,0.06308609992265701,-0.638849675655365,0.823150634765625,1.400524377822876,0.18152454495429993,-0.7184654474258423
6.2103798389434814,-0.0666060820221901,-0.7130386233329773,0.3233368396759033,1.3502357006072998,-0.11992587894201279,-0.6982575058937073
6.230478763580322,-0.4300917685031891,-0.715476930141449,0.21341586112976074,1.2971429824829102,-0.28645384311676025,-0.6858315467834473
6.250543832778931,-0.2620726227760315,-0.7556557059288025,0.21763814985752106,1.4381861686706543,-0.28022313117980957,-0.6747510433197021
6.270606279373169,-0.22330504655838013,-0.6789267063140869,0.4705538749694824,1.4946303367614746,-0.0895453691482544,-0.6793779730796814
6.290761232376099,-0.04777941107749939,-0.6187876462936401,0.9088802337646484,1.5229923725128174,0.19575920701026917,-0.6997126936912537
6.310873985290527,0.2406345009803772,-0.6306506395339966,0.919020414352417,1.3968816995620728,0.2773715853691101,-0.7232260704040527
6.330939054489136,0.13975048065185547,-0.5951781272888184,1.0267715454101562,1.421787142753601,0.33758145570755005,-0.7371928691864014
6.3510682582855225,0.09442587196826935,-0.6264495849609375,0.8775620460510254,1.384539246559143,0.2604846656322479,-0.736015796661377
6.3711323738098145,0.021834058687090874,-0.6861039400100708,0.5135703086853027,1.3822591304779053,0.0012856079265475273,-0.7252017259597778
6.391309976577759,-0.40089520812034607,-0.721953809261322,0.1811751127243042,1.2608180046081543,-0.24510155618190765,-0.6950918436050415
6.411336660385132,-0.4262472689151764,-0.7573583722114563,0.25764650106430054,1.4181487560272217,-0.36520829796791077,-0.6827743649482727
6.431428909301758,-0.1951841413974762,-0.7118738889694214,0.3956073224544525,1.4734121561050415,-0.12724322080612183,-0.6899111866950989
6.451466083526611,-0.16529324650764465,-0.6403221487998962,0.7549078464508057,1.5266692638397217,0.0723971351981163,-0.7035548686981201
6.471548795700073,0.14316008985042572,-0.6299710273742676,0.9204688668251038,1.491756558418274,0.23008179664611816,-0.7246761918067932
6.491699457168579,0.17315152287483215,-0.6005426645278931,1.1004583835601807,1.395400047302246,0.3626819849014282,-0.7488224506378174
6.511794805526733,0.040869906544685364,-0.6179264187812805,0.9868903756141663,1.387984037399292,0.2689225971698761,-0.742966890335083
6.531834363937378,0.004117732867598534,-0.6586540937423706,0.7180427312850952,1.404789924621582,0.09860651195049286,-0.7370727062225342
6.552029609680176,0.05590623617172241,-0.7171594500541687,0.369113951921463,1.3420674800872803,-0.06531451642513275,-0.7264321446418762
6.572137355804443,-0.12440601736307144,-0.7391049861907959,0.09543107450008392,1.3812885284423828,-0.24122917652130127,-0.7128366231918335
6.5922040939331055,-0.19851721823215485,-0.7651607394218445,0.1744166612625122,1.4550786018371582,-0.2843412160873413,-0.7003893256187439
6.612264633178711,-0.12616267800331116,-0.7016078233718872,0.4451853632926941,1.4921324253082275,-0.09682542085647583,-0.7074463367462158
6.632348537445068,-0.116735078394413,-0.6571664214134216,0.7006900906562805,1.5277800559997559,0.052447736263275146,-0.7162092924118042
6.652411460876465,0.24601861834526062,-0.6591579914093018,0.6609790325164795,1.253163456916809,0.22291016578674316,-0.7461857795715332
6.6724936962127686,0.13546422123908997,-0.6177395582199097,0.743876576423645,1.3282824754714966,0.22039124369621277,-0.7680782675743103
6.69253134727478,-0.021545397117733955,-0.693260908126831,0.38916662335395813,1.3403899669647217,-0.021153394132852554,-0.7463369369506836
6.7126240730285645,-0.09622693061828613,-0.7090270519256592,0.3763877749443054,1.3635694980621338,-0.09404759109020233,-0.7440222501754761
6.732682704925537,-0.11213960498571396,-0.7274760007858276,0.38331419229507446,1.4511966705322266,-0.1296636164188385,-0.7299050688743591
6.75275731086731,-0.09750142693519592,-0.6733478307723999,0.7628712058067322,1.5149412155151367,0.04967886954545975,-0.7386853694915771
6.772804498672485,0.03448210656642914,-0.6669117212295532,0.7830367684364319,1.3181178569793701,0.1756986379623413,-0.7605074644088745
6.792931079864502,0.032021090388298035,-0.6502484083175659,0.7575769424438477,1.3432059288024902,0.18130066990852356,-0.7663478851318359
6.812990427017212,-0.06523323804140091,-0.6393164396286011,0.6897356510162354,1.4028780460357666,0.07509610801935196,-0.7653917670249939
6.833105087280273,-0.016131894662976265,-0.7023755311965942,0.20044919848442078,1.296167254447937,-0.0711846649646759,-0.7564841508865356
6.853123664855957,-0.1615399718284607,-0.7478997707366943,0.17163263261318207,1.457384705543518,-0.2650158703327179,-0.7426811456680298
6.873224973678589,-0.18042795360088348,-0.7615987062454224,0.16379261016845703,1.4584871530532837,-0.27032479643821716,-0.735284686088562
6.893288850784302,-0.0969374030828476,-0.7126534581184387,0.38334551453590393,1.4860941171646118,-0.11929719150066376,-0.7414865493774414
6.913475751876831,-0.09841252863407135,-0.6781904697418213,0.5949470400810242,1.5148082971572876,0.007858584634959698,-0.7470354437828064
6.933471441268921,0.07569675147533417,-0.6442438364028931,0.9928743839263916,1.4760901927947998,0.24176183342933655,-0.7701172828674316
6.953555345535278,0.044239893555641174,-0.6260908246040344,1.0254215002059937,1.4174655675888062,0.292382150888443,-0.7794327735900879
6.973670244216919,0.037634238600730896,-0.6003197431564331,1.1390308141708374,1.4431747198104858,0.32062608003616333,-0.7850273251533508
6.993771076202393,0.04025638848543167,-0.6310338377952576,0.9427845478057861,1.4459726810455322,0.23224803805351257,-0.7840098738670349
7.0139899253845215,0.03312370181083679,-0.6995899677276611,0.5006338357925415,1.4179840087890625,-0.0035446258261799812,-0.7720181941986084
7.034104347229004,-0.2296614646911621,-0.7541804909706116,0.10779610276222229,1.301939845085144,-0.24599221348762512,-0.748715877532959
7.05421781539917,-0.3137582838535309,-0.7769299149513245,0.21498844027519226,1.4797714948654175,-0.3595917224884033,-0.7407369017601013
7.074203729629517,-0.15954050421714783,-0.7228834629058838,0.39424818754196167,1.504719614982605,-0.13484805822372437,-0.7423998713493347
7.094302654266357,-0.10908553004264832,-0.6617635488510132,0.6685426235198975,1.5548697710037231,0.046301838010549545,-0.7517133951187134
7.11436915397644,0.16552498936653137,-0.6711662411689758,0.7257611751556396,1.3095576763153076,0.18822011351585388,-0.7827434539794922
7.1344404220581055,0.05916239321231842,-0.604615330696106,0.8820160627365112,1.3818166255950928,0.28441208600997925,-0.8037469387054443
7.154510021209717,0.0014957617968320847,-0.6606976985931396,0.6611564755439758,1.3969019651412964,0.11618955433368683,-0.7934774160385132
7.174604654312134,0.011430932208895683,-0.7035219073295593,0.36238741874694824,1.3150010108947754,-0.00034081656485795975,-0.7856597900390625
7.194745063781738,-0.27117466926574707,-0.795917809009552,0.04832902550697327,1.4353054761886597,-0.3793846368789673,-0.7575393319129944
7.214757204055786,-0.2370961457490921,-0.7748370170593262,0.10674121230840683,1.4681227207183838,-0.28437936305999756,-0.7443773746490479
7.2348222732543945,-0.15151914954185486,-0.7132517099380493,0.32820820808410645,1.494194507598877,-0.12754780054092407,-0.7535349130630493
7.254887104034424,-0.12161888927221298,-0.6816614866256714,0.4919016659259796,1.501819372177124,-0.02044578269124031,-0.7640554904937744
7.274960279464722,-0.06325884163379669,-0.6054145097732544,1.1483373641967773,1.6020593643188477,0.31433913111686707,-0.7807272672653198
7.2950804233551025,0.013229822739958763,-0.6043485403060913,1.1115785837173462,1.4572616815567017,0.3290921747684479,-0.7972935438156128
7.315129518508911,0.029717305675148964,-0.5966173410415649,1.1374971866607666,1.4456894397735596,0.38798484206199646,-0.8050984740257263
7.3352227210998535,0.01818688027560711,-0.6386663913726807,0.9549479484558105,1.4304311275482178,0.2349320948123932,-0.8029053211212158
7.355300664901733,-0.014800133183598518,-0.703273355960846,0.5250775814056396,1.4160842895507812,-0.017529036849737167,-0.7910356521606445
7.3753485679626465,-0.23424741625785828,-0.7103221416473389,0.4135507345199585,1.5243061780929565,-0.14263686537742615,-0.7773411273956299
7.395738840103149,-0.22817189991474152,-0.7217347025871277,0.4782700538635254,1.5359561443328857,-0.14961251616477966,-0.768926203250885
7.415866851806641,-0.14553260803222656,-0.694528341293335,0.7208938598632812,1.5528173446655273,-0.0025380151346325874,-0.768539309501648
7.435900688171387,0.42801690101623535,-0.6727994680404663,0.5506142377853394,1.3100790977478027,0.15915146470069885,-0.7996526956558228
7.455994367599487,0.10056164860725403,-0.6023560762405396,0.8680347204208374,1.4265954494476318,0.21075311303138733,-0.8301066160202026
7.476093053817749,-0.03076544590294361,-0.6357150077819824,0.8422534465789795,1.4652098417282104,0.09752540290355682,-0.8126673698425293
7.496210336685181,0.07091443985700607,-0.6835160255432129,0.5274968147277832,1.3419039249420166,0.0692945346236229,-0.8119447231292725
7.516226053237915,-0.35501182079315186,-0.7184325456619263,0.3231079578399658,1.4252002239227295,-0.20655293762683868,-0.792320728302002
7.536332845687866,-0.2968069016933441,-0.7679504156112671,0.22212101519107819,1.469590425491333,-0.26822954416275024,-0.7730834484100342
7.556396245956421,-0.1640121191740036,-0.7490825653076172,0.2837429940700531,1.4932472705841064,-0.1789332926273346,-0.7751632928848267
7.5764689445495605,-0.13650624454021454,-0.681951105594635,0.6029911041259766,1.5523091554641724,0.00017995666712522507,-0.7854436039924622
7.596531629562378,0.2334045171737671,-0.6229044198989868,1.0425021648406982,1.5572559833526611,0.2980826795101166,-0.8109722137451172
7.616653919219971,0.20492099225521088,-0.6073843240737915,1.1234703063964844,1.4755815267562866,0.36486685276031494,-0.8282681703567505
7.636764764785767,0.10350698232650757,-0.6043214797973633,1.1477582454681396,1.4671317338943481,0.37444189190864563,-0.8323619365692139
7.65683388710022,0.12320729345083237,-0.6246635913848877,1.0542502403259277,1.4709516763687134,0.305040568113327,-0.8305714130401611
7.676940441131592,0.05220708250999451,-0.690321683883667,0.6486649513244629,1.459391474723816,0.04250836744904518,-0.81544429063797
7.696980953216553,-0.7615497708320618,-0.7390668392181396,0.2515483498573303,1.398686170578003,-0.37814587354660034,-0.7540832757949829
7.717057228088379,-0.6066209673881531,-0.7784514427185059,0.18946118652820587,1.4550220966339111,-0.37246406078338623,-0.749216616153717
7.737128496170044,-0.19945091009140015,-0.7409498691558838,0.3025866746902466,1.514121651649475,-0.147630512714386,-0.7632046937942505
7.757201194763184,-0.10865145921707153,-0.6639019846916199,0.6056236028671265,1.5403826236724854,0.03495090827345848,-0.786611795425415
7.777247428894043,0.10653479397296906,-0.6082030534744263,1.1439430713653564,1.5021311044692993,0.35590022802352905,-0.81885826587677
7.797404050827026,0.07126107811927795,-0.6073946952819824,1.1768245697021484,1.4536399841308594,0.36927762627601624,-0.8246152400970459
7.817427396774292,0.01337866298854351,-0.6108690500259399,1.1035621166229248,1.444000244140625,0.31876271963119507,-0.8262532949447632
7.837506532669067,0.012597938999533653,-0.6523699760437012,0.8271687626838684,1.4316577911376953,0.16546660661697388,-0.8216843605041504
7.8575897216796875,-0.006178798153996468,-0.7184736728668213,0.3506457805633545,1.3879929780960083,-0.08072170615196228,-0.8068498373031616
7.877671480178833,-0.5516791939735413,-0.7286815643310547,0.26079124212265015,1.3761547803878784,-0.2543516755104065,-0.7823172211647034
7.897749662399292,-0.46323448419570923,-0.7764631509780884,0.1910676658153534,1.4688444137573242,-0.33801329135894775,-0.7683272361755371
7.9178688526153564,-0.3013191223144531,-0.7213112115859985,0.3546149730682373,1.5083024501800537,-0.17561742663383484,-0.7749842405319214
7.937944412231445,-0.1829281449317932,-0.6400973200798035,0.7499240636825562,1.563227891921997,0.09572649747133255,-0.7919225692749023
7.957988739013672,-0.06067511439323425,-0.6178843975067139,0.9967949390411377,1.5813077688217163,0.23164036870002747,-0.8039991855621338
7.978058099746704,0.06655874103307724,-0.6040657758712769,1.0311827659606934,1.4711101055145264,0.30975642800331116,-0.8288735151290894
7.9981584548950195,-0.024778174236416817,-0.6335126161575317,0.945931613445282,1.4619512557983398,0.19916175305843353,-0.822775661945343
8.018234014511108,0.024220867082476616,-0.6912258267402649,0.5694901943206787,1.4422427415847778,0.010319109074771404,-0.814103364944458
8.038334608078003,-0.015287378802895546,-0.7306696772575378,0.2752886712551117,1.3974210023880005,-0.1258445531129837,-0.8040438890457153
8.058442115783691,-0.35391750931739807,-0.7476959824562073,0.449752539396286,1.5395240783691406,-0.24534040689468384,-0.7792602181434631
8.078488111495972,-0.0702957957983017,-0.679696261882782,0.602810263633728,1.54799485206604,0.02692636474967003,-0.7899150848388672
8.098598957061768,-0.1440875232219696,-0.648023247718811,0.8329306840896606,1.5849151611328125,0.08996864408254623,-0.7965733408927917
8.118642091751099,-0.036083683371543884,-0.6153819561004639,1.024044394493103,1.4865150451660156,0.2773706912994385,-0.8138229846954346
8.138713121414185,-0.019971543923020363,-0.6086432933807373,1.0604610443115234,1.4922943115234375,0.27263709902763367,-0.8251566886901855
8.158901929855347,-0.016712592914700508,-0.6450084447860718,0.833412230014801,1.4467742443084717,0.16775891184806824,-0.8237262964248657
8.179017782211304,-0.048711568117141724,-0.6848186254501343,0.6131883859634399,1.4111099243164062,0.023731250315904617,-0.8169788718223572
8.199090480804443,-0.08039218932390213,-0.7548539638519287,0.1045316755771637,1.4255348443984985,-0.26468420028686523,-0.797357439994812
8.219144344329834,-0.1955757439136505,-0.759014904499054,0.17779865860939026,1.492220163345337,-0.27302899956703186,-0.7852953672409058
8.23925495147705,-0.18905863165855408,-0.733157753944397,0.32541990280151367,1.5282881259918213,-0.19164711236953735,-0.7873079776763916
8.259345054626465,-0.10593261569738388,-0.645351767539978,0.8112743496894836,1.596449613571167,0.11012116074562073,-0.8031494617462158
8.279393434524536,-0.02670438028872013,-0.6004180908203125,1.1944952011108398,1.541196346282959,0.3291334807872772,-0.8160601258277893
8.299463033676147,0.014375047758221626,-0.5936330556869507,1.1891934871673584,1.5011439323425293,0.36494195461273193,-0.8295291066169739
8.31956696510315,0.01660122536122799,-0.5971313714981079,1.173770785331726,1.4908384084701538,0.340234637260437,-0.8327245116233826
8.339706182479858,-0.013633864000439644,-0.6478655338287354,0.9064412117004395,1.4650328159332275,0.15996812283992767,-0.8263330459594727
8.35969591140747,-0.0810568630695343,-0.7340908050537109,0.3348146677017212,1.4118022918701172,-0.14874902367591858,-0.8063036203384399
8.379757165908813,-0.19324767589569092,-0.7655473947525024,0.14858141541481018,1.4776263236999512,-0.31488537788391113,-0.7949494123458862
8.399836301803589,-0.21807003021240234,-0.7618341445922852,0.19022169709205627,1.5089893341064453,-0.2868969738483429,-0.7879130840301514
8.420019626617432,-0.14243830740451813,-0.7048472166061401,0.4134754538536072,1.542629599571228,-0.10232332348823547,-0.7910833358764648
8.440019369125366,-0.07010969519615173,-0.6392487287521362,0.865593671798706,1.5998709201812744,0.1474326103925705,-0.8089184761047363
8.460130214691162,0.07004687935113907,-0.6106199622154236,1.205018162727356,1.4706549644470215,0.36703377962112427,-0.8372877836227417
8.480255126953125,0.1314324140548706,-0.5983657836914062,1.2273122072219849,1.5013012886047363,0.38226622343063354,-0.8413662314414978
8.500282049179077,0.11373049020767212,-0.5984423160552979,1.2348501682281494,1.4862457513809204,0.3978365957736969,-0.8480086326599121
8.520352602005005,0.08865765482187271,-0.6473095417022705,0.9380439519882202,1.4936844110488892,0.1958772987127304,-0.8401649594306946
8.540408611297607,-0.036143139004707336,-0.7192601561546326,0.4780332148075104,1.4686237573623657,-0.08803991228342056,-0.8195431232452393
8.56050157546997,-0.5144411325454712,-0.776121973991394,0.08927647769451141,1.373924970626831,-0.4112154543399811,-0.7833837270736694
8.580570220947266,-0.38954105973243713,-0.7870157361030579,0.20712494850158691,1.5253210067749023,-0.36089807748794556,-0.7821899652481079
8.600722312927246,-0.19603992998600006,-0.7262027263641357,0.367550253868103,1.5378167629241943,-0.14406374096870422,-0.7865758538246155
8.620738506317139,-0.12081610411405563,-0.6360338926315308,0.8562296628952026,1.6042896509170532,0.13761445879936218,-0.80736243724823
8.640822172164917,0.11937003582715988,-0.5949563980102539,1.152532696723938,1.6381852626800537,0.32960107922554016,-0.8230111598968506
8.660887479782104,0.13033199310302734,-0.5949416160583496,1.1845954656600952,1.5009974241256714,0.3797343373298645,-0.8413857221603394
8.681002378463745,0.0745081976056099,-0.6101287007331848,1.1611785888671875,1.4781512022018433,0.3419448733329773,-0.8448668718338013
8.701027393341064,0.0759650394320488,-0.6673426628112793,0.8021682500839233,1.4719703197479248,0.11108884960412979,-0.8353110551834106
8.721174955368042,0.004722258076071739,-0.6951979994773865,0.5795326232910156,1.470685601234436,-0.010445614345371723,-0.8268022537231445
8.741237878799438,-0.5024123191833496,-0.6852524280548096,0.5729334950447083,1.5745165348052979,-0.11543518304824829,-0.8027640581130981
8.761348485946655,-0.3413134813308716,-0.7533867359161377,0.42277711629867554,1.5590295791625977,-0.211529940366745,-0.7856113314628601
8.781368255615234,-0.17990359663963318,-0.6498892307281494,0.809706449508667,1.600431203842163,0.08839629590511322,-0.8035510778427124
8.801445722579956,0.10689756274223328,-0.6032168865203857,1.062323808670044,1.610495924949646,0.29113584756851196,-0.8223687410354614
8.821509838104248,0.08718966692686081,-0.5911944508552551,1.122854232788086,1.5031145811080933,0.35301512479782104,-0.8405492305755615
8.8415846824646,0.028879059478640556,-0.5941759943962097,1.1605817079544067,1.5099087953567505,0.33373549580574036,-0.8425107002258301
8.861635446548462,0.015014944598078728,-0.6465308666229248,0.8982807397842407,1.4859864711761475,0.16709771752357483,-0.8344395160675049
8.881778478622437,0.06530223041772842,-0.6762866973876953,0.6964789628982544,1.4876350164413452,0.07376763224601746,-0.8309001922607422
8.901818990707397,-0.41240793466567993,-0.7680710554122925,0.10807415843009949,1.3787109851837158,-0.3608483374118805,-0.7948321104049683
8.921886205673218,-0.3423994779586792,-0.7728416919708252,0.1703920066356659,1.499794363975525,-0.32323741912841797,-0.787158727645874
8.941946983337402,-0.2322574406862259,-0.7225825786590576,0.3551383912563324,1.5384299755096436,-0.17855241894721985,-0.7945427298545837
8.962018966674805,-0.15315990149974823,-0.6796469688415527,0.5676066875457764,1.5813837051391602,-0.03127513453364372,-0.8015477657318115
8.982093095779419,0.05974612385034561,-0.6170146465301514,1.0324891805648804,1.605188012123108,0.2533365488052368,-0.8242316246032715
9.002182245254517,0.10390126705169678,-0.5951389074325562,1.1304385662078857,1.5318478345870972,0.3342551290988922,-0.8422088623046875
9.02223515510559,0.04747064411640167,-0.5996895432472229,1.1932042837142944,1.4914493560791016,0.3563895523548126,-0.8476238250732422
9.04228162765503,0.034674063324928284,-0.6213250160217285,1.0854389667510986,1.496042251586914,0.27606162428855896,-0.843664288520813
9.062366008758545,0.0203543733805418,-0.6869255304336548,0.675687313079834,1.4790908098220825,0.027611199766397476,-0.8321616053581238
9.082459688186646,-0.5614147186279297,-0.7379494905471802,0.2666148543357849,1.4171574115753174,-0.29758355021476746,-0.7947658896446228
9.10255217552185,-0.4353410005569458,-0.7771339416503906,0.2224315106868744,1.4866057634353638,-0.3318578600883484,-0.7878137826919556
9.122809171676636,-0.2781352996826172,-0.7014468908309937,0.4899429678916931,1.5608205795288086,-0.11525771766901016,-0.7980896830558777
9.142906188964844,-0.1616155505180359,-0.6753091812133789,0.6268994808197021,1.5737831592559814,-0.000538271851837635,-0.8051689863204956
9.162973880767822,0.3817014694213867,-0.5821872353553772,1.0995241403579712,1.5464212894439697,0.378421425819397,-0.8374938368797302
9.18305230140686,0.2528887391090393,-0.5797531008720398,1.2377641201019287,1.517014503479004,0.4490773677825928,-0.8567327260971069
9.20310115814209,0.10493704676628113,-0.6016055345535278,1.2319324016571045,1.4700868129730225,0.39298152923583984,-0.8589686751365662
9.223191499710083,0.07740873843431473,-0.6440755724906921,1.0165281295776367,1.4590871334075928,0.23637878894805908,-0.8530533313751221
9.243249416351318,0.018939798697829247,-0.6997562050819397,0.5696951150894165,1.4652124643325806,-0.007335794158279896,-0.836461067199707
9.263298988342285,-0.43228715658187866,-0.7144205570220947,0.43847742676734924,1.5331406593322754,-0.1723846197128296,-0.8122200965881348
9.283405542373657,-0.2960028648376465,-0.7530139684677124,0.3941194415092468,1.548172116279602,-0.2414110004901886,-0.804723858833313
9.303463697433472,-0.15957288444042206,-0.7053956985473633,0.5323016047477722,1.5804197788238525,-0.06416429579257965,-0.8070082664489746
9.32354736328125,0.008587723597884178,-0.6183596849441528,1.0432028770446777,1.6421587467193604,0.2439960390329361,-0.8282767534255981
9.343610286712646,0.1055019199848175,-0.6096852421760559,0.9378147125244141,1.4964535236358643,0.2652140259742737,-0.8508425951004028
9.363717794418335,0.09517604112625122,-0.5899344682693481,1.0177205801010132,1.5311918258666992,0.3042639493942261,-0.8564563393592834
9.383774757385254,0.0324072390794754,-0.6737350225448608,0.6573343873023987,1.4641954898834229,0.07526792585849762,-0.8430569171905518
9.403837442398071,-0.5094203948974609,-0.7348223328590393,0.28058743476867676,1.4193930625915527,-0.2912293076515198,-0.8092447519302368
9.423894166946411,-0.4775888919830322,-0.7776825428009033,0.21061845123767853,1.4903054237365723,-0.3447231352329254,-0.7918387651443481
9.44399905204773,-0.21462717652320862,-0.753494918346405,0.27047502994537354,1.5407084226608276,-0.20715759694576263,-0.7959369421005249
9.464030981063843,-0.07263573259115219,-0.6701905727386475,0.5755726099014282,1.5999029874801636,0.0032571209594607353,-0.8119267225265503
9.48411750793457,-0.13525524735450745,-0.6108635663986206,1.1646922826766968,1.632575511932373,0.2909449338912964,-0.8268874883651733
9.50417423248291,0.0208944920450449,-0.5902928113937378,1.1926953792572021,1.4846159219741821,0.38383471965789795,-0.8494552373886108
9.524242877960205,0.02572784386575222,-0.5884013772010803,1.209029197692871,1.4893611669540405,0.3936113119125366,-0.8540860414505005
9.54433274269104,0.006168706342577934,-0.6236960291862488,1.046227216720581,1.4972419738769531,0.27013128995895386,-0.851386308670044
9.564425230026245,-0.018879370763897896,-0.6971814036369324,0.6183964610099792,1.4878897666931152,-0.0038231955841183662,-0.8363497257232666
9.584470987319946,-0.2905893921852112,-0.7738720178604126,0.1438162624835968,1.4591851234436035,-0.3321141004562378,-0.812739908695221
9.604600667953491,-0.21248474717140198,-0.7473224401473999,0.2618062198162079,1.5402226448059082,-0.22489330172538757,-0.8092511892318726
9.624685525894165,-0.14409762620925903,-0.7025678157806396,0.42748695611953735,1.5478694438934326,-0.09222250431776047,-0.814834475517273
9.644764423370361,-0.11877796053886414,-0.6309714913368225,0.925326943397522,1.6296906471252441,0.17900359630584717,-0.8276251554489136
9.664827585220337,0.18563242256641388,-0.5979693531990051,1.13889479637146,1.4651122093200684,0.4006354808807373,-0.8721853494644165
9.684915542602539,0.30859285593032837,-0.5828725695610046,1.2042648792266846,1.544909119606018,0.42789342999458313,-0.8729208707809448
9.705041408538818,0.18151384592056274,-0.6111382842063904,1.1542972326278687,1.5168145895004272,0.374752402305603,-0.8713322281837463
9.72512173652649,0.07347496598958969,-0.6674470901489258,0.8682893514633179,1.5212368965148926,0.1358194649219513,-0.8569587469100952
9.745185375213623,-0.08238940685987473,-0.7391433119773865,0.3751077353954315,1.4677907228469849,-0.1363006979227066,-0.8362872004508972
9.765239953994751,-0.6115031838417053,-0.7106834650039673,0.5165760517120361,1.5646867752075195,-0.23858818411827087,-0.8141317367553711
9.785306692123413,-0.28365883231163025,-0.7294720411300659,0.49468597769737244,1.5527045726776123,-0.11092221736907959,-0.8106999397277832
9.80536961555481,-0.13872693479061127,-0.6445927619934082,0.8895748853683472,1.6183981895446777,0.12447252869606018,-0.8307508230209351
9.825422525405884,0.05787450075149536,-0.6248579025268555,0.8133689761161804,1.4624632596969604,0.2071385681629181,-0.8614674210548401
9.845688581466675,0.07856670022010803,-0.6231959462165833,0.7989254593849182,1.4481785297393799,0.22473487257957458,-0.8650928735733032
9.865663528442383,-0.047682181000709534,-0.6835361123085022,0.4962368309497833,1.4578044414520264,0.020497489720582962,-0.8481442928314209
9.885793685913086,-0.05897459387779236,-0.672046959400177,0.6861982345581055,1.6107805967330933,0.06253963708877563,-0.8473700284957886
9.905789852142334,-0.0651186853647232,-0.7620722651481628,0.36042720079421997,1.4031002521514893,-0.15510942041873932,-0.8283299207687378
9.925893068313599,-0.05904822051525116,-0.783542275428772,0.011305265128612518,1.3058781623840332,-0.22634048759937286,-0.8225831985473633
9.946043729782104,-0.038118720054626465,-0.68125981092453,0.48803427815437317,1.5477385520935059,-0.03326895460486412,-0.8438317775726318
9.966071128845215,-0.14155182242393494,-0.6488322019577026,0.9741822481155396,1.6509418487548828,0.15559841692447662,-0.8457715511322021
9.986114025115967,0.0016106721013784409,-0.6927316784858704,0.7490770816802979,1.4339314699172974,0.11134606599807739,-0.8504592180252075
10.006345510482788,-0.10153207182884216,-0.6865126490592957,0.5191559791564941,1.4300124645233154,0.019407551735639572,-0.8540201187133789
10.02636432647705,-0.19173842668533325,-0.6437381505966187,0.9539886116981506,1.7039825916290283,0.14232930541038513,-0.8438631892204285
10.046432256698608,-0.05564776062965393,-0.718674898147583,0.646315336227417,1.533754825592041,-0.03435983136296272,-0.8399888277053833
10.066501140594482,0.048279769718647,-0.684747040271759,0.5202133655548096,1.511681318283081,0.032724250108003616,-0.8476515412330627
10.086588859558105,-0.23704303801059723,-0.6512393951416016,0.8890631198883057,1.6158151626586914,0.09813355654478073,-0.849055290222168
10.106673240661621,-0.14743776619434357,-0.6658732891082764,0.8182622194290161,1.5373270511627197,0.11000661551952362,-0.8438959121704102
10.126704692840576,0.12536272406578064,-0.6499084234237671,0.601190447807312,1.4478330612182617,0.11657821387052536,-0.8679351210594177
10.146885395050049,0.03298813849687576,-0.6482046842575073,0.6112990379333496,1.498840570449829,0.09672079235315323,-0.8688420653343201
10.166886806488037,-0.7235339879989624,-0.7197458744049072,0.5221594572067261,1.5600900650024414,-0.2015870213508606,-0.8034698367118835
10.186964511871338,-0.3051951825618744,-0.7292885184288025,0.43326276540756226,1.5361363887786865,-0.10331998765468597,-0.8185672760009766
10.207010746002197,-0.2198900431394577,-0.6955193281173706,0.5454260110855103,1.592921495437622,-0.0554901659488678,-0.8290374279022217
10.227091789245605,-0.11717981100082397,-0.6356686353683472,0.8286665678024292,1.6371636390686035,0.14448289573192596,-0.8415356874465942
10.247194766998291,0.0660015270113945,-0.62272047996521,0.9907527565956116,1.5574747323989868,0.25768712162971497,-0.8655892610549927
10.267270803451538,0.005953123793005943,-0.615332841873169,1.0302528142929077,1.5359525680541992,0.2801623046398163,-0.8722909688949585
10.287328720092773,0.00763227604329586,-0.6392280459403992,0.9516758322715759,1.5013158321380615,0.23218806087970734,-0.8750631809234619
10.307478189468384,0.06277487426996231,-0.6630938053131104,0.7826806306838989,1.5026668310165405,0.1452467441558838,-0.8720024824142456
10.327507257461548,-0.13502879440784454,-0.7605752348899841,0.1849391609430313,1.4343563318252563,-0.23393717408180237,-0.843360185623169
10.347596883773804,-0.30899733304977417,-0.7816377282142639,0.27891525626182556,1.5648069381713867,-0.3150421380996704,-0.8279504776000977
10.367674827575684,-0.21300284564495087,-0.7263117432594299,0.3876678943634033,1.561269760131836,-0.11510496586561203,-0.8240475654602051
10.387738227844238,-0.1591554433107376,-0.6863813996315002,0.5466780662536621,1.5976934432983398,-0.02985166385769844,-0.8339825868606567
10.407798051834106,0.09782016277313232,-0.583240270614624,1.1868897676467896,1.6879738569259644,0.35963869094848633,-0.8600192070007324
10.427890539169312,0.11474302411079407,-0.6145045757293701,1.1149063110351562,1.5677951574325562,0.31502506136894226,-0.876042902469635
10.44850206375122,0.034706808626651764,-0.611146867275238,1.1493197679519653,1.5391290187835693,0.33029478788375854,-0.8800805807113647
10.468581199645996,0.008147193118929863,-0.6423799991607666,1.0096745491027832,1.5348889827728271,0.22108310461044312,-0.8738223314285278
10.488672733306885,0.013105859979987144,-0.7175511717796326,0.5146434307098389,1.4919793605804443,-0.04158599302172661,-0.8604152202606201
10.508777618408203,-0.21446992456912994,-0.7561970949172974,0.27516838908195496,1.5489153861999512,-0.23987582325935364,-0.8442305326461792
10.528924703598022,-0.21163547039031982,-0.7732531428337097,0.2616730034351349,1.5576350688934326,-0.25207093358039856,-0.8302772641181946
10.549007892608643,-0.1632494330406189,-0.7291383147239685,0.4261341691017151,1.6001863479614258,-0.12701267004013062,-0.8339359760284424
10.569133281707764,-0.13536956906318665,-0.6542642712593079,0.8963867425918579,1.6763732433319092,0.13063162565231323,-0.8454549312591553
10.589175939559937,0.006864650174975395,-0.6190311312675476,1.1918604373931885,1.5888751745224,0.29778826236724854,-0.8628163933753967
10.609231948852539,0.07059041410684586,-0.6045011281967163,1.206752896308899,1.5689587593078613,0.354881227016449,-0.8722180724143982
10.629328727722168,0.046608686447143555,-0.6201983690261841,1.1627731323242188,1.524573802947998,0.30500879883766174,-0.8755624294281006
10.649397373199463,0.07196595519781113,-0.6584858894348145,0.9016101360321045,1.5364054441452026,0.17120757699012756,-0.8728508949279785
10.669507265090942,-0.032845206558704376,-0.7284024953842163,0.4560770094394684,1.4954105615615845,-0.09804640710353851,-0.8547660112380981
10.689919233322144,-0.2833390235900879,-0.781990647315979,0.21765470504760742,1.5597821474075317,-0.29675543308258057,-0.8282133340835571
10.7101149559021,-0.3325251340866089,-0.7836335897445679,0.23772619664669037,1.5566799640655518,-0.31604987382888794,-0.8232273459434509
10.73010802268982,-0.1748419851064682,-0.7144080400466919,0.5047225952148438,1.6064262390136719,-0.09471380710601807,-0.8311058282852173
10.750185251235962,-0.059234678745269775,-0.6404422521591187,0.9621078968048096,1.6531766653060913,0.18673232197761536,-0.847985029220581
10.770245552062988,0.14999666810035706,-0.6246075630187988,0.8123490810394287,1.4912970066070557,0.21183225512504578,-0.8829553127288818
10.790319442749023,0.13443750143051147,-0.6246740818023682,0.8181447386741638,1.5241166353225708,0.204879492521286,-0.8847463130950928
10.810389280319214,0.0616496205329895,-0.6835067868232727,0.45035478472709656,1.446044683456421,0.032250214368104935,-0.8686556816101074
10.830450296401978,-0.432315856218338,-0.7468860149383545,0.40272197127342224,1.5853896141052246,-0.23649032413959503,-0.8342448472976685
10.850562572479248,-0.21561074256896973,-0.7510322332382202,0.3749581575393677,1.590030312538147,-0.1705922931432724,-0.8294821977615356
10.870665788650513,-0.19587191939353943,-0.7398177981376648,0.4339570999145508,1.6015009880065918,-0.16988758742809296,-0.8343624472618103
10.89077877998352,-0.11932307481765747,-0.6546339392662048,0.896259605884552,1.625138282775879,0.15840162336826324,-0.8472406268119812
10.910802125930786,0.09035953879356384,-0.6347177028656006,0.7955039739608765,1.5169432163238525,0.19130003452301025,-0.8778204917907715
10.931078672409058,-0.0786370187997818,-0.66547691822052,0.7453696727752686,1.520031452178955,0.03925960883498192,-0.8692913055419922
10.951163530349731,-0.03234754502773285,-0.6681728959083557,0.6840836405754089,1.5104767084121704,0.10269831866025925,-0.8732472658157349
10.9712495803833,-0.02959662862122059,-0.7242655754089355,0.15354600548744202,1.4406213760375977,-0.1346154510974884,-0.8532229661941528
10.99130654335022,-0.23035603761672974,-0.8078536987304688,0.028909653425216675,1.5153154134750366,-0.37301576137542725,-0.8311278820037842
11.011547327041626,-0.1791040152311325,-0.7755621671676636,0.10960956662893295,1.5476921796798706,-0.2860412299633026,-0.8219900131225586
11.031676530838013,-0.13930003345012665,-0.7432814836502075,0.21945735812187195,1.5465492010116577,-0.19476071000099182,-0.826781153678894
11.05175256729126,-0.06195969134569168,-0.6610535383224487,0.7056042551994324,1.6183829307556152,0.0840882807970047,-0.8525108098983765
11.071785926818848,-0.025742651894688606,-0.6970122456550598,0.6897925138473511,1.5115653276443481,0.04664400964975357,-0.857973039150238
11.092116117477417,-0.06506269425153732,-0.6199061870574951,0.8884963989257812,1.5719077587127686,0.21165163815021515,-0.878324031829834
11.112169742584229,-0.09781397134065628,-0.6711587309837341,0.6801310777664185,1.5007984638214111,0.044382091611623764,-0.8682848215103149
11.132307052612305,0.022878890857100487,-0.7065551280975342,0.39254283905029297,1.5309255123138428,-0.04360893741250038,-0.8648790121078491
11.15234375,-0.21340146660804749,-0.7837868928909302,0.18347761034965515,1.5406181812286377,-0.30772194266319275,-0.8417971134185791
11.172406673431396,-0.18619060516357422,-0.7683724164962769,0.2555104196071625,1.5560563802719116,-0.23444685339927673,-0.8328880071640015
11.192546606063843,-0.14097534120082855,-0.7326474189758301,0.383365273475647,1.5744341611862183,-0.1365518420934677,-0.8374005556106567
11.212549209594727,-0.07040797919034958,-0.6702089309692383,0.7338873744010925,1.603541374206543,0.07576359808444977,-0.8532224893569946
11.232671022415161,0.06779865175485611,-0.6676031351089478,0.8487136363983154,1.438509225845337,0.17597973346710205,-0.872463583946228
11.252799034118652,0.055698804557323456,-0.606712818145752,0.970210611820221,1.5041847229003906,0.2994554340839386,-0.8937497735023499
11.272915124893188,0.02368641458451748,-0.6463950276374817,0.8554941415786743,1.5106875896453857,0.17608517408370972,-0.886712372303009
11.293004035949707,-0.029711829498410225,-0.7461166381835938,0.251472145318985,1.4535566568374634,-0.13201577961444855,-0.8618618249893188
11.31302523612976,-0.3499038815498352,-0.8309019804000854,0.1795644611120224,1.565295696258545,-0.40983664989471436,-0.8339849710464478
11.333140850067139,-0.16277293860912323,-0.735230565071106,0.4286743998527527,1.5998132228851318,-0.11930526047945023,-0.8383470773696899
11.353203058242798,-0.14251761138439178,-0.6961528658866882,0.6410329341888428,1.6238075494766235,-0.011157159693539143,-0.8474197387695312
11.373281955718994,0.3231599032878876,-0.6146408915519714,1.0311453342437744,1.6171901226043701,0.29702019691467285,-0.873253345489502
11.393348455429077,0.227764293551445,-0.5922322869300842,1.1393605470657349,1.5767333507537842,0.3729957044124603,-0.8945721387863159
11.41351580619812,0.11365411430597305,-0.615310549736023,1.1478443145751953,1.5512230396270752,0.34148943424224854,-0.8956067562103271
11.433746576309204,0.10290876030921936,-0.6221764087677002,1.1029304265975952,1.5520130395889282,0.31725290417671204,-0.8956258296966553
11.453747749328613,0.07118507474660873,-0.7070783972740173,0.6631617546081543,1.5054699182510376,0.03752703592181206,-0.8794605731964111
11.473834753036499,-0.7709411382675171,-0.7774925231933594,0.20970766246318817,1.4920008182525635,-0.4552328586578369,-0.8165667057037354
11.493896245956421,-0.613423228263855,-0.8273727893829346,0.09810888022184372,1.4884653091430664,-0.43541470170021057,-0.8073099851608276
11.514012098312378,-0.2003643810749054,-0.7594239711761475,0.2429674118757248,1.5718369483947754,-0.19524851441383362,-0.8207021951675415
11.53409481048584,-0.13082173466682434,-0.6676895618438721,0.5995585322380066,1.6396043300628662,0.011256585828959942,-0.8433068990707397
11.554150104522705,0.20610463619232178,-0.5785690546035767,1.190326452255249,1.664170265197754,0.3769610524177551,-0.872638463973999
11.57453966140747,0.13065004348754883,-0.6079557538032532,1.161948323249817,1.536421775817871,0.3604940176010132,-0.8902229070663452
11.594627141952515,-0.41279974579811096,-2.1958985328674316,1.2388232946395874,-0.42673927545547485,0.5871525406837463,-1.6903233528137207
11.614749193191528,-0.5540851354598999,-2.5595734119415283,1.1788946390151978,-0.5909698009490967,0.41619381308555603,-1.7854948043823242
11.634800434112549,-0.5377835631370544,-2.5780282020568848,1.0205559730529785,-0.5462594032287598,0.28636181354522705,-1.7758991718292236
11.654849290847778,-0.5662431716918945,-2.5780534744262695,0.9925432205200195,-0.5608505010604858,0.25057753920555115,-1.7712299823760986
11.675050258636475,-0.5715819001197815,-2.5897951126098633,0.9853872656822205,-0.5674937963485718,0.27321934700012207,-1.7747151851654053
11.69505786895752,-0.5837604999542236,-2.595451593399048,1.0865669250488281,-0.5705299377441406,0.3348005712032318,-1.7781829833984375
11.715125799179077,-0.6604154109954834,-2.5813722610473633,1.2290362119674683,-0.6087280511856079,0.3915523588657379,-1.7813446521759033
11.73521375656128,-0.6133880019187927,-2.5861520767211914,1.241473913192749,-0.6022516489028931,0.41572701930999756,-1.7831687927246094
11.755357503890991,-0.6021089553833008,-2.5878939628601074,1.2585277557373047,-0.5889868140220642,0.43686962127685547,-1.7846910953521729
11.775391578674316,-0.5801568627357483,-2.5803050994873047,1.188827633857727,-0.5891075134277344,0.3980802893638611,-1.778484582901001
11.795496702194214,-0.5102555155754089,-2.5896058082580566,1.154847502708435,-0.542175829410553,0.39759430289268494,-1.7835030555725098
11.81552267074585,-0.5319455862045288,-2.5731217861175537,1.1245930194854736,-0.545132040977478,0.3588586747646332,-1.7774945497512817
11.83575987815857,-0.5740339756011963,-2.5636343955993652,1.1114091873168945,-0.5719500780105591,0.3404180407524109,-1.7752230167388916
11.855687141418457,-0.5775197744369507,-2.5663833618164062,1.1766955852508545,-0.5569068193435669,0.3810361623764038,-1.7782008647918701
11.87575888633728,-0.5561193227767944,-2.5627217292785645,1.1769829988479614,-0.531398355960846,0.38110536336898804,-1.7737094163894653
11.896096467971802,-0.5730977654457092,-2.561951160430908,1.2092573642730713,-0.5664206743240356,0.40510180592536926,-1.7780039310455322
11.916212797164917,-0.5690215826034546,-2.5599026679992676,1.1934657096862793,-0.5758264064788818,0.3968856632709503,-1.775639295578003
11.93630051612854,-0.564186155796051,-2.555340051651001,1.1892375946044922,-0.5721375346183777,0.3925056457519531,-1.774853229522705
11.956457376480103,-0.5613152384757996,-2.551072120666504,1.1969776153564453,-0.5624549388885498,0.3950154483318329,-1.7750616073608398
11.976513624191284,-0.5644304156303406,-2.5487308502197266,1.2007063627243042,-0.5645365715026855,0.3953196108341217,-1.7756284475326538
11.996587991714478,-0.5435873866081238,-2.547211170196533,1.1888538599014282,-0.5402493476867676,0.3915870785713196,-1.7750205993652344
12.016655921936035,-0.5578641891479492,-2.5462636947631836,1.192325472831726,-0.5512170195579529,0.4040694832801819,-1.776616096496582
12.036729097366333,-0.5577880144119263,-2.5376994609832764,1.2188677787780762,-0.5501323342323303,0.40461277961730957,-1.7744226455688477
12.056900978088379,-0.55595862865448,-2.5343551635742188,1.2035819292068481,-0.559677004814148,0.3952203392982483,-1.7719318866729736
12.076995372772217,-0.5454634428024292,-2.533735752105713,1.19015371799469,-0.5536966323852539,0.3957928419113159,-1.770399570465088
12.097058773040771,-0.5284757614135742,-2.5352535247802734,1.2139801979064941,-0.5460314750671387,0.4146684408187866,-1.7721590995788574
12.117459774017334,-0.5371199250221252,-2.5275797843933105,1.22093665599823,-0.5558356046676636,0.41177603602409363,-1.7724041938781738
12.137611627578735,-0.5401932597160339,-2.5241518020629883,1.2322213649749756,-0.5519949197769165,0.4175049066543579,-1.773153305053711
12.157707214355469,-0.5294127464294434,-2.5212135314941406,1.2314777374267578,-0.5518523454666138,0.4206540584564209,-1.770707130432129
12.17775559425354,-0.5322399735450745,-2.5123374462127686,1.2439136505126953,-0.5357661247253418,0.41950660943984985,-1.7690188884735107
12.197856187820435,-0.5344339609146118,-2.510624885559082,1.2488322257995605,-0.5386860370635986,0.42412376403808594,-1.769521951675415
12.217918395996094,-0.5289649367332458,-2.5065882205963135,1.2187328338623047,-0.5337415933609009,0.4085531234741211,-1.7688267230987549
12.238005638122559,-0.5313538908958435,-2.5045928955078125,1.2244744300842285,-0.5449671745300293,0.4132469892501831,-1.7687212228775024
12.258065223693848,-0.5062929391860962,-2.508561849594116,1.2547409534454346,-0.5321663618087769,0.44115209579467773,-1.771397590637207
12.278149127960205,-0.501605749130249,-2.507448196411133,1.2552380561828613,-0.5367969274520874,0.44083258509635925,-1.7704625129699707
12.29822301864624,-0.5108020901679993,-2.4960103034973145,1.276064395904541,-0.5187753438949585,0.44195428490638733,-1.7685394287109375
12.318307876586914,-0.5252394080162048,-2.491297960281372,1.281604528427124,-0.5419966578483582,0.4440307021141052,-1.768513798713684
12.338348627090454,-0.5153414011001587,-2.4874024391174316,1.2570677995681763,-0.542807936668396,0.43457257747650146,-1.7659567594528198
12.358505249023438,-0.5097346305847168,-2.4859766960144043,1.249443531036377,-0.5317230224609375,0.4314882159233093,-1.764954686164856
12.378557443618774,-0.5102027654647827,-2.4816207885742188,1.2643049955368042,-0.5279667377471924,0.43679285049438477,-1.7646163702011108
12.39862608909607,-0.4999481439590454,-2.473879814147949,1.2579162120819092,-0.5074113607406616,0.42589813470840454,-1.7619454860687256
12.418730974197388,-0.5051150321960449,-2.479513168334961,1.2826356887817383,-0.5316118597984314,0.45543724298477173,-1.7670955657958984
12.438828945159912,-0.47609788179397583,-2.484844207763672,1.2725481986999512,-0.5283814668655396,0.45942580699920654,-1.7663946151733398
12.458886861801147,-0.47497105598449707,-2.4773855209350586,1.2611256837844849,-0.508418619632721,0.4518718719482422,-1.7645635604858398
12.47896432876587,-0.4980825185775757,-2.464447021484375,1.2808358669281006,-0.5170087814331055,0.44632840156555176,-1.7629855871200562
12.499216556549072,-0.49389922618865967,-2.4588825702667236,1.2612704038619995,-0.5248458385467529,0.432039737701416,-1.7602429389953613
12.519309759140015,-0.4899377226829529,-2.462445020675659,1.2480342388153076,-0.5308933854103088,0.4374391436576843,-1.7602733373641968
12.539382457733154,-0.49076420068740845,-2.4569191932678223,1.2904804944992065,-0.5108852386474609,0.45172369480133057,-1.7611584663391113
12.559453248977661,-0.4870150685310364,-2.4523491859436035,1.2867228984832764,-0.5126338005065918,0.450214147567749,-1.7602500915527344
12.579514980316162,-0.49742263555526733,-2.447942018508911,1.3184630870819092,-0.5183298587799072,0.4705237150192261,-1.7622289657592773
12.599709272384644,-0.4921787977218628,-2.4464168548583984,1.3033679723739624,-0.53615403175354,0.4605594277381897,-1.7591848373413086
12.619809865951538,-0.4839321970939636,-2.441391706466675,1.2926955223083496,-0.5278178453445435,0.45287176966667175,-1.7575247287750244
12.639857292175293,-0.47086507081985474,-2.4438023567199707,1.265169382095337,-0.516697883605957,0.45090335607528687,-1.7586654424667358
12.659889936447144,-0.4644322693347931,-2.435253620147705,1.2763702869415283,-0.49196675419807434,0.44807904958724976,-1.7567851543426514
12.679994344711304,-0.47581958770751953,-2.4341869354248047,1.282134771347046,-0.5141574740409851,0.45432376861572266,-1.7571666240692139
12.70004677772522,-0.48286134004592896,-2.4333863258361816,1.3056104183197021,-0.5230556726455688,0.46950823068618774,-1.7585252523422241
12.72012972831726,-0.47307825088500977,-2.428389549255371,1.3121726512908936,-0.5118838548660278,0.46900683641433716,-1.7568669319152832
12.740200519561768,-0.4547629952430725,-2.4302244186401367,1.3166706562042236,-0.5068956613540649,0.48071184754371643,-1.757170557975769
12.760287761688232,-0.4634982943534851,-2.425870180130005,1.3240331411361694,-0.5086805820465088,0.4801129102706909,-1.7564717531204224
12.780396699905396,-0.4601244330406189,-2.418627977371216,1.3491566181182861,-0.488542377948761,0.4876241683959961,-1.7559881210327148
12.80043911933899,-0.455079048871994,-2.4170050621032715,1.32387113571167,-0.5014060735702515,0.48005211353302,-1.7557616233825684
12.82052493095398,-0.4458073377609253,-2.4196205139160156,1.3310985565185547,-0.5000789165496826,0.4890371561050415,-1.7578871250152588
12.840652465820312,-0.4472900629043579,-2.409818649291992,1.3050405979156494,-0.50309818983078,0.46894335746765137,-1.7529261112213135
12.860680103302002,-0.4438735246658325,-2.40826416015625,1.3160006999969482,-0.4909311532974243,0.4795343279838562,-1.7531014680862427
12.880746126174927,-0.42635366320610046,-2.4083800315856934,1.3503305912017822,-0.48760128021240234,0.5016915798187256,-1.7554662227630615
12.900956869125366,-0.44339823722839355,-2.398693799972534,1.3334895372390747,-0.5057557225227356,0.47818928956985474,-1.7513906955718994
12.921060562133789,-0.4481114149093628,-2.397221088409424,1.3461222648620605,-0.5080779790878296,0.4917038679122925,-1.7514090538024902
12.941147327423096,-0.44543522596359253,-2.3929123878479004,1.3431566953659058,-0.5082426071166992,0.4872395396232605,-1.7501875162124634
12.961211681365967,-0.42867588996887207,-2.3919873237609863,1.3438801765441895,-0.4852539002895355,0.49383246898651123,-1.7505955696105957
12.98130202293396,-0.41957664489746094,-2.3947019577026367,1.3391444683074951,-0.48349982500076294,0.5009217262268066,-1.7526652812957764
13.001372575759888,-0.43932947516441345,-2.377796173095703,1.3511278629302979,-0.48810186982154846,0.4821104407310486,-1.7501710653305054
13.021467447280884,-0.42837488651275635,-2.381699562072754,1.3240687847137451,-0.4990626275539398,0.4856918156147003,-1.748753547668457
13.041501760482788,-0.4197978377342224,-2.377364158630371,1.3486549854278564,-0.48713117837905884,0.49398213624954224,-1.7472453117370605
13.061606407165527,-0.404377818107605,-2.3783984184265137,1.3524365425109863,-0.4738949239253998,0.5017914772033691,-1.7478779554367065
13.081695318222046,-0.4180162847042084,-2.370298385620117,1.3606500625610352,-0.48979640007019043,0.4978797435760498,-1.746047019958496
13.101821899414062,-0.42448362708091736,-2.3651914596557617,1.3739732503890991,-0.4922803044319153,0.503636360168457,-1.745837926864624
13.12187147140503,-0.4208930432796478,-2.365278720855713,1.377548336982727,-0.48841649293899536,0.5138825178146362,-1.7468637228012085
13.141939640045166,-0.4117647707462311,-2.3633358478546143,1.3716431856155396,-0.4724101424217224,0.5102416276931763,-1.7465953826904297
13.16204047203064,-0.4069846272468567,-2.358125686645508,1.3609718084335327,-0.4792342185974121,0.5032638907432556,-1.7459690570831299
13.182129383087158,-0.4079737365245819,-2.3532278537750244,1.35831880569458,-0.4859243631362915,0.501003623008728,-1.744128704071045
13.202442407608032,-0.39988401532173157,-2.343414783477783,1.3588712215423584,-0.4680824875831604,0.4891577661037445,-1.739778757095337
13.222529411315918,-0.40120401978492737,-2.3407509326934814,1.378638505935669,-0.4591476023197174,0.4996854066848755,-1.7417347431182861
13.242598295211792,-0.41213977336883545,-2.338873863220215,1.4054569005966187,-0.4769791066646576,0.5165674686431885,-1.7424590587615967
13.262672901153564,-0.40366631746292114,-2.337841033935547,1.414338231086731,-0.47204992175102234,0.5277013182640076,-1.7419965267181396
13.282844305038452,-0.38859137892723083,-2.3362250328063965,1.401463270187378,-0.4586898386478424,0.5288993716239929,-1.7428417205810547
13.302951574325562,-0.39553701877593994,-2.328350305557251,1.4038176536560059,-0.4695560932159424,0.5178638696670532,-1.7402255535125732
13.323011875152588,-0.39373451471328735,-2.3277547359466553,1.3877795934677124,-0.4835078716278076,0.518718957901001,-1.7391268014907837
13.343063116073608,-0.3780183792114258,-2.330441474914551,1.3974120616912842,-0.4755915105342865,0.53267502784729,-1.7409685850143433
13.36318588256836,-0.3665526211261749,-2.320556640625,1.3646817207336426,-0.45347732305526733,0.5067431330680847,-1.7347371578216553
13.383281469345093,-0.3834798038005829,-2.319117546081543,1.399707555770874,-0.4529692232608795,0.5263245701789856,-1.7380847930908203
13.403369903564453,-0.3945891261100769,-2.3175711631774902,1.4063738584518433,-0.47604310512542725,0.5302948951721191,-1.740319013595581
13.42341136932373,-0.38246065378189087,-2.3084216117858887,1.4080018997192383,-0.4657225012779236,0.5223010182380676,-1.7373809814453125
13.443466901779175,-0.3739330768585205,-2.309098958969116,1.4144906997680664,-0.4631575047969818,0.5353409647941589,-1.7359297275543213
13.463563442230225,-0.37411847710609436,-2.308833360671997,1.427900791168213,-0.4635770916938782,0.5465526580810547,-1.7365374565124512
13.483720779418945,-0.3770725429058075,-2.301464080810547,1.4494128227233887,-0.46620216965675354,0.5500408411026001,-1.7372238636016846
13.503772258758545,-0.36990323662757874,-2.2989439964294434,1.4278510808944702,-0.4710099399089813,0.543009340763092,-1.7352557182312012
13.523771047592163,-0.33929646015167236,-2.307835578918457,1.432618260383606,-0.45539796352386475,0.5709134340286255,-1.7384588718414307
13.543875694274902,-0.34513378143310547,-2.293119430541992,1.428923487663269,-0.43902871012687683,0.5428182482719421,-1.7320666313171387
13.56395149230957,-0.3613160252571106,-2.288759708404541,1.4298865795135498,-0.4599822163581848,0.54595947265625,-1.7330827713012695
13.584007978439331,-0.35151785612106323,-2.28983736038208,1.4047638177871704,-0.46642908453941345,0.5424808859825134,-1.732262372970581
13.60405158996582,-0.3594803214073181,-2.2804996967315674,1.437288761138916,-0.45779648423194885,0.5438587069511414,-1.7312877178192139
13.624158382415771,-0.35443735122680664,-2.2770047187805176,1.4415438175201416,-0.4476553201675415,0.546731173992157,-1.7312090396881104
13.64425253868103,-0.3519342541694641,-2.2714595794677734,1.4143121242523193,-0.4575059115886688,0.5306960940361023,-1.7291748523712158
13.66433572769165,-0.354988694190979,-2.2725751399993896,1.4268193244934082,-0.46015074849128723,0.5459625720977783,-1.7306231260299683
13.684375047683716,-0.3496793508529663,-2.267793655395508,1.4223721027374268,-0.45632699131965637,0.5416046380996704,-1.728763461112976
13.70449447631836,-0.34945225715637207,-2.2678020000457764,1.4235360622406006,-0.45455020666122437,0.5444813966751099,-1.7311556339263916
13.724648714065552,-0.3339120149612427,-2.2575294971466064,1.426040768623352,-0.4272843897342682,0.5327372550964355,-1.726252555847168
13.744681358337402,-0.32270699739456177,-2.2644197940826416,1.427055835723877,-0.44658154249191284,0.5529415607452393,-1.729649305343628
13.764741897583008,-0.33550775051116943,-2.251732110977173,1.4426461458206177,-0.43922191858291626,0.5470643043518066,-1.7263195514678955
13.784843921661377,-0.33401763439178467,-2.251816511154175,1.4415886402130127,-0.44226229190826416,0.5521053671836853,-1.7256529331207275
13.80496096611023,-0.3376102149486542,-2.2448720932006836,1.469482660293579,-0.4461805522441864,0.5596944093704224,-1.7243585586547852
13.825013160705566,-0.3298008441925049,-2.2461209297180176,1.475235939025879,-0.45579367876052856,0.5727359056472778,-1.7248167991638184
13.845094680786133,-0.33422747254371643,-2.2437047958374023,1.507858157157898,-0.44612377882003784,0.5887832641601562,-1.7270119190216064
13.86522626876831,-0.3208507001399994,-2.236929178237915,1.468613862991333,-0.430388867855072,0.563871443271637,-1.7233296632766724
13.885312795639038,-0.32817935943603516,-2.2321581840515137,1.4532411098480225,-0.449727326631546,0.5567997694015503,-1.722076654434204
13.905324459075928,-0.32374534010887146,-2.2300124168395996,1.447983980178833,-0.4546603560447693,0.5561853051185608,-1.720707654953003
13.925451517105103,-0.32488012313842773,-2.230087995529175,1.4496588706970215,-0.44433850049972534,0.5621525049209595,-1.7231197357177734
13.945574760437012,-0.32175612449645996,-2.2196476459503174,1.4702153205871582,-0.4294072687625885,0.5588905811309814,-1.7201042175292969
13.965636253356934,-0.32167574763298035,-2.214799642562866,1.471549153327942,-0.4314612150192261,0.5594472289085388,-1.7203330993652344
13.986427068710327,-0.32108497619628906,-2.215432643890381,1.4697657823562622,-0.4371246099472046,0.5669295191764832,-1.7209362983703613
14.006544828414917,-0.31901007890701294,-2.2111763954162598,1.4746553897857666,-0.4384016990661621,0.5632354021072388,-1.7190241813659668
14.02660083770752,-0.3023698627948761,-2.210277557373047,1.4686148166656494,-0.4258211553096771,0.5665652751922607,-1.7166913747787476
14.046806573867798,-0.30504894256591797,-2.2081737518310547,1.497420072555542,-0.43900617957115173,0.58503258228302,-1.719112515449524
14.066787242889404,-0.3038105368614197,-2.2053232192993164,1.4755640029907227,-0.4465988874435425,0.5703860521316528,-1.7155964374542236
14.08692455291748,-0.3020898103713989,-2.2039713859558105,1.4740283489227295,-0.43813714385032654,0.5744401812553406,-1.7168447971343994
14.106975555419922,-0.28528398275375366,-2.1972475051879883,1.5128228664398193,-0.4101531207561493,0.593487560749054,-1.717026948928833
14.127033472061157,-0.3079044818878174,-2.1927452087402344,1.5135140419006348,-0.4384184181690216,0.5929586887359619,-1.7174797058105469
14.147288084030151,-0.30733320116996765,-2.1901400089263916,1.5017943382263184,-0.45025205612182617,0.5816519260406494,-1.715902328491211
14.167282104492188,-0.30213892459869385,-2.1829843521118164,1.5131235122680664,-0.43393412232398987,0.5860354900360107,-1.714714765548706
14.187347412109375,-0.28776437044143677,-2.183743715286255,1.4804956912994385,-0.4246411621570587,0.5777851343154907,-1.712324857711792
14.207391500473022,-0.2882532775402069,-2.1741247177124023,1.4876351356506348,-0.4214192032814026,0.5698326230049133,-1.7107818126678467
14.227456092834473,-0.2908012270927429,-2.1709976196289062,1.4874845743179321,-0.42265158891677856,0.5678287744522095,-1.7118051052093506
14.24763822555542,-0.276735782623291,-2.17095685005188,1.491018295288086,-0.40244749188423157,0.5799953937530518,-1.7114027738571167
14.267672777175903,-0.26204055547714233,-2.1780171394348145,1.5113158226013184,-0.4106261730194092,0.6078883409500122,-1.7147152423858643
14.287694215774536,-0.2771264612674713,-2.1657555103302,1.5073826313018799,-0.42390793561935425,0.5902968049049377,-1.7114276885986328
14.307803392410278,-0.2580542266368866,-2.166179895401001,1.5073925256729126,-0.4027444124221802,0.5960860252380371,-1.7117366790771484
14.327866077423096,-0.25314775109291077,-2.1593968868255615,1.507949709892273,-0.3824768364429474,0.594948410987854,-1.7087806463241577
14.347930669784546,-0.27159786224365234,-2.1551060676574707,1.5082979202270508,-0.41667258739471436,0.5943390130996704,-1.7107934951782227
14.367992877960205,-0.2533861994743347,-2.1384119987487793,1.4944310188293457,-0.38821640610694885,0.5648562908172607,-1.703587532043457
14.388094902038574,-0.2586818337440491,-2.146857976913452,1.4837923049926758,-0.41331973671913147,0.5855454206466675,-1.705810785293579
14.408215522766113,-0.2692539691925049,-2.1424131393432617,1.5083330869674683,-0.42183056473731995,0.5894563794136047,-1.7067623138427734
14.428236961364746,-0.264090895652771,-2.13915753364563,1.51084303855896,-0.4106784760951996,0.5924843549728394,-1.7066712379455566
14.448338031768799,-0.2567521035671234,-2.134654998779297,1.4896366596221924,-0.40872886776924133,0.5762681365013123,-1.7044039964675903
14.468421697616577,-0.24897482991218567,-2.126682758331299,1.4941293001174927,-0.40759992599487305,0.5763185620307922,-1.7017338275909424
14.488476276397705,-0.24769791960716248,-2.1324827671051025,1.504320502281189,-0.40796157717704773,0.6028873920440674,-1.707111120223999
14.508552074432373,-0.24413201212882996,-2.1246824264526367,1.495542049407959,-0.403926283121109,0.580946683883667,-1.701517939567566
14.528671741485596,-0.24916483461856842,-2.122129440307617,1.5140186548233032,-0.4086694121360779,0.594540536403656,-1.7015905380249023
14.5487642288208,-0.25436338782310486,-2.113306999206543,1.5514615774154663,-0.4202393889427185,0.6026638746261597,-1.7003085613250732
14.568793296813965,-0.2500498592853546,-2.1133432388305664,1.526200294494629,-0.4178386330604553,0.5990959405899048,-1.7020134925842285
14.588926553726196,-0.2453281283378601,-2.1144959926605225,1.515955924987793,-0.4151846766471863,0.6010567545890808,-1.7006267309188843
14.60898208618164,-0.23549243807792664,-2.110267162322998,1.5356030464172363,-0.40210649371147156,0.61182701587677,-1.6998696327209473
14.629071712493896,-0.2376229166984558,-2.101300001144409,1.5493884086608887,-0.41061848402023315,0.6075155735015869,-1.6988027095794678
14.649567127227783,-0.23257282376289368,-2.102663993835449,1.5155634880065918,-0.4110829532146454,0.6063907146453857,-1.6987154483795166
