liuyurong129/humanoid-gym/humanoid/data/target_q_20250521-035415.csv
timestamp,joint_1,joint_2,joint_3,joint_4,joint_5,joint_6
0.0001361370086669922,0.0,0.0,0.0,0.0,0.0,0.0
0.020226001739501953,0.0,0.0,0.0,0.0,0.0,0.0
0.04030418395996094,0.0,0.0,0.0,0.0,0.0,0.0
0.060364723205566406,0.0,0.0,0.0,0.0,0.0,0.0
0.08043193817138672,0.0,0.0,0.0,0.0,0.0,0.0
0.10050821304321289,-0.7860162854194641,-0.6682636141777039,0.5083404779434204,0.40108153223991394,0.10664825141429901,-0.11703501641750336
0.12061953544616699,-0.7467668056488037,-0.6260977983474731,0.5143135190010071,0.41138967871665955,0.14246809482574463,-0.12033627927303314
0.1406712532043457,-0.7361137270927429,-0.6382590532302856,0.4962744116783142,0.40390074253082275,0.17070484161376953,-0.12760965526103973
0.16072297096252441,-0.6957414150238037,-0.5906614065170288,0.467304527759552,0.3739030361175537,0.2532317638397217,-0.13019394874572754
0.18082427978515625,-0.718633234500885,-0.6241245269775391,0.44575899839401245,0.36045998334884644,0.2609540522098541,-0.13123802840709686
0.20091962814331055,-0.685560405254364,-0.5911089777946472,0.4179905652999878,0.32484519481658936,0.332517147064209,-0.14069530367851257
0.22095370292663574,-0.5948875546455383,-0.5367884635925293,0.37648195028305054,0.23946957290172577,0.46180814504623413,-0.15584509074687958
0.24105048179626465,-0.5072321891784668,-0.4409569203853607,0.4274877905845642,0.19719791412353516,0.5832840800285339,-0.16109248995780945
0.26112842559814453,-0.44065502285957336,-0.424895316362381,0.43102747201919556,0.1192481517791748,0.6572795510292053,-0.18600282073020935
0.28119659423828125,-0.40212297439575195,-0.4375431537628174,0.4310782551765442,0.032892223447561264,0.7359421849250793,-0.21362197399139404
0.3013150691986084,-0.4454047977924347,-0.4122798442840576,0.4158218502998352,0.05689842253923416,0.7427207231521606,-0.2221364825963974
0.3214094638824463,-0.4493620693683624,-0.44451427459716797,0.37335097789764404,0.05266980826854706,0.7518497705459595,-0.23019033670425415
0.34146666526794434,-0.4357125461101532,-0.47652730345726013,0.37746673822402954,0.04777570441365242,0.7650563716888428,-0.23811568319797516
0.36151576042175293,-0.45745620131492615,-0.512558102607727,0.3755553364753723,0.08813183754682541,0.7402774691581726,-0.24201171100139618
0.38161540031433105,-0.4887872040271759,-0.5301523208618164,0.39670854806900024,0.13814884424209595,0.6843517422676086,-0.24712039530277252
0.4016880989074707,-0.47081267833709717,-0.5762190818786621,0.3923722505569458,0.12910419702529907,0.6935837864875793,-0.2504449188709259
0.42177271842956543,-0.48906806111335754,-0.616646945476532,0.3942832350730896,0.1483817845582962,0.6923409700393677,-0.2533769905567169
0.4418513774871826,-0.5153666138648987,-0.6368275880813599,0.39752334356307983,0.17473994195461273,0.6655904650688171,-0.25875723361968994
0.46192336082458496,-0.5137820839881897,-0.5862722396850586,0.42125552892684937,0.16418595612049103,0.7014153599739075,-0.26908910274505615
0.4820070266723633,-0.5272085666656494,-0.587752103805542,0.44217348098754883,0.19141362607479095,0.7070327997207642,-0.2754654884338379
0.5021064281463623,-0.5328050851821899,-0.5798246264457703,0.44243818521499634,0.18078429996967316,0.7080819010734558,-0.28165459632873535
0.5221695899963379,-0.547271728515625,-0.5883714556694031,0.4767581820487976,0.21170960366725922,0.6967963576316833,-0.29243943095207214
0.5423555374145508,-0.5803208351135254,-0.638910174369812,0.4896010756492615,0.24958820641040802,0.6799413561820984,-0.2982376217842102
0.5624470710754395,-0.5394494533538818,-0.5758299827575684,0.47633928060531616,0.20918841660022736,0.7653527855873108,-0.2914609909057617
0.5825085639953613,-0.5458353757858276,-0.5726602673530579,0.4824215769767761,0.20443007349967957,0.789347231388092,-0.2989538013935089
0.6025683879852295,-0.5842849016189575,-0.6233130693435669,0.5214270949363708,0.2530689239501953,0.760155975818634,-0.3074485659599304
0.6226530075073242,-0.6153863072395325,-0.6150133609771729,0.56727135181427,0.2720157504081726,0.6869443655014038,-0.3239835202693939
0.6427466869354248,-0.6261714100837708,-0.6494125723838806,0.5914727449417114,0.2897477447986603,0.6805031299591064,-0.33092448115348816
0.6628060340881348,-0.6313977837562561,-0.6443501114845276,0.6168012022972107,0.31021755933761597,0.6626462340354919,-0.33678343892097473
0.6828954219818115,-0.6125239729881287,-0.6698631048202515,0.6107290387153625,0.3019021153450012,0.7712993025779724,-0.3211139142513275
0.7029752731323242,-0.5999996066093445,-0.67193204164505,0.6298628449440002,0.30160272121429443,0.7560665011405945,-0.327526330947876
0.7231729030609131,-0.6008867621421814,-0.6693600416183472,0.6390471458435059,0.2979784309864044,0.7832071781158447,-0.3291802704334259
0.7432293891906738,-0.6454244256019592,-0.6940702199935913,0.6728771328926086,0.34908246994018555,0.6539294123649597,-0.3459074795246124
0.763298749923706,-0.6367089152336121,-0.7197846174240112,0.6736930012702942,0.33782854676246643,0.6720797419548035,-0.3467172682285309
0.7833936214447021,-0.6328867077827454,-0.7655228972434998,0.6628343462944031,0.329616904258728,0.7449549436569214,-0.33897218108177185
0.8035337924957275,-0.6260737776756287,-0.7386527061462402,0.6595670580863953,0.3233511745929718,0.7549399137496948,-0.3403264582157135
0.8235683441162109,-0.6316506266593933,-0.7687847018241882,0.6641879677772522,0.3341082036495209,0.7588646411895752,-0.34203386306762695
0.8439967632293701,-0.6331498026847839,-0.7767780423164368,0.6831914186477661,0.3425278961658478,0.743873655796051,-0.3464007079601288
0.8640849590301514,-0.6539612412452698,-0.7524116635322571,0.6974669694900513,0.3603355288505554,0.6938801407814026,-0.3540554344654083
0.884211540222168,-0.6500629782676697,-0.7500022649765015,0.6966826915740967,0.35542938113212585,0.7054137587547302,-0.35452213883399963
0.9042472839355469,-0.646880567073822,-0.7588733434677124,0.6958668828010559,0.36245203018188477,0.706925630569458,-0.35326310992240906
0.9243483543395996,-0.6569682955741882,-0.8069444894790649,0.7136646509170532,0.36225730180740356,0.7038442492485046,-0.35695409774780273
0.9444410800933838,-0.646720290184021,-0.7830105423927307,0.7016018033027649,0.3476889729499817,0.7118785977363586,-0.35688310861587524
0.964486837387085,-0.6366237998008728,-0.7685646414756775,0.70744389295578,0.33773505687713623,0.7287142872810364,-0.35951271653175354
0.9852371215820312,-0.6333469748497009,-0.804762601852417,0.7060365080833435,0.3519248962402344,0.734335720539093,-0.3569813668727875
1.005324363708496,-0.6426870226860046,-0.8504928946495056,0.7176291346549988,0.37587034702301025,0.7030413746833801,-0.3597312271595001
1.0253872871398926,-0.6417437791824341,-0.8380629420280457,0.7204394340515137,0.3647052049636841,0.700639545917511,-0.36460021138191223
1.0454471111297607,-0.6406574845314026,-0.8471473455429077,0.7277318239212036,0.35523250699043274,0.7202795147895813,-0.36800554394721985
1.0655372142791748,-0.6426411271095276,-0.806176483631134,0.7194043397903442,0.36317723989486694,0.7313392758369446,-0.3657951056957245
1.0856492519378662,-0.6380009651184082,-0.8156704306602478,0.7227410078048706,0.3602287769317627,0.7184043526649475,-0.36888647079467773
1.105696439743042,-0.6496103405952454,-0.8837453722953796,0.7504107356071472,0.3954465389251709,0.7277656197547913,-0.36670055985450745
1.125802755355835,-0.6396762728691101,-0.8538873791694641,0.7396137714385986,0.38192248344421387,0.7214226126670837,-0.3673384487628937
1.145885944366455,-0.6360197067260742,-0.8675850033760071,0.7438583374023438,0.393838495016098,0.720159113407135,-0.36611759662628174
1.1659533977508545,-0.6422151923179626,-0.8925209641456604,0.7605051398277283,0.38610774278640747,0.7150359749794006,-0.37524858117103577
1.1860322952270508,-0.6260563731193542,-0.8369956612586975,0.7481933236122131,0.35987794399261475,0.7275307774543762,-0.3760729134082794
1.2061164379119873,-0.6328393816947937,-0.8699811100959778,0.7534869313240051,0.3890402317047119,0.7248233556747437,-0.37311092019081116
1.2261710166931152,-0.6416551470756531,-0.9093907475471497,0.7690821290016174,0.3978046774864197,0.7253356575965881,-0.3763556480407715
1.2463312149047852,-0.6309932470321655,-0.8638796210289001,0.7592301368713379,0.36639589071273804,0.7327622771263123,-0.3835066854953766
1.266420841217041,-0.6377657055854797,-0.9130810499191284,0.7697880268096924,0.3801996111869812,0.7369017004966736,-0.3829919695854187
1.2864887714385986,-0.625948965549469,-0.8827818632125854,0.7664065957069397,0.36589357256889343,0.7315065860748291,-0.3874903917312622
1.3066694736480713,-0.6241515278816223,-0.860297441482544,0.7669164538383484,0.3598877191543579,0.7322519421577454,-0.3900492191314697
1.3267629146575928,-0.6230074763298035,-0.8902087211608887,0.7687109112739563,0.36881667375564575,0.7310494780540466,-0.390209823846817
1.3468468189239502,-0.622741162776947,-0.8878732919692993,0.7686938643455505,0.3655569553375244,0.7352691292762756,-0.3912922441959381
1.3671631813049316,-0.6357958912849426,-0.9629116058349609,0.792595386505127,0.4137834906578064,0.734275758266449,-0.3892952799797058
1.387291669845581,-0.6197831034660339,-0.8820841908454895,0.7726467251777649,0.36238086223602295,0.73811274766922,-0.39435961842536926
1.407334327697754,-0.6247475743293762,-0.9047259092330933,0.779412031173706,0.3860964775085449,0.7430953979492188,-0.3946453928947449
1.4273881912231445,-0.6335042119026184,-0.9502201080322266,0.8127830624580383,0.40228310227394104,0.7322399020195007,-0.4024827182292938
1.4474802017211914,-0.6243917346000671,-0.9248221516609192,0.7967562079429626,0.38172394037246704,0.7371999025344849,-0.40167471766471863
1.467564582824707,-0.6213241219520569,-0.9667437076568604,0.7975714802742004,0.39922893047332764,0.7306980490684509,-0.4016271233558655
1.4876108169555664,-0.6117886900901794,-0.9420232772827148,0.798323929309845,0.38174891471862793,0.7351385354995728,-0.4080383777618408
1.5077011585235596,-0.6113744974136353,-0.9168190956115723,0.7973038554191589,0.38623231649398804,0.7319229245185852,-0.4083627462387085
1.5277855396270752,-0.6206575036048889,-0.9171604514122009,0.802466094493866,0.38949763774871826,0.7496349215507507,-0.41185450553894043
1.5478556156158447,-0.6259838938713074,-1.004021406173706,0.8237552046775818,0.4147024154663086,0.7471728920936584,-0.4131615459918976
1.5679452419281006,-0.613460898399353,-0.9588670134544373,0.8089647889137268,0.37459835410118103,0.7477405071258545,-0.4167386591434479
1.588021993637085,-0.6110695004463196,-0.964299738407135,0.8179234266281128,0.3919175863265991,0.7393953800201416,-0.4175717532634735
1.6080965995788574,-0.6151404976844788,-0.9613847732543945,0.8321077823638916,0.3869708180427551,0.7346103191375732,-0.42744454741477966
1.6282131671905518,-0.6110546588897705,-0.9536123871803284,0.8267682790756226,0.3661383390426636,0.7428624033927917,-0.42989596724510193
1.6482994556427002,-0.6121930480003357,-1.004181146621704,0.8300164341926575,0.4144103229045868,0.7415348887443542,-0.42421993613243103
1.6683776378631592,-0.6114941835403442,-0.9971570372581482,0.8568550944328308,0.4159853458404541,0.7301834225654602,-0.4329244792461395
1.688438892364502,-0.6036751866340637,-0.9698922634124756,0.8446263074874878,0.3741823136806488,0.7322054505348206,-0.4374828040599823
1.7085413932800293,-0.6124241352081299,-1.0134851932525635,0.8524253964424133,0.39594271779060364,0.7468882203102112,-0.44056186079978943
1.7286436557769775,-0.6080580353736877,-1.0275955200195312,0.8679168820381165,0.4028237462043762,0.7401008009910583,-0.4456048905849457
1.7494087219238281,-0.6020887494087219,-0.9542738795280457,0.864272952079773,0.3576517105102539,0.7559273838996887,-0.4552980363368988
1.7694852352142334,-0.6144800782203674,-1.025527000427246,0.8845401406288147,0.4093271493911743,0.758614718914032,-0.4547865092754364
1.789576530456543,-0.6056386828422546,-1.0128841400146484,0.8679266571998596,0.3889113664627075,0.7685671448707581,-0.45996996760368347
1.8096394538879395,-0.6084794998168945,-1.0827999114990234,0.8875284790992737,0.4308010935783386,0.7738805413246155,-0.4571714699268341
1.8297266960144043,-0.5999175310134888,-1.0229613780975342,0.8963021636009216,0.41480714082717896,0.7469468712806702,-0.46533963084220886
1.8497884273529053,-0.6209900975227356,-1.0560319423675537,0.9305406212806702,0.4233260452747345,0.7349393367767334,-0.4761559069156647
1.8698620796203613,-0.6111598014831543,-1.0560634136199951,0.9194285273551941,0.4098018407821655,0.7614885568618774,-0.4763447940349579
1.8899257183074951,-0.5992793440818787,-1.077344536781311,0.8872987627983093,0.4327486455440521,0.7806952595710754,-0.470283567905426
1.9100065231323242,-0.6220688223838806,-1.0760538578033447,0.9527066349983215,0.45271778106689453,0.7391954660415649,-0.48485398292541504
1.9300758838653564,-0.6133958697319031,-1.1311614513397217,0.9503302574157715,0.4612165689468384,0.7592405080795288,-0.48212161660194397
1.9501452445983887,-0.5974681973457336,-1.068817138671875,0.9318375587463379,0.47363197803497314,0.7535987496376038,-0.48043787479400635
1.970465898513794,-0.6074665188789368,-1.061774730682373,0.9645301699638367,0.4246518611907959,0.7526068091392517,-0.5006626844406128
1.9905586242675781,-0.616230309009552,-1.1458680629730225,0.9620047211647034,0.4426571726799011,0.7621204257011414,-0.5007875561714172
2.01062273979187,-0.5957466959953308,-1.2249329090118408,0.9372573494911194,0.5122973322868347,0.790022075176239,-0.48175379633903503
2.030709743499756,-0.5772841572761536,-0.9851723909378052,0.9724562764167786,0.47116920351982117,0.7482596039772034,-0.4994380474090576
2.0507822036743164,-0.6116072535514832,-1.022317886352539,1.028984546661377,0.39545994997024536,0.7372592091560364,-0.527656614780426
2.0708436965942383,-0.6128861308097839,-1.144806146621704,0.9882566332817078,0.43239155411720276,0.8224963545799255,-0.5157135128974915
2.0909364223480225,-0.6143946647644043,-1.1383943557739258,0.989994466304779,0.49586474895477295,0.8173850178718567,-0.5052796602249146
2.1110360622406006,-0.5918275713920593,-1.2086102962493896,0.9859411120414734,0.5089515447616577,0.8171653151512146,-0.4944482147693634
2.131075143814087,-0.6189438700675964,-1.040571928024292,1.0379973649978638,0.43442171812057495,0.7247906923294067,-0.5313475131988525
2.1511852741241455,-0.6108670830726624,-1.1056134700775146,1.0391569137573242,0.4050865173339844,0.8003966808319092,-0.5317597985267639
2.17124080657959,-0.6002786755561829,-1.2841172218322754,0.9823967814445496,0.5035260319709778,0.8220657706260681,-0.5075485706329346
2.1914291381835938,-0.5737386345863342,-0.989327609539032,1.0446462631225586,0.4813116788864136,0.7849372625350952,-0.5228068828582764
2.211519241333008,-0.6119111180305481,-0.9866299033164978,1.10785973072052,0.4766094386577606,0.6878407001495361,-0.5450699329376221
2.231586217880249,-0.603634774684906,-1.0622367858886719,1.0925016403198242,0.47267842292785645,0.7604758143424988,-0.5378259420394897
2.2516684532165527,-0.600997269153595,-1.186445951461792,1.0359591245651245,0.46279391646385193,0.8070278167724609,-0.5290513038635254
2.2718095779418945,-0.6246297955513,-1.2872562408447266,1.0647822618484497,0.5853986144065857,0.8151506781578064,-0.5021743774414062
2.2919862270355225,-0.5540973544120789,-1.1702752113342285,0.99909907579422,0.482641339302063,0.8421877026557922,-0.5103350281715393
2.312143325805664,-0.5638350248336792,-1.1598215103149414,1.0156583786010742,0.45202863216400146,0.7902492880821228,-0.5277506709098816
2.332149028778076,-0.6312678456306458,-1.3008289337158203,1.0937070846557617,0.4554961621761322,0.8301600813865662,-0.5401278734207153
2.3523316383361816,-0.5415359139442444,-1.2955386638641357,0.9914842247962952,0.5309194326400757,0.8057675957679749,-0.5128572583198547
2.3724448680877686,-0.5509523749351501,-1.2465689182281494,1.0187714099884033,0.4955103397369385,0.7815191745758057,-0.5246301293373108
2.392508029937744,-0.6564053893089294,-1.20540189743042,1.1713708639144897,0.46508264541625977,0.7407296299934387,-0.5590225458145142
2.413038492202759,-0.6340175271034241,-1.1576769351959229,1.1435819864273071,0.46366727352142334,0.7744489312171936,-0.5566038489341736
2.433126449584961,-0.612781822681427,-1.350567102432251,1.0684082508087158,0.5840776562690735,0.8128311634063721,-0.5134623050689697
2.453195810317993,-0.577484667301178,-1.105811595916748,1.1072273254394531,0.5342475771903992,0.7835254073143005,-0.5293825268745422
2.4732797145843506,-0.5906459093093872,-1.0341110229492188,1.1221894025802612,0.4758250117301941,0.7721143364906311,-0.5483344197273254
2.493368148803711,-0.6037081480026245,-1.2447521686553955,1.121218204498291,0.5092719197273254,0.8388808965682983,-0.5397253036499023
2.5137875080108643,-0.5743877291679382,-1.3559544086456299,1.0651600360870361,0.5485267043113708,0.8584117293357849,-0.5178535580635071
2.533874988555908,-0.5587934255599976,-1.2933027744293213,1.0521446466445923,0.5157830715179443,0.8314666152000427,-0.524829089641571
2.553943634033203,-0.6274792551994324,-1.217736005783081,1.1693791151046753,0.4580560028553009,0.7811059355735779,-0.5607544779777527
2.574000120162964,-0.5865184664726257,-1.3376049995422363,1.0963565111160278,0.5152101516723633,0.8558493256568909,-0.540276825428009
2.594097137451172,-0.5792430639266968,-1.3826634883880615,1.0757278203964233,0.5468883514404297,0.8398800492286682,-0.5293753743171692
2.614175796508789,-0.5865786075592041,-1.160636067390442,1.1504340171813965,0.5411258935928345,0.7526945471763611,-0.5475150346755981
2.6342310905456543,-0.6150352358818054,-1.2604963779449463,1.1711686849594116,0.5317320227622986,0.7683321833610535,-0.5522956848144531
2.6728389263153076,-0.6037399172782898,-1.3063290119171143,1.1445057392120361,0.5391138195991516,0.7995471358299255,-0.5436992049217224
2.6929237842559814,-0.5775797963142395,-1.3843421936035156,1.1023473739624023,0.5488441586494446,0.8158319592475891,-0.5322951078414917
2.712981939315796,-0.568365752696991,-1.238659381866455,1.1215473413467407,0.47720497846603394,0.8238369822502136,-0.5509929656982422
2.733151435852051,-0.6032571196556091,-1.4430499076843262,1.161787986755371,0.49401435256004333,0.8232520818710327,-0.5556231141090393
2.7532875537872314,-0.5872380137443542,-1.4224960803985596,1.1188498735427856,0.5042150020599365,0.8590366244316101,-0.5491571426391602
2.773334503173828,-0.5621615052223206,-1.3702013492584229,1.1115903854370117,0.55362468957901,0.8402249217033386,-0.5423727035522461
2.793386936187744,-0.6198545098304749,-1.2300138473510742,1.2176882028579712,0.5354116559028625,0.7867902517318726,-0.5631482005119324
2.8135604858398438,-0.5784376263618469,-1.225057601928711,1.1359466314315796,0.4953961968421936,0.8521530032157898,-0.5560954809188843
2.833580732345581,-0.5929232239723206,-1.3789706230163574,1.1479657888412476,0.6158885359764099,0.8377296328544617,-0.526020348072052
2.853644847869873,-0.5928029417991638,-1.3112435340881348,1.1815385818481445,0.5807335376739502,0.8014280796051025,-0.5457251667976379
2.8737123012542725,-0.5942166447639465,-1.3717310428619385,1.1600335836410522,0.5623311996459961,0.8245930075645447,-0.543201744556427
2.893801212310791,-0.5737117528915405,-1.4004054069519043,1.111278772354126,0.5578015446662903,0.8458775877952576,-0.5362048149108887
2.913886070251465,-0.5865436792373657,-1.1989226341247559,1.2085193395614624,0.513174295425415,0.7970664501190186,-0.5657848119735718
2.934053659439087,-0.585217297077179,-1.3661751747131348,1.1872429847717285,0.5346802473068237,0.8610017895698547,-0.5567741394042969
2.954146385192871,-0.562732994556427,-1.4675750732421875,1.1116539239883423,0.5586376786231995,0.8734871745109558,-0.5385635495185852
2.974212169647217,-0.5657827258110046,-1.3045456409454346,1.143795132637024,0.562382161617279,0.8340362310409546,-0.5437443256378174
2.995832920074463,-0.6171810030937195,-1.3772118091583252,1.2078466415405273,0.5542826056480408,0.8235422968864441,-0.5573508143424988
3.0159761905670166,-0.6034097075462341,-1.4457151889801025,1.1846140623092651,0.5914726853370667,0.8495872020721436,-0.5438165664672852
3.036026954650879,-0.5488841533660889,-1.2291302680969238,1.125264286994934,0.5522763133049011,0.7829648852348328,-0.5450540781021118
3.0560879707336426,-0.5856369137763977,-1.2084617614746094,1.2054193019866943,0.5424560904502869,0.7758359313011169,-0.5626876950263977
3.0761752128601074,-0.6276741623878479,-1.5186173915863037,1.2086938619613647,0.6026301980018616,0.8839474320411682,-0.5378776788711548
3.096238374710083,-0.5360329747200012,-1.3186743259429932,1.114323616027832,0.5613404512405396,0.8336634635925293,-0.5361465215682983
3.1163318157196045,-0.5612756013870239,-1.2831449508666992,1.1545578241348267,0.498884916305542,0.77085942029953,-0.5603646039962769
3.136408805847168,-0.6322067379951477,-1.4515538215637207,1.246557593345642,0.541964054107666,0.8646567463874817,-0.559428334236145
3.1564536094665527,-0.515352725982666,-1.3512263298034668,1.0470678806304932,0.5735243558883667,0.8712826371192932,-0.5191492438316345
3.1765403747558594,-0.5386959910392761,-1.3168022632598877,1.1045349836349487,0.5753229260444641,0.7831487059593201,-0.5411759614944458
3.1966118812561035,-0.6621350646018982,-1.2691974639892578,1.2932544946670532,0.5466283559799194,0.7819272875785828,-0.5742073059082031
3.216682195663452,-0.6076723337173462,-1.520197868347168,1.1607134342193604,0.6345787048339844,0.8807565569877625,-0.5165849328041077
3.236773729324341,-0.5349391102790833,-1.2671964168548584,1.0975308418273926,0.5783879160881042,0.8670158982276917,-0.5213766694068909
3.2569031715393066,-0.6156426072120667,-1.3475096225738525,1.243790864944458,0.5524157881736755,0.8064048886299133,-0.5633984804153442
3.276921272277832,-0.5811992287635803,-1.4846396446228027,1.1367172002792358,0.5681084990501404,0.8971349000930786,-0.5363944172859192
3.2970025539398193,-0.5531427264213562,-1.507331132888794,1.069468379020691,0.5942246317863464,0.8557611107826233,-0.5199099183082581
3.31715989112854,-0.5749887228012085,-1.3111417293548584,1.1778329610824585,0.5235654711723328,0.8074774146080017,-0.5599037408828735
3.337153911590576,-0.6247263550758362,-1.4717001914978027,1.2312639951705933,0.572542130947113,0.874419629573822,-0.5520063638687134
3.3572473526000977,-0.5277577042579651,-1.4853827953338623,1.0658565759658813,0.5660310983657837,0.8958229422569275,-0.5241101384162903
3.3773133754730225,-0.5337243676185608,-1.3064446449279785,1.1316105127334595,0.5426529049873352,0.83377605676651,-0.547170877456665
3.397416114807129,-0.6498377323150635,-1.3347828388214111,1.2971245050430298,0.5521518588066101,0.8230714201927185,-0.5696444511413574
3.417466163635254,-0.6294244527816772,-1.3625743389129639,1.2475595474243164,0.5564913153648376,0.8816372752189636,-0.5578417778015137
3.4375381469726562,-0.5516257286071777,-1.43597412109375,1.114119052886963,0.5973859429359436,0.8607819676399231,-0.5277177691459656
3.457603693008423,-0.5869826674461365,-1.2183449268341064,1.2287191152572632,0.5520727634429932,0.7982102036476135,-0.563361406326294
3.477689027786255,-0.6289569139480591,-1.4084548950195312,1.258005976676941,0.5565688014030457,0.8008374571800232,-0.565170168876648
3.4977686405181885,-0.5364751815795898,-1.4520933628082275,1.090179204940796,0.573692798614502,0.8827107548713684,-0.5276575088500977
3.5178608894348145,-0.5513073801994324,-1.338832139968872,1.1506935358047485,0.5411351323127747,0.824954092502594,-0.551059365272522
3.5387520790100098,-0.6309811472892761,-1.3549766540527344,1.2603968381881714,0.5490458011627197,0.8385089039802551,-0.5688742995262146
3.558837413787842,-0.607081413269043,-1.4848763942718506,1.2169021368026733,0.5485020875930786,0.8855891227722168,-0.5568077564239502
3.5789194107055664,-0.5357077121734619,-1.305567741394043,1.1210726499557495,0.5819455981254578,0.8201398253440857,-0.5427491664886475
3.5989975929260254,-0.6772996783256531,-1.3190484046936035,1.3028661012649536,0.5632847547531128,0.7707361578941345,-0.5786921977996826
3.6190736293792725,-0.6350856423377991,-1.298682451248169,1.2714437246322632,0.5171570777893066,0.8622338771820068,-0.5709151029586792
3.639139413833618,-0.5980995297431946,-1.489758014678955,1.1949442625045776,0.624749481678009,0.8709429502487183,-0.5339715480804443
3.6592190265655518,-0.558900773525238,-1.3072919845581055,1.1554359197616577,0.5947477221488953,0.7808814644813538,-0.5465580224990845
3.6792874336242676,-0.5675702691078186,-1.292198896408081,1.1779156923294067,0.5774528980255127,0.7858319282531738,-0.5523443222045898
3.6993730068206787,-0.6294199824333191,-1.493713617324829,1.2446857690811157,0.5951870679855347,0.8757063150405884,-0.5498632192611694
3.7194161415100098,-0.509842038154602,-1.3345746994018555,1.0666686296463013,0.5721433758735657,0.8495358228683472,-0.5285400748252869
3.739506959915161,-0.5377832055091858,-1.3623182773590088,1.1362282037734985,0.5520927906036377,0.8278840184211731,-0.5504717826843262
3.7595877647399902,-0.6631407141685486,-1.3567237854003906,1.3000582456588745,0.5643100142478943,0.8053330779075623,-0.5765566229820251
3.7796683311462402,-0.5834894776344299,-1.4610836505889893,1.1536279916763306,0.5770620703697205,0.9174439907073975,-0.5368509292602539
3.7997584342956543,-0.5766474604606628,-1.3143515586853027,1.2239869832992554,0.6001291871070862,0.7782278656959534,-0.5571084022521973
3.8198659420013428,-0.6402022242546082,-1.278777837753296,1.2913566827774048,0.5493733882904053,0.7693060040473938,-0.5760011672973633
3.839926242828369,-0.6002262234687805,-1.4624435901641846,1.1902529001235962,0.6121983528137207,0.8509599566459656,-0.538719654083252
3.8600049018859863,-0.5487361550331116,-1.4391725063323975,1.1273716688156128,0.6227380633354187,0.8288651704788208,-0.5278049111366272
3.8800768852233887,-0.6085894703865051,-1.2941231727600098,1.2678499221801758,0.5900248885154724,0.7691159844398499,-0.566058874130249
3.9001481533050537,-0.6128884553909302,-1.4740550518035889,1.2340747117996216,0.5857757925987244,0.8694455623626709,-0.5526314973831177
3.92022442817688,-0.5371146202087402,-1.4840316772460938,1.0999443531036377,0.5941584706306458,0.8860034346580505,-0.5259218811988831
3.940302848815918,-0.5282871723175049,-1.2916316986083984,1.1528761386871338,0.5083938837051392,0.8519253730773926,-0.5580929517745972
3.9603748321533203,-0.6182036399841309,-1.4445750713348389,1.253937005996704,0.5424965620040894,0.8860620856285095,-0.5664355158805847
3.9806466102600098,-0.5884701609611511,-1.4896349906921387,1.1962616443634033,0.557090699672699,0.9195719957351685,-0.5533115863800049
4.000771522521973,-0.5612875819206238,-1.3291072845458984,1.1821093559265137,0.5882318615913391,0.807667076587677,-0.554156482219696
4.020798921585083,-0.6560502648353577,-1.4759931564331055,1.2917706966400146,0.5680347681045532,0.8385183215141296,-0.5682206749916077
4.041013956069946,-0.5227730870246887,-1.3314340114593506,1.1063474416732788,0.5714771151542664,0.8571328520774841,-0.5373377203941345
4.061102390289307,-0.5431151390075684,-1.4080369472503662,1.1162830591201782,0.6117236018180847,0.7517520785331726,-0.5441305041313171
4.081167459487915,-0.6407179236412048,-1.2995123863220215,1.315661907196045,0.5412415266036987,0.822438657283783,-0.5739642381668091
4.101355075836182,-0.6039867997169495,-1.517807960510254,1.2114304304122925,0.6229406595230103,0.8433773517608643,-0.5408317446708679
4.121439695358276,-0.533385157585144,-1.5120291709899902,1.1010950803756714,0.5890000462532043,0.875286877155304,-0.5271711349487305
4.141516208648682,-0.5715914964675903,-1.2727320194244385,1.1966378688812256,0.5227968096733093,0.8291398882865906,-0.5676256418228149
4.161580801010132,-0.6022191047668457,-1.4687519073486328,1.2338924407958984,0.5615440607070923,0.8956318497657776,-0.5578305721282959
4.181731939315796,-0.5456936955451965,-1.3576078414916992,1.1422394514083862,0.5507562756538391,0.9057754874229431,-0.548370897769928
4.201743125915527,-0.5981222987174988,-1.351886510848999,1.239540457725525,0.586531937122345,0.799252986907959,-0.5614803433418274
4.221842288970947,-0.6091569066047668,-1.432535171508789,1.228417158126831,0.5456095337867737,0.9023089408874512,-0.5603646636009216
4.24191951751709,-0.5984534621238708,-1.5388102531433105,1.194193720817566,0.6274916529655457,0.8789748549461365,-0.5385463237762451
4.262025594711304,-0.5524508357048035,-1.285797357559204,1.1765917539596558,0.5875071883201599,0.8022227883338928,-0.5485063195228577
4.28205943107605,-0.6482779383659363,-1.489746332168579,1.2683199644088745,0.5900942087173462,0.7760102152824402,-0.5675209760665894
4.3021557331085205,-0.6187873482704163,-1.5545523166656494,1.2217754125595093,0.6047044396400452,0.8746570348739624,-0.544783890247345
4.322222471237183,-0.569128692150116,-1.3324737548828125,1.183240532875061,0.5859535932540894,0.8242946863174438,-0.5500152707099915
4.34227728843689,-0.6282934546470642,-1.5065793991088867,1.268428087234497,0.5696825385093689,0.8334668278694153,-0.5669981241226196
4.362375259399414,-0.608144223690033,-1.579556941986084,1.203529953956604,0.587934136390686,0.8778520822525024,-0.5489258766174316
4.382433891296387,-0.5579972267150879,-1.4026005268096924,1.151227355003357,0.5839346647262573,0.82346510887146,-0.5479683876037598
4.4025044441223145,-0.6334156394004822,-1.3948416709899902,1.3019664287567139,0.5423790216445923,0.8590458035469055,-0.5718574523925781
4.4225921630859375,-0.5501435399055481,-1.3619670867919922,1.1622759103775024,0.48726484179496765,0.9182398319244385,-0.5631400346755981
4.44265341758728,-0.5872840285301208,-1.5103604793548584,1.1912938356399536,0.6415436267852783,0.8463004231452942,-0.5369958281517029
4.462953805923462,-0.5747113823890686,-1.235025405883789,1.2273534536361694,0.5482754111289978,0.8237332701683044,-0.567229151725769
4.483062267303467,-0.5991371273994446,-1.3725171089172363,1.2290830612182617,0.5786327123641968,0.8122547268867493,-0.5635165572166443
4.5031821727752686,-0.5863466858863831,-1.414799451828003,1.1986805200576782,0.5940667986869812,0.8652513027191162,-0.5496972799301147
4.523259162902832,-0.5873602032661438,-1.4006578922271729,1.208680510520935,0.578476071357727,0.8382041454315186,-0.5553613901138306
4.543356657028198,-0.5955275893211365,-1.4046008586883545,1.2235344648361206,0.5794711709022522,0.8229727745056152,-0.5602381825447083
4.563434600830078,-0.5838450193405151,-1.440760850906372,1.1924375295639038,0.5851041078567505,0.8414234519004822,-0.5530717372894287
4.583537340164185,-0.5787844657897949,-1.4087133407592773,1.1862365007400513,0.5752094984054565,0.8451040387153625,-0.5525393486022949
4.603594779968262,-0.6067883968353271,-1.3924572467803955,1.2374709844589233,0.5612639784812927,0.8248199224472046,-0.5665099620819092
4.623650074005127,-0.5761499404907227,-1.4412963390350342,1.192179799079895,0.6103188395500183,0.8684139847755432,-0.5430665612220764
4.643789052963257,-0.5744525790214539,-1.4124839305877686,1.1854280233383179,0.5929823517799377,0.8530430197715759,-0.5464205741882324
4.663829565048218,-0.592151939868927,-1.3942584991455078,1.2247552871704102,0.5598171353340149,0.8376927375793457,-0.5640076398849487
4.683907747268677,-0.5837820768356323,-1.4215867519378662,1.1949589252471924,0.5947358012199402,0.8777147531509399,-0.5455252528190613
4.704029321670532,-0.5793280005455017,-1.4294853210449219,1.1919704675674438,0.6018552780151367,0.8547846674919128,-0.5455610752105713
4.724079370498657,-0.5959513783454895,-1.4236044883728027,1.2275601625442505,0.563084065914154,0.8107326626777649,-0.5635764598846436
4.744237661361694,-0.5931265950202942,-1.4440033435821533,1.2088027000427246,0.5953527092933655,0.84891277551651,-0.5509746074676514
4.764286756515503,-0.587179958820343,-1.410322904586792,1.2025330066680908,0.5836698412895203,0.8432369828224182,-0.5522928237915039
4.784345388412476,-0.5864431262016296,-1.4047231674194336,1.2217313051223755,0.5822343230247498,0.8240278363227844,-0.5588394999504089
4.8044469356536865,-0.5826660990715027,-1.4219238758087158,1.1944185495376587,0.5939136743545532,0.8586676716804504,-0.5469986200332642
4.824799060821533,-0.5787121653556824,-1.394340991973877,1.1956185102462769,0.5886225700378418,0.8545275330543518,-0.5488768219947815
4.844885587692261,-0.6046664118766785,-1.3940529823303223,1.2390143871307373,0.5706093907356262,0.8350878357887268,-0.5626786947250366
4.8649351596832275,-0.5652928352355957,-1.450221061706543,1.173031210899353,0.5866362452507019,0.8614974617958069,-0.5452318787574768
4.885055065155029,-0.5711161494255066,-1.424421787261963,1.1798774003982544,0.5775087475776672,0.843496561050415,-0.5510914325714111
4.905146360397339,-0.594887912273407,-1.3496837615966797,1.2517110109329224,0.5578388571739197,0.8157135844230652,-0.5683650374412537
4.925233364105225,-0.5836061835289001,-1.5485947132110596,1.1675869226455688,0.5969540476799011,0.8647213578224182,-0.5413956642150879
4.945793151855469,-0.5710774064064026,-1.4125101566314697,1.1779301166534424,0.5947473049163818,0.8469835519790649,-0.5436853170394897
4.965894937515259,-0.5769192576408386,-1.313112497329712,1.216399908065796,0.576271653175354,0.8218017220497131,-0.5592874884605408
4.986023426055908,-0.6114500164985657,-1.565511703491211,1.226441740989685,0.5988011956214905,0.8491419553756714,-0.5527498722076416
5.006052017211914,-0.583601176738739,-1.472261667251587,1.179848074913025,0.6112237572669983,0.8642088770866394,-0.537663996219635
5.026148080825806,-0.5737970471382141,-1.376767635345459,1.1924651861190796,0.5942023396492004,0.8233820796012878,-0.5493613481521606
5.046231031417847,-0.5907705426216125,-1.3286559581756592,1.2345651388168335,0.5398529171943665,0.8135778307914734,-0.5686310529708862
5.066288709640503,-0.5997963547706604,-1.5551812648773193,1.187665343284607,0.6056053042411804,0.8860921263694763,-0.539282500743866
5.086380481719971,-0.5612325072288513,-1.2477333545684814,1.185320258140564,0.5964266657829285,0.8471596837043762,-0.5445102453231812
5.106450796127319,-0.5791915655136108,-1.3604273796081543,1.2155174016952515,0.5508328080177307,0.8141520619392395,-0.5623254776000977
5.126546621322632,-0.6007480025291443,-1.4106149673461914,1.2314817905426025,0.5831301808357239,0.8703225255012512,-0.5575190782546997
5.146774053573608,-0.5866896510124207,-1.486743688583374,1.1754521131515503,0.6296756267547607,0.879904568195343,-0.5255951881408691
5.166856527328491,-0.5579251050949097,-1.343367576599121,1.179512858390808,0.5875970125198364,0.8379479646682739,-0.5440461039543152
5.1869916915893555,-0.6281675100326538,-1.452960729598999,1.2628904581069946,0.5627633929252625,0.8068494200706482,-0.5668174028396606
5.2078351974487305,-0.5337350964546204,-1.343930959701538,1.1195374727249146,0.5569659471511841,0.8762899041175842,-0.5409553050994873
5.227916955947876,-0.5515798330307007,-1.2943599224090576,1.156261682510376,0.5554748773574829,0.8003161549568176,-0.5567129850387573
5.247971773147583,-0.6553276181221008,-1.4830749034881592,1.306254506111145,0.5657660961151123,0.8693044781684875,-0.5646132230758667
5.2680535316467285,-0.5153772234916687,-1.4450488090515137,1.065953016281128,0.5980455875396729,0.8695173859596252,-0.5220515727996826
5.2881481647491455,-0.5544291138648987,-1.338075876235962,1.155586838722229,0.6125094294548035,0.7965509295463562,-0.5426775217056274
5.308217287063599,-0.6802305579185486,-1.3913853168487549,1.326279640197754,0.5488360524177551,0.7981975674629211,-0.5819352865219116
5.328278064727783,-0.5780412554740906,-1.443035364151001,1.171655535697937,0.5974092483520508,0.8876045942306519,-0.5389609336853027
5.348364353179932,-0.542414128780365,-1.4202666282653809,1.1464585065841675,0.5941676497459412,0.8524084091186523,-0.5406031012535095
5.368454217910767,-0.6412129998207092,-1.2784085273742676,1.3166240453720093,0.556460440158844,0.7976327538490295,-0.5798362493515015
5.388620615005493,-0.6093257069587708,-1.436112880706787,1.2308381795883179,0.6069673895835876,0.8359976410865784,-0.5522871017456055
5.408762693405151,-0.5650076270103455,-1.4499433040618896,1.1611582040786743,0.6169152855873108,0.8430848717689514,-0.5352592468261719
5.4287848472595215,-0.5911200642585754,-1.3471920490264893,1.2247884273529053,0.5893654227256775,0.801622211933136,-0.5561791062355042
5.448829650878906,-0.6110659837722778,-1.5026416778564453,1.2397069931030273,0.5761879086494446,0.8459555506706238,-0.5558106303215027
5.468921661376953,-0.6095550060272217,-1.5002641677856445,1.2207863330841064,0.6083787679672241,0.8654399514198303,-0.5459129214286804
5.489001989364624,-0.5490831732749939,-1.3066916465759277,1.1711338758468628,0.5634081959724426,0.7764014005661011,-0.5535984039306641
5.5090861320495605,-0.6463484168052673,-1.5055503845214844,1.277309775352478,0.5607343912124634,0.8569099307060242,-0.5658755302429199
5.529155015945435,-0.6149908900260925,-1.5071613788604736,1.2296464443206787,0.614043653011322,0.9264141917228699,-0.5378954410552979
5.549231290817261,-0.5273937582969666,-1.350294589996338,1.115985631942749,0.5903022885322571,0.7793241143226624,-0.5443189144134521
5.569319248199463,-0.7042971849441528,-1.3475573062896729,1.368954062461853,0.5739361643791199,0.712968111038208,-0.5916999578475952
5.589411020278931,-0.6298495531082153,-1.3690857887268066,1.30174720287323,0.5264567732810974,0.8704803586006165,-0.5716928839683533
5.609476804733276,-0.5774736404418945,-1.513465404510498,1.1722887754440308,0.6207526326179504,0.8782667517662048,-0.5307865738868713
5.629531145095825,-0.5560340285301208,-1.3080344200134277,1.1783374547958374,0.5856313109397888,0.7544874548912048,-0.557786226272583
5.649621963500977,-0.5756779313087463,-1.3439052104949951,1.2294477224349976,0.5807129144668579,0.807070255279541,-0.562292218208313
5.669706106185913,-0.6337791085243225,-1.6003587245941162,1.239862322807312,0.6290789842605591,0.8743528723716736,-0.5434463620185852
5.689749479293823,-0.5651163458824158,-1.393460750579834,1.1632663011550903,0.5860555768013,0.7731396555900574,-0.5546340346336365
5.709845542907715,-0.573792040348053,-1.359100103378296,1.236266851425171,0.5514312386512756,0.8501462340354919,-0.5646171569824219
5.729944229125977,-0.5968226194381714,-1.4955430030822754,1.2261998653411865,0.5662323832511902,0.8738746643066406,-0.559030294418335
5.749988317489624,-0.5571463704109192,-1.2192163467407227,1.1773635149002075,0.583712100982666,0.8576507568359375,-0.5470082759857178
5.77007269859314,-0.5791202187538147,-1.350550889968872,1.2261613607406616,0.5778965950012207,0.7968338131904602,-0.5624198317527771
5.790173530578613,-0.603799045085907,-1.4020709991455078,1.246933937072754,0.5752020478248596,0.8496727347373962,-0.5632364749908447
5.81029486656189,-0.5996382832527161,-1.4836437702178955,1.1886730194091797,0.6501676440238953,0.8885563015937805,-0.5172434449195862
5.830370903015137,-0.5604543685913086,-1.3180077075958252,1.1757620573043823,0.6002845764160156,0.8344798684120178,-0.5379334688186646
5.850446462631226,-0.6214633584022522,-1.4769833087921143,1.2665537595748901,0.5584331154823303,0.8022239804267883,-0.5687063336372375
5.870519399642944,-0.5382636189460754,-1.3657407760620117,1.1313294172286987,0.5666891932487488,0.8719654083251953,-0.540725588798523
5.890589237213135,-0.5455286502838135,-1.3324925899505615,1.1516205072402954,0.5785461068153381,0.7983300089836121,-0.5508573055267334
5.910689115524292,-0.6484434008598328,-1.3999719619750977,1.3269269466400146,0.5311194062232971,0.8184509873390198,-0.5770846605300903
5.930774688720703,-0.5901263356208801,-1.5557029247283936,1.1674054861068726,0.6433002352714539,0.8691361546516418,-0.5290997624397278
5.950976133346558,-0.5604037642478943,-1.3091390132904053,1.193163275718689,0.5849803686141968,0.8167173266410828,-0.5513797998428345
5.9710633754730225,-0.5965324640274048,-1.263007640838623,1.2810059785842896,0.5639234185218811,0.8094705939292908,-0.5711275339126587
5.9911603927612305,-0.619202196598053,-1.4861624240875244,1.252797245979309,0.6089865565299988,0.868729293346405,-0.549612820148468
6.01120400428772,-0.5468189120292664,-1.4400854110717773,1.124113917350769,0.6170963644981384,0.758876383304596,-0.5383124351501465
6.031293153762817,-0.5558527112007141,-1.3031141757965088,1.2016857862472534,0.5545583367347717,0.8102383017539978,-0.5576370358467102
6.051368951797485,-0.6315379738807678,-1.5291409492492676,1.2620779275894165,0.5615506768226624,0.865956723690033,-0.5638304352760315
6.071435213088989,-0.5342022180557251,-1.3390188217163086,1.1415590047836304,0.5779208540916443,0.8943601846694946,-0.5385302901268005
6.091518878936768,-0.5489501357078552,-1.3537685871124268,1.1642895936965942,0.5608789920806885,0.7984709143638611,-0.5557303428649902
6.111622095108032,-0.6428243517875671,-1.3669443130493164,1.2975319623947144,0.5352473855018616,0.8200382590293884,-0.5767056941986084
6.131652355194092,-0.5686637759208679,-1.489135503768921,1.1342185735702515,0.6186787486076355,0.8654630184173584,-0.5282502770423889
6.151779413223267,-0.5578083395957947,-1.3953747749328613,1.1762810945510864,0.6138526201248169,0.8175695538520813,-0.5430846810340881
6.171860933303833,-0.6365706324577332,-1.3304057121276855,1.2949602603912354,0.5631659626960754,0.7760350108146667,-0.574805736541748
6.19193696975708,-0.6036309599876404,-1.447417974472046,1.203168272972107,0.6016085743904114,0.8808643221855164,-0.5387279987335205
6.212054252624512,-0.5552440881729126,-1.2517626285552979,1.1741997003555298,0.5775585770606995,0.8470341563224792,-0.5467143058776855
6.232141494750977,-0.5887852907180786,-1.3608808517456055,1.2502847909927368,0.5555523633956909,0.7984984517097473,-0.5670742392539978
6.252184867858887,-0.6032092571258545,-1.5728561878204346,1.1865116357803345,0.62422114610672,0.9143316745758057,-0.5246007442474365
6.272419452667236,-0.5692803263664246,-1.4486310482025146,1.1546639204025269,0.6188855767250061,0.8763582110404968,-0.5252532362937927
6.292499542236328,-0.5928932428359985,-1.2809944152832031,1.2757025957107544,0.538626492023468,0.8430241942405701,-0.5722393989562988
6.312592029571533,-0.6055682301521301,-1.4073686599731445,1.2718313932418823,0.5389685034751892,0.8876758813858032,-0.5697160959243774
6.332823038101196,-0.5494685769081116,-1.4725160598754883,1.1315940618515015,0.589755117893219,0.850229799747467,-0.5392900705337524
6.352909326553345,-0.5517376661300659,-1.3250038623809814,1.1698130369186401,0.5818888545036316,0.8238869309425354,-0.5507767200469971
6.372971296310425,-0.6686736941337585,-1.5047717094421387,1.3220303058624268,0.5880780816078186,0.8128036856651306,-0.5695821046829224
6.393049001693726,-0.625594437122345,-1.494994878768921,1.252592921257019,0.5928800702095032,0.8859723806381226,-0.5505078434944153
6.4131646156311035,-0.5418512225151062,-1.425286054611206,1.1222453117370605,0.6125958561897278,0.7553823590278625,-0.5402709245681763
6.433209180831909,-0.6313039660453796,-1.2743635177612305,1.3175593614578247,0.5084556341171265,0.7772426009178162,-0.5823285579681396
6.453275680541992,-0.6380079388618469,-1.3587429523468018,1.3029659986495972,0.5324000716209412,0.8161173462867737,-0.5786347985267639
6.473374366760254,-0.5790525078773499,-1.518571376800537,1.1732758283615112,0.6123464107513428,0.8766315579414368,-0.5345903635025024
6.493433475494385,-0.560379683971405,-1.3088128566741943,1.1969126462936401,0.5693460702896118,0.8185908794403076,-0.5569314360618591
6.513586759567261,-0.6456224918365479,-1.2633333206176758,1.3192647695541382,0.5649354457855225,0.7937306761741638,-0.5787327289581299
6.533722162246704,-0.6161372065544128,-1.4660968780517578,1.2412611246109009,0.601452112197876,0.8742402791976929,-0.5479881167411804
6.553734302520752,-0.5414021611213684,-1.4388930797576904,1.1396992206573486,0.6130392551422119,0.7703282833099365,-0.5437209606170654
6.573807954788208,-0.6071557402610779,-1.3585288524627686,1.2615371942520142,0.5534101128578186,0.8054845929145813,-0.5706461668014526
6.593923330307007,-0.6394824981689453,-1.5301589965820312,1.2754451036453247,0.5914651155471802,0.8526082038879395,-0.5609052181243896
6.613974332809448,-0.5275235772132874,-1.3791744709014893,1.1284023523330688,0.5991420745849609,0.8438988327980042,-0.5342227816581726
6.634773015975952,-0.6828036308288574,-1.433077335357666,1.3413852453231812,0.6031644940376282,0.7580114006996155,-0.5793074369430542
6.654889345169067,-0.6236810088157654,-1.303797960281372,1.301650881767273,0.5172538757324219,0.8339104056358337,-0.5746229887008667
6.674949645996094,-0.596886396408081,-1.5260183811187744,1.2283424139022827,0.618493914604187,0.870319664478302,-0.545680046081543
6.6950507164001465,-0.551152765750885,-1.285315990447998,1.193508267402649,0.6044288277626038,0.7965903878211975,-0.5484477281570435
6.715185165405273,-0.5761846303939819,-1.2854256629943848,1.2295784950256348,0.582954466342926,0.8073224425315857,-0.5596014261245728
6.735208749771118,-0.5961132645606995,-1.431377649307251,1.2201005220413208,0.5780760049819946,0.8825182318687439,-0.5505238175392151
6.755309104919434,-0.5710746645927429,-1.4547438621520996,1.1814559698104858,0.6116833090782166,0.8599651455879211,-0.5378493070602417
6.775373935699463,-0.5762925744056702,-1.4090261459350586,1.210992693901062,0.5684385895729065,0.853459894657135,-0.5532042980194092
6.7954487800598145,-0.5886784195899963,-1.383228063583374,1.2373548746109009,0.5561846494674683,0.8359935879707336,-0.5649539828300476
6.815502405166626,-0.5651265382766724,-1.4809505939483643,1.178690791130066,0.5908244252204895,0.898476779460907,-0.5410269498825073
6.835593938827515,-0.5644695162773132,-1.40681791305542,1.193532109260559,0.6039460897445679,0.8287772536277771,-0.548736572265625
6.855666160583496,-0.592721700668335,-1.3350260257720947,1.265628695487976,0.560015082359314,0.7793813943862915,-0.5690462589263916
6.8757476806640625,-0.5871824622154236,-1.5067856311798096,1.1938207149505615,0.6094771027565002,0.8683599233627319,-0.5407633185386658
6.89629054069519,-0.5744344592094421,-1.3786871433258057,1.2001765966415405,0.6224289536476135,0.8540351986885071,-0.5383130311965942
6.916332483291626,-0.6129850745201111,-1.4213128089904785,1.2588669061660767,0.5838902592658997,0.7896563410758972,-0.5637733936309814
6.936420917510986,-0.5591305494308472,-1.4981355667114258,1.150246500968933,0.591230034828186,0.8921093940734863,-0.535219132900238
6.957471609115601,-0.583310067653656,-1.401777982711792,1.2010160684585571,0.5742161870002747,0.8473184704780579,-0.5529351234436035
6.977600336074829,-0.5870124697685242,-1.3770921230316162,1.2339047193527222,0.529176652431488,0.8353928923606873,-0.5673632025718689
6.997694492340088,-0.5840388536453247,-1.4465274810791016,1.202715516090393,0.5933277010917664,0.8589779734611511,-0.5508620738983154
7.01773738861084,-0.5666143894195557,-1.3967044353485107,1.1938132047653198,0.5941247344017029,0.838882327079773,-0.5489503145217896
7.037830352783203,-0.5720646977424622,-1.2893452644348145,1.2470117807388306,0.5707899928092957,0.8219897747039795,-0.5652299523353577
7.057906150817871,-0.5965819954872131,-1.3990871906280518,1.24940025806427,0.5924102663993835,0.8514165878295898,-0.5590420365333557
7.077969074249268,-0.5837676525115967,-1.4448370933532715,1.1992841958999634,0.6269886493682861,0.8624258041381836,-0.535300612449646
7.098085641860962,-0.5662807822227478,-1.3182411193847656,1.1990550756454468,0.5839141011238098,0.8283920288085938,-0.5495537519454956
7.118138790130615,-0.6003813743591309,-1.4625358581542969,1.2353395223617554,0.5601741075515747,0.8464801907539368,-0.5611093640327454
7.138207674026489,-0.5803312063217163,-1.5609409809112549,1.1712664365768433,0.6234695315361023,0.866517186164856,-0.5324039459228516
7.159087896347046,-0.5800195336341858,-1.4315173625946045,1.2028471231460571,0.5572453737258911,0.8148288130760193,-0.559569776058197
7.179178714752197,-0.5820985436439514,-1.324394941329956,1.2306467294692993,0.5493721961975098,0.807445228099823,-0.5675076246261597
7.199290037155151,-0.5999850630760193,-1.549560546875,1.2186404466629028,0.5732514262199402,0.8429408669471741,-0.5590705275535583
7.219316005706787,-0.5891832113265991,-1.4432215690612793,1.195473551750183,0.6230893731117249,0.8785637021064758,-0.5355105400085449
7.239410638809204,-0.5662536025047302,-1.2760930061340332,1.2083245515823364,0.6042329668998718,0.8188796043395996,-0.5501257181167603
7.2594897747039795,-0.5920231938362122,-1.35835862159729,1.250367283821106,0.5714250206947327,0.8111825585365295,-0.5662787556648254
7.279565095901489,-0.6013044714927673,-1.4977505207061768,1.1941732168197632,0.6205682754516602,0.9011890292167664,-0.5287113785743713
7.299650430679321,-0.5533022284507751,-1.3214573860168457,1.1664025783538818,0.6176542043685913,0.8701509237289429,-0.5274755358695984
7.319718360900879,-0.5984308123588562,-1.4258790016174316,1.261364221572876,0.5440565943717957,0.8157254457473755,-0.5687463879585266
7.339791536331177,-0.573701798915863,-1.4910876750946045,1.1646724939346313,0.6025771498680115,0.873443067073822,-0.5384219884872437
7.3599231243133545,-0.5506941676139832,-1.4895126819610596,1.1334224939346313,0.6007377505302429,0.8440722823143005,-0.5350245237350464
7.380024671554565,-0.5774633288383484,-1.3188207149505615,1.2336171865463257,0.5342445969581604,0.8301320672035217,-0.568928599357605
7.400072813034058,-0.6034082770347595,-1.5776042938232422,1.208312749862671,0.6073979735374451,0.8900635838508606,-0.5421489477157593
7.420163154602051,-0.5755583643913269,-1.404714822769165,1.194832682609558,0.6066219210624695,0.8339524865150452,-0.545263409614563
7.440245866775513,-0.5895290374755859,-1.3338115215301514,1.2374334335327148,0.5705806016921997,0.7908328175544739,-0.5646954774856567
7.4603190422058105,-0.6173384785652161,-1.490769624710083,1.2378382682800293,0.5861226320266724,0.8575431704521179,-0.558203935623169
7.480532646179199,-0.5430221557617188,-1.287670612335205,1.171247959136963,0.5918264985084534,0.8559821248054504,-0.5425137281417847
7.5006232261657715,-0.5759572386741638,-1.3488352298736572,1.1979334354400635,0.5809720158576965,0.7787673473358154,-0.5573822259902954
7.520692825317383,-0.5994971394538879,-1.403984546661377,1.2372221946716309,0.5718730092048645,0.861171305179596,-0.5603885054588318
7.540760040283203,-0.5569303035736084,-1.3886165618896484,1.148751139640808,0.5814993381500244,0.8678855299949646,-0.5417745113372803
7.560844898223877,-0.5901457071304321,-1.3466169834136963,1.2226587533950806,0.5764942765235901,0.853330671787262,-0.5569972991943359
7.5809502601623535,-0.5997895002365112,-1.4887945652008057,1.2379628419876099,0.5693265199661255,0.8791852593421936,-0.560033917427063
7.601007461547852,-0.5699928402900696,-1.3960392475128174,1.191245675086975,0.6222531795501709,0.8437232375144958,-0.5410515069961548
7.621101140975952,-0.5626522898674011,-1.2506167888641357,1.2057651281356812,0.5464620590209961,0.7860931158065796,-0.5625503659248352
7.641173839569092,-0.6074859499931335,-1.388385534286499,1.2459115982055664,0.5494094491004944,0.8412372469902039,-0.56746506690979
7.679999828338623,-0.6015331745147705,-1.4942009449005127,1.2083877325057983,0.5995894074440002,0.845058023929596,-0.5507383346557617
7.700084686279297,-0.5703055262565613,-1.486738920211792,1.165163278579712,0.5792000889778137,0.8242513537406921,-0.5488314628601074
7.720197677612305,-0.5760194063186646,-1.3998830318450928,1.1874293088912964,0.5498377680778503,0.8319708108901978,-0.5601742267608643
7.740269660949707,-0.594496488571167,-1.394618272781372,1.2333356142044067,0.5482051372528076,0.8266598582267761,-0.5690332651138306
7.760368347167969,-0.5770253539085388,-1.4559822082519531,1.2123472690582275,0.5470007061958313,0.8641014695167542,-0.5645148754119873
7.780440330505371,-0.5851931571960449,-1.3110082149505615,1.2114520072937012,0.6127710342407227,0.8335712552070618,-0.552332878112793
7.800520181655884,-0.583569347858429,-1.2923262119293213,1.2242937088012695,0.5933170318603516,0.821673572063446,-0.558464527130127
7.82065224647522,-0.6026981472969055,-1.4317002296447754,1.223800778388977,0.592889130115509,0.8872741460800171,-0.5520628690719604
7.840674638748169,-0.5827004313468933,-1.4320297241210938,1.2020052671432495,0.6195233464241028,0.8333836197853088,-0.5447734594345093
7.8608527183532715,-0.6084507703781128,-1.3913145065307617,1.2452932596206665,0.5833271145820618,0.8037250638008118,-0.5641343593597412
7.880940198898315,-0.6070277094841003,-1.4770317077636719,1.224002718925476,0.5829410552978516,0.8314275741577148,-0.5571346282958984
7.901097059249878,-0.5492715239524841,-1.2760472297668457,1.1626898050308228,0.5418190360069275,0.839794933795929,-0.5578375458717346
7.921262979507446,-0.620591402053833,-1.5091972351074219,1.2725344896316528,0.560653567314148,0.800361156463623,-0.5722930431365967
7.941391944885254,-0.6010164618492126,-1.4522323608398438,1.248433232307434,0.5778910517692566,0.8730550408363342,-0.5625222325325012
7.961429834365845,-0.5717864632606506,-1.4598705768585205,1.1831592321395874,0.6239184737205505,0.8408758044242859,-0.5424405932426453
7.981513738632202,-0.5688630938529968,-1.3504059314727783,1.1890736818313599,0.5629161596298218,0.8375821709632874,-0.555420994758606
8.001586437225342,-0.609569251537323,-1.3627076148986816,1.2647318840026855,0.5819871425628662,0.8498945236206055,-0.5680615305900574
8.021642684936523,-0.5871521830558777,-1.4463074207305908,1.1933039426803589,0.6264312863349915,0.8689606785774231,-0.5356531739234924
8.041843891143799,-0.5770084857940674,-1.3604960441589355,1.2002291679382324,0.5601752400398254,0.8384962677955627,-0.5570347309112549
8.061944484710693,-0.608400821685791,-1.340827226638794,1.2486473321914673,0.5381942987442017,0.8163411021232605,-0.5718843936920166
8.082022666931152,-0.5946645140647888,-1.5756416320800781,1.186540961265564,0.6026145815849304,0.8624411225318909,-0.5436186194419861
8.10208010673523,-0.5669546127319336,-1.4232537746429443,1.1739087104797363,0.5680790543556213,0.8095046877861023,-0.5536162853240967
8.122164487838745,-0.5783107280731201,-1.3404231071472168,1.2151515483856201,0.5470964908599854,0.8111265301704407,-0.567133903503418
8.142237186431885,-0.6086916327476501,-1.533935308456421,1.2426865100860596,0.588487446308136,0.8482319712638855,-0.5604454278945923
8.162288904190063,-0.5649427771568298,-1.3997418880462646,1.1756176948547363,0.6068366169929504,0.8601611852645874,-0.5425522923469543
8.182384490966797,-0.5722153782844543,-1.3445096015930176,1.199898362159729,0.5960706472396851,0.8480513691902161,-0.550632119178772
8.202545881271362,-0.607273280620575,-1.4265446662902832,1.2510355710983276,0.5731573700904846,0.8503273129463196,-0.5656380653381348
8.222593307495117,-0.591367781162262,-1.5074176788330078,1.1928439140319824,0.6371436715126038,0.8686556220054626,-0.533105731010437
8.242634296417236,-0.5636051297187805,-1.2831287384033203,1.192789077758789,0.5910967588424683,0.8286061882972717,-0.5484088659286499
8.262707471847534,-0.6029382348060608,-1.4406447410583496,1.2452694177627563,0.572860598564148,0.7962950468063354,-0.5660259127616882
8.282767057418823,-0.5720657706260681,-1.4371607303619385,1.1834391355514526,0.6006161570549011,0.866585910320282,-0.5441646575927734
8.302840232849121,-0.5612661242485046,-1.3310816287994385,1.181148886680603,0.5821578502655029,0.8264908790588379,-0.55174320936203
8.322929382324219,-0.6279186606407166,-1.4949359893798828,1.2744241952896118,0.5802315473556519,0.8406261205673218,-0.5666226744651794
8.34302282333374,-0.5311315059661865,-1.3435096740722656,1.1074434518814087,0.5744774341583252,0.8884816765785217,-0.5313927531242371
8.363354206085205,-0.6016350388526917,-1.3665852546691895,1.2555550336837769,0.5627238154411316,0.7875546813011169,-0.5695527791976929
8.383445024490356,-0.6625049710273743,-1.352515697479248,1.3383690118789673,0.5244675874710083,0.815829336643219,-0.5830001831054688
8.403517007827759,-0.6109869480133057,-1.5987541675567627,1.1877115964889526,0.6500217318534851,0.8605607748031616,-0.5312376022338867
8.423603534698486,-0.56931072473526,-1.4373700618743896,1.1784745454788208,0.592353880405426,0.80770343542099,-0.5497118234634399
8.443673133850098,-0.5713183879852295,-1.364224910736084,1.2072341442108154,0.560319721698761,0.8189985156059265,-0.5614210367202759
8.463762283325195,-0.6003487706184387,-1.407214641571045,1.232179045677185,0.5674925446510315,0.8433664441108704,-0.5629396438598633
8.483825445175171,-0.5866866707801819,-1.4954125881195068,1.1816192865371704,0.6172259449958801,0.8647487759590149,-0.538334310054779
8.504088163375854,-0.5710907578468323,-1.3910095691680908,1.1876256465911865,0.5961312651634216,0.8294576406478882,-0.5489885807037354
8.524182319641113,-0.5931305289268494,-1.283393144607544,1.2337042093276978,0.5456339120864868,0.8259873986244202,-0.5688838958740234
8.544248104095459,-0.5925124287605286,-1.4312975406646729,1.203210473060608,0.5970919132232666,0.8810485005378723,-0.5449917316436768
8.564405679702759,-0.5805611610412598,-1.390550136566162,1.2101972103118896,0.5913823843002319,0.8250349760055542,-0.5529307126998901
8.584472179412842,-0.5927884578704834,-1.4249370098114014,1.2287219762802124,0.5761455297470093,0.842269241809845,-0.5583795309066772
8.604556560516357,-0.5857880711555481,-1.4478118419647217,1.1993964910507202,0.601570725440979,0.8489463925361633,-0.5472126007080078
8.624608516693115,-0.5774999260902405,-1.3490076065063477,1.2044943571090698,0.5464497208595276,0.8187394738197327,-0.5619639158248901
8.644691944122314,-0.5830899477005005,-1.3616588115692139,1.2177993059158325,0.5503299236297607,0.8051567673683167,-0.5666037797927856
8.664761543273926,-0.5974187254905701,-1.4985523223876953,1.203752875328064,0.6105248928070068,0.8781278729438782,-0.5436501502990723
8.684845924377441,-0.5629684925079346,-1.2563936710357666,1.1979738473892212,0.5809205174446106,0.819465160369873,-0.5534219741821289
8.705089569091797,-0.5819793343544006,-1.292222261428833,1.2326639890670776,0.5595448613166809,0.8056963682174683,-0.5662051439285278
8.725189924240112,-0.5954925417900085,-1.4837939739227295,1.2236353158950806,0.5983884930610657,0.845844566822052,-0.5534505844116211
8.745255470275879,-0.573383629322052,-1.2632572650909424,1.1962823867797852,0.6041283011436462,0.8616693019866943,-0.5394056439399719
8.765349388122559,-0.5845382809638977,-1.345219373703003,1.2311210632324219,0.5458017587661743,0.8203026652336121,-0.5648530721664429
8.785443782806396,-0.6035580039024353,-1.5215299129486084,1.2189922332763672,0.5722367763519287,0.8735353350639343,-0.5535178780555725
8.805519819259644,-0.5638151168823242,-1.357093334197998,1.177101731300354,0.6055640578269958,0.8555150032043457,-0.5380846261978149
8.825571537017822,-0.6268647313117981,-1.4539413452148438,1.2643777132034302,0.5534045100212097,0.7666128277778625,-0.5714060068130493
8.845665454864502,-0.6114466190338135,-1.39361572265625,1.2477091550827026,0.5360711812973022,0.8506525158882141,-0.5681722164154053
8.865755081176758,-0.5634937882423401,-1.4823274612426758,1.1392643451690674,0.6123208999633789,0.8346526026725769,-0.5411083698272705
8.885794401168823,-0.5820601582527161,-1.344604253768921,1.2351716756820679,0.6086954474449158,0.8373852372169495,-0.553433895111084
8.905882120132446,-0.5908015370368958,-1.3822405338287354,1.2387856245040894,0.5975651144981384,0.8268172144889832,-0.5569548010826111
8.925964117050171,-0.5866193175315857,-1.4444687366485596,1.1916147470474243,0.6098371148109436,0.8709988594055176,-0.5385872721672058
8.94603443145752,-0.5801137089729309,-1.3111469745635986,1.2172585725784302,0.5582054257392883,0.8118616342544556,-0.5619281530380249
8.966139078140259,-0.5936407446861267,-1.3885645866394043,1.2369126081466675,0.5446190237998962,0.8250536322593689,-0.5662486553192139
8.986213445663452,-0.5997660160064697,-1.5159227848052979,1.2025177478790283,0.6309629082679749,0.8836373686790466,-0.5336750745773315
9.006283283233643,-0.565578818321228,-1.2974035739898682,1.2015541791915894,0.5562066435813904,0.8018165230751038,-0.5598541498184204
9.026776313781738,-0.6147378087043762,-1.5716161727905273,1.2175195217132568,0.5835295915603638,0.8741248250007629,-0.5526626110076904
9.046870946884155,-0.571259617805481,-1.337247371673584,1.1755249500274658,0.5987807512283325,0.858258843421936,-0.5422520637512207
9.066942930221558,-0.6108241677284241,-1.508587121963501,1.237221360206604,0.5824282765388489,0.8542789220809937,-0.5573768019676208
9.087016582489014,-0.6096006035804749,-1.416377305984497,1.2453504800796509,0.5462967753410339,0.8610472083091736,-0.5655991435050964
9.107089281082153,-0.5701674222946167,-1.4421837329864502,1.1711736917495728,0.6334004998207092,0.8073901534080505,-0.5390802621841431
9.127167224884033,-0.5912237763404846,-1.3375720977783203,1.2509390115737915,0.5844289660453796,0.8557693958282471,-0.5590223670005798
9.148046016693115,-0.5954654812812805,-1.451322317123413,1.2188282012939453,0.5904384255409241,0.8381368517875671,-0.5515925884246826
9.168149948120117,-0.5906901955604553,-1.4441523551940918,1.2106577157974243,0.6098060011863708,0.8652083277702332,-0.5430089831352234
9.188238859176636,-0.5768432021141052,-1.3613593578338623,1.1996980905532837,0.5616163015365601,0.8228076696395874,-0.5561960935592651
9.20850944519043,-0.5962582230567932,-1.384150743484497,1.2223275899887085,0.5637155175209045,0.8685938715934753,-0.5601717233657837
9.22861647605896,-0.6012288331985474,-1.5678470134735107,1.1967886686325073,0.6059505939483643,0.8644827008247375,-0.543319582939148
9.24868893623352,-0.578937828540802,-1.4221270084381104,1.190625548362732,0.5792531967163086,0.8288889527320862,-0.5517534017562866
9.268738985061646,-0.5866772532463074,-1.3984043598175049,1.2130876779556274,0.551500141620636,0.8103675246238708,-0.5632243156433105
9.288833379745483,-0.5869986414909363,-1.3993234634399414,1.2110891342163086,0.5606487393379211,0.82940274477005,-0.5618192553520203
9.308908224105835,-0.5860839486122131,-1.4121360778808594,1.2051619291305542,0.5988602042198181,0.8486781120300293,-0.5497967004776001
9.328959941864014,-0.5825662016868591,-1.3581907749176025,1.2063971757888794,0.5881800651550293,0.8388279676437378,-0.5523149967193604
9.349051713943481,-0.6012102365493774,-1.3455414772033691,1.233737826347351,0.5847961902618408,0.8372915387153625,-0.5582116842269897
9.369128704071045,-0.5936833620071411,-1.4835541248321533,1.1966010332107544,0.615702211856842,0.8740360140800476,-0.5373066067695618
9.38919448852539,-0.5565081238746643,-1.2220542430877686,1.1897401809692383,0.5512605309486389,0.8022783398628235,-0.557984471321106
9.409325122833252,-0.5841962099075317,-1.2624037265777588,1.2444125413894653,0.5211136937141418,0.7717092633247375,-0.5747431516647339
9.429345846176147,-0.5880942344665527,-1.4189155101776123,1.2141162157058716,0.5495452880859375,0.8459741473197937,-0.5631828308105469
9.449503183364868,-0.5881908535957336,-1.4354588985443115,1.1981459856033325,0.6128627061843872,0.8832375407218933,-0.5417136549949646
9.469595909118652,-0.5785960555076599,-1.4012713432312012,1.2111035585403442,0.5872225761413574,0.8256925344467163,-0.5548954010009766
9.48963451385498,-0.5917130708694458,-1.379309892654419,1.2362000942230225,0.5846756100654602,0.8362313508987427,-0.5612140893936157
9.509734869003296,-0.5940693020820618,-1.4794456958770752,1.2098277807235718,0.60903400182724,0.8616567254066467,-0.5452708005905151
9.529813528060913,-0.5614723563194275,-1.2886981964111328,1.1847606897354126,0.5723761916160583,0.8248212337493896,-0.5518337488174438
9.549867630004883,-0.6249669194221497,-1.4858777523040771,1.2647260427474976,0.5641873478889465,0.7836863994598389,-0.5705524682998657
9.569986581802368,-0.6035787463188171,-1.4955596923828125,1.2252904176712036,0.585582435131073,0.870818555355072,-0.5539590120315552
9.590037107467651,-0.556219220161438,-1.279231309890747,1.174228310585022,0.5719024538993835,0.8162499666213989,-0.553810715675354
9.610100507736206,-0.6095190048217773,-1.380164623260498,1.282647967338562,0.5440821647644043,0.8167765140533447,-0.573794960975647
9.630241394042969,-0.6005484461784363,-1.46962308883667,1.2203439474105835,0.5666152834892273,0.8862890601158142,-0.5561561584472656
9.650284767150879,-0.5568435788154602,-1.4373178482055664,1.1605290174484253,0.6331275105476379,0.839835524559021,-0.5299786925315857
9.67033839225769,-0.6171010136604309,-1.2992744445800781,1.3107125759124756,0.5710300207138062,0.7835662961006165,-0.5762825012207031
9.690441608428955,-0.6314675211906433,-1.4791679382324219,1.292387843132019,0.5735353827476501,0.8327410817146301,-0.5661172270774841
9.71051812171936,-0.5240322351455688,-1.373807430267334,1.0989422798156738,0.5829062461853027,0.886742115020752,-0.5272959470748901
9.730580806732178,-0.5918884873390198,-1.3097002506256104,1.2549940347671509,0.5648850798606873,0.7997561097145081,-0.5693634748458862
9.750667572021484,-0.6749569773674011,-1.386749029159546,1.3567949533462524,0.5618012547492981,0.7984383702278137,-0.581265926361084
9.770741939544678,-0.5820952653884888,-1.5238656997680664,1.1753274202346802,0.6170454025268555,0.8781628012657166,-0.5337486863136292
9.790791511535645,-0.5527604222297668,-1.3173682689666748,1.1761244535446167,0.5927262902259827,0.7767549157142639,-0.5505656003952026
9.810879230499268,-0.5815140008926392,-1.3231351375579834,1.2559531927108765,0.5703979134559631,0.822057843208313,-0.5663241147994995
9.830961227416992,-0.6048350930213928,-1.4991302490234375,1.239096760749817,0.6082403063774109,0.8744528889656067,-0.5498907566070557
9.851038694381714,-0.539497971534729,-1.3303031921386719,1.1432894468307495,0.582885205745697,0.787944495677948,-0.5503669381141663
9.871125221252441,-0.6202870011329651,-1.357351303100586,1.284136176109314,0.5819769501686096,0.7939706444740295,-0.5709686279296875
9.891230583190918,-0.6205413937568665,-1.446899175643921,1.2573949098587036,0.5409116744995117,0.9149657487869263,-0.5630104541778564
9.911336898803711,-0.5438910722732544,-1.515979290008545,1.1309336423873901,0.6330282092094421,0.8567984700202942,-0.5234692692756653
9.931502342224121,-0.5643252730369568,-1.4052073955535889,1.184247374534607,0.5816870331764221,0.7998146414756775,-0.5527806282043457
9.951598405838013,-0.6118493676185608,-1.3916163444519043,1.241848111152649,0.5627484917640686,0.8259740471839905,-0.5663586258888245
9.971676111221313,-0.5711821913719177,-1.5193049907684326,1.1641448736190796,0.6136877536773682,0.8832940459251404,-0.5347964763641357
9.991772890090942,-0.561188280582428,-1.3599753379821777,1.170521855354309,0.5845038294792175,0.8373608589172363,-0.5478814840316772
10.011871814727783,-0.6116227507591248,-1.3854854106903076,1.2663018703460693,0.557261049747467,0.8236133456230164,-0.5701702833175659
10.03193473815918,-0.5746747851371765,-1.4690492153167725,1.1660188436508179,0.6021921038627625,0.8720577359199524,-0.539119303226471
10.052008390426636,-0.5673390030860901,-1.4602384567260742,1.1485058069229126,0.5982910394668579,0.8366000056266785,-0.5406198501586914
10.072099924087524,-0.5938166975975037,-1.2691547870635986,1.2583457231521606,0.5316408276557922,0.8289439082145691,-0.5725754499435425
10.092190504074097,-0.5931856036186218,-1.4572036266326904,1.2177385091781616,0.5987120866775513,0.8565705418586731,-0.5524932146072388
10.112295866012573,-0.5717824101448059,-1.3858020305633545,1.1902589797973633,0.5903828144073486,0.8432120680809021,-0.5471716523170471
10.132394075393677,-0.5737202763557434,-1.2747507095336914,1.2187402248382568,0.5422107577323914,0.8209364414215088,-0.5662586688995361
10.152458667755127,-0.6047446131706238,-1.4495108127593994,1.241646409034729,0.583401620388031,0.8752912282943726,-0.5607306957244873
10.173012018203735,-0.582908570766449,-1.4830107688903809,1.1911247968673706,0.6051731109619141,0.8611690402030945,-0.5435889959335327
10.193124294281006,-0.5755922198295593,-1.3878448009490967,1.2014068365097046,0.5750223994255066,0.8227116465568542,-0.5564678907394409
10.213223218917847,-0.5893538594245911,-1.3322453498840332,1.2364212274551392,0.5339670181274414,0.8123374581336975,-0.57164466381073
10.233467817306519,-0.5953097939491272,-1.5125164985656738,1.210312008857727,0.5925261974334717,0.8689651489257812,-0.5514823198318481
10.253552913665771,-0.5910525321960449,-1.491001844406128,1.1976765394210815,0.6229459643363953,0.8816631436347961,-0.5376254320144653
10.273621559143066,-0.5738945007324219,-1.2974390983581543,1.2158492803573608,0.5718017816543579,0.8075547814369202,-0.5609710216522217
10.293677568435669,-0.6017313599586487,-1.5062808990478516,1.231577754020691,0.5893418192863464,0.8439497947692871,-0.5579904317855835
10.313797950744629,-0.6025326251983643,-1.492157220840454,1.2120577096939087,0.602975070476532,0.9124822616577148,-0.5400059819221497
10.333867311477661,-0.5627204179763794,-1.3280329704284668,1.1826046705245972,0.5896743535995483,0.8028885126113892,-0.5479074716567993
10.353952646255493,-0.6217039823532104,-1.4361193180084229,1.2811110019683838,0.5597204566001892,0.829325258731842,-0.5710574388504028
10.3741455078125,-0.6180921196937561,-1.5375382900238037,1.236000418663025,0.5769661068916321,0.9186132550239563,-0.5508280396461487
10.394336462020874,-0.5453835725784302,-1.4206764698028564,1.1287354230880737,0.5991000533103943,0.8061486482620239,-0.5388493537902832
10.414343118667603,-0.6402876377105713,-1.3062670230865479,1.3164976835250854,0.5617066025733948,0.7648977637290955,-0.5823696851730347
10.434422254562378,-0.6265476942062378,-1.358759880065918,1.2842167615890503,0.526186466217041,0.8515929579734802,-0.5726844668388367
10.454501628875732,-0.5745677351951599,-1.5451302528381348,1.1661244630813599,0.6162305474281311,0.8692179322242737,-0.5367035865783691
10.474557638168335,-0.566703736782074,-1.3294661045074463,1.1918898820877075,0.586296021938324,0.8046859502792358,-0.5528374910354614
10.495595693588257,-0.6421385407447815,-1.523012638092041,1.2800337076187134,0.6033743023872375,0.8594055771827698,-0.5562363862991333
10.515723943710327,-0.6084377765655518,-1.4936158657073975,1.232311487197876,0.6168258786201477,0.8778514266014099,-0.542709231376648
10.535799264907837,-0.5380856394767761,-1.3438518047332764,1.1363040208816528,0.5764124393463135,0.7729119658470154,-0.5497636795043945
10.55587887763977,-0.668573796749115,-1.3424367904663086,1.334393858909607,0.521637499332428,0.824248731136322,-0.5807902812957764
10.576030492782593,-0.6043917536735535,-1.5007340908050537,1.2266641855239868,0.5482696294784546,0.9172115325927734,-0.5564204454421997
10.596104621887207,-0.5548030138015747,-1.326551914215088,1.1839978694915771,0.6071058511734009,0.8116975426673889,-0.5446051359176636
10.61615514755249,-0.6249051690101624,-1.4136834144592285,1.2529876232147217,0.5611762404441833,0.7781819701194763,-0.5695512294769287
10.636218547821045,-0.6061585545539856,-1.3660144805908203,1.2434444427490234,0.5500344634056091,0.8326238989830017,-0.567568838596344
10.65629267692566,-0.5799424052238464,-1.5513720512390137,1.1538041830062866,0.6234109997749329,0.8664295077323914,-0.532451331615448
10.676370859146118,-0.5843983292579651,-1.3603265285491943,1.241705298423767,0.6057512164115906,0.8255926966667175,-0.5542194843292236
10.69647741317749,-0.5666411519050598,-1.2474310398101807,1.2309259176254272,0.5495706796646118,0.8061686754226685,-0.5654690265655518
10.716558933258057,-0.589035153388977,-1.4529147148132324,1.2056666612625122,0.5816085338592529,0.8573315739631653,-0.5521904230117798
10.73662781715393,-0.5789667367935181,-1.395871639251709,1.20024573802948,0.5787480473518372,0.8559228181838989,-0.5520308017730713
10.757367372512817,-0.5828648209571838,-1.409928321838379,1.2254990339279175,0.5781629085540771,0.8464226126670837,-0.5587360858917236
10.777471780776978,-0.5789796113967896,-1.426671028137207,1.2072714567184448,0.5845590829849243,0.8714049458503723,-0.5519501566886902
10.797545671463013,-0.5793389678001404,-1.3973877429962158,1.201958417892456,0.5644240379333496,0.8473616242408752,-0.5559370517730713
10.81760048866272,-0.5910981297492981,-1.4202914237976074,1.2230321168899536,0.5751685500144958,0.8372824788093567,-0.5602835416793823
10.837691068649292,-0.5832688808441162,-1.4436187744140625,1.2071868181228638,0.6082842946052551,0.8445544242858887,-0.5493078231811523
10.85776400566101,-0.5836958885192871,-1.3916091918945312,1.2106856107711792,0.5881527066230774,0.8162100911140442,-0.5540440678596497
10.877825260162354,-0.5992297530174255,-1.4066531658172607,1.2296355962753296,0.591015100479126,0.8317189812660217,-0.5567327737808228
10.897940635681152,-0.5904625654220581,-1.4334290027618408,1.2075759172439575,0.6119495034217834,0.860460102558136,-0.5427467823028564
10.917988538742065,-0.5826196074485779,-1.397632122039795,1.2057591676712036,0.5827580094337463,0.8368958830833435,-0.55097496509552
10.938076496124268,-0.5917311310768127,-1.4272420406341553,1.227432131767273,0.5805442333221436,0.8591868281364441,-0.5564317107200623
10.958150625228882,-0.574560821056366,-1.4409360885620117,1.1882253885269165,0.5848596692085266,0.8653482794761658,-0.5474213361740112
10.978219985961914,-0.5798230767250061,-1.3702964782714844,1.2122191190719604,0.557303249835968,0.8372360467910767,-0.5611343383789062
10.99830675125122,-0.5893696546554565,-1.4242885112762451,1.2281640768051147,0.5697690844535828,0.8680945634841919,-0.559768795967102
11.019104719161987,-0.5705603957176208,-1.4250378608703613,1.1808842420578003,0.5936757922172546,0.8397828936576843,-0.54695725440979
11.039196968078613,-0.5963693261146545,-1.3425843715667725,1.2372781038284302,0.5820594429969788,0.8109766840934753,-0.5620714426040649
11.059263467788696,-0.6039302945137024,-1.476837158203125,1.2423659563064575,0.6113722324371338,0.8433841466903687,-0.5545042157173157
11.079421758651733,-0.5624035596847534,-1.383423089981079,1.1713857650756836,0.6139201521873474,0.8379530310630798,-0.5364072918891907
11.099514245986938,-0.571337103843689,-1.3072092533111572,1.1979942321777344,0.578901469707489,0.7857704758644104,-0.553170919418335
11.119591474533081,-0.6209496855735779,-1.4877066612243652,1.2459815740585327,0.5783615112304688,0.8655222058296204,-0.5567938089370728
11.139734745025635,-0.5226607918739319,-1.3568484783172607,1.140238642692566,0.5816963315010071,0.8628831505775452,-0.5390225648880005
11.159825325012207,-0.5478441715240479,-1.325465440750122,1.1682367324829102,0.548932671546936,0.7986611723899841,-0.5566163063049316
11.179897546768188,-0.6615238785743713,-1.5191333293914795,1.3108495473861694,0.5754931569099426,0.8290611505508423,-0.5684378147125244
11.199959754943848,-0.5474761128425598,-1.5188751220703125,1.112531304359436,0.6284398436546326,0.856415331363678,-0.529150128364563
11.220047235488892,-0.5746516585350037,-1.4470934867858887,1.181774377822876,0.6177991628646851,0.8332486152648926,-0.5419245958328247
11.240120649337769,-0.6019176840782166,-1.2687773704528809,1.2619081735610962,0.5535176396369934,0.8249591588973999,-0.5753015279769897
11.260188579559326,-0.5870268940925598,-1.4680068492889404,1.2091809511184692,0.6099571585655212,0.8705349564552307,-0.5462893843650818
11.28035306930542,-0.5666571259498596,-1.3201611042022705,1.2038437128067017,0.5906968116760254,0.8270825147628784,-0.5508517622947693
11.30046272277832,-0.5779057145118713,-1.2427098751068115,1.232863187789917,0.550265908241272,0.8001860976219177,-0.5675112009048462
11.320533275604248,-0.6049647927284241,-1.5033588409423828,1.2262134552001953,0.6049500107765198,0.8752274513244629,-0.5484377145767212
11.340619325637817,-0.5523555874824524,-1.3001580238342285,1.1715712547302246,0.5763521790504456,0.7818134427070618,-0.5520132780075073
11.360713958740234,-0.599528968334198,-1.3095877170562744,1.2534923553466797,0.5308857560157776,0.7801262140274048,-0.5731780529022217
11.38084602355957,-0.621174156665802,-1.4410316944122314,1.261314868927002,0.5491297245025635,0.8936666250228882,-0.5646225810050964
11.400922060012817,-0.5538376569747925,-1.5341620445251465,1.1294832229614258,0.6397407054901123,0.823308527469635,-0.5314528942108154
11.421016454696655,-0.5636693835258484,-1.3987798690795898,1.182015061378479,0.5956009030342102,0.7993462681770325,-0.5484400391578674
11.441109895706177,-0.5900669693946838,-1.3203656673431396,1.2341718673706055,0.5435869693756104,0.847521185874939,-0.5669945478439331
11.461156845092773,-0.5914338231086731,-1.5659832954406738,1.1809624433517456,0.6161264777183533,0.9015980958938599,-0.5333027243614197
11.48124361038208,-0.5800631046295166,-1.4803953170776367,1.1831971406936646,0.6095085144042969,0.8721104264259338,-0.5393502712249756
11.501304388046265,-0.5728599429130554,-1.2222023010253906,1.2258553504943848,0.5539097189903259,0.8107324242591858,-0.5656538009643555
11.521389245986938,-0.5885583162307739,-1.365741491317749,1.2308355569839478,0.5507157444953918,0.8171935677528381,-0.5675288438796997
11.541452646255493,-0.5968613028526306,-1.494704246520996,1.2203483581542969,0.5992420315742493,0.8399678468704224,-0.5554660558700562
11.561517000198364,-0.5676903128623962,-1.2778785228729248,1.1955559253692627,0.6090425848960876,0.8499482870101929,-0.540045976638794
11.581567525863647,-0.5858346819877625,-1.3764643669128418,1.2332119941711426,0.5516766905784607,0.8073688745498657,-0.5645760297775269
11.601635932922363,-0.6225287318229675,-1.517892599105835,1.235029697418213,0.5923523306846619,0.8500716686248779,-0.5550227165222168
11.62174654006958,-0.5665499567985535,-1.2861814498901367,1.1699469089508057,0.5975326895713806,0.8919292092323303,-0.530535101890564
11.64179801940918,-0.5801839828491211,-1.3747243881225586,1.2287253141403198,0.5395606160163879,0.8052096366882324,-0.5667660236358643
11.661858081817627,-0.635572612285614,-1.3835999965667725,1.2911778688430786,0.5709778666496277,0.8232808709144592,-0.5717668533325195
11.681951999664307,-0.5744446516036987,-1.5130300521850586,1.1288392543792725,0.6012492179870605,0.8884647488594055,-0.5257746577262878
11.70202898979187,-0.5641713738441467,-1.335181474685669,1.191058874130249,0.5570475459098816,0.7926309704780579,-0.558598518371582
11.722601413726807,-0.6466954350471497,-1.523773193359375,1.2773363590240479,0.5950978994369507,0.8440266251564026,-0.5599113702774048
11.742683172225952,-0.5995606780052185,-1.5307612419128418,1.211396336555481,0.6080273985862732,0.8765283823013306,-0.5418455600738525
11.762754440307617,-0.5589030385017395,-1.4061930179595947,1.1740714311599731,0.5943936705589294,0.773525059223175,-0.554094135761261
11.782803773880005,-0.6310657858848572,-1.2740659713745117,1.3091415166854858,0.5534829497337341,0.7707931399345398,-0.5801914930343628
11.802894830703735,-0.63046795129776,-1.519500970840454,1.27876877784729,0.573180615901947,0.8842083811759949,-0.5600690841674805
11.822975397109985,-0.5278158187866211,-1.3270914554595947,1.112343192100525,0.5974127650260925,0.8835174441337585,-0.522675633430481
11.843042850494385,-0.5940446257591248,-1.3739838600158691,1.2711153030395508,0.5607904195785522,0.828342854976654,-0.5685391426086426
11.863137006759644,-0.6604132056236267,-1.4826595783233643,1.2989740371704102,0.5656206607818604,0.8478830456733704,-0.5683620572090149
11.883307456970215,-0.5259658694267273,-1.5047411918640137,1.0763012170791626,0.5974330902099609,0.8946388363838196,-0.5190521478652954
11.903341054916382,-0.5491289496421814,-1.3455095291137695,1.191297173500061,0.5218294262886047,0.8410380482673645,-0.5645561218261719
11.923464059829712,-0.6299322247505188,-1.3454005718231201,1.2732672691345215,0.5432570576667786,0.8006242513656616,-0.5775755047798157
11.943488359451294,-0.6002252697944641,-1.5690066814422607,1.1856358051300049,0.5988906025886536,0.8908817768096924,-0.5396747589111328
11.963540315628052,-0.5686152577400208,-1.410667896270752,1.1760023832321167,0.5880588889122009,0.8004624247550964,-0.5542510747909546
11.983627319335938,-0.6671549677848816,-1.4037210941314697,1.3225224018096924,0.611228883266449,0.7386106848716736,-0.5779892206192017
12.003727912902832,-0.6204727292060852,-1.366619348526001,1.2689918279647827,0.5777149796485901,0.8588016629219055,-0.5643622279167175
12.023890018463135,-0.5830551981925964,-1.4604713916778564,1.1870661973953247,0.6325282454490662,0.8469331860542297,-0.5315787196159363
12.043928146362305,-0.5673826932907104,-1.2343919277191162,1.2088170051574707,0.5821077823638916,0.7941110134124756,-0.5533015131950378
12.063976764678955,-0.5980532765388489,-1.323716402053833,1.2534462213516235,0.5420910120010376,0.808810293674469,-0.5688848495483398
12.08402681350708,-0.5940633416175842,-1.498664379119873,1.2110258340835571,0.5921260714530945,0.8709215521812439,-0.5472863912582397
12.104127645492554,-0.5843659043312073,-1.5127394199371338,1.1875554323196411,0.6016213893890381,0.8783484697341919,-0.5385956168174744
12.124244451522827,-0.5616186261177063,-1.2961747646331787,1.2082717418670654,0.5286527276039124,0.8000915050506592,-0.5646882653236389
12.14426040649414,-0.5578197836875916,-1.3870067596435547,1.0622142553329468,0.855967104434967,0.7914524078369141,-0.295711487531662
12.164438486099243,-0.5271020531654358,-1.4641358852386475,0.9818806052207947,0.9149497747421265,0.786907970905304,-0.22616004943847656
12.18446159362793,-0.4674896001815796,-1.376718282699585,0.9368063807487488,0.9111073613166809,0.7613129615783691,-0.21245521306991577
12.204571008682251,-0.4725305736064911,-1.3310959339141846,0.9664897322654724,0.8918535113334656,0.7489349246025085,-0.22337563335895538
12.224651098251343,-0.4989158809185028,-1.3256733417510986,1.006841778755188,0.9056407809257507,0.7411156296730042,-0.2272372990846634
12.244755744934082,-0.506912112236023,-1.324000597000122,1.0071626901626587,0.9127336144447327,0.7248378396034241,-0.22517485916614532
12.264786958694458,-0.5164541602134705,-1.3160884380340576,1.034859299659729,0.9233763813972473,0.7398187518119812,-0.2232741266489029
12.284863471984863,-0.4992702901363373,-1.2996699810028076,1.0175001621246338,0.9139869809150696,0.7407311797142029,-0.22177323698997498
12.304936647415161,-0.5107526779174805,-1.2913644313812256,1.0352253913879395,0.9241763949394226,0.7462881803512573,-0.21865688264369965
12.32499098777771,-0.5100505948066711,-1.2949717044830322,1.043685793876648,0.9235947132110596,0.756727397441864,-0.21822436153888702
12.345064163208008,-0.5100352168083191,-1.283984661102295,1.0376337766647339,0.9103623628616333,0.7443242073059082,-0.22096525132656097
12.365155458450317,-0.5090763568878174,-1.3050696849822998,1.0241245031356812,0.9158358573913574,0.7498420476913452,-0.21529905498027802
12.385226488113403,-0.5057292580604553,-1.3165807723999023,1.028414011001587,0.9183490872383118,0.7602946162223816,-0.21386604011058807
12.405344486236572,-0.5128092765808105,-1.3043363094329834,1.0346407890319824,0.9128925204277039,0.7584505677223206,-0.2140289694070816
12.425430059432983,-0.4918712377548218,-1.3113884925842285,0.9998281002044678,0.902298629283905,0.7539036273956299,-0.21199461817741394
12.445504426956177,-0.5030360817909241,-1.312699317932129,1.0200210809707642,0.9159794449806213,0.76316899061203,-0.20911170542240143
12.46583366394043,-0.49614217877388,-1.3123939037322998,1.004262089729309,0.901942253112793,0.7591741681098938,-0.20897994935512543
12.485954284667969,-0.5219867825508118,-1.305602788925171,1.0284825563430786,0.9124451875686646,0.7248927354812622,-0.21303309500217438
12.506016492843628,-0.5231708884239197,-1.294693946838379,1.0316554307937622,0.9095949530601501,0.7234671711921692,-0.21192292869091034
12.526070833206177,-0.5329535603523254,-1.3052473068237305,1.0370665788650513,0.9152933359146118,0.7091398239135742,-0.21066002547740936
12.546163320541382,-0.5060696601867676,-1.2954976558685303,1.011268973350525,0.9038780331611633,0.7511007189750671,-0.20358560979366302
12.566237688064575,-0.4992899000644684,-1.298231840133667,1.0054895877838135,0.8966274857521057,0.7494070529937744,-0.2041078358888626
12.586389541625977,-0.4909309446811676,-1.2869672775268555,0.9835318922996521,0.8908475041389465,0.731071412563324,-0.20158402621746063
12.606475830078125,-0.5245267152786255,-1.3019649982452393,1.011986494064331,0.908770740032196,0.7069612741470337,-0.20285318791866302
12.626552820205688,-0.5028536915779114,-1.2882750034332275,0.9862270355224609,0.8961333632469177,0.7123923897743225,-0.20109958946704865
12.646607398986816,-0.5061678290367126,-1.299365520477295,0.9883341193199158,0.8987953066825867,0.7257692217826843,-0.19878976047039032
12.666816234588623,-0.49347004294395447,-1.310380458831787,0.9903554916381836,0.9000211358070374,0.7311145663261414,-0.19844098389148712
12.68681788444519,-0.49553123116493225,-1.283001184463501,0.983780026435852,0.8835996985435486,0.7353879809379578,-0.1985153704881668
12.706897258758545,-0.49315115809440613,-1.3017747402191162,0.9762012362480164,0.8883596658706665,0.7461623549461365,-0.1951548308134079
12.727080583572388,-0.49506375193595886,-1.285820484161377,0.9862627387046814,0.8974766135215759,0.7358688116073608,-0.19454331696033478
12.74718165397644,-0.5252558588981628,-1.3065290451049805,1.0110102891921997,0.909925639629364,0.7103736996650696,-0.19638651609420776
12.767242193222046,-0.5120719075202942,-1.2886946201324463,0.9928064346313477,0.9012081027030945,0.7105341553688049,-0.19474971294403076
12.787601470947266,-0.5207406282424927,-1.2917191982269287,0.9987985491752625,0.9039973020553589,0.71230548620224,-0.19269762933254242
12.807695627212524,-0.4943041205406189,-1.2707536220550537,0.970387876033783,0.88015216588974,0.7255140542984009,-0.19073234498500824
12.827770948410034,-0.4975970387458801,-1.289412021636963,0.9660913348197937,0.8865063190460205,0.7371299862861633,-0.18588632345199585
12.847839593887329,-0.5002697110176086,-1.3023414611816406,0.9736199975013733,0.9007490277290344,0.7286639213562012,-0.183537557721138
12.867935419082642,-0.5163999795913696,-1.3027043342590332,0.9806846976280212,0.8982275724411011,0.7047165632247925,-0.1860448271036148
12.888092994689941,-0.5128495097160339,-1.3033843040466309,0.9794442057609558,0.8996607661247253,0.7004105448722839,-0.18575961887836456
12.908117532730103,-0.5076692700386047,-1.2762410640716553,0.9720694422721863,0.8965082168579102,0.6954358220100403,-0.18472087383270264
12.928203582763672,-0.49172133207321167,-1.2743117809295654,0.9634342789649963,0.8807787299156189,0.7193005681037903,-0.1832423359155655
12.948280334472656,-0.4947347640991211,-1.277899980545044,0.953637421131134,0.8822775483131409,0.719002902507782,-0.1803954839706421
12.968373537063599,-0.49580517411231995,-1.2765922546386719,0.9548215270042419,0.8875188827514648,0.7303819060325623,-0.17798550426959991
12.988508462905884,-0.4995670020580292,-1.2779717445373535,0.9553723931312561,0.8813841938972473,0.71727055311203,-0.18041102588176727
13.008535385131836,-0.4989199936389923,-1.282597541809082,0.9564622044563293,0.8813633918762207,0.729029655456543,-0.17812643945217133
13.028681993484497,-0.49330636858940125,-1.2901928424835205,0.9529393315315247,0.8874908089637756,0.7174111008644104,-0.17747582495212555
13.048969030380249,-0.49377837777137756,-1.2748568058013916,0.9503139853477478,0.8896693587303162,0.7229498624801636,-0.17492054402828217
13.069093942642212,-0.49436822533607483,-1.281165599822998,0.9500581622123718,0.8846253752708435,0.7221272587776184,-0.17526011168956757
13.089133501052856,-0.4936578571796417,-1.2650632858276367,0.9457095265388489,0.8776591420173645,0.7240421175956726,-0.1739724725484848
13.109429121017456,-0.49141725897789,-1.2679510116577148,0.9392123818397522,0.8763766288757324,0.7293158173561096,-0.1732792854309082
13.12951135635376,-0.5012074708938599,-1.29172945022583,0.9475452303886414,0.8836850523948669,0.7287775278091431,-0.17286738753318787
13.149583101272583,-0.4880363345146179,-1.2569096088409424,0.9325584769248962,0.8775473237037659,0.7158277630805969,-0.17082832753658295
13.169682502746582,-0.498714417219162,-1.2454924583435059,0.9436407685279846,0.8755472302436829,0.7040432095527649,-0.17262805998325348
13.18975305557251,-0.4970654547214508,-1.2883923053741455,0.9273986220359802,0.8815449476242065,0.7286454439163208,-0.16626842319965363
13.209828853607178,-0.4878794550895691,-1.2557096481323242,0.9177002310752869,0.8821513056755066,0.704594612121582,-0.16387571394443512
13.229955434799194,-0.5026152729988098,-1.2432096004486084,0.9411173462867737,0.8822498321533203,0.7039782404899597,-0.16499142348766327
13.250009298324585,-0.5089473128318787,-1.2580342292785645,0.9381324648857117,0.8870183825492859,0.7085718512535095,-0.16189074516296387
13.270050525665283,-0.4903320372104645,-1.2697725296020508,0.9135398268699646,0.8964481949806213,0.7136795520782471,-0.1558406502008438
13.290433883666992,-0.49217361211776733,-1.2538731098175049,0.9267639517784119,0.9037709832191467,0.6903595328330994,-0.15610110759735107
13.310574054718018,-0.5042893290519714,-1.2594883441925049,0.9277797341346741,0.8905943632125854,0.6996498703956604,-0.15512385964393616
13.330615997314453,-0.4876447916030884,-1.2483961582183838,0.9084333181381226,0.8980407118797302,0.7108250260353088,-0.15027663111686707
13.35092306137085,-0.4955417215824127,-1.2324726581573486,0.923133909702301,0.9012938737869263,0.695382833480835,-0.15069258213043213
13.371036767959595,-0.5069329738616943,-1.2622904777526855,0.9233658909797668,0.9063267111778259,0.6972175240516663,-0.14776204526424408
13.391083240509033,-0.48416388034820557,-1.2492177486419678,0.8916746973991394,0.9063165783882141,0.7097129821777344,-0.14065299928188324
13.411151647567749,-0.48563721776008606,-1.2438955307006836,0.9014752507209778,0.8958149552345276,0.6711109280586243,-0.14818401634693146
13.431239366531372,-0.5132631659507751,-1.2462303638458252,0.9392117261886597,0.9164617657661438,0.6958462595939636,-0.14593331515789032
13.45138669013977,-0.4806249439716339,-1.2569801807403564,0.8669813275337219,0.9113917350769043,0.7110771536827087,-0.13172124326229095
13.471404790878296,-0.47591012716293335,-1.2466554641723633,0.8793137669563293,0.9045930504798889,0.6869811415672302,-0.1382557898759842
13.491487979888916,-0.4935430586338043,-1.24997878074646,0.9281796216964722,0.9105067849159241,0.6863394975662231,-0.14645682275295258
13.511615514755249,-0.47825735807418823,-1.2394497394561768,0.8740754723548889,0.9114384651184082,0.7100984454154968,-0.1327601671218872
13.531796932220459,-0.47519975900650024,-1.2226340770721436,0.8805587291717529,0.9098287224769592,0.689965546131134,-0.13590963184833527
13.551888704299927,-0.5018364191055298,-1.2260258197784424,0.9247861504554749,0.9049474596977234,0.7006343007087708,-0.14191143214702606
13.571962118148804,-0.4842436611652374,-1.2688541412353516,0.8580893874168396,0.9323627352714539,0.7267761826515198,-0.11817656457424164
13.592068433761597,-0.4467972218990326,-1.0821712017059326,0.8829719424247742,0.898156464099884,0.6331660151481628,-0.14016449451446533
13.612178564071655,-0.531046986579895,-1.331709623336792,0.9609828591346741,0.9252710938453674,0.6122221350669861,-0.151627779006958
13.63227105140686,-0.47824496030807495,-1.1541446447372437,0.8588777184486389,0.907922089099884,0.7199966907501221,-0.122743621468544
13.652361392974854,-0.4567646086215973,-1.1949234008789062,0.8837032318115234,0.9341529011726379,0.6572476029396057,-0.13303649425506592
13.672437191009521,-0.5341572761535645,-1.2378144264221191,0.9086300730705261,0.9023924469947815,0.6993266940116882,-0.13106919825077057
13.692452430725098,-0.44448229670524597,-1.2938566207885742,0.8741225600242615,0.9412748217582703,0.6796243786811829,-0.13024699687957764
13.712648868560791,-0.4673757255077362,-1.166433572769165,0.8927578926086426,0.9016386866569519,0.645887553691864,-0.13682012259960175
13.732738018035889,-0.4829012155532837,-1.172351598739624,0.9064130783081055,0.9130233526229858,0.6365820169448853,-0.1397348940372467
13.752923250198364,-0.5021217465400696,-1.353996992111206,0.8580750823020935,0.9273528456687927,0.7312837839126587,-0.11850453913211823
13.77295470237732,-0.47060853242874146,-1.1658841371536255,0.8755171895027161,0.9246628880500793,0.6899462342262268,-0.12477424740791321
13.79306411743164,-0.4909681975841522,-1.2518703937530518,0.8900559544563293,0.9149898886680603,0.6754979491233826,-0.1335805207490921
13.813124656677246,-0.48444417119026184,-1.241180419921875,0.8794336915016174,0.9414846301078796,0.6897523999214172,-0.12321397662162781
13.833245754241943,-0.47328808903694153,-1.2540934085845947,0.8908630013465881,0.9356725811958313,0.627142608165741,-0.1349191516637802
13.853310823440552,-0.5103532075881958,-1.2401330471038818,0.9084894061088562,0.9263514876365662,0.6621962189674377,-0.13271193206310272
13.873374462127686,-0.48624852299690247,-1.232119083404541,0.8710755109786987,0.9216085076332092,0.6967619061470032,-0.12364056706428528
13.893486499786377,-0.47961726784706116,-1.219810962677002,0.8813715577125549,0.9214344024658203,0.6824296116828918,-0.1283075511455536
13.913566589355469,-0.4867090880870819,-1.2403557300567627,0.8947010040283203,0.92571622133255,0.6802683472633362,-0.13053137063980103
13.933797121047974,-0.4760829508304596,-1.220658540725708,0.8780148029327393,0.9159391522407532,0.6696255207061768,-0.13077111542224884
13.95399785041809,-0.47648850083351135,-1.2141196727752686,0.8834952116012573,0.9135385155677795,0.6717965006828308,-0.1323498636484146
13.97401762008667,-0.48315343260765076,-1.2317907810211182,0.8874326944351196,0.9257175922393799,0.6808833479881287,-0.12932275235652924
13.994136571884155,-0.48201999068260193,-1.226327657699585,0.88797926902771,0.9267632961273193,0.6785594820976257,-0.12937313318252563
14.014232635498047,-0.4822140038013458,-1.234633207321167,0.8887953162193298,0.9286619424819946,0.6757795810699463,-0.1296490877866745
14.034331321716309,-0.4820273816585541,-1.2333152294158936,0.8863726258277893,0.9251084923744202,0.6736615300178528,-0.12987397611141205
14.054657697677612,-0.48597511649131775,-1.239591121673584,0.8892003297805786,0.928488552570343,0.6639530658721924,-0.1303582340478897
14.074755668640137,-0.4834442436695099,-1.2310402393341064,0.885093092918396,0.9195029139518738,0.6704958081245422,-0.13036607205867767
14.09497857093811,-0.48437702655792236,-1.2382440567016602,0.8879684805870056,0.9282199144363403,0.6713116765022278,-0.1293853223323822
14.11517882347107,-0.48209723830223083,-1.2267282009124756,0.8854840397834778,0.9251587390899658,0.6750977635383606,-0.12876656651496887
14.135320901870728,-0.4833345115184784,-1.24033522605896,0.8859875798225403,0.9271317720413208,0.6751951575279236,-0.128696009516716
14.155391216278076,-0.48323431611061096,-1.233391523361206,0.8877195715904236,0.9290599226951599,0.6700186133384705,-0.12873809039592743
14.175450086593628,-0.48207899928092957,-1.2294306755065918,0.8875790238380432,0.9268559813499451,0.6695566773414612,-0.12864138185977936
14.19554352760315,-0.4817604124546051,-1.2388057708740234,0.8869777321815491,0.929084062576294,0.6711432933807373,-0.12841399013996124
14.215612173080444,-0.4815748631954193,-1.2339658737182617,0.8838199973106384,0.9257727265357971,0.6753819584846497,-0.12775690853595734
14.23568320274353,-0.48080363869667053,-1.2354178428649902,0.8838998079299927,0.9272366166114807,0.67265385389328,-0.12826849520206451
14.25579285621643,-0.48204609751701355,-1.2337965965270996,0.8877516984939575,0.9278503060340881,0.6737987399101257,-0.12835541367530823
14.275863647460938,-0.48317500948905945,-1.2295351028442383,0.8924311995506287,0.9271541237831116,0.6730353236198425,-0.12924058735370636
14.29590916633606,-0.48289817571640015,-1.2306034564971924,0.8857449889183044,0.9265573620796204,0.6765726208686829,-0.1278536021709442
14.315998315811157,-0.4835143983364105,-1.2378497123718262,0.8835450410842896,0.9263070225715637,0.6756783127784729,-0.12756825983524323
14.336074590682983,-0.48387569189071655,-1.239342212677002,0.8876070976257324,0.9273419976234436,0.6714712977409363,-0.12896700203418732
14.356119871139526,-0.4827972948551178,-1.234238624572754,0.8849658370018005,0.9271591305732727,0.6701716780662537,-0.12742334604263306
14.376203060150146,-0.4823951721191406,-1.2339997291564941,0.8854445815086365,0.9262608885765076,0.6694163084030151,-0.12785747647285461
14.396370887756348,-0.48306140303611755,-1.231736660003662,0.8863974809646606,0.9280632138252258,0.669944703578949,-0.12708136439323425
14.41643762588501,-0.48186588287353516,-1.234741449356079,0.8854641318321228,0.9276744723320007,0.6715119481086731,-0.12721042335033417
14.436517715454102,-0.4822104275226593,-1.2334880828857422,0.8848698735237122,0.9271183609962463,0.6733443140983582,-0.12694045901298523
14.456592321395874,-0.48160427808761597,-1.2355289459228516,0.8851549029350281,0.9287822842597961,0.670515239238739,-0.12714827060699463
14.476639747619629,-0.48280569911003113,-1.2341983318328857,0.8861423134803772,0.9272922873497009,0.6696604490280151,-0.12751971185207367
14.49671196937561,-0.48236072063446045,-1.2358319759368896,0.8857523202896118,0.9287828207015991,0.6711195111274719,-0.12695671617984772
14.516803503036499,-0.48195555806159973,-1.2348763942718506,0.88487309217453,0.9277946949005127,0.6713637709617615,-0.12702864408493042
14.536872625350952,-0.4843086898326874,-1.234088659286499,0.8878059387207031,0.9275707602500916,0.6684845089912415,-0.12778489291667938
14.557025909423828,-0.48306694626808167,-1.231618881225586,0.886371910572052,0.9253663420677185,0.671880841255188,-0.12726126611232758
14.577116250991821,-0.4822874367237091,-1.2338876724243164,0.8863276243209839,0.9265260100364685,0.670555055141449,-0.1277088224887848
14.597222566604614,-0.48234227299690247,-1.235729694366455,0.8853878378868103,0.9294139742851257,0.669709324836731,-0.12640848755836487
14.61725401878357,-0.48202815651893616,-1.2367236614227295,0.8857464790344238,0.929652750492096,0.6688019633293152,-0.1265658438205719
14.637336492538452,-0.48218148946762085,-1.2353589534759521,0.8853346705436707,0.9283888339996338,0.6698965430259705,-0.12651628255844116
14.657417297363281,-0.4820442497730255,-1.2326157093048096,0.8845541477203369,0.9265809655189514,0.6719843745231628,-0.1267535239458084
14.677479982376099,-0.4819355905056,-1.2333862781524658,0.8845409750938416,0.9269936680793762,0.6710638403892517,-0.1267840564250946
14.697712421417236,-0.48173171281814575,-1.2339317798614502,0.8847121000289917,0.9271885752677917,0.6702119708061218,-0.1269637644290924
14.717805624008179,-0.4824305772781372,-1.236335039138794,0.8858289122581482,0.9294847249984741,0.6696734428405762,-0.1265912801027298
14.73787784576416,-0.48244813084602356,-1.2347989082336426,0.8856580257415771,0.9280380010604858,0.6708264946937561,-0.12679412961006165
14.757959842681885,-0.48241427540779114,-1.2353577613830566,0.8855022192001343,0.9291467070579529,0.6705905795097351,-0.12656940519809723
14.778132200241089,-0.48195043206214905,-1.234950304031372,0.8853625655174255,0.9282984733581543,0.6699032783508301,-0.12682025134563446
14.79822063446045,-0.48210254311561584,-1.2358925342559814,0.8855804800987244,0.929488480091095,0.669623851776123,-0.1265975683927536
14.818313598632812,-0.4819974899291992,-1.233370065689087,0.8849754333496094,0.927038848400116,0.6709937453269958,-0.12671509385108948
14.838387727737427,-0.4822012782096863,-1.232064962387085,0.8863896131515503,0.927233874797821,0.6713240742683411,-0.1271038055419922
14.858468532562256,-0.4821804463863373,-1.2322452068328857,0.8843026757240295,0.927440345287323,0.6725358963012695,-0.12657742202281952
