liuyurong129/humanoid-gym/humanoid/data/target_q_20250522-225444.csv
timestamp,joint_1,joint_2,joint_3,joint_4,joint_5,joint_6
0.00021576881408691406,0.0,0.0,0.0,0.0,0.0,0.0
0.020343542098999023,0.0,0.0,0.0,0.0,0.0,0.0
0.040384769439697266,0.0,0.0,0.0,0.0,0.0,0.0
0.06042814254760742,2.09,-1.0666067600250244,1.3589870929718018,-1.9160438776016235,1.374734878540039,-0.5949313640594482
0.08051466941833496,1.9190993309020996,-1.0775439739227295,1.463672399520874,-1.7116234302520752,1.3373727798461914,-0.6596404314041138
0.10058951377868652,1.9196231365203857,-1.141444206237793,1.4532158374786377,-1.6764582395553589,1.409982681274414,-0.709355890750885
0.12065577507019043,1.901390790939331,-1.1733726263046265,1.4054780006408691,-1.653307557106018,1.4385428428649902,-0.7323170304298401
0.14072442054748535,1.8968989849090576,-1.1580193042755127,1.409618854522705,-1.6641533374786377,1.416059970855713,-0.7150014042854309
0.1607959270477295,1.902307391166687,-1.1493785381317139,1.4390833377838135,-1.6738325357437134,1.404733657836914,-0.7082754373550415
0.1808605194091797,1.9030512571334839,-1.1421828269958496,1.4537465572357178,-1.6754776239395142,1.3952397108078003,-0.7020027041435242
0.20090484619140625,1.8861348628997803,-1.1351333856582642,1.4530200958251953,-1.6827929019927979,1.3686879873275757,-0.6870777606964111
0.2210085391998291,1.9009723663330078,-1.1457469463348389,1.44391930103302,-1.6805802583694458,1.393831491470337,-0.6996386051177979
0.24107837677001953,1.8994109630584717,-1.1506688594818115,1.429734706878662,-1.6730128526687622,1.4014838933944702,-0.7061787247657776
0.2611815929412842,1.8763936758041382,-1.1611710786819458,1.4035847187042236,-1.6693785190582275,1.3938872814178467,-0.7022964358329773
0.2812516689300537,1.8774001598358154,-1.143194556236267,1.4341862201690674,-1.681577205657959,1.368721604347229,-0.6884700655937195
0.301297664642334,1.894885540008545,-1.1526615619659424,1.4352182149887085,-1.67612886428833,1.3938045501708984,-0.7003881931304932
0.3213694095611572,1.876637578010559,-1.1475963592529297,1.4359499216079712,-1.6782124042510986,1.3693767786026,-0.6873735189437866
0.3414192199707031,1.8791098594665527,-1.152494192123413,1.4255201816558838,-1.678896427154541,1.376917839050293,-0.6904541254043579
0.36151981353759766,1.8800580501556396,-1.1539404392242432,1.4232428073883057,-1.678100824356079,1.3788782358169556,-0.6918051242828369
0.3815896511077881,1.8828753232955933,-1.1585787534713745,1.4150540828704834,-1.6793246269226074,1.3856699466705322,-0.6946015954017639
0.4016706943511963,1.8762116432189941,-1.1563310623168945,1.4148731231689453,-1.6780718564987183,1.3773990869522095,-0.6903980374336243
0.421722412109375,1.8723337650299072,-1.1498339176177979,1.423437237739563,-1.6833962202072144,1.362720251083374,-0.6813749074935913
0.441805362701416,1.8701695203781128,-1.1476415395736694,1.4208910465240479,-1.6830859184265137,1.35714590549469,-0.6772032976150513
0.46187734603881836,1.87089204788208,-1.1575007438659668,1.4104360342025757,-1.681742548942566,1.3665270805358887,-0.682205319404602
0.4819340705871582,1.8690102100372314,-1.1571816205978394,1.4106942415237427,-1.682689905166626,1.361652135848999,-0.6780005097389221
0.5020887851715088,1.8572299480438232,-1.1555519104003906,1.4104690551757812,-1.6849923133850098,1.3475432395935059,-0.6708946228027344
0.5221211910247803,1.8654130697250366,-1.158368706703186,1.4035823345184326,-1.685962200164795,1.357109785079956,-0.6740857362747192
0.5421862602233887,1.8674204349517822,-1.1569145917892456,1.413659691810608,-1.68765127658844,1.355015516281128,-0.6724608540534973
0.5622272491455078,1.862607479095459,-1.149904489517212,1.414337396621704,-1.6910955905914307,1.3402745723724365,-0.6633286476135254
0.5823261737823486,1.8635848760604858,-1.1579349040985107,1.4044535160064697,-1.6887059211730957,1.3496639728546143,-0.6682842373847961
0.6023902893066406,1.8637754917144775,-1.1607033014297485,1.4003009796142578,-1.6852054595947266,1.3530281782150269,-0.6722269654273987
0.6224265098571777,1.8557298183441162,-1.1596013307571411,1.3982117176055908,-1.6865934133529663,1.3408033847808838,-0.6641286611557007
0.6426534652709961,1.8534047603607178,-1.163846731185913,1.393251895904541,-1.6877639293670654,1.3422205448150635,-0.6630308628082275
0.6627199649810791,1.855863332748413,-1.1594927310943604,1.4006427526474,-1.6905165910720825,1.338283896446228,-0.6602272987365723
0.6827776432037354,1.8534847497940063,-1.1608856916427612,1.3944416046142578,-1.686169147491455,1.3379877805709839,-0.6592329144477844
0.7028322219848633,1.8463557958602905,-1.1583311557769775,1.388289451599121,-1.6886699199676514,1.3247129917144775,-0.6503031253814697
0.7229743003845215,1.8360496759414673,-1.1635847091674805,1.387997031211853,-1.6922653913497925,1.3172154426574707,-0.6469973921775818
0.7431995868682861,1.850694179534912,-1.1657111644744873,1.3902637958526611,-1.6939387321472168,1.3310977220535278,-0.6519044041633606
0.7632560729980469,1.8385659456253052,-1.161243200302124,1.3923218250274658,-1.6946579217910767,1.3123329877853394,-0.6432426571846008
0.7833843231201172,1.8325235843658447,-1.1645163297653198,1.3847448825836182,-1.6939630508422852,1.3100435733795166,-0.6411027908325195
0.8033692836761475,1.8394900560379028,-1.165137529373169,1.377133846282959,-1.697037935256958,1.3155286312103271,-0.6416707038879395
0.8234200477600098,1.8444194793701172,-1.1619932651519775,1.3876876831054688,-1.6944036483764648,1.3142716884613037,-0.6407285332679749
0.8435571193695068,1.8372570276260376,-1.1663949489593506,1.3833348751068115,-1.6895737648010254,1.3136382102966309,-0.6418589949607849
0.8636698722839355,1.8330012559890747,-1.1706066131591797,1.37202787399292,-1.6911131143569946,1.311164140701294,-0.6386773586273193
0.883734941482544,1.831294059753418,-1.1656674146652222,1.3800184726715088,-1.6978976726531982,1.300342082977295,-0.630936324596405
0.9037942886352539,1.8281521797180176,-1.1657270193099976,1.3782602548599243,-1.6992344856262207,1.2962384223937988,-0.6288123726844788
0.9239070415496826,1.8264223337173462,-1.1661652326583862,1.3753695487976074,-1.6994678974151611,1.2942838668823242,-0.6275681853294373
0.944033145904541,1.8268444538116455,-1.1566730737686157,1.381666660308838,-1.7033261060714722,1.282576322555542,-0.6198848485946655
0.9641158580780029,1.8226443529129028,-1.1589261293411255,1.3756474256515503,-1.7022984027862549,1.2787768840789795,-0.617346465587616
0.984259843826294,1.8226282596588135,-1.1644511222839355,1.3682823181152344,-1.6996214389801025,1.2842223644256592,-0.6204749941825867
1.00445556640625,1.8188445568084717,-1.173064947128296,1.356990098953247,-1.6958996057510376,1.288785696029663,-0.6219009757041931
1.024501085281372,1.819067358970642,-1.1681698560714722,1.3599112033843994,-1.6960119009017944,1.2827823162078857,-0.6172334551811218
1.0444893836975098,1.8229175806045532,-1.1688518524169922,1.3671462535858154,-1.7034215927124023,1.2811243534088135,-0.6140226721763611
1.0646636486053467,1.8093881607055664,-1.1679494380950928,1.3664379119873047,-1.7043496370315552,1.2662720680236816,-0.6070457100868225
1.0847163200378418,1.8101341724395752,-1.1677613258361816,1.352832317352295,-1.7063019275665283,1.2669992446899414,-0.6057265996932983
1.1048362255096436,1.8193328380584717,-1.1724088191986084,1.3575072288513184,-1.704246997833252,1.2794870138168335,-0.6124168634414673
1.1250388622283936,1.8196606636047363,-1.177088737487793,1.3467332124710083,-1.6992580890655518,1.2872583866119385,-0.6165811419487
1.1451287269592285,1.80410635471344,-1.1764051914215088,1.3501644134521484,-1.7019975185394287,1.2682445049285889,-0.607607364654541
1.1651275157928467,1.813176155090332,-1.1673593521118164,1.3535161018371582,-1.705573320388794,1.265907883644104,-0.6041267514228821
1.1851296424865723,1.8121247291564941,-1.166638731956482,1.3570371866226196,-1.7057719230651855,1.2630078792572021,-0.6021347641944885
1.2052528858184814,1.8080374002456665,-1.1703383922576904,1.3524911403656006,-1.7039473056793213,1.2620716094970703,-0.6016182899475098
1.2254080772399902,1.795316219329834,-1.1764788627624512,1.3447599411010742,-1.7012897729873657,1.2553985118865967,-0.598115861415863
1.245410442352295,1.807191252708435,-1.1769661903381348,1.3440738916397095,-1.7051957845687866,1.2644760608673096,-0.6009669303894043
1.2654774188995361,1.8051273822784424,-1.175584077835083,1.3479433059692383,-1.7048417329788208,1.2600414752960205,-0.5986169576644897
1.2855782508850098,1.8005844354629517,-1.1697852611541748,1.3521294593811035,-1.7091017961502075,1.246346116065979,-0.5897198915481567
1.3056483268737793,1.7953784465789795,-1.1690945625305176,1.350642442703247,-1.7107040882110596,1.239342212677002,-0.5873681306838989
1.3256852626800537,1.8004586696624756,-1.1726535558700562,1.3468303680419922,-1.7100105285644531,1.247191071510315,-0.5901710391044617
1.3457996845245361,1.8019955158233643,-1.1767722368240356,1.3417465686798096,-1.7071162462234497,1.2541826963424683,-0.5934817790985107
1.3660321235656738,1.796797275543213,-1.1800713539123535,1.3361008167266846,-1.7036443948745728,1.2535780668258667,-0.5945271253585815
1.3861486911773682,1.795514702796936,-1.1795744895935059,1.3324944972991943,-1.7050909996032715,1.249912142753601,-0.5899215936660767
1.4061391353607178,1.7828553915023804,-1.1729635000228882,1.33717679977417,-1.7083700895309448,1.2274954319000244,-0.5789366960525513
1.4262492656707764,1.7820450067520142,-1.1763136386871338,1.3374159336090088,-1.7100623846054077,1.2265727519989014,-0.5771490931510925
1.446319341659546,1.789874792098999,-1.1656105518341064,1.3565208911895752,-1.7215029001235962,1.2149391174316406,-0.5682214498519897
1.4663853645324707,1.788095474243164,-1.1758065223693848,1.3395678997039795,-1.7148613929748535,1.224938154220581,-0.5740671753883362
1.4866132736206055,1.7814021110534668,-1.1802167892456055,1.3288068771362305,-1.7162461280822754,1.2211321592330933,-0.5708416104316711
1.5067172050476074,1.7761048078536987,-1.1779054403305054,1.3291043043136597,-1.7161556482315063,1.2130532264709473,-0.567341685295105
1.5268659591674805,1.7812469005584717,-1.1788349151611328,1.3267762660980225,-1.7165944576263428,1.217216968536377,-0.5674107074737549
1.546947956085205,1.7776597738265991,-1.1799360513687134,1.3300352096557617,-1.7163827419281006,1.2132551670074463,-0.5672642588615417
1.5669867992401123,1.7790298461914062,-1.1783545017242432,1.3349368572235107,-1.7182917594909668,1.2109389305114746,-0.5656296610832214
1.5870676040649414,1.7784674167633057,-1.1704822778701782,1.3381586074829102,-1.7201489210128784,1.2005752325057983,-0.5589379668235779
1.6073417663574219,1.775730848312378,-1.1727625131607056,1.326143503189087,-1.717015027999878,1.2012337446212769,-0.5580753684043884
1.6272451877593994,1.779907464981079,-1.181605577468872,1.3199833631515503,-1.7152032852172852,1.212490439414978,-0.5626857280731201
1.6473536491394043,1.7712939977645874,-1.1822686195373535,1.318361759185791,-1.7156263589859009,1.2037336826324463,-0.5580004453659058
1.6674389839172363,1.7694071531295776,-1.18173086643219,1.3214389085769653,-1.7194807529449463,1.198164701461792,-0.5534728169441223
1.6874980926513672,1.7663086652755737,-1.1829538345336914,1.3176958560943604,-1.7188721895217896,1.1960062980651855,-0.5523781776428223
1.7076144218444824,1.7734018564224243,-1.1738557815551758,1.3265372514724731,-1.7250970602035522,1.1898720264434814,-0.5474935173988342
1.7278995513916016,1.774794101715088,-1.1814289093017578,1.3159852027893066,-1.718341588973999,1.2017979621887207,-0.5540153980255127
1.7478387355804443,1.765554428100586,-1.1809035539627075,1.317787528038025,-1.7215347290039062,1.1890608072280884,-0.5474979877471924
1.7678773403167725,1.761580467224121,-1.186389446258545,1.3050695657730103,-1.719501256942749,1.1922147274017334,-0.5493870973587036
1.7879765033721924,1.7604314088821411,-1.184227705001831,1.3128507137298584,-1.7217947244644165,1.1864283084869385,-0.5456832051277161
1.8080389499664307,1.7632362842559814,-1.187386393547058,1.2985494136810303,-1.7190592288970947,1.194383144378662,-0.547383725643158
1.8281633853912354,1.758518934249878,-1.1818726062774658,1.3143813610076904,-1.7195531129837036,1.1794670820236206,-0.5403499007225037
1.8482365608215332,1.7571601867675781,-1.1852989196777344,1.309531331062317,-1.723314642906189,1.1761466264724731,-0.5359497666358948
1.868380069732666,1.759329080581665,-1.185644507408142,1.3099297285079956,-1.7242194414138794,1.1780781745910645,-0.5372426509857178
1.8885507583618164,1.756486415863037,-1.1834716796875,1.30438232421875,-1.724462628364563,1.172337532043457,-0.5326274037361145
1.9086339473724365,1.7520525455474854,-1.1863161325454712,1.300994873046875,-1.7258208990097046,1.168727159500122,-0.5313845276832581
1.9286513328552246,1.7532774209976196,-1.1894598007202148,1.2978034019470215,-1.7255698442459106,1.172790765762329,-0.5326805710792542
1.94883131980896,1.7509979009628296,-1.1838574409484863,1.3040554523468018,-1.7261817455291748,1.1640926599502563,-0.5279008746147156
1.9689395427703857,1.752709150314331,-1.1870853900909424,1.3055895566940308,-1.7263544797897339,1.1664674282073975,-0.5289556980133057
1.9889984130859375,1.7527391910552979,-1.1878106594085693,1.3064829111099243,-1.7255927324295044,1.165156602859497,-0.5280174612998962
2.009082794189453,1.7428193092346191,-1.184727430343628,1.303511619567871,-1.7255326509475708,1.151573657989502,-0.5203985571861267
2.029223918914795,1.7409363985061646,-1.1809463500976562,1.2987492084503174,-1.7236007452011108,1.1462171077728271,-0.5157825946807861
2.0493106842041016,1.743843913078308,-1.1905745267868042,1.280158281326294,-1.7260122299194336,1.1580313444137573,-0.5199273824691772
2.069443464279175,1.746127724647522,-1.185997486114502,1.2969470024108887,-1.7319055795669556,1.1490750312805176,-0.5141098499298096
2.0894644260406494,1.7425096035003662,-1.1925181150436401,1.291775107383728,-1.7285438776016235,1.1513237953186035,-0.5163684487342834
2.109548330307007,1.7414878606796265,-1.1922683715820312,1.2925975322723389,-1.7273072004318237,1.149348497390747,-0.5151832699775696
2.129645586013794,1.728956937789917,-1.1925582885742188,1.2860054969787598,-1.7276501655578613,1.1371769905090332,-0.5100296139717102
2.149702548980713,1.7369153499603271,-1.1836507320404053,1.296666145324707,-1.735816240310669,1.131461501121521,-0.5041264295578003
2.16975474357605,1.7361584901809692,-1.1901211738586426,1.288820743560791,-1.7265375852584839,1.1397897005081177,-0.5084788203239441
2.1899220943450928,1.7358005046844482,-1.189347743988037,1.2846262454986572,-1.726778268814087,1.1380760669708252,-0.5066347122192383
2.209946393966675,1.7354775667190552,-1.1912169456481934,1.2804712057113647,-1.723412275314331,1.1377708911895752,-0.5039930939674377
2.230130910873413,1.7330199480056763,-1.1956052780151367,1.2772140502929688,-1.7274810075759888,1.1366969347000122,-0.5029351711273193
2.2501230239868164,1.728959560394287,-1.1985453367233276,1.2701644897460938,-1.7275410890579224,1.1366863250732422,-0.5025749802589417
2.270195722579956,1.7325350046157837,-1.1962857246398926,1.2788293361663818,-1.72933030128479,1.1362650394439697,-0.5019897818565369
2.2903244495391846,1.7262589931488037,-1.1913357973098755,1.2831984758377075,-1.7305927276611328,1.1225520372390747,-0.49531155824661255
2.3104701042175293,1.731837272644043,-1.1913892030715942,1.284104347229004,-1.7326419353485107,1.1258926391601562,-0.4960525631904602
2.3306446075439453,1.7298413515090942,-1.1910896301269531,1.2841933965682983,-1.7319835424423218,1.1232335567474365,-0.49490076303482056
2.350658893585205,1.7190032005310059,-1.1964538097381592,1.2623884677886963,-1.723046064376831,1.121758222579956,-0.4912276268005371
2.370697498321533,1.7273900508880615,-1.1961301565170288,1.273482322692871,-1.7310165166854858,1.12294340133667,-0.4914601743221283
2.3908655643463135,1.7244157791137695,-1.1969830989837646,1.2756596803665161,-1.7313963174819946,1.1198358535766602,-0.4902336895465851
2.4109363555908203,1.7193608283996582,-1.1964325904846191,1.2712242603302002,-1.7333006858825684,1.113391637802124,-0.48673325777053833
2.4310808181762695,1.711186408996582,-1.1973998546600342,1.271201491355896,-1.732903003692627,1.1053695678710938,-0.48269224166870117
2.451096773147583,1.7108325958251953,-1.1963763236999512,1.273010015487671,-1.7368805408477783,1.1011364459991455,-0.4797419607639313
2.471250057220459,1.715925931930542,-1.1908059120178223,1.2727714776992798,-1.7372024059295654,1.1013126373291016,-0.4792563021183014
2.491227388381958,1.7103922367095947,-1.1963601112365723,1.2618122100830078,-1.7370797395706177,1.1006765365600586,-0.47858861088752747
2.511354684829712,1.7031042575836182,-1.192337155342102,1.2652602195739746,-1.7393313646316528,1.0874189138412476,-0.4724567234516144
2.531541109085083,1.7127435207366943,-1.200028419494629,1.2643241882324219,-1.7364510297775269,1.1047378778457642,-0.4805745482444763
2.551471471786499,1.7114856243133545,-1.1997326612472534,1.2628601789474487,-1.733576774597168,1.103621244430542,-0.479957640171051
2.571720838546753,1.7122318744659424,-1.1994472742080688,1.2636277675628662,-1.7358040809631348,1.1018840074539185,-0.4778161346912384
2.5916361808776855,1.7092094421386719,-1.1964101791381836,1.2639374732971191,-1.734817385673523,1.0946744680404663,-0.47329896688461304
2.6116833686828613,1.7066270112991333,-1.2018940448760986,1.256901741027832,-1.7327492237091064,1.097222089767456,-0.47316980361938477
2.6317429542541504,1.7078708410263062,-1.1995350122451782,1.2601375579833984,-1.737465262413025,1.0926393270492554,-0.470070481300354
2.6518776416778564,1.7026617527008057,-1.194522500038147,1.2575106620788574,-1.7415086030960083,1.081702470779419,-0.46353137493133545
2.6719679832458496,1.699959397315979,-1.200320839881897,1.2564103603363037,-1.738884687423706,1.0826820135116577,-0.4642232656478882
2.692004919052124,1.6993632316589355,-1.2017695903778076,1.2494964599609375,-1.7362228631973267,1.084641456604004,-0.46532490849494934
2.712026596069336,1.700791597366333,-1.1982828378677368,1.2579677104949951,-1.742375135421753,1.0772778987884521,-0.46044766902923584
2.732114315032959,1.7015047073364258,-1.2022178173065186,1.251592755317688,-1.7388396263122559,1.0832493305206299,-0.4628445506095886
2.7521657943725586,1.6995244026184082,-1.202032208442688,1.254780650138855,-1.7387409210205078,1.0795307159423828,-0.4618847072124481
2.77223801612854,1.6913692951202393,-1.1947572231292725,1.253953456878662,-1.7390838861465454,1.0631921291351318,-0.4520130753517151
2.792309284210205,1.6929163932800293,-1.2048486471176147,1.2348403930664062,-1.7361119985580444,1.07521653175354,-0.4553378224372864
2.8123791217803955,1.695727825164795,-1.2063794136047363,1.240741491317749,-1.7403491735458374,1.0764249563217163,-0.45598313212394714
2.832454204559326,1.6970241069793701,-1.200501799583435,1.2507820129394531,-1.742340087890625,1.068533182144165,-0.4523076117038727
2.8525240421295166,1.6937952041625977,-1.2077358961105347,1.24069082736969,-1.739378571510315,1.0733489990234375,-0.4539845585823059
2.8725829124450684,1.69142484664917,-1.2070471048355103,1.241355299949646,-1.7377270460128784,1.070246696472168,-0.4532519280910492
2.8928730487823486,1.6842596530914307,-1.2039985656738281,1.2429122924804688,-1.7426458597183228,1.0561192035675049,-0.44573259353637695
2.9129586219787598,1.682617425918579,-1.2002224922180176,1.2458349466323853,-1.7442948818206787,1.0492068529129028,-0.44167232513427734
2.933044672012329,1.688952922821045,-1.199769377708435,1.246475100517273,-1.7448406219482422,1.0549324750900269,-0.4431152939796448
2.953185796737671,1.6855255365371704,-1.2065521478652954,1.2362921237945557,-1.7425196170806885,1.057661533355713,-0.4438384473323822
2.9731667041778564,1.684981346130371,-1.206899881362915,1.2388451099395752,-1.7438453435897827,1.055273413658142,-0.44204020500183105
2.993264675140381,1.6822535991668701,-1.2090389728546143,1.23677396774292,-1.7431762218475342,1.0523278713226318,-0.44065892696380615
3.0133867263793945,1.6787500381469727,-1.2097171545028687,1.2315900325775146,-1.742592215538025,1.050654411315918,-0.4398966431617737
3.033397912979126,1.675893783569336,-1.2028942108154297,1.2424288988113403,-1.7474641799926758,1.0358405113220215,-0.43192458152770996
3.0535075664520264,1.676706075668335,-1.2057167291641235,1.2414017915725708,-1.744801640510559,1.0397908687591553,-0.43292203545570374
3.073589563369751,1.675797939300537,-1.201098084449768,1.2414140701293945,-1.7431068420410156,1.0320940017700195,-0.42791903018951416
3.0936927795410156,1.6745154857635498,-1.2057433128356934,1.234480381011963,-1.7484276294708252,1.030779480934143,-0.425991415977478
3.1137733459472656,1.679063320159912,-1.213712215423584,1.2189767360687256,-1.7423300743103027,1.0484092235565186,-0.43387654423713684
3.133835792541504,1.6741206645965576,-1.2131540775299072,1.222459077835083,-1.7433836460113525,1.041695475578308,-0.43112504482269287
3.154024600982666,1.6710340976715088,-1.2102406024932861,1.2158007621765137,-1.7429866790771484,1.0359548330307007,-0.42709946632385254
3.1740190982818604,1.66996169090271,-1.2097446918487549,1.2310657501220703,-1.7453709840774536,1.0297389030456543,-0.424411416053772
3.1941168308258057,1.6662440299987793,-1.207926630973816,1.2303178310394287,-1.747376561164856,1.022620677947998,-0.420564740896225
3.214303970336914,1.6619598865509033,-1.2012969255447388,1.233006238937378,-1.7487902641296387,1.0105171203613281,-0.41431546211242676
3.2343990802764893,1.6687304973602295,-1.204250454902649,1.2266175746917725,-1.7496163845062256,1.0176864862442017,-0.4148370623588562
3.2543551921844482,1.6654934883117676,-1.2092053890228271,1.222069501876831,-1.7451435327529907,1.017250657081604,-0.4135934114456177
3.2744863033294678,1.6588472127914429,-1.21610689163208,1.2074764966964722,-1.742837905883789,1.0197254419326782,-0.41458261013031006
3.294553279876709,1.6548693180084229,-1.2152175903320312,1.211580514907837,-1.7455912828445435,1.0119493007659912,-0.4113214910030365
3.314631223678589,1.6619629859924316,-1.2146546840667725,1.2130540609359741,-1.7461581230163574,1.0175056457519531,-0.4117189943790436
3.334700584411621,1.6636147499084473,-1.2135119438171387,1.2154099941253662,-1.7459460496902466,1.0166326761245728,-0.41073429584503174
3.3547935485839844,1.660505771636963,-1.2087428569793701,1.223984956741333,-1.7518647909164429,1.0037271976470947,-0.4040725529193878
3.37490177154541,1.6556384563446045,-1.209822654724121,1.2190921306610107,-1.7492530345916748,1.0006823539733887,-0.40233349800109863
3.394970178604126,1.6593915224075317,-1.2113956212997437,1.2182124853134155,-1.7484827041625977,1.004583716392517,-0.40258339047431946
3.415064811706543,1.6590471267700195,-1.2137699127197266,1.214585781097412,-1.7448030710220337,1.0071032047271729,-0.40325304865837097
3.435183525085449,1.6520264148712158,-1.2166880369186401,1.2042900323867798,-1.7402186393737793,1.0052454471588135,-0.4010891318321228
3.4552712440490723,1.649204134941101,-1.2111932039260864,1.2078741788864136,-1.7488517761230469,0.9912939071655273,-0.39271751046180725
3.4753119945526123,1.6514735221862793,-1.2170460224151611,1.2061583995819092,-1.7486636638641357,0.9974119663238525,-0.3957977294921875
3.495375633239746,1.6505329608917236,-1.2073509693145752,1.2204747200012207,-1.756957769393921,0.9810647964477539,-0.3873348534107208
3.5155138969421387,1.6539387702941895,-1.2089670896530151,1.213287353515625,-1.7527456283569336,0.9871575832366943,-0.38926857709884644
3.535585403442383,1.6514875888824463,-1.214005470275879,1.2105828523635864,-1.7495276927947998,0.9891271591186523,-0.39046356081962585
3.555607318878174,1.645758867263794,-1.215118408203125,1.2047828435897827,-1.7497340440750122,0.9836774468421936,-0.38814491033554077
3.5756821632385254,1.6417790651321411,-1.2231113910675049,1.182610273361206,-1.7465314865112305,0.9910539388656616,-0.38965922594070435
3.5957751274108887,1.6439502239227295,-1.2204958200454712,1.191823959350586,-1.7471977472305298,0.9887961745262146,-0.3885783553123474
3.6158623695373535,1.6434028148651123,-1.2085435390472412,1.2056386470794678,-1.7502654790878296,0.9708117842674255,-0.3772547245025635
3.635922908782959,1.6403099298477173,-1.2162446975708008,1.2005746364593506,-1.752663016319275,0.9713140726089478,-0.3771347999572754
3.655979633331299,1.6298221349716187,-1.2145752906799316,1.1960861682891846,-1.754032015800476,0.9578820466995239,-0.3709665536880493
3.676086902618408,1.6367871761322021,-1.2187658548355103,1.194972038269043,-1.7539443969726562,0.9680784940719604,-0.37357082962989807
3.6961493492126465,1.6398879289627075,-1.2213464975357056,1.1929854154586792,-1.7496027946472168,0.975917637348175,-0.37769824266433716
3.7162177562713623,1.636918306350708,-1.2211709022521973,1.1899259090423584,-1.7472270727157593,0.9723905324935913,-0.37515419721603394
3.736283779144287,1.632786750793457,-1.2137106657028198,1.188532829284668,-1.7504196166992188,0.9606755375862122,-0.36820051074028015
3.7563681602478027,1.6309407949447632,-1.210996389389038,1.1934494972229004,-1.755440354347229,0.949720025062561,-0.3625069856643677
3.7765555381774902,1.6287606954574585,-1.2209895849227905,1.192068099975586,-1.753617525100708,0.9553878307342529,-0.3647279739379883
3.7966320514678955,1.6296018362045288,-1.2195314168930054,1.1903190612792969,-1.7542058229446411,0.9547244310379028,-0.3639293909072876
3.816718101501465,1.6308183670043945,-1.2151267528533936,1.1929867267608643,-1.7570289373397827,0.9505573511123657,-0.3620767593383789
3.8368732929229736,1.6196554899215698,-1.222090482711792,1.1828473806381226,-1.7534258365631104,0.9461095333099365,-0.3595948815345764
3.856966733932495,1.6275627613067627,-1.2211225032806396,1.1890779733657837,-1.7565346956253052,0.9498530030250549,-0.3613576292991638
3.8769657611846924,1.6261327266693115,-1.2150520086288452,1.185976266860962,-1.7551785707473755,0.9444835186004639,-0.35806530714035034
3.8971333503723145,1.6228556632995605,-1.2216708660125732,1.1784584522247314,-1.756845474243164,0.9453243613243103,-0.35774892568588257
3.9172136783599854,1.6247313022613525,-1.2226144075393677,1.1786617040634155,-1.7530535459518433,0.9475141167640686,-0.3576957583427429
3.9372549057006836,1.621583104133606,-1.2283334732055664,1.1671876907348633,-1.7519899606704712,0.9507408142089844,-0.35867607593536377
3.9573817253112793,1.6213018894195557,-1.2275961637496948,1.1762090921401978,-1.7536919116973877,0.9471166133880615,-0.3568495512008667
3.9774234294891357,1.6189792156219482,-1.220170021057129,1.1805083751678467,-1.7534247636795044,0.9372029900550842,-0.3518589735031128
3.9974820613861084,1.6119823455810547,-1.225058674812317,1.1733262538909912,-1.7506760358810425,0.9315913915634155,-0.3453344702720642
4.017581224441528,1.6150925159454346,-1.2258820533752441,1.1702709197998047,-1.753615379333496,0.9328129291534424,-0.34517088532447815
4.037755727767944,1.6143794059753418,-1.2243465185165405,1.1676230430603027,-1.7568275928497314,0.9287986755371094,-0.3430537283420563
4.05781626701355,1.6113948822021484,-1.2273883819580078,1.1714284420013428,-1.7592061758041382,0.924058198928833,-0.339293897151947
4.077863693237305,1.6075880527496338,-1.2292550802230835,1.168567180633545,-1.7588521242141724,0.9205178618431091,-0.33871328830718994
4.098015546798706,1.6047316789627075,-1.227737307548523,1.1711393594741821,-1.7572041749954224,0.9154931306838989,-0.33570390939712524
4.118037223815918,1.6068603992462158,-1.2198433876037598,1.1808769702911377,-1.7646170854568481,0.902202844619751,-0.3273472189903259
4.138195514678955,1.6031622886657715,-1.2186529636383057,1.172886848449707,-1.7582284212112427,0.8996724486351013,-0.3256315588951111
4.158257722854614,1.6000783443450928,-1.2300004959106445,1.1591012477874756,-1.7576065063476562,0.9043267965316772,-0.32562482357025146
4.178416728973389,1.594757318496704,-1.22971773147583,1.1527669429779053,-1.758209466934204,0.8995016813278198,-0.3233890235424042
4.198589086532593,1.6038508415222168,-1.2264251708984375,1.1631094217300415,-1.7618966102600098,0.9028819799423218,-0.3246006965637207
4.218526840209961,1.6028934717178345,-1.2298915386199951,1.1644223928451538,-1.7596986293792725,0.9040064811706543,-0.3255608081817627
4.238604784011841,1.6020984649658203,-1.227309226989746,1.1692118644714355,-1.7622267007827759,0.8988112807273865,-0.3231721520423889
4.258697271347046,1.590461015701294,-1.2201402187347412,1.1691093444824219,-1.7637019157409668,0.87885582447052,-0.3137226700782776
4.278793096542358,1.5847924947738647,-1.2187225818634033,1.1686146259307861,-1.7667464017868042,0.8690478801727295,-0.30957096815109253
4.299092054367065,1.5954780578613281,-1.2286810874938965,1.158408284187317,-1.7648874521255493,0.8895015120506287,-0.3163323998451233
4.319216966629028,1.596388816833496,-1.2344856262207031,1.1422865390777588,-1.7582613229751587,0.9015753865242004,-0.3217982053756714
4.339395046234131,1.5774388313293457,-1.227083683013916,1.1526808738708496,-1.7575303316116333,0.8705356121063232,-0.3061336278915405
4.3593902587890625,1.5834335088729858,-1.231519103050232,1.149511456489563,-1.7618919610977173,0.8761115074157715,-0.3065984845161438
4.379470109939575,1.5880370140075684,-1.2282212972640991,1.1617079973220825,-1.768349289894104,0.8725900053977966,-0.30484235286712646
4.399536609649658,1.5870592594146729,-1.2276430130004883,1.1593953371047974,-1.7654199600219727,0.8726069927215576,-0.305023729801178
4.419605731964111,1.5893402099609375,-1.2310580015182495,1.1528573036193848,-1.7636518478393555,0.8768134117126465,-0.30629658699035645
4.439661026000977,1.5805833339691162,-1.2284820079803467,1.1466431617736816,-1.7634594440460205,0.8665452003479004,-0.30129677057266235
4.4598095417022705,1.5850236415863037,-1.233835220336914,1.136138677597046,-1.7631490230560303,0.8773886561393738,-0.30456769466400146
4.479862213134766,1.584317684173584,-1.2320427894592285,1.1497856378555298,-1.7627602815628052,0.8725289106369019,-0.3035619258880615
4.499911546707153,1.5750188827514648,-1.232885718345642,1.140742540359497,-1.7609453201293945,0.8628610372543335,-0.29696232080459595
4.519960403442383,1.5741151571273804,-1.2333464622497559,1.1407467126846313,-1.76077401638031,0.8613536953926086,-0.29509270191192627
4.5400707721710205,1.5709724426269531,-1.2247600555419922,1.148012638092041,-1.7651227712631226,0.8437187671661377,-0.28624606132507324
4.560163974761963,1.5773992538452148,-1.2317829132080078,1.1423053741455078,-1.7664563655853271,0.8540750741958618,-0.2884025573730469
4.580186128616333,1.5726202726364136,-1.2301710844039917,1.1401838064193726,-1.766391634941101,0.8481150269508362,-0.28647467494010925
4.600279092788696,1.5695226192474365,-1.2367689609527588,1.1288784742355347,-1.7632219791412354,0.8526572585105896,-0.2882409989833832
4.620341777801514,1.5691626071929932,-1.2351809740066528,1.1376266479492188,-1.7654932737350464,0.8475860953330994,-0.2860445976257324
4.640542268753052,1.5671436786651611,-1.232119083404541,1.140912652015686,-1.7678965330123901,0.8375778794288635,-0.28001824021339417
4.660521507263184,1.5666203498840332,-1.234803557395935,1.134770154953003,-1.7603598833084106,0.8410683274269104,-0.2798190116882324
4.680601119995117,1.5561869144439697,-1.2355111837387085,1.1285700798034668,-1.7549700736999512,0.8310967683792114,-0.2730894684791565
4.700673341751099,1.562233328819275,-1.2341800928115845,1.133264183998108,-1.7659631967544556,0.8270646333694458,-0.26907092332839966
4.720834732055664,1.5648754835128784,-1.2372454404830933,1.128995418548584,-1.7670671939849854,0.8331586718559265,-0.2715408205986023
4.740912914276123,1.5674917697906494,-1.2356226444244385,1.1343493461608887,-1.7659263610839844,0.8332375288009644,-0.2721553444862366
4.760967016220093,1.567476511001587,-1.231289267539978,1.1361660957336426,-1.7686479091644287,0.827060341835022,-0.2686273455619812
4.7810468673706055,1.5648117065429688,-1.2394907474517822,1.1228811740875244,-1.7646735906600952,0.8350934386253357,-0.271823912858963
4.801141262054443,1.5577536821365356,-1.2312976121902466,1.1359889507293701,-1.7696846723556519,0.8151895999908447,-0.2636847496032715
4.821258306503296,1.5621891021728516,-1.2353250980377197,1.1293946504592896,-1.7666391134262085,0.8235974907875061,-0.2648237943649292
4.841274261474609,1.561598539352417,-1.2287026643753052,1.1329524517059326,-1.7691940069198608,0.8160814046859741,-0.261538028717041
4.861334800720215,1.5483057498931885,-1.2393051385879517,1.1211540699005127,-1.7560704946517944,0.8149151802062988,-0.2573483884334564
4.881393909454346,1.543733835220337,-1.2348906993865967,1.123525619506836,-1.767533540725708,0.796891450881958,-0.2489139586687088
4.9015212059021,1.5520060062408447,-1.2388979196548462,1.1183198690414429,-1.7685467004776,0.8073505163192749,-0.25173574686050415
4.921608209609985,1.550095796585083,-1.244598388671875,1.107504963874817,-1.765260100364685,0.8127438426017761,-0.25323420763015747
4.941691160202026,1.5389788150787354,-1.2358644008636475,1.1184630393981934,-1.7652904987335205,0.7892391085624695,-0.24391132593154907
4.961746692657471,1.5368399620056152,-1.2440919876098633,1.1037945747375488,-1.7609167098999023,0.7963939905166626,-0.24398048222064972
4.981906890869141,1.547480583190918,-1.238724708557129,1.1162856817245483,-1.7675789594650269,0.796325147151947,-0.24297867715358734
5.002031326293945,1.5505139827728271,-1.239647388458252,1.1162742376327515,-1.769012689590454,0.7984670400619507,-0.24433153867721558
5.022101402282715,1.5369579792022705,-1.2368147373199463,1.1164491176605225,-1.7698363065719604,0.7804538011550903,-0.23730535805225372
5.0421669483184814,1.5281867980957031,-1.2408818006515503,1.1092841625213623,-1.7698878049850464,0.7732681035995483,-0.232899472117424
5.062301397323608,1.5397263765335083,-1.2385259866714478,1.110971450805664,-1.77372407913208,0.7821469306945801,-0.2353450208902359
5.082477569580078,1.5391170978546143,-1.2415739297866821,1.1073358058929443,-1.765627384185791,0.787909984588623,-0.23785816133022308
5.102501392364502,1.5386791229248047,-1.2474721670150757,1.099263310432434,-1.7678428888320923,0.7910711765289307,-0.23963002860546112
5.122538805007935,1.5340644121170044,-1.2480895519256592,1.1033403873443604,-1.7685391902923584,0.7853681445121765,-0.23722614347934723
5.142638921737671,1.5302441120147705,-1.2439614534378052,1.1034884452819824,-1.7683460712432861,0.7774209380149841,-0.23409220576286316
5.163449048995972,1.532925009727478,-1.2423802614212036,1.1068148612976074,-1.770039439201355,0.7763405442237854,-0.23107606172561646
5.18363356590271,1.5231099128723145,-1.2357168197631836,1.1095865964889526,-1.7698041200637817,0.7581383585929871,-0.22326050698757172
5.203632593154907,1.524587869644165,-1.247940182685852,1.0915707349777222,-1.764756202697754,0.7706851959228516,-0.22422784566879272
5.223825216293335,1.5287165641784668,-1.2490594387054443,1.0937726497650146,-1.7665629386901855,0.7737243175506592,-0.22521932423114777
5.243837594985962,1.5248358249664307,-1.2476462125778198,1.0912997722625732,-1.7679533958435059,0.7674910426139832,-0.22168587148189545
5.2639195919036865,1.5249302387237549,-1.2464385032653809,1.1000699996948242,-1.7708240747451782,0.763325035572052,-0.22111876308918
5.283971548080444,1.5191857814788818,-1.2403093576431274,1.1028218269348145,-1.7703291177749634,0.7510106563568115,-0.21461226046085358
5.304182052612305,1.5159544944763184,-1.2425761222839355,1.0994899272918701,-1.7666412591934204,0.750267505645752,-0.2130119651556015
5.324172496795654,1.5137999057769775,-1.2356796264648438,1.1014124155044556,-1.768876075744629,0.7381358742713928,-0.20516301691532135
5.344228982925415,1.5173392295837402,-1.2499427795410156,1.0773677825927734,-1.7669988870620728,0.7558497190475464,-0.2112831026315689
5.364301681518555,1.5116515159606934,-1.243622899055481,1.0916036367416382,-1.7725911140441895,0.7374077439308167,-0.20449943840503693
5.38438868522644,1.5072524547576904,-1.2525818347930908,1.0795683860778809,-1.7681243419647217,0.7423011660575867,-0.20482300221920013
5.404525518417358,1.5097262859344482,-1.2426658868789673,1.1001867055892944,-1.7742723226547241,0.7315590977668762,-0.20066437125205994
5.424628257751465,1.514641284942627,-1.248142123222351,1.0917327404022217,-1.7703495025634766,0.7432023286819458,-0.20523937046527863
5.444808483123779,1.51082181930542,-1.2453029155731201,1.0957791805267334,-1.7724387645721436,0.7320356369018555,-0.19915209710597992
5.464946985244751,1.5060555934906006,-1.2414747476577759,1.0946414470672607,-1.772376537322998,0.7239927649497986,-0.19543687999248505
5.485059976577759,1.5085526704788208,-1.2444729804992676,1.084773302078247,-1.7728325128555298,0.7290401458740234,-0.19604288041591644
5.505069255828857,1.5019307136535645,-1.2521559000015259,1.0831916332244873,-1.766371250152588,0.7291282415390015,-0.19531922042369843
5.525477886199951,1.4994261264801025,-1.2547590732574463,1.075470209121704,-1.76775062084198,0.7263795733451843,-0.19155317544937134
5.54564905166626,1.5016627311706543,-1.2519645690917969,1.0776854753494263,-1.7699135541915894,0.7246100902557373,-0.19093215465545654
5.56567645072937,1.505598545074463,-1.250693440437317,1.0812125205993652,-1.7714277505874634,0.7240076065063477,-0.18884749710559845
5.585728645324707,1.4967668056488037,-1.2542110681533813,1.0654125213623047,-1.7685198783874512,0.7188271880149841,-0.18641334772109985
5.605862617492676,1.4886571168899536,-1.2523144483566284,1.0643796920776367,-1.7697447538375854,0.7095688581466675,-0.18321593105793
5.62596583366394,1.4965543746948242,-1.2502232789993286,1.0779759883880615,-1.7738932371139526,0.7103844881057739,-0.1833442747592926
5.6460583209991455,1.4982681274414062,-1.2548469305038452,1.0742278099060059,-1.7721819877624512,0.717249870300293,-0.18538789451122284
5.666311740875244,1.489122748374939,-1.2474766969680786,1.0767807960510254,-1.7691235542297363,0.6994062066078186,-0.17507202923297882
5.68649435043335,1.4897693395614624,-1.2520214319229126,1.071185827255249,-1.7678471803665161,0.7025139927864075,-0.17503653466701508
5.7066121101379395,1.4802682399749756,-1.2473559379577637,1.075427532196045,-1.773993730545044,0.6820862889289856,-0.1661488562822342
5.72664999961853,1.4878252744674683,-1.2543814182281494,1.0702632665634155,-1.7741496562957764,0.6969641447067261,-0.17174072563648224
5.746800899505615,1.4932196140289307,-1.257130742073059,1.0638008117675781,-1.7728575468063354,0.7059418559074402,-0.1754060536623001
5.766908645629883,1.4839006662368774,-1.2527785301208496,1.064605474472046,-1.772737741470337,0.6905720829963684,-0.16774190962314606
5.787070274353027,1.479527473449707,-1.2526718378067017,1.065563678741455,-1.7744382619857788,0.6833213567733765,-0.16532818973064423
5.807079553604126,1.4788851737976074,-1.2519991397857666,1.0676546096801758,-1.7741800546646118,0.680928647518158,-0.16277705132961273
5.827322006225586,1.4730653762817383,-1.2570273876190186,1.0590457916259766,-1.7663848400115967,0.6819349527359009,-0.1608010232448578
5.84746789932251,1.4724681377410889,-1.2519978284835815,1.0631539821624756,-1.770511507987976,0.6715589761734009,-0.1547238528728485
5.867518186569214,1.470278024673462,-1.2554657459259033,1.0583057403564453,-1.7735588550567627,0.668785035610199,-0.15364493429660797
5.887590646743774,1.467213749885559,-1.2542239427566528,1.0532803535461426,-1.7738438844680786,0.6646749973297119,-0.15078087151050568
5.907646417617798,1.4712977409362793,-1.260127305984497,1.0513622760772705,-1.7731568813323975,0.672555148601532,-0.15416447818279266
5.9277260303497314,1.468968391418457,-1.2554433345794678,1.0484154224395752,-1.7733746767044067,0.6660431027412415,-0.15095186233520508
5.947791576385498,1.4624683856964111,-1.2555725574493408,1.0530304908752441,-1.769288420677185,0.6585797667503357,-0.14561909437179565
5.967947721481323,1.461822271347046,-1.2571650743484497,1.0514507293701172,-1.77019464969635,0.6540474891662598,-0.14034640789031982
5.988055467605591,1.460536241531372,-1.2571430206298828,1.0539082288742065,-1.7730488777160645,0.650032639503479,-0.13896998763084412
6.008143424987793,1.4514334201812744,-1.2599506378173828,1.044273853302002,-1.7724426984786987,0.6418722867965698,-0.13518641889095306
6.0282042026519775,1.4575810432434082,-1.2615077495574951,1.042870283126831,-1.7742905616760254,0.6492294073104858,-0.13603489100933075
6.048732757568359,1.4603787660598755,-1.257293939590454,1.0472062826156616,-1.774832010269165,0.6445444822311401,-0.1332959085702896
6.068850040435791,1.4526524543762207,-1.2624706029891968,1.0417497158050537,-1.7700297832489014,0.6416677236557007,-0.1308726668357849
6.089003324508667,1.456794023513794,-1.2591545581817627,1.0457170009613037,-1.775429606437683,0.6358004808425903,-0.12660138309001923
6.10899019241333,1.455095887184143,-1.2567095756530762,1.0505614280700684,-1.7752954959869385,0.6317024230957031,-0.12609288096427917
6.129071474075317,1.447784423828125,-1.25461745262146,1.0502004623413086,-1.7744207382202148,0.620622992515564,-0.12037141621112823
6.149142742156982,1.4496707916259766,-1.250698208808899,1.0475845336914062,-1.7795026302337646,0.6170392036437988,-0.11913026869297028
6.169208526611328,1.4515577554702759,-1.2647111415863037,1.032857894897461,-1.7751277685165405,0.6341434121131897,-0.12522156536579132
6.189306020736694,1.449399709701538,-1.2627911567687988,1.036123275756836,-1.7747211456298828,0.6292549967765808,-0.12342727929353714
6.209407806396484,1.4514529705047607,-1.2614517211914062,1.040212869644165,-1.7756195068359375,0.6282694339752197,-0.12253023684024811
6.229511260986328,1.439469575881958,-1.2630925178527832,1.0344496965408325,-1.7735137939453125,0.6172996759414673,-0.11837151646614075
6.249553680419922,1.4334781169891357,-1.252890706062317,1.0427052974700928,-1.773709774017334,0.5997905731201172,-0.10925368219614029
6.269621133804321,1.4391525983810425,-1.2522469758987427,1.0377904176712036,-1.7757389545440674,0.601517379283905,-0.10545198619365692
6.289694309234619,1.4434900283813477,-1.2664176225662231,1.0228960514068604,-1.7717610597610474,0.6188055276870728,-0.11113648116588593
6.309759140014648,1.4283403158187866,-1.2712695598602295,1.018035888671875,-1.7703577280044556,0.6069207191467285,-0.10695710778236389
6.32982611656189,1.4322922229766846,-1.2716153860092163,1.0203886032104492,-1.7718425989151,0.6090201139450073,-0.10650477558374405
6.349895238876343,1.434765100479126,-1.2664337158203125,1.0216352939605713,-1.7722992897033691,0.6076627969741821,-0.10610000789165497
6.369990348815918,1.4309215545654297,-1.2664419412612915,1.0182561874389648,-1.7702890634536743,0.6041341423988342,-0.10302592813968658
6.390055894851685,1.4235771894454956,-1.265883445739746,1.0276386737823486,-1.769575595855713,0.5879740118980408,-0.09376367926597595
6.4101409912109375,1.4271528720855713,-1.263077735900879,1.0264992713928223,-1.7753573656082153,0.5867054462432861,-0.09350211918354034
6.430169105529785,1.4223599433898926,-1.2687504291534424,1.0157921314239502,-1.770997166633606,0.5894858837127686,-0.09379729628562927
6.450257062911987,1.423937201499939,-1.2690774202346802,1.006676435470581,-1.7723489999771118,0.5917019248008728,-0.09353915601968765
6.470446586608887,1.4232456684112549,-1.2719736099243164,1.01362144947052,-1.770837664604187,0.5922845005989075,-0.09522789716720581
6.490442991256714,1.4183382987976074,-1.2705214023590088,1.0168845653533936,-1.7714499235153198,0.5829483270645142,-0.0905495211482048
6.510493993759155,1.4191397428512573,-1.2652610540390015,1.0150673389434814,-1.7739719152450562,0.5783157348632812,-0.08788586407899857
6.5305657386779785,1.4208252429962158,-1.2708697319030762,1.0107625722885132,-1.769963264465332,0.5855697393417358,-0.08925555646419525
6.55066442489624,1.4153000116348267,-1.26314115524292,1.0204004049301147,-1.773377537727356,0.568289041519165,-0.08157080411911011
6.57075309753418,1.4135181903839111,-1.272840976715088,1.0095616579055786,-1.7701796293258667,0.5751956105232239,-0.08261626213788986
6.590773582458496,1.4144041538238525,-1.2647919654846191,1.0176167488098145,-1.7779769897460938,0.5627932548522949,-0.07707542181015015
6.610858917236328,1.4157308340072632,-1.26799738407135,1.0171072483062744,-1.776004672050476,0.5657215118408203,-0.07765332609415054
6.630962133407593,1.4047791957855225,-1.265496850013733,1.0151028633117676,-1.7752933502197266,0.5503794550895691,-0.07117203623056412
6.651012659072876,1.4074969291687012,-1.2586723566055298,1.0102481842041016,-1.7789393663406372,0.546785831451416,-0.06865310668945312
6.671100378036499,1.4079562425613403,-1.270426630973816,1.0047390460968018,-1.7760980129241943,0.5565325021743774,-0.07151582837104797
6.691195964813232,1.4094476699829102,-1.2688984870910645,1.0133165121078491,-1.7761588096618652,0.5540069341659546,-0.07060401141643524
6.711246728897095,1.3985114097595215,-1.2658071517944336,1.008238434791565,-1.765928864479065,0.5420247316360474,-0.061292409896850586
6.731497764587402,1.4101741313934326,-1.2715625762939453,1.005345344543457,-1.7754002809524536,0.5528678894042969,-0.06571463495492935
6.751589059829712,1.3986923694610596,-1.2634474039077759,1.0121166706085205,-1.7770521640777588,0.5312853455543518,-0.05805552005767822
6.7717437744140625,1.3936338424682617,-1.2687407732009888,1.0042022466659546,-1.7768054008483887,0.5297096967697144,-0.05651302635669708
6.79173731803894,1.400944471359253,-1.2725824117660522,0.9942032098770142,-1.7751553058624268,0.5410399436950684,-0.05849736928939819
6.811821460723877,1.3920001983642578,-1.261617660522461,1.000619888305664,-1.7744600772857666,0.5225728750228882,-0.051994845271110535
6.8318939208984375,1.3741750717163086,-1.2589768171310425,1.0028204917907715,-1.770138144493103,0.4984157681465149,-0.03998945653438568
6.85196328163147,1.3873422145843506,-1.2581883668899536,1.0088026523590088,-1.7820875644683838,0.5006657838821411,-0.03854285180568695
6.872114896774292,1.3915067911148071,-1.261773943901062,1.0070053339004517,-1.7792519330978394,0.5092071294784546,-0.04175242781639099
6.89220118522644,1.3936411142349243,-1.2701358795166016,1.0003883838653564,-1.7768193483352661,0.5186246633529663,-0.044161275029182434
6.9122679233551025,1.3725054264068604,-1.264122486114502,0.9918592572212219,-1.7741643190383911,0.49123021960258484,-0.03322313725948334
6.9323179721832275,1.3818418979644775,-1.2742358446121216,0.9856406450271606,-1.767001748085022,0.5126874446868896,-0.03680281341075897
6.952417612075806,1.3790563344955444,-1.2702410221099854,0.9861951470375061,-1.7684844732284546,0.5041102170944214,-0.032789669930934906
6.9724743366241455,1.3742706775665283,-1.2725019454956055,0.9894272089004517,-1.7727892398834229,0.49525049328804016,-0.030325502157211304
6.992535829544067,1.3816088438034058,-1.2766705751419067,0.9863981008529663,-1.7751610279083252,0.5029827356338501,-0.031266845762729645
7.012639760971069,1.3732519149780273,-1.2711763381958008,0.9888905882835388,-1.7735964059829712,0.488587886095047,-0.024351976811885834
7.032763481140137,1.369117259979248,-1.2759884595870972,0.9813162088394165,-1.7713465690612793,0.4886781871318817,-0.023232802748680115
7.052817344665527,1.3592138290405273,-1.270041823387146,0.9821199774742126,-1.7659785747528076,0.47391003370285034,-0.014228582382202148
7.072872638702393,1.359978437423706,-1.2711763381958008,0.9778488874435425,-1.7721376419067383,0.4703802466392517,-0.012737855315208435
7.093562364578247,1.3641445636749268,-1.2788488864898682,0.976234495639801,-1.773233413696289,0.47854480147361755,-0.0152302086353302
7.113668203353882,1.3609592914581299,-1.2687788009643555,0.9856299161911011,-1.7764452695846558,0.464321494102478,-0.011223211884498596
7.133807897567749,1.3607711791992188,-1.268256664276123,0.9874457716941833,-1.776505708694458,0.46077078580856323,-0.008000180125236511
7.153825283050537,1.3604772090911865,-1.2714115381240845,0.9716622233390808,-1.7742118835449219,0.4655088186264038,-0.009039804339408875
7.173912048339844,1.358933448791504,-1.2767078876495361,0.9685248136520386,-1.7705744504928589,0.469462126493454,-0.009548172354698181
7.194077014923096,1.342816948890686,-1.2695586681365967,0.9756397604942322,-1.7713741064071655,0.4429294466972351,0.001002587378025055
7.214157342910767,1.3529367446899414,-1.280348300933838,0.965543270111084,-1.7691439390182495,0.4624549448490143,-0.0015150681138038635
7.234172821044922,1.3481194972991943,-1.2832297086715698,0.9609653949737549,-1.76723313331604,0.4589468836784363,-0.0003831535577774048
7.254278182983398,1.3475463390350342,-1.2790486812591553,0.9744199514389038,-1.77114737033844,0.44936585426330566,0.003433898091316223
7.274338006973267,1.3417134284973145,-1.2735624313354492,0.9719620943069458,-1.7704167366027832,0.4366283118724823,0.009234130382537842
7.294541597366333,1.336840271949768,-1.2776111364364624,0.9670754671096802,-1.7665818929672241,0.4337156116962433,0.014842092990875244
7.314568281173706,1.348557472229004,-1.2775846719741821,0.9709219336509705,-1.7731618881225586,0.43822699785232544,0.014282628893852234
7.334693908691406,1.3472120761871338,-1.2725492715835571,0.9793587327003479,-1.7775263786315918,0.42910632491111755,0.01770736277103424
7.3547563552856445,1.3415988683700562,-1.2789640426635742,0.9585028886795044,-1.7704439163208008,0.4321820139884949,0.017973080277442932
7.374879837036133,1.3354400396347046,-1.279402494430542,0.9615384936332703,-1.7717506885528564,0.4219810366630554,0.021698378026485443
7.394908428192139,1.3388292789459229,-1.279328465461731,0.9626725316047668,-1.7743942737579346,0.4241461157798767,0.02075866609811783
7.41501784324646,1.341531753540039,-1.2832789421081543,0.9608750343322754,-1.7753287553787231,0.4285484254360199,0.019465304911136627
7.4350996017456055,1.3296186923980713,-1.2761855125427246,0.9633089303970337,-1.7704761028289795,0.4103161096572876,0.028452090919017792
7.455174207687378,1.3183081150054932,-1.277189016342163,0.958839476108551,-1.7670249938964844,0.3988717496395111,0.03570344299077988
7.475260496139526,1.3246829509735107,-1.2751445770263672,0.9600119590759277,-1.7710189819335938,0.399743914604187,0.03691345453262329
7.495317697525024,1.3254375457763672,-1.271843433380127,0.9587597250938416,-1.7741296291351318,0.3968365788459778,0.036534011363983154
7.515414476394653,1.3214234113693237,-1.2734168767929077,0.963992714881897,-1.7757782936096191,0.3882240056991577,0.0409029945731163
7.535475969314575,1.3240468502044678,-1.2855933904647827,0.9486889839172363,-1.7698681354522705,0.4045403301715851,0.03844861686229706
7.5555419921875,1.309429407119751,-1.2660905122756958,0.9675507545471191,-1.7768737077713013,0.3680974841117859,0.04828541725873947
7.575706958770752,1.3142049312591553,-1.2674888372421265,0.9658243060112,-1.7765461206436157,0.37185999751091003,0.049984417855739594
7.5957348346710205,1.3103680610656738,-1.2756669521331787,0.9440236687660217,-1.7628854513168335,0.37968966364860535,0.05316402018070221
7.6158058643341064,1.3066315650939941,-1.2748899459838867,0.9491543769836426,-1.7708576917648315,0.36737552285194397,0.05686649680137634
7.635949611663818,1.3031128644943237,-1.2852239608764648,0.940622091293335,-1.7668075561523438,0.37222227454185486,0.056257300078868866
7.6561338901519775,1.2981265783309937,-1.286672592163086,0.9400588274002075,-1.769365668296814,0.36723318696022034,0.05753977596759796
7.67616868019104,1.3011221885681152,-1.2789185047149658,0.9492706060409546,-1.7724502086639404,0.3602302074432373,0.06120380759239197
7.696321964263916,1.2939667701721191,-1.2720048427581787,0.9524266719818115,-1.7734240293502808,0.3445720970630646,0.06663141399621964
7.7164146900177,1.2975647449493408,-1.2640089988708496,0.9600732922554016,-1.773698329925537,0.33887025713920593,0.0726565271615982
7.736475229263306,1.2983933687210083,-1.2632068395614624,0.9532828330993652,-1.7747615575790405,0.3349595069885254,0.07552620023488998
7.7565343379974365,1.307055115699768,-1.2829124927520752,0.9382882118225098,-1.7729612588882446,0.35968008637428284,0.06763297319412231
7.776712417602539,1.3007105588912964,-1.2753535509109497,0.938539445400238,-1.7708569765090942,0.3486800789833069,0.0721277967095375
7.796721935272217,1.2875546216964722,-1.2763450145721436,0.9415246248245239,-1.76803457736969,0.33398568630218506,0.07928625494241714
7.816779851913452,1.2879976034164429,-1.2903048992156982,0.9276360273361206,-1.7591081857681274,0.3485035002231598,0.07998664677143097
7.8368847370147705,1.2932993173599243,-1.286145806312561,0.9319471120834351,-1.7694121599197388,0.34134235978126526,0.08361484855413437
7.857065439224243,1.2887282371520996,-1.2777377367019653,0.9379304051399231,-1.7691389322280884,0.3285179138183594,0.08813785761594772
7.877182960510254,1.2773488759994507,-1.2839665412902832,0.9240708947181702,-1.7639129161834717,0.32174593210220337,0.09188774228096008
7.897216796875,1.269498348236084,-1.2875975370407104,0.923076331615448,-1.7584894895553589,0.3155374228954315,0.0983726978302002
7.917510509490967,1.273666262626648,-1.2825276851654053,0.9277365803718567,-1.7632008790969849,0.3109127879142761,0.10128716379404068
7.937632322311401,1.2737977504730225,-1.2864917516708374,0.9241586923599243,-1.7644951343536377,0.3129728138446808,0.10134956985712051
7.957691192626953,1.2774019241333008,-1.2878050804138184,0.9198508858680725,-1.7666101455688477,0.3149213492870331,0.10267896205186844
7.977787017822266,1.2803189754486084,-1.2895336151123047,0.9157256484031677,-1.765578031539917,0.3184903860092163,0.10114491730928421
7.997974395751953,1.2661230564117432,-1.288671851158142,0.9201323390007019,-1.7659435272216797,0.30135756731033325,0.10564112663269043
8.018111228942871,1.2738566398620605,-1.2901862859725952,0.920463502407074,-1.7662957906723022,0.31065893173217773,0.10294588655233383
8.038248538970947,1.2672749757766724,-1.2891597747802734,0.9089139103889465,-1.7586071491241455,0.30731359124183655,0.10787531733512878
8.058300733566284,1.261296033859253,-1.2887107133865356,0.9119278192520142,-1.7589551210403442,0.2960980534553528,0.1151057705283165
8.078322172164917,1.2576351165771484,-1.2863082885742188,0.920321524143219,-1.7632066011428833,0.28455838561058044,0.11963371932506561
8.098447322845459,1.2509061098098755,-1.2909233570098877,0.9088953137397766,-1.761443853378296,0.2812903821468353,0.1214466243982315
8.118493795394897,1.2408955097198486,-1.2813228368759155,0.9078742861747742,-1.7611438035964966,0.2612638473510742,0.12912386655807495
8.138676881790161,1.236445665359497,-1.2820028066635132,0.9144641160964966,-1.7617993354797363,0.2540302872657776,0.13290716707706451
8.158814668655396,1.249883770942688,-1.2818260192871094,0.9134974479675293,-1.7592397928237915,0.2690652310848236,0.13035503029823303
8.178824663162231,1.2475316524505615,-1.2786459922790527,0.914053738117218,-1.7656992673873901,0.2577199339866638,0.13442842662334442
8.198868751525879,1.2503174543380737,-1.2841814756393433,0.9096039533615112,-1.7652329206466675,0.2629879415035248,0.13416340947151184
8.218922138214111,1.2435555458068848,-1.2878835201263428,0.9015474915504456,-1.7626798152923584,0.2595686614513397,0.13629555702209473
8.239048719406128,1.2473468780517578,-1.2872508764266968,0.9045776724815369,-1.7661080360412598,0.2610621452331543,0.1358414590358734
8.259095668792725,1.2312287092208862,-1.278903603553772,0.9157593250274658,-1.7635456323623657,0.23476091027259827,0.14629212021827698
8.279170036315918,1.2233796119689941,-1.274479627609253,0.9072874188423157,-1.761282205581665,0.22325897216796875,0.15160983800888062
8.2993323802948,1.2362112998962402,-1.29019033908844,0.8987399339675903,-1.7564005851745605,0.2508912980556488,0.1463526338338852
8.319335222244263,1.2273414134979248,-1.2865427732467651,0.8994355201721191,-1.7603366374969482,0.23290231823921204,0.15288537740707397
8.339519023895264,1.2168266773223877,-1.279760718345642,0.903067409992218,-1.7598649263381958,0.21377605199813843,0.16151784360408783
8.359541654586792,1.22218918800354,-1.274736762046814,0.9059520363807678,-1.7604092359542847,0.2135131061077118,0.1626972258090973
8.379599809646606,1.2228825092315674,-1.2949063777923584,0.8841893076896667,-1.7500734329223633,0.23520243167877197,0.16001150012016296
8.399670600891113,1.2163500785827637,-1.2878971099853516,0.8940534591674805,-1.7568755149841309,0.2159246802330017,0.1656723916530609
8.4197416305542,1.222381830215454,-1.277680516242981,0.9036201238632202,-1.7635924816131592,0.20934531092643738,0.16792529821395874
8.439823150634766,1.1948034763336182,-1.2719670534133911,0.8992472290992737,-1.7503892183303833,0.1782756745815277,0.18474960327148438
8.46003532409668,1.2098798751831055,-1.2909226417541504,0.8855686783790588,-1.7469173669815063,0.20886832475662231,0.1789075881242752
8.48015284538269,1.2141022682189941,-1.2874242067337036,0.8853861093521118,-1.7596160173416138,0.2009848654270172,0.1797560155391693
8.500200986862183,1.2129498720169067,-1.2898308038711548,0.8897967338562012,-1.7565912008285522,0.2016778588294983,0.18076667189598083
8.520283222198486,1.190572738647461,-1.2692294120788574,0.9034210443496704,-1.7585731744766235,0.15937849879264832,0.19307804107666016
8.540338277816772,1.1779813766479492,-1.2755227088928223,0.8880335092544556,-1.748779535293579,0.15405753254890442,0.20143380761146545
8.56038761138916,1.182074785232544,-1.2609903812408447,0.904299259185791,-1.7599031925201416,0.13497164845466614,0.20801982283592224
8.580451011657715,1.1745152473449707,-1.2681593894958496,0.8958411812782288,-1.7567399740219116,0.13197779655456543,0.21052269637584686
8.600531339645386,1.195074439048767,-1.2881979942321777,0.8830193281173706,-1.7521880865097046,0.1726609170436859,0.20092570781707764
8.62075138092041,1.1889748573303223,-1.2844575643539429,0.8822237849235535,-1.7476075887680054,0.16272662580013275,0.2079976499080658
8.64070177078247,1.1908167600631714,-1.2887403964996338,0.8777526617050171,-1.7567417621612549,0.16056618094444275,0.20775967836380005
8.660972833633423,1.1647238731384277,-1.2638546228408813,0.8792581558227539,-1.7529855966567993,0.11657045781612396,0.2193753719329834
8.681092262268066,1.1659390926361084,-1.264380931854248,0.8890557289123535,-1.7574076652526855,0.11260474473237991,0.22166016697883606
8.70121455192566,1.1689213514328003,-1.2694265842437744,0.8805329203605652,-1.7560704946517944,0.1201852485537529,0.22106118500232697
8.721224308013916,1.1509685516357422,-1.2589632272720337,0.8918437957763672,-1.7563766241073608,0.08727557212114334,0.2331395149230957
8.741315603256226,1.1702266931533813,-1.284152626991272,0.8762834072113037,-1.7500641345977783,0.12940706312656403,0.22612398862838745
8.761379718780518,1.161594033241272,-1.2871081829071045,0.866938591003418,-1.7466984987258911,0.12096105515956879,0.23246324062347412
8.781484127044678,1.168653964996338,-1.2809094190597534,0.8780407905578613,-1.7579244375228882,0.11402727663516998,0.23350068926811218
8.801647901535034,1.1529173851013184,-1.263293743133545,0.8880012631416321,-1.7593621015548706,0.08238621801137924,0.24085021018981934
8.8217294216156,1.134958267211914,-1.2707757949829102,0.8794293403625488,-1.7451506853103638,0.0737401619553566,0.2511788308620453
8.84180760383606,1.1418569087982178,-1.2701753377914429,0.8764139413833618,-1.754606008529663,0.0739227756857872,0.2495957612991333
8.861862659454346,1.131487250328064,-1.2604985237121582,0.8828797340393066,-1.7547433376312256,0.05357656627893448,0.2560981214046478
8.881978511810303,1.1474950313568115,-1.284740686416626,0.8579667806625366,-1.7505648136138916,0.09202475845813751,0.2487516850233078
8.9020254611969,1.1286382675170898,-1.2724905014038086,0.8684502840042114,-1.7491786479949951,0.0621597021818161,0.25741511583328247
8.922089338302612,1.1254944801330566,-1.286054253578186,0.8593814373016357,-1.7451896667480469,0.06880833953619003,0.2587912082672119
8.942134380340576,1.134143590927124,-1.2857749462127686,0.8544504046440125,-1.7480928897857666,0.07373551279306412,0.26132580637931824
8.962416410446167,1.1239173412322998,-1.258800983428955,0.8820892572402954,-1.7585320472717285,0.034286610782146454,0.26799336075782776
8.982279777526855,1.1188513040542603,-1.2518901824951172,0.8775876760482788,-1.756113052368164,0.023021556437015533,0.27268779277801514
9.00233006477356,1.1042064428329468,-1.2423102855682373,0.887786328792572,-1.7538928985595703,-0.003287002444267273,0.281954288482666
9.022708892822266,1.1105749607086182,-1.2543646097183228,0.8788020610809326,-1.747950553894043,0.012540511786937714,0.2863849103450775
9.042791366577148,1.1204876899719238,-1.2735018730163574,0.8753201365470886,-1.753382921218872,0.031211771070957184,0.28216424584388733
9.062866926193237,1.103320598602295,-1.2845643758773804,0.8450034856796265,-1.7401106357574463,0.03178880363702774,0.2842322885990143
9.08296537399292,1.1038799285888672,-1.2704728841781616,0.8593162894248962,-1.7428919076919556,0.015640653669834137,0.29381945729255676
9.10300350189209,1.091200590133667,-1.2650476694107056,0.8617024421691895,-1.7449904680252075,-0.0065675899386405945,0.2993389964103699
9.123149871826172,1.0874851942062378,-1.2794650793075562,0.8470936417579651,-1.739908218383789,0.002155579626560211,0.30202171206474304
9.143327236175537,1.090961217880249,-1.2810206413269043,0.842115044593811,-1.7371995449066162,0.009232990443706512,0.3012100160121918
9.16330075263977,1.0740511417388916,-1.2696219682693481,0.855560839176178,-1.734598159790039,-0.026577159762382507,0.31797197461128235
9.183398485183716,1.092818021774292,-1.2649725675582886,0.8589481115341187,-1.7463226318359375,-0.014952734112739563,0.31203651428222656
9.203457832336426,1.078201413154602,-1.269866943359375,0.8507598638534546,-1.7299364805221558,-0.020571649074554443,0.31991851329803467
9.22352910041809,1.0704540014266968,-1.2617714405059814,0.8566351532936096,-1.7419341802597046,-0.045787565410137177,0.32595211267471313
9.243585586547852,1.0570756196975708,-1.2633063793182373,0.8474627137184143,-1.7349672317504883,-0.05654112249612808,0.33174648880958557
9.263737916946411,1.0749151706695557,-1.2886779308319092,0.8289139866828918,-1.731346607208252,-0.013948515057563782,0.324107825756073
9.283846616744995,1.0590319633483887,-1.2772583961486816,0.8401574492454529,-1.7312908172607422,-0.04239293932914734,0.3326342701911926
9.303847312927246,1.067716360092163,-1.2877980470657349,0.8172304630279541,-1.7260050773620605,-0.02363106608390808,0.3339494466781616
9.323895454406738,1.0542030334472656,-1.2769684791564941,0.8419922590255737,-1.732268214225769,-0.05942726880311966,0.3459988236427307
9.34402346611023,1.0512794256210327,-1.2444466352462769,0.8639065027236938,-1.7381683588027954,-0.09095623344182968,0.350394606590271
9.364120483398438,1.043146014213562,-1.2366863489151,0.863419771194458,-1.7373082637786865,-0.10951939970254898,0.3595202565193176
9.384233713150024,1.0364750623703003,-1.2363793849945068,0.8661409020423889,-1.7423347234725952,-0.12188040465116501,0.3639160394668579
9.40435266494751,1.0188978910446167,-1.2615944147109985,0.8497792482376099,-1.7303706407546997,-0.1192338690161705,0.3710857033729553
9.424418210983276,1.007138729095459,-1.260809302330017,0.8397218585014343,-1.723690152168274,-0.1311522126197815,0.38137757778167725
9.444449186325073,1.0077335834503174,-1.2561559677124023,0.8447707891464233,-1.7278032302856445,-0.1407284140586853,0.38325074315071106
9.464637756347656,1.0181355476379395,-1.2512004375457764,0.8417437076568604,-1.7271108627319336,-0.1320599466562271,0.3824197053909302
9.484661340713501,1.0053470134735107,-1.2308101654052734,0.863599956035614,-1.7339168787002563,-0.171357661485672,0.3910711705684662
9.504718542098999,0.9890583753585815,-1.2344319820404053,0.8492907285690308,-1.729198694229126,-0.1847696453332901,0.3975479006767273
9.524792194366455,1.015055537223816,-1.265812635421753,0.832465410232544,-1.7250895500183105,-0.12796780467033386,0.3885928988456726
9.544934749603271,1.0034186840057373,-1.2617923021316528,0.8377091288566589,-1.723946213722229,-0.14870473742485046,0.3994208872318268
9.564993143081665,0.9926387071609497,-1.2503641843795776,0.8466223478317261,-1.7306478023529053,-0.17627660930156708,0.406502902507782
9.585042476654053,0.9844143390655518,-1.2692641019821167,0.8259152770042419,-1.7179738283157349,-0.16470789909362793,0.4124886393547058
9.605228424072266,0.9521167874336243,-1.2255340814590454,0.8451858758926392,-1.7185471057891846,-0.23942553997039795,0.42766088247299194
9.625348806381226,0.9482121467590332,-1.236006736755371,0.8359488844871521,-1.7202647924423218,-0.23925381898880005,0.43189385533332825
9.645320653915405,0.941827118396759,-1.2150713205337524,0.8593558073043823,-1.725486159324646,-0.2679824233055115,0.4376525282859802
9.665390968322754,0.954944908618927,-1.2235591411590576,0.8566815853118896,-1.7305516004562378,-0.253543883562088,0.4374941289424896
9.685705423355103,0.9588813781738281,-1.263895034790039,0.8236484527587891,-1.7209278345108032,-0.21125051379203796,0.4334816336631775
9.705666303634644,0.9453229308128357,-1.2440376281738281,0.844940721988678,-1.7153080701828003,-0.2447633296251297,0.4438510537147522
9.725729942321777,0.9386166930198669,-1.2411892414093018,0.8378811478614807,-1.7222617864608765,-0.2610117495059967,0.44972240924835205
9.745945930480957,0.9512391090393066,-1.2367995977401733,0.8507119417190552,-1.7282742261886597,-0.25189605355262756,0.44329833984375
9.765944480895996,0.9170122146606445,-1.238580346107483,0.8341187238693237,-1.712280035018921,-0.2791411876678467,0.4583398699760437
9.78604507446289,0.9169131517410278,-1.2167534828186035,0.8509633541107178,-1.7211220264434814,-0.30740728974342346,0.46720603108406067
9.8060884475708,0.9130171537399292,-1.2273544073104858,0.8459787368774414,-1.7151103019714355,-0.30277717113494873,0.4702218174934387
9.826217412948608,0.9016304016113281,-1.2218942642211914,0.8417288064956665,-1.713402509689331,-0.320446640253067,0.47694531083106995
9.846333265304565,0.9018349647521973,-1.229572057723999,0.8308280110359192,-1.7133874893188477,-0.31435859203338623,0.4763268828392029
9.866416931152344,0.8754597902297974,-1.2096277475357056,0.8513621091842651,-1.7096586227416992,-0.36158108711242676,0.49003535509109497
9.886689901351929,0.8791308403015137,-1.2047430276870728,0.8630417585372925,-1.7165822982788086,-0.3690631091594696,0.4935663342475891
9.90677261352539,0.8885810375213623,-1.2271788120269775,0.8292046785354614,-1.7096285820007324,-0.3341970443725586,0.48993024230003357
9.926900386810303,0.8640204668045044,-1.2164835929870605,0.8369662761688232,-1.7067900896072388,-0.37145984172821045,0.5035806894302368
9.947032690048218,0.8590570092201233,-1.2205702066421509,0.8415317535400391,-1.7057054042816162,-0.37789079546928406,0.5087447762489319
9.967031002044678,0.8571476340293884,-1.2170554399490356,0.8338648080825806,-1.6956735849380493,-0.3752709925174713,0.5105922818183899
9.987154483795166,0.8544561266899109,-1.2065222263336182,0.8484002351760864,-1.6985431909561157,-0.3953244388103485,0.5218749642372131
10.007263898849487,0.8582752346992493,-1.215826153755188,0.8294825553894043,-1.7057232856750488,-0.38665446639060974,0.5183670520782471
10.027278900146484,0.798298716545105,-1.1702743768692017,0.8591179847717285,-1.7060401439666748,-0.4902276396751404,0.5410268306732178
10.047428846359253,0.7791647911071777,-1.1726419925689697,0.8597701191902161,-1.6928915977478027,-0.5049492120742798,0.5559902191162109
10.067465782165527,0.783091127872467,-1.1720181703567505,0.8586491346359253,-1.6994032859802246,-0.5087890625,0.5594488382339478
10.087546348571777,0.7771095037460327,-1.16525399684906,0.8693059086799622,-1.7089143991470337,-0.5288195610046387,0.5631685853004456
10.107578754425049,0.8017907738685608,-1.202752709388733,0.8405444025993347,-1.6993764638900757,-0.4653340280056,0.5546597838401794
10.127667665481567,0.7911184430122375,-1.1980711221694946,0.8319482803344727,-1.700798749923706,-0.481209397315979,0.5615577101707458
10.147775650024414,0.7762638330459595,-1.2073884010314941,0.81699138879776,-1.6879727840423584,-0.4822129011154175,0.5662910342216492
10.167807579040527,0.7801185250282288,-1.201042652130127,0.8409218788146973,-1.6938421726226807,-0.49625149369239807,0.572282075881958
10.187952280044556,0.7304692268371582,-1.1684061288833618,0.8561233878135681,-1.6858924627304077,-0.5707985758781433,0.5893558859825134
10.208066701889038,0.7101060748100281,-1.167904019355774,0.8482216000556946,-1.6760294437408447,-0.5879076719284058,0.6023721694946289
10.228094339370728,0.711539089679718,-1.1643019914627075,0.8795948624610901,-1.6868401765823364,-0.6050092577934265,0.6066368818283081
10.248172283172607,0.7133868932723999,-1.1805856227874756,0.8565199971199036,-1.6799001693725586,-0.5834575891494751,0.611259400844574
10.26827073097229,0.7360208630561829,-1.180762529373169,0.8459721207618713,-1.690207600593567,-0.5644349455833435,0.6024531722068787
10.288370847702026,0.7238675355911255,-1.182908535003662,0.8570035099983215,-1.6862772703170776,-0.5787564516067505,0.6089990735054016
10.308425664901733,0.721117377281189,-1.191673994064331,0.8332276344299316,-1.6803678274154663,-0.5691804885864258,0.611494779586792
10.328473567962646,0.7082014679908752,-1.1900813579559326,0.8168871402740479,-1.6788736581802368,-0.5821641683578491,0.6198509335517883
10.348573207855225,0.699009120464325,-1.1763923168182373,0.8577872514724731,-1.688247799873352,-0.6156072020530701,0.6225907206535339
10.368695974349976,0.6748110055923462,-1.1812753677368164,0.8309735655784607,-1.6668691635131836,-0.6187675595283508,0.629511296749115
10.388780355453491,0.6755710244178772,-1.1791417598724365,0.8307926058769226,-1.6759686470031738,-0.6263115406036377,0.6311363577842712
10.408878564834595,0.6483705043792725,-1.1754933595657349,0.8194975852966309,-1.6636015176773071,-0.6486127376556396,0.641316294670105
10.42891263961792,0.6516268849372864,-1.168558955192566,0.8286756277084351,-1.662608027458191,-0.6532514095306396,0.6417426466941833
10.449065685272217,0.6536176204681396,-1.1647462844848633,0.8235565423965454,-1.6689966917037964,-0.6548742055892944,0.6333818435668945
10.469269037246704,0.6310940384864807,-1.1696805953979492,0.8307518362998962,-1.655133605003357,-0.6703201532363892,0.6504018306732178
10.489258050918579,0.6447308659553528,-1.1796948909759521,0.8279126286506653,-1.6706185340881348,-0.6619323492050171,0.6495025157928467
10.509339809417725,0.6330540776252747,-1.17218816280365,0.8548511266708374,-1.6732442378997803,-0.6885958313941956,0.6563751697540283
10.529439210891724,0.6124342083930969,-1.1567575931549072,0.8397744297981262,-1.660991907119751,-0.7071893215179443,0.6604216694831848
10.549569129943848,0.6146727204322815,-1.1682684421539307,0.8339601755142212,-1.6534334421157837,-0.6920791268348694,0.6583606004714966
10.5698881149292,0.6050854325294495,-1.1600899696350098,0.8387734293937683,-1.6658581495285034,-0.7127729654312134,0.6600813269615173
10.589975595474243,0.5749891996383667,-1.1367535591125488,0.8694124817848206,-1.6597716808319092,-0.762213945388794,0.6719751358032227
10.610023975372314,0.5735429525375366,-1.1423312425613403,0.8647780418395996,-1.658583641052246,-0.7579891681671143,0.6766079664230347
10.630117416381836,0.5586191415786743,-1.1504675149917603,0.852867841720581,-1.6477364301681519,-0.7600902318954468,0.6863835453987122
10.65020751953125,0.5649795532226562,-1.1445953845977783,0.8390924334526062,-1.6412386894226074,-0.7536133527755737,0.6847584843635559
10.670273780822754,0.5623613595962524,-1.1377527713775635,0.8448506593704224,-1.6425501108169556,-0.7674611806869507,0.6867318153381348
10.690448760986328,0.5638335347175598,-1.1496572494506836,0.8498936891555786,-1.6466277837753296,-0.7654979228973389,0.6896655559539795
10.710506200790405,0.5606409907341003,-1.1607314348220825,0.8423121571540833,-1.6477582454681396,-0.7606993317604065,0.687785804271698
10.730537414550781,0.5374599695205688,-1.1646935939788818,0.8106915950775146,-1.6329177618026733,-0.7614553570747375,0.6919967532157898
10.750654935836792,0.5272949934005737,-1.1511850357055664,0.8234370946884155,-1.6331409215927124,-0.7816413044929504,0.7005460858345032
10.770680904388428,0.5205539464950562,-1.1424716711044312,0.8424259424209595,-1.6295669078826904,-0.7990343570709229,0.7023630142211914
10.79085659980774,0.5224990844726562,-1.1503461599349976,0.8344485759735107,-1.6324219703674316,-0.7918955683708191,0.7026849985122681
10.810960292816162,0.4970768094062805,-1.139407992362976,0.8421830534934998,-1.6251163482666016,-0.8217494487762451,0.716891348361969
10.831058740615845,0.4992956519126892,-1.1507576704025269,0.8519328832626343,-1.6276684999465942,-0.8197002410888672,0.7153536677360535
10.851141929626465,0.5107050538063049,-1.149268388748169,0.8337317705154419,-1.6369675397872925,-0.8104100227355957,0.7081397771835327
10.871270179748535,0.5040296912193298,-1.1521639823913574,0.8270806074142456,-1.6248250007629395,-0.8055779933929443,0.7037657499313354
10.891378164291382,0.5053115487098694,-1.1596760749816895,0.8084587454795837,-1.623505711555481,-0.7913690805435181,0.703921914100647
10.911433935165405,0.4889484643936157,-1.1433842182159424,0.8205932378768921,-1.616678237915039,-0.8151127099990845,0.7075614333152771
10.931506633758545,0.49302977323532104,-1.1533544063568115,0.823333203792572,-1.6230432987213135,-0.8109736442565918,0.708271861076355
10.951635599136353,0.48002538084983826,-1.1496363878250122,0.8203915357589722,-1.6120412349700928,-0.8178775906562805,0.7084337472915649
10.97166895866394,0.46994197368621826,-1.1460962295532227,0.8288002610206604,-1.6149319410324097,-0.8321812748908997,0.718460202217102
10.991709232330322,0.465901255607605,-1.1682931184768677,0.8233004808425903,-1.605919361114502,-0.8169190883636475,0.7194316983222961
11.011795043945312,0.4653952121734619,-1.1542115211486816,0.8338675498962402,-1.6095407009124756,-0.833814263343811,0.7242330312728882
11.03186821937561,0.4625966548919678,-1.1461429595947266,0.8406627774238586,-1.6128995418548584,-0.84725022315979,0.7279696464538574
11.051935195922852,0.4650784730911255,-1.14604914188385,0.8505708575248718,-1.6145306825637817,-0.8488235473632812,0.7266101837158203
11.072041034698486,0.4645289182662964,-1.1554588079452515,0.8321764469146729,-1.6064260005950928,-0.8342684507369995,0.7212077975273132
11.0921049118042,0.4582740068435669,-1.1581772565841675,0.8336520195007324,-1.604691982269287,-0.8384567499160767,0.7300558686256409
11.112159729003906,0.4578661322593689,-1.1612217426300049,0.8211425542831421,-1.6032603979110718,-0.8330674171447754,0.7273057103157043
11.13223147392273,0.4379500150680542,-1.1670644283294678,0.8121605515480042,-1.5897810459136963,-0.8376024961471558,0.7390990257263184
11.152380228042603,0.4449378252029419,-1.1354584693908691,0.8327738642692566,-1.6017136573791504,-0.8610738515853882,0.7306802868843079
11.172396421432495,0.4392004609107971,-1.1467502117156982,0.8333022594451904,-1.5941680669784546,-0.856426477432251,0.7344872355461121
11.192489624023438,0.43042463064193726,-1.1825894117355347,0.7777045369148254,-1.578267216682434,-0.8186931610107422,0.7318888902664185
11.212520599365234,0.42539164423942566,-1.1645309925079346,0.7900881171226501,-1.5823856592178345,-0.8373447060585022,0.7353498339653015
11.232611179351807,0.42330366373062134,-1.1714539527893066,0.7966151237487793,-1.5801211595535278,-0.8364442586898804,0.7386083006858826
11.252680540084839,0.41672515869140625,-1.1510274410247803,0.8014011383056641,-1.5769834518432617,-0.8533263802528381,0.7333995699882507
11.272752523422241,0.4128687381744385,-1.1408969163894653,0.8122503161430359,-1.5739173889160156,-0.8647071123123169,0.740135133266449
11.293170928955078,0.40976327657699585,-1.135892391204834,0.8209179639816284,-1.569261074066162,-0.871288537979126,0.7401082515716553
11.313296556472778,0.4109783172607422,-1.1416256427764893,0.8208786249160767,-1.5736370086669922,-0.8707067370414734,0.7407131791114807
11.3334379196167,0.40464940667152405,-1.1502496004104614,0.8156149387359619,-1.5651193857192993,-0.8657035827636719,0.7442346215248108
11.353450298309326,0.40148353576660156,-1.1438050270080566,0.8197295665740967,-1.5685518980026245,-0.8736741542816162,0.7473365068435669
11.373553276062012,0.3995167016983032,-1.159841775894165,0.7927640676498413,-1.563023328781128,-0.8553920984268188,0.749171793460846
11.393651485443115,0.39361846446990967,-1.1579827070236206,0.8057552576065063,-1.5600947141647339,-0.8641127943992615,0.7521722316741943
11.413783073425293,0.39011988043785095,-1.1727573871612549,0.779029369354248,-1.5564258098602295,-0.8477659821510315,0.7479457855224609
11.43377161026001,0.38931703567504883,-1.1583186388015747,0.7873939275741577,-1.5592786073684692,-0.8588564395904541,0.7495368123054504
11.453834533691406,0.3901139795780182,-1.1800123453140259,0.7810884118080139,-1.5575120449066162,-0.8452776670455933,0.7492496967315674
11.473918199539185,0.38911932706832886,-1.1864577531814575,0.7550288438796997,-1.5532822608947754,-0.8301624655723572,0.7436987161636353
11.494037628173828,0.3695391118526459,-1.146252155303955,0.7780779600143433,-1.539090871810913,-0.8692211508750916,0.7499650120735168
11.5140540599823,0.37464332580566406,-1.1354353427886963,0.8014628291130066,-1.546173095703125,-0.8816275596618652,0.7475642561912537
11.53414535522461,0.3763386607170105,-1.139252781867981,0.8226615786552429,-1.5506937503814697,-0.8898220062255859,0.7550953030586243
11.554344177246094,0.37689805030822754,-1.1456986665725708,0.8174681067466736,-1.5485408306121826,-0.8835423588752747,0.7550289630889893
11.574309825897217,0.37802302837371826,-1.1544328927993774,0.8131016492843628,-1.550078272819519,-0.8789206743240356,0.7605687379837036
11.594383001327515,0.3679056167602539,-1.1502596139907837,0.8008042573928833,-1.5398249626159668,-0.8771908283233643,0.7555532455444336
11.614503145217896,0.37033969163894653,-1.1507000923156738,0.8003029823303223,-1.5402674674987793,-0.8750998973846436,0.7558372020721436
11.634565114974976,0.36541467905044556,-1.1452937126159668,0.8038603663444519,-1.5361429452896118,-0.8826532363891602,0.7617064118385315
11.654633283615112,0.3589521050453186,-1.1399602890014648,0.8013670444488525,-1.534118413925171,-0.8877542018890381,0.7622496485710144
11.6746826171875,0.3590514063835144,-1.1334731578826904,0.8045130968093872,-1.5297682285308838,-0.8891041874885559,0.7574889063835144
11.694787979125977,-2.0716545581817627,-0.808894693851471,2.1103005409240723,2.96,-1.74,3.14
11.715020179748535,-2.4273524284362793,-0.6469833850860596,2.0150084495544434,2.96,-1.74,3.14
11.73503589630127,-2.382504940032959,-0.6556655168533325,2.000420570373535,2.96,-1.74,3.14
11.755350351333618,-2.361762523651123,-0.6964078545570374,1.9502424001693726,2.96,-1.74,3.14
11.775439739227295,-2.359067440032959,-0.7110447883605957,1.9364027976989746,2.96,-1.74,3.14
11.795540571212769,-2.3351447582244873,-0.7461385130882263,1.9151175022125244,2.96,-1.74,3.14
11.815704345703125,-2.3196239471435547,-0.7464961409568787,1.936329960823059,2.96,-1.74,3.14
11.835843086242676,-2.323246479034424,-0.7867422103881836,1.8871922492980957,2.96,-1.74,3.14
11.855921745300293,-2.2960925102233887,-0.7879072427749634,1.8945976495742798,2.96,-1.74,3.14
11.876031398773193,-2.2829113006591797,-0.7620236873626709,1.9379518032073975,2.96,-1.74,3.14
11.896108627319336,-2.277918815612793,-0.7866373658180237,1.903590440750122,2.96,-1.74,3.14
11.916257381439209,-2.2857539653778076,-0.7980002760887146,1.8963773250579834,2.96,-1.74,3.14
11.936418294906616,-2.235307216644287,-0.7747662663459778,1.9292714595794678,2.96,-1.74,3.14
11.95643925666809,-2.2277660369873047,-0.8128010630607605,1.9097667932510376,2.96,-1.74,3.14
11.976482152938843,-2.2137985229492188,-0.8655919432640076,1.859753966331482,2.96,-1.74,3.14
11.996559619903564,-2.1987814903259277,-0.8509612083435059,1.8818035125732422,2.96,-1.74,3.14
12.016646385192871,-2.1885874271392822,-0.8824616074562073,1.8585205078125,2.96,-1.74,3.14
12.036752223968506,-2.156116008758545,-0.8722107410430908,1.892472743988037,2.96,-1.74,3.14
12.056797981262207,-2.161350727081299,-0.9024659395217896,1.8522977828979492,2.96,-1.74,3.14
12.076948881149292,-2.1497621536254883,-0.9118932485580444,1.8396027088165283,2.96,-1.74,3.14
12.097001791000366,-2.1235597133636475,-0.9291349053382874,1.8420791625976562,2.96,-1.74,3.14
12.11716079711914,-2.112950325012207,-0.9223438501358032,1.866623878479004,2.96,-1.74,3.14
12.137125253677368,-2.091374158859253,-0.9386610984802246,1.8599377870559692,2.96,-1.74,3.14
12.157200336456299,-2.087209701538086,-0.9791979789733887,1.8079798221588135,2.96,-1.74,3.14
12.177261352539062,-2.063375473022461,-1.0260281562805176,1.7683464288711548,2.96,-1.74,3.14
12.197300434112549,-2.058960437774658,-1.0323725938796997,1.775017261505127,2.96,-1.74,3.14
12.217840194702148,-2.024172782897949,-1.0077197551727295,1.8147343397140503,2.96,-1.74,3.14
12.237955808639526,-2.0207295417785645,-1.0268135070800781,1.7945611476898193,2.96,-1.74,3.14
12.258092880249023,-1.9743801355361938,-1.0252407789230347,1.821364402770996,2.92728853225708,-1.74,3.14
12.278138875961304,-1.9618760347366333,-1.0844703912734985,1.7606642246246338,2.9065847396850586,-1.7056599855422974,3.14
12.298229455947876,-1.9551236629486084,-1.0689669847488403,1.793595790863037,2.8984100818634033,-1.72390615940094,3.14
12.318406343460083,-1.9224164485931396,-1.0816290378570557,1.7980774641036987,2.871213912963867,-1.6993772983551025,3.14
12.338422298431396,-1.9189220666885376,-1.0974491834640503,1.7710587978363037,2.8407602310180664,-1.6718297004699707,3.14
12.358461380004883,-1.880334734916687,-1.1161136627197266,1.771770715713501,2.8092641830444336,-1.6433639526367188,3.14
12.378542184829712,-1.8785736560821533,-1.1443743705749512,1.7392122745513916,2.7952284812927246,-1.6068003177642822,3.14
12.398651123046875,-1.844012975692749,-1.1652600765228271,1.7361030578613281,2.7520432472229004,-1.5844299793243408,3.14
12.41880989074707,-1.8438756465911865,-1.1855216026306152,1.7083415985107422,2.7430052757263184,-1.5502105951309204,3.14
12.438828706741333,-1.8056385517120361,-1.1991329193115234,1.7048265933990479,2.7072765827178955,-1.522200584411621,3.14
12.458908557891846,-1.8022806644439697,-1.2324036359786987,1.6683545112609863,2.686814308166504,-1.4827253818511963,3.14
12.479103088378906,-1.7924180030822754,-1.2428878545761108,1.6850061416625977,2.661530017852783,-1.4872156381607056,3.14
12.499099969863892,-1.7609221935272217,-1.2295652627944946,1.704620122909546,2.644718647003174,-1.4715884923934937,3.14
12.519176721572876,-1.7620065212249756,-1.2352879047393799,1.6906507015228271,2.648160696029663,-1.4565504789352417,3.14
12.53941559791565,-1.752249002456665,-1.2461283206939697,1.6963491439819336,2.6275713443756104,-1.4550799131393433,3.14
12.559500932693481,-1.7001482248306274,-1.267918586730957,1.6819539070129395,2.576585054397583,-1.4035382270812988,3.14
12.57951831817627,-1.6918020248413086,-1.2796101570129395,1.6625003814697266,2.55888032913208,-1.3710824251174927,3.14
12.599727869033813,-1.6838085651397705,-1.2682162523269653,1.703967571258545,2.5504696369171143,-1.406205415725708,3.14
12.61983871459961,-1.6420565843582153,-1.2880370616912842,1.700721263885498,2.495398998260498,-1.3707561492919922,3.14
12.63986349105835,-1.6399941444396973,-1.322465181350708,1.6640921831130981,2.474760055541992,-1.326238751411438,3.14
12.659943580627441,-1.6269367933273315,-1.3308446407318115,1.6400196552276611,2.46213960647583,-1.2921247482299805,3.14
12.68001389503479,-1.603821873664856,-1.3238147497177124,1.6582238674163818,2.4405288696289062,-1.2855587005615234,3.14
12.700047254562378,-1.5840368270874023,-1.3726048469543457,1.6217925548553467,2.4060816764831543,-1.234704852104187,3.14
12.72013783454895,-1.5755541324615479,-1.3164349794387817,1.6946930885314941,2.416198253631592,-1.288595199584961,3.14
12.740202903747559,-1.577866792678833,-1.3474456071853638,1.651035189628601,2.4102301597595215,-1.2474453449249268,3.14
12.760297536849976,-1.5558507442474365,-1.378033995628357,1.626990556716919,2.366347074508667,-1.2121210098266602,3.14
12.780531406402588,-1.5328484773635864,-1.3923112154006958,1.605919599533081,2.3339381217956543,-1.1778764724731445,3.14
12.800752639770508,-1.5203651189804077,-1.36289644241333,1.6636172533035278,2.3391571044921875,-1.2113627195358276,3.14
12.820755243301392,-1.5074275732040405,-1.3780369758605957,1.6609808206558228,2.3220577239990234,-1.1997606754302979,3.14
12.840807437896729,-1.493760585784912,-1.3914663791656494,1.6527514457702637,2.292940139770508,-1.179312825202942,3.14
12.860884189605713,-1.4943369626998901,-1.4122260808944702,1.628271460533142,2.2916371822357178,-1.1515564918518066,3.14
12.880977392196655,-1.464613914489746,-1.4059897661209106,1.6254825592041016,2.260749340057373,-1.1261656284332275,3.14
12.901015758514404,-1.459625482559204,-1.415788173675537,1.6163768768310547,2.255054473876953,-1.1084109544754028,3.14
12.921233177185059,-1.4455314874649048,-1.4421107769012451,1.5969524383544922,2.212475538253784,-1.0819988250732422,3.14
12.941311359405518,-1.431686282157898,-1.3994231224060059,1.6424789428710938,2.2179245948791504,-1.1065090894699097,3.14
12.961472511291504,-1.422724723815918,-1.4333418607711792,1.595015048980713,2.186281681060791,-1.0590887069702148,3.14
12.981474161148071,-1.4241125583648682,-1.464906096458435,1.5619359016418457,2.176042079925537,-1.0281951427459717,3.14
13.001554250717163,-1.3998017311096191,-1.4226740598678589,1.6555240154266357,2.176575183868408,-1.091744303703308,3.14
13.02162766456604,-1.3754701614379883,-1.4193822145462036,1.6591739654541016,2.1493542194366455,-1.0762929916381836,3.14
13.041675806045532,-1.3649146556854248,-1.4120177030563354,1.6752594709396362,2.1497559547424316,-1.0754026174545288,3.14
13.061764240264893,-1.3807893991470337,-1.486861228942871,1.528951644897461,2.113064765930176,-0.9596912860870361,3.14
13.081831455230713,-1.35477614402771,-1.4928499460220337,1.5331683158874512,2.081564426422119,-0.941861093044281,3.14
13.101918458938599,-1.3523064851760864,-1.487740397453308,1.5456597805023193,2.0798239707946777,-0.9442593455314636,3.14
13.121944665908813,-1.327512502670288,-1.476833462715149,1.5559937953948975,2.058746337890625,-0.9319325685501099,3.14
13.14203405380249,-1.3056036233901978,-1.444505214691162,1.6481828689575195,2.0688164234161377,-0.9972970485687256,3.14
13.16212272644043,-1.30519437789917,-1.4630329608917236,1.6211469173431396,2.052705764770508,-0.9682772159576416,3.14
13.182143449783325,-1.3040374517440796,-1.4890702962875366,1.5851860046386719,2.030646800994873,-0.9335866570472717,3.14
13.202269792556763,-1.2848678827285767,-1.4770053625106812,1.6051888465881348,2.0146257877349854,-0.934984564781189,3.14
13.222361087799072,-1.2771133184432983,-1.4726942777633667,1.59682297706604,2.0015854835510254,-0.9209009408950806,3.14
13.242377758026123,-1.2552587985992432,-1.4998475313186646,1.5703858137130737,1.9635061025619507,-0.8802142143249512,3.14
13.262468099594116,-1.2619260549545288,-1.5050344467163086,1.575533151626587,1.9654455184936523,-0.8790609836578369,3.14
13.282559871673584,-1.2569520473480225,-1.4886908531188965,1.6055269241333008,1.9666428565979004,-0.9054087996482849,3.14
13.30262303352356,-1.2445945739746094,-1.4938873052597046,1.5980570316314697,1.956932544708252,-0.8833862543106079,3.14
13.322672128677368,-1.2413853406906128,-1.4780486822128296,1.613065481185913,1.9513717889785767,-0.8896081447601318,3.14
13.342730045318604,-1.2270327806472778,-1.4864778518676758,1.6180894374847412,1.9309591054916382,-0.8869609832763672,3.14
13.362869262695312,-1.2332634925842285,-1.4884923696517944,1.5982210636138916,1.9310427904129028,-0.869225800037384,3.14
13.383002519607544,-1.2233357429504395,-1.5127183198928833,1.5698901414871216,1.9149398803710938,-0.8377526998519897,3.14
13.403069019317627,-1.208326816558838,-1.5000274181365967,1.6034111976623535,1.8912910223007202,-0.8595021963119507,3.14
13.423205137252808,-1.2027246952056885,-1.5024378299713135,1.6074142456054688,1.8833363056182861,-0.8556808233261108,3.14
13.443392515182495,-1.1986167430877686,-1.5254709720611572,1.55784010887146,1.863303780555725,-0.7999788522720337,3.14
13.463618278503418,-1.1887083053588867,-1.5394554138183594,1.537676453590393,1.8424072265625,-0.7767207026481628,3.14
13.483548641204834,-1.180597186088562,-1.5370402336120605,1.5531973838806152,1.8415625095367432,-0.7820402383804321,3.14
13.503773212432861,-1.1653861999511719,-1.522932767868042,1.5951979160308838,1.827135443687439,-0.8116492033004761,3.14
13.523797273635864,-1.1655163764953613,-1.5080642700195312,1.5964818000793457,1.8237673044204712,-0.8041056990623474,3.14
13.543824195861816,-1.1583428382873535,-1.4989711046218872,1.6203460693359375,1.8250068426132202,-0.8149173259735107,3.14
13.563883304595947,-1.165865421295166,-1.5409460067749023,1.5436077117919922,1.8025442361831665,-0.7559196949005127,3.14
13.584012031555176,-1.154247760772705,-1.5413408279418945,1.5517950057983398,1.7848970890045166,-0.7532960176467896,3.14
13.604105710983276,-1.1327533721923828,-1.5414435863494873,1.5610249042510986,1.7521594762802124,-0.7483901977539062,3.14
13.624167919158936,-1.136023759841919,-1.5529414415359497,1.5370194911956787,1.7549679279327393,-0.72171950340271,3.14
13.644223690032959,-1.126914143562317,-1.540480613708496,1.5708889961242676,1.758284568786621,-0.7451620101928711,3.14
13.664353132247925,-1.1130731105804443,-1.5229756832122803,1.605170726776123,1.753682255744934,-0.7625267505645752,3.14
13.684366703033447,-1.123818039894104,-1.5402414798736572,1.5692886114120483,1.7508856058120728,-0.7355136871337891,3.14
13.704469919204712,-1.1082426309585571,-1.5362205505371094,1.565050721168518,1.7285656929016113,-0.7229920625686646,3.14
13.72455358505249,-1.1100150346755981,-1.522946834564209,1.5863081216812134,1.7325561046600342,-0.7388936281204224,3.14
13.744642972946167,-1.0947277545928955,-1.5458717346191406,1.56447172164917,1.7054193019866943,-0.7099959254264832,3.14
13.76470422744751,-1.1030246019363403,-1.5535980463027954,1.5638161897659302,1.7074087858200073,-0.7141399383544922,3.14
13.784794330596924,-1.0895195007324219,-1.5516682863235474,1.5366981029510498,1.6804769039154053,-0.677474856376648,3.14
13.804966688156128,-1.0805456638336182,-1.5588898658752441,1.5394630432128906,1.6604583263397217,-0.6712892055511475,3.14
13.824955940246582,-1.0794799327850342,-1.5660449266433716,1.5356040000915527,1.6631423234939575,-0.6655632257461548,3.14
13.845054864883423,-1.083575963973999,-1.5303733348846436,1.5735208988189697,1.6820104122161865,-0.6973586082458496,3.14
13.865127563476562,-1.0726861953735352,-1.5420420169830322,1.5669021606445312,1.654958724975586,-0.6869972944259644,3.14
13.885154247283936,-1.0584644079208374,-1.5555229187011719,1.5709471702575684,1.6366649866104126,-0.6800980567932129,3.14
13.905405044555664,-1.071921944618225,-1.5402806997299194,1.5651395320892334,1.6489158868789673,-0.6798478960990906,3.14
13.925530672073364,-1.0563738346099854,-1.5608618259429932,1.544790267944336,1.6272897720336914,-0.6506006717681885,3.14
13.945593357086182,-1.0432809591293335,-1.5689420700073242,1.5351741313934326,1.602108120918274,-0.6343812346458435,3.14
13.96569275856018,-1.0422017574310303,-1.567793846130371,1.5430123805999756,1.599468469619751,-0.6349616646766663,3.14
13.98579216003418,-1.0399233102798462,-1.53367018699646,1.5844721794128418,1.60823392868042,-0.6688979864120483,3.14
14.005931377410889,-1.0445576906204224,-1.554203748703003,1.5576778650283813,1.5970487594604492,-0.6467891931533813,3.14
14.02594256401062,-1.0227516889572144,-1.571042776107788,1.5401540994644165,1.5713435411453247,-0.6146377325057983,3.14
14.046130895614624,-1.0418856143951416,-1.557036280632019,1.554291844367981,1.5878294706344604,-0.6384040117263794,3.14
14.06624960899353,-1.0289192199707031,-1.5576601028442383,1.5498988628387451,1.5739495754241943,-0.6259121894836426,3.14
14.08632230758667,-1.0229490995407104,-1.5672802925109863,1.5449891090393066,1.5619500875473022,-0.6200153231620789,3.14
14.106412410736084,-1.0107176303863525,-1.5643067359924316,1.5483181476593018,1.542273759841919,-0.6117883920669556,3.14
14.126451015472412,-1.0166460275650024,-1.5554203987121582,1.5473856925964355,1.5467398166656494,-0.6124396920204163,3.14
14.146587610244751,-1.007951259613037,-1.5574297904968262,1.544985055923462,1.530771017074585,-0.6023168563842773,3.14
14.166667461395264,-0.9993279576301575,-1.5753378868103027,1.5224828720092773,1.5198923349380493,-0.5716145038604736,3.14
14.18709421157837,-1.0046788454055786,-1.5619601011276245,1.5389537811279297,1.5298898220062256,-0.5919665098190308,3.14
14.20720911026001,-0.9905632734298706,-1.5450000762939453,1.5678620338439941,1.519201397895813,-0.6057656407356262,3.14
14.227449178695679,-0.9903057217597961,-1.5608069896697998,1.547212839126587,1.5046806335449219,-0.5882010459899902,3.14
14.247633218765259,-0.9824596643447876,-1.5650686025619507,1.548069715499878,1.4948012828826904,-0.5750758051872253,3.14
14.26775050163269,-0.993639349937439,-1.5694270133972168,1.5406055450439453,1.5010442733764648,-0.5801469087600708,3.14
14.287822484970093,-0.9803016185760498,-1.559959888458252,1.5471827983856201,1.4899468421936035,-0.573294460773468,3.14
14.307858943939209,-0.965201735496521,-1.5855388641357422,1.516777753829956,1.4583618640899658,-0.5359835624694824,3.14
14.327946186065674,-0.9703118205070496,-1.561782717704773,1.5454773902893066,1.4675915241241455,-0.5671291351318359,3.14
14.34801959991455,-0.9673061370849609,-1.5703160762786865,1.53969144821167,1.4576927423477173,-0.5560181736946106,3.14
14.368099451065063,-0.9708631038665771,-1.5779210329055786,1.5256987810134888,1.4551982879638672,-0.5436292886734009,3.14
14.388278722763062,-0.9602993130683899,-1.5766007900238037,1.5520787239074707,1.4474610090255737,-0.5649780631065369,3.14
14.408284187316895,-0.955473780632019,-1.5733914375305176,1.5364251136779785,1.4374481439590454,-0.5441524386405945,3.14
14.428374767303467,-0.9508035778999329,-1.575080394744873,1.5370869636535645,1.429834246635437,-0.5365383625030518,3.14
14.448434114456177,-0.946131706237793,-1.578540325164795,1.5372564792633057,1.4208921194076538,-0.5349148511886597,3.14
14.468525648117065,-0.9391870498657227,-1.568542242050171,1.5570212602615356,1.4118412733078003,-0.547378659248352,3.14
14.488604068756104,-0.9441098570823669,-1.5669903755187988,1.5470597743988037,1.4120025634765625,-0.5383834838867188,3.14
14.50872540473938,-0.941070556640625,-1.5691198110580444,1.5438884496688843,1.4072065353393555,-0.533973217010498,3.14
14.528801679611206,-0.9322047233581543,-1.5633141994476318,1.5328538417816162,1.3909322023391724,-0.5160624384880066,3.14
14.549006223678589,-0.9241092205047607,-1.5842046737670898,1.5114079713821411,1.3699984550476074,-0.49164828658103943,3.14
14.569215536117554,-0.9271649122238159,-1.5893865823745728,1.5180089473724365,1.3704862594604492,-0.5010695457458496,3.14
14.58943510055542,-0.9240050315856934,-1.5825666189193726,1.5331918001174927,1.3707748651504517,-0.5101620554924011,3.14
14.609432458877563,-0.9228578209877014,-1.5894241333007812,1.5076943635940552,1.3633509874343872,-0.48689836263656616,3.14
14.62950611114502,-0.9067926406860352,-1.5720946788787842,1.519970178604126,1.3538297414779663,-0.4808430075645447,3.14
14.649581670761108,-0.9094805717468262,-1.5936124324798584,1.5021820068359375,1.3466968536376953,-0.4688190221786499,3.14
14.669654607772827,-0.8985201716423035,-1.5651979446411133,1.5310373306274414,1.3335025310516357,-0.48199233412742615,3.14
14.689690828323364,-0.9071471691131592,-1.5702247619628906,1.525709629058838,1.3345468044281006,-0.4836328625679016,3.14
14.70977258682251,-0.9035212397575378,-1.576690912246704,1.5349881649017334,1.3326077461242676,-0.4910852909088135,3.14
14.729846000671387,-0.8868314027786255,-1.580380916595459,1.5293145179748535,1.3067867755889893,-0.47654086351394653,3.14
14.74991488456726,-0.8995786905288696,-1.5766386985778809,1.5377594232559204,1.3244409561157227,-0.48582834005355835,3.14
14.770015716552734,-0.8992921113967896,-1.5955899953842163,1.5091116428375244,1.315043568611145,-0.4624314308166504,3.14
14.790180206298828,-0.8847082257270813,-1.581876277923584,1.5214335918426514,1.307113528251648,-0.45919910073280334,3.14
14.810404777526855,-0.8926992416381836,-1.580138921737671,1.5202531814575195,1.3036271333694458,-0.465329647064209,3.14
14.830322742462158,-0.8888593912124634,-1.5729196071624756,1.5318328142166138,1.2985490560531616,-0.4726816713809967,3.14
14.850370407104492,-0.8850129842758179,-1.5794379711151123,1.5351662635803223,1.2878899574279785,-0.47421973943710327,3.14
14.870462417602539,-0.8766864538192749,-1.581397533416748,1.5247738361358643,1.2763701677322388,-0.45755916833877563,3.14
14.890562295913696,-0.8864829540252686,-1.5872488021850586,1.5144720077514648,1.2825095653533936,-0.45356887578964233,3.14
14.910600423812866,-0.8714080452919006,-1.572829008102417,1.5365731716156006,1.2769129276275635,-0.45911604166030884,3.14
14.930672883987427,-0.8612617254257202,-1.586652159690857,1.5191313028335571,1.250180721282959,-0.43987810611724854,3.14
14.950726509094238,-0.8734708428382874,-1.5888543128967285,1.5141924619674683,1.2593374252319336,-0.44203001260757446,3.14
14.970789194107056,-0.8656529188156128,-1.5798776149749756,1.5241172313690186,1.2533750534057617,-0.4439517855644226,3.14
14.990835428237915,-0.8734499216079712,-1.577526569366455,1.535047173500061,1.2617979049682617,-0.4560128450393677,3.14
15.010974884033203,-0.8732725381851196,-1.5777850151062012,1.5244462490081787,1.2565381526947021,-0.44689321517944336,3.14
15.031030893325806,-0.864714503288269,-1.582012414932251,1.5233614444732666,1.2483597993850708,-0.4397932291030884,3.14
15.051100492477417,-0.8528446555137634,-1.5846741199493408,1.519450306892395,1.227427363395691,-0.43223100900650024,3.14
15.07116436958313,-0.8585411310195923,-1.5622010231018066,1.5405139923095703,1.2324955463409424,-0.45064374804496765,3.14
15.091233253479004,-0.8655980825424194,-1.5902713537216187,1.5046041011810303,1.2280585765838623,-0.42511093616485596,3.14
15.111296892166138,-0.857795238494873,-1.5732476711273193,1.5248980522155762,1.2260032892227173,-0.43604081869125366,3.14
15.131356000900269,-0.8425024151802063,-1.5874137878417969,1.5116980075836182,1.2073354721069336,-0.41434401273727417,3.14
15.151449203491211,-0.8433372974395752,-1.569167137145996,1.519657015800476,1.203572154045105,-0.41951364278793335,3.14
15.17153549194336,-0.8464808464050293,-1.5824151039123535,1.5215245485305786,1.2011905908584595,-0.4269305169582367,3.14
15.191603660583496,-0.8537669777870178,-1.5898165702819824,1.5038189888000488,1.2019717693328857,-0.4159628748893738,3.14
15.21167278289795,-0.8433337211608887,-1.5836026668548584,1.5147004127502441,1.1997058391571045,-0.4112473726272583,3.14
15.23171854019165,-0.8390660285949707,-1.5867183208465576,1.5107778310775757,1.1920700073242188,-0.40756890177726746,3.14
15.251801252365112,-0.8380298614501953,-1.581374168395996,1.5231024026870728,1.1928974390029907,-0.4150599539279938,3.14
15.271980047225952,-0.8443944454193115,-1.5837130546569824,1.5208559036254883,1.187394142150879,-0.41953033208847046,3.14
15.291990518569946,-0.8444088697433472,-1.5909035205841064,1.5089446306228638,1.1824119091033936,-0.41008877754211426,3.14
15.312034606933594,-0.8393542170524597,-1.5832366943359375,1.525443434715271,1.1732888221740723,-0.4193052649497986,3.14
