liuyurong129/humanoid-gym/humanoid/data/target_q_20250523-225939.csv
timestamp,joint_1,joint_2,joint_3,joint_4,joint_5,joint_6
5.054473876953125e-05,0.0,0.0,0.0,0.0,0.0,0.0
0.020128250122070312,0.0,0.0,0.0,0.0,0.0,0.0
0.04024004936218262,0.0,0.0,0.0,0.0,0.0,0.0
0.06030559539794922,0.0,0.0,0.0,0.0,0.0,0.0
0.0803682804107666,0.0,0.0,0.0,0.0,0.0,0.0
0.10044288635253906,0.0,0.0,0.0,0.0,0.0,0.0
0.12050914764404297,0.15460386872291565,0.05569484457373619,0.5299255847930908,-0.46995267271995544,0.10137423872947693,-0.6370316743850708
0.14060115814208984,0.060363512486219406,-0.045896220952272415,0.4358289837837219,-0.39033758640289307,0.2092357575893402,-0.428490549325943
0.16068243980407715,0.04617602005600929,-0.06360448896884918,0.4237770438194275,-0.3588758111000061,0.23768213391304016,-0.3894515037536621
0.1810758113861084,0.04662131145596504,-0.08376292884349823,0.41485854983329773,-0.3468259274959564,0.24168387055397034,-0.3817581236362457
0.20117902755737305,0.04319339990615845,-0.05751476064324379,0.4299224615097046,-0.3452920913696289,0.23934710025787354,-0.3810805380344391
0.2212672233581543,0.04166416823863983,-0.05727945640683174,0.42493337392807007,-0.3497205674648285,0.23804229497909546,-0.3805020749568939
0.24133586883544922,0.04301265627145767,-0.07638750970363617,0.4065484404563904,-0.35072094202041626,0.24098297953605652,-0.37818536162376404
0.26142096519470215,0.04937862604856491,-0.10067453980445862,0.4032309949398041,-0.3430910110473633,0.25169071555137634,-0.38171204924583435
0.2814977169036865,0.045498330146074295,-0.09816157817840576,0.40991759300231934,-0.34162387251853943,0.24375104904174805,-0.38225099444389343
0.3015930652618408,0.04675065353512764,-0.09287886321544647,0.41031235456466675,-0.34428784251213074,0.24164098501205444,-0.38404372334480286
0.3216588497161865,0.045502156019210815,-0.09202802181243896,0.41431331634521484,-0.3433369994163513,0.23887348175048828,-0.38258394598960876
0.3417239189147949,0.045300956815481186,-0.0930747240781784,0.41322988271713257,-0.3430075943470001,0.23695915937423706,-0.3850836157798767
0.36177921295166016,0.04933992400765419,-0.11390820145606995,0.4000213146209717,-0.33924469351768494,0.2379896640777588,-0.38592663407325745
0.38187408447265625,0.044072940945625305,-0.07670795917510986,0.42392635345458984,-0.3455878794193268,0.23064744472503662,-0.3886749744415283
0.4019486904144287,0.044068433344364166,-0.08424119651317596,0.41951191425323486,-0.3446597456932068,0.23002088069915771,-0.3892279267311096
0.42208194732666016,0.045403555035591125,-0.09369882941246033,0.4134442210197449,-0.3433053195476532,0.23042288422584534,-0.3904169499874115
0.44215989112854004,0.04819859564304352,-0.10848098993301392,0.4133148193359375,-0.33662357926368713,0.23308643698692322,-0.39257118105888367
0.462249755859375,0.046934355050325394,-0.09906302392482758,0.42115503549575806,-0.3373660445213318,0.22521835565567017,-0.3940218985080719
0.48227381706237793,0.04660843312740326,-0.09575623273849487,0.42098915576934814,-0.34078335762023926,0.22523239254951477,-0.3953910171985626
0.5023689270019531,0.04921630024909973,-0.12237557768821716,0.4087402820587158,-0.33356794714927673,0.22905942797660828,-0.39521583914756775
0.5224432945251465,0.04656820371747017,-0.11752769351005554,0.4169970154762268,-0.33065474033355713,0.2173537015914917,-0.39752987027168274
0.5425314903259277,0.050483185797929764,-0.12575560808181763,0.40818947553634644,-0.33321666717529297,0.2265411615371704,-0.3980255126953125
0.5628046989440918,0.0486002154648304,-0.13121551275253296,0.4121447205543518,-0.3282312750816345,0.22053849697113037,-0.4001311957836151
0.5829067230224609,0.04545203223824501,-0.10861599445343018,0.42050784826278687,-0.3326665461063385,0.21198445558547974,-0.4012562930583954
0.6029858589172363,0.04764654487371445,-0.10916347801685333,0.4265426993370056,-0.33366772532463074,0.21546733379364014,-0.40173402428627014
0.6230440139770508,0.046344779431819916,-0.10990342497825623,0.4275939166545868,-0.3310645818710327,0.2110481858253479,-0.40433260798454285
0.6431043148040771,0.050529249012470245,-0.1350545436143875,0.4181872606277466,-0.32620275020599365,0.2151622176170349,-0.40473175048828125
0.6631829738616943,0.052250005304813385,-0.13894084095954895,0.41920119524002075,-0.3257415294647217,0.2142488956451416,-0.40557536482810974
0.6832361221313477,0.050584711134433746,-0.13921979069709778,0.4198840856552124,-0.32574766874313354,0.21731767058372498,-0.40635988116264343
0.7033290863037109,0.047856733202934265,-0.11429214477539062,0.43120336532592773,-0.3323787450790405,0.21192488074302673,-0.406965434551239
0.7234029769897461,0.04772069305181503,-0.12247858941555023,0.4266330301761627,-0.33067786693573,0.21006524562835693,-0.408049613237381
0.7434678077697754,0.05118504911661148,-0.13772128522396088,0.4176494777202606,-0.32796695828437805,0.21139588952064514,-0.4092530310153961
0.7635517120361328,0.049985866993665695,-0.1395450085401535,0.421478271484375,-0.3256990909576416,0.20988988876342773,-0.41015762090682983
0.7836263179779053,0.052080731838941574,-0.14719532430171967,0.42068183422088623,-0.32404372096061707,0.2090553641319275,-0.41233029961586
0.8036892414093018,0.05477691441774368,-0.16100560128688812,0.4121045470237732,-0.3237609267234802,0.21144643425941467,-0.4135373830795288
0.8240966796875,0.05538734793663025,-0.16320264339447021,0.42168715596199036,-0.32052916288375854,0.20873522758483887,-0.4175516366958618
0.8442909717559814,0.04644520580768585,-0.12833625078201294,0.44002026319503784,-0.3249233067035675,0.19235622882843018,-0.41671323776245117
0.8644118309020996,0.04898121953010559,-0.1291109323501587,0.4409792423248291,-0.3240492343902588,0.1934494972229004,-0.4204707145690918
0.8851566314697266,0.04956959933042526,-0.12627500295639038,0.44835078716278076,-0.3262524902820587,0.1890779733657837,-0.4222124516963959
0.9052906036376953,0.053507234901189804,-0.18936818838119507,0.416753888130188,-0.30719658732414246,0.19066861271858215,-0.424178808927536
0.9253637790679932,0.054241843521595,-0.17989014089107513,0.4254312217235565,-0.3105004131793976,0.19158779084682465,-0.425663024187088
0.945382833480835,0.05895118787884712,-0.18952614068984985,0.42187899351119995,-0.310772567987442,0.19401977956295013,-0.4271639883518219
0.9654848575592041,0.04971180856227875,-0.14036373794078827,0.44692325592041016,-0.3206913471221924,0.17806261777877808,-0.4269237816333771
0.9855566024780273,0.05296187102794647,-0.1534048169851303,0.43776455521583557,-0.3197856843471527,0.18124833703041077,-0.4287920594215393
1.005608081817627,0.057350873947143555,-0.17564910650253296,0.43353384733200073,-0.3135198652744293,0.18307462334632874,-0.431692510843277
1.0257024765014648,0.05548970028758049,-0.15819722414016724,0.4531766176223755,-0.31487709283828735,0.18124131858348846,-0.4333614110946655
1.0457673072814941,0.05405684560537338,-0.1605633646249771,0.45348799228668213,-0.3150135576725006,0.17467191815376282,-0.43582120537757874
1.0658812522888184,0.05371981859207153,-0.1658778041601181,0.4509415030479431,-0.3160233199596405,0.17704129219055176,-0.4359624683856964
1.0859735012054443,0.05909618362784386,-0.20371492207050323,0.43597710132598877,-0.30590593814849854,0.18108953535556793,-0.43703341484069824
1.1060583591461182,0.06078353151679039,-0.20313118398189545,0.4403153657913208,-0.30624493956565857,0.1812724769115448,-0.44102707505226135
1.1261100769042969,0.06266132742166519,-0.21746188402175903,0.43106380105018616,-0.3033301830291748,0.18109658360481262,-0.443421334028244
1.1462039947509766,0.05287526547908783,-0.15486621856689453,0.46965447068214417,-0.31347477436065674,0.16308481991291046,-0.443926066160202
1.1663165092468262,0.05348639190196991,-0.1610872447490692,0.47095927596092224,-0.3116218149662018,0.15609227120876312,-0.44607803225517273
1.1864655017852783,0.054139889776706696,-0.16673681139945984,0.46899956464767456,-0.30957990884780884,0.1536540687084198,-0.4484652280807495
1.2065658569335938,0.06657691299915314,-0.2371818721294403,0.4342620372772217,-0.29519766569137573,0.17023640871047974,-0.45145273208618164
1.2266342639923096,0.06716447323560715,-0.24034343659877777,0.44131386280059814,-0.2928280830383301,0.16769303381443024,-0.45241549611091614
1.247385025024414,0.06625069677829742,-0.23611050844192505,0.4518549144268036,-0.2919905185699463,0.16026045382022858,-0.45639583468437195
1.2675104141235352,0.05520091950893402,-0.17945437133312225,0.4779486656188965,-0.30525973439216614,0.14130374789237976,-0.4545761048793793
1.2876698970794678,0.05589420348405838,-0.16945970058441162,0.4867647886276245,-0.30743998289108276,0.1408826857805252,-0.45759791135787964
1.3077359199523926,0.05501051992177963,-0.18374848365783691,0.4837627410888672,-0.3049565851688385,0.13484573364257812,-0.45846134424209595
1.3278660774230957,0.06783166527748108,-0.24691283702850342,0.45853543281555176,-0.2885456681251526,0.15146273374557495,-0.46535688638687134
1.3479125499725342,0.06997350603342056,-0.25593286752700806,0.45288586616516113,-0.28782686591148376,0.14994552731513977,-0.46659210324287415
1.3679661750793457,0.07133683562278748,-0.2696077525615692,0.452389121055603,-0.2833366096019745,0.14543601870536804,-0.4701622426509857
1.388120412826538,0.0583622083067894,-0.18811316788196564,0.49541807174682617,-0.29983586072921753,0.1253664642572403,-0.4684915840625763
1.4082367420196533,0.05776507407426834,-0.195310577750206,0.5004384517669678,-0.2981168329715729,0.12014143168926239,-0.4701562821865082
1.4282479286193848,0.0649472251534462,-0.22071704268455505,0.48633700609207153,-0.293589323759079,0.12193213403224945,-0.473384290933609
1.448361873626709,0.0676359310746193,-0.25324180722236633,0.4793819785118103,-0.27747946977615356,0.12156538665294647,-0.479716032743454
1.4684388637542725,0.06740783900022507,-0.23035094141960144,0.4969814419746399,-0.2824940085411072,0.11353799700737,-0.4808163642883301
1.488501787185669,0.06670156866312027,-0.21652939915657043,0.513903021812439,-0.2887380123138428,0.10838764905929565,-0.4834749400615692
1.5085632801055908,0.08027320355176926,-0.3014392852783203,0.46164679527282715,-0.27173975110054016,0.1311529129743576,-0.48520103096961975
1.5286555290222168,0.07626042515039444,-0.306856632232666,0.47469013929367065,-0.26757943630218506,0.11868679523468018,-0.4883582293987274
1.5487112998962402,0.08043704181909561,-0.33225196599960327,0.46048420667648315,-0.2595728933811188,0.1148117184638977,-0.49117425084114075
1.5688276290893555,0.08307264745235443,-0.34792640805244446,0.45791780948638916,-0.25386565923690796,0.10985678434371948,-0.496370404958725
1.5889363288879395,0.07039789855480194,-0.22114545106887817,0.5413995385169983,-0.2859567701816559,0.0797981470823288,-0.4937331974506378
1.609069585800171,0.07375379651784897,-0.23781418800354004,0.5388785600662231,-0.28064456582069397,0.07846851646900177,-0.4987114369869232
1.62908935546875,0.06967654079198837,-0.21945610642433167,0.5673816204071045,-0.28084030747413635,0.0650954395532608,-0.5018793344497681
1.6491813659667969,0.08611895889043808,-0.37086325883865356,0.47311192750930786,-0.2424435019493103,0.08719184994697571,-0.5075059533119202
1.6692516803741455,0.0846700519323349,-0.3507348299026489,0.49599766731262207,-0.2442876696586609,0.0774657279253006,-0.5118662714958191
1.6893033981323242,0.08235976099967957,-0.3400719165802002,0.511868417263031,-0.24549344182014465,0.061170000582933426,-0.5136865973472595
1.7093915939331055,0.08896348625421524,-0.2968061864376068,0.5440555214881897,-0.2668585479259491,0.06274078786373138,-0.514070987701416
1.729506254196167,0.09294461458921432,-0.325508177280426,0.5381143689155579,-0.2555970549583435,0.057048458606004715,-0.5205990672111511
1.749568223953247,0.09271911531686783,-0.32599639892578125,0.5554644465446472,-0.2524844706058502,0.05316681042313576,-0.5232598781585693
1.769639015197754,0.08524221181869507,-0.32134154438972473,0.5624027848243713,-0.2492532730102539,0.040749575942754745,-0.5237219929695129
1.7897167205810547,0.09174386411905289,-0.32565176486968994,0.5733862519264221,-0.2499191164970398,0.04613116756081581,-0.5280976295471191
1.8098018169403076,0.09350167214870453,-0.3404257297515869,0.5701645016670227,-0.24555346369743347,0.04197971895337105,-0.5322440266609192
1.8298704624176025,0.09265325963497162,-0.33233094215393066,0.5830711126327515,-0.24577900767326355,0.03516147658228874,-0.5335473418235779
1.849982500076294,0.09757094830274582,-0.34020859003067017,0.5895630717277527,-0.24419912695884705,0.02813844010233879,-0.5383501648902893
1.8700370788574219,0.09774483740329742,-0.3454928398132324,0.5998144745826721,-0.24005860090255737,0.01621485874056816,-0.5430366396903992
1.8901104927062988,0.09320521354675293,-0.356528639793396,0.6017934083938599,-0.23448747396469116,0.006463978439569473,-0.5458544492721558
1.910193920135498,0.09936676174402237,-0.37726882100105286,0.5892252326011658,-0.22927826642990112,0.008244086056947708,-0.5499631762504578
1.9302661418914795,0.09865818172693253,-0.3795540928840637,0.6064243912696838,-0.2270595282316208,-0.00025520846247673035,-0.5555500984191895
1.950340747833252,0.1035425215959549,-0.36733677983283997,0.6218726634979248,-0.23158890008926392,-0.002215798944234848,-0.5565821528434753
1.970435619354248,0.10731693357229233,-0.3646298348903656,0.6329160928726196,-0.2325371503829956,-0.00877414271235466,-0.5615834593772888
1.990485429763794,0.11190640181303024,-0.36444300413131714,0.655772864818573,-0.23441708087921143,-0.014396030455827713,-0.5644548535346985
2.010582447052002,0.10284329205751419,-0.40541791915893555,0.6262156963348389,-0.2142183482646942,-0.025226708501577377,-0.5677839517593384
2.0306591987609863,0.10882873833179474,-0.40583571791648865,0.6356180310249329,-0.21583937108516693,-0.031197208911180496,-0.5716148018836975
2.050713300704956,0.11155375093221664,-0.413034051656723,0.6461582183837891,-0.21181413531303406,-0.048128340393304825,-0.5768285393714905
2.070815324783325,0.12155482172966003,-0.4151977598667145,0.6585143208503723,-0.21826642751693726,-0.03518332913517952,-0.5817288756370544
2.0908639430999756,0.12390091270208359,-0.4383353888988495,0.6496254205703735,-0.21063970029354095,-0.04435325041413307,-0.5860873460769653
2.1109390258789062,0.12629367411136627,-0.4532480537891388,0.6499525308609009,-0.2025841921567917,-0.059762854129076004,-0.5921005606651306
2.1310606002807617,0.12738370895385742,-0.43498292565345764,0.6666766405105591,-0.2074321210384369,-0.06825911998748779,-0.5937004685401917
2.151143789291382,0.13571040332317352,-0.45343339443206787,0.6781788468360901,-0.20465786755084991,-0.07435908913612366,-0.6005606055259705
2.171191930770874,0.1371590495109558,-0.4732230603694916,0.6793044805526733,-0.19535046815872192,-0.08829189836978912,-0.6072469353675842
2.191274404525757,0.13566958904266357,-0.483259379863739,0.6748069524765015,-0.18980909883975983,-0.10292477905750275,-0.6095649600028992
2.211357831954956,0.142573744058609,-0.49980032444000244,0.6840347051620483,-0.18364250659942627,-0.11542688310146332,-0.6172260046005249
2.231403350830078,0.14397399127483368,-0.5233897566795349,0.6786069869995117,-0.1713237315416336,-0.1464129239320755,-0.6265852451324463
2.25150465965271,0.15306243300437927,-0.47792497277259827,0.7361815571784973,-0.18701916933059692,-0.14603829383850098,-0.6273491978645325
2.2715680599212646,0.15508350729942322,-0.524882972240448,0.7125174403190613,-0.1686105728149414,-0.16671082377433777,-0.6365314722061157
2.29164981842041,0.1501188576221466,-0.5334384441375732,0.7247965931892395,-0.1586400270462036,-0.20752355456352234,-0.6452738642692566
2.3117425441741943,0.16349273920059204,-0.527046263217926,0.7487481832504272,-0.16458246111869812,-0.20553094148635864,-0.6491242051124573
2.3318545818328857,0.16486379504203796,-0.5489150881767273,0.7477748394012451,-0.1531088501214981,-0.22973321378231049,-0.6568021178245544
2.35193133354187,0.1706860363483429,-0.5594782829284668,0.7482606172561646,-0.14946967363357544,-0.2491838037967682,-0.666071891784668
2.372366428375244,0.16642609238624573,-0.5537223815917969,0.7836822271347046,-0.144914910197258,-0.28022390604019165,-0.6716073155403137
2.3924973011016846,0.18842479586601257,-0.5904909372329712,0.7585223913192749,-0.14440569281578064,-0.2546563446521759,-0.6802397966384888
2.412569522857666,0.183466374874115,-0.5942365527153015,0.7780849933624268,-0.13999807834625244,-0.28046685457229614,-0.6870807409286499
2.4326159954071045,0.1886875033378601,-0.6022338271141052,0.8019090890884399,-0.1377047747373581,-0.2965303957462311,-0.6924983859062195
2.452713966369629,0.19544780254364014,-0.6041373610496521,0.8146935701370239,-0.13851241767406464,-0.29847773909568787,-0.6961012482643127
2.472813367843628,0.19966310262680054,-0.6025158762931824,0.8416973352432251,-0.14230471849441528,-0.30377429723739624,-0.7015058398246765
2.492856502532959,0.2105165719985962,-0.6166238784790039,0.8584973812103271,-0.13872429728507996,-0.3091704845428467,-0.7080679535865784
2.512948989868164,0.20030757784843445,-0.6377300024032593,0.8305307626724243,-0.128361776471138,-0.33586758375167847,-0.7143260836601257
2.533008575439453,0.20551085472106934,-0.6318284869194031,0.863827109336853,-0.1320788860321045,-0.3387026786804199,-0.7170924544334412
2.5530922412872314,0.22587913274765015,-0.6581035256385803,0.8739837408065796,-0.13401658833026886,-0.3169817328453064,-0.7251522541046143
2.5731754302978516,0.23155465722084045,-0.6784326434135437,0.8641312122344971,-0.13143834471702576,-0.31992512941360474,-0.7338109612464905
2.5932517051696777,0.2255309522151947,-0.6735488176345825,0.8874307870864868,-0.1325104534626007,-0.33155226707458496,-0.7349985241889954
2.61332631111145,0.23192930221557617,-0.6866086721420288,0.8868062496185303,-0.13158302009105682,-0.341003954410553,-0.743993878364563
2.6333916187286377,0.23628690838813782,-0.697634756565094,0.891887903213501,-0.13468824326992035,-0.33852484822273254,-0.7513056993484497
2.6534812450408936,0.2292151153087616,-0.6816808581352234,0.9123162031173706,-0.13165895640850067,-0.36060023307800293,-0.7519335150718689
2.6735527515411377,0.23810461163520813,-0.6959639191627502,0.9155184030532837,-0.13587211072444916,-0.34242475032806396,-0.7591062784194946
2.693605899810791,0.24360767006874084,-0.6991599202156067,0.9184824824333191,-0.14057612419128418,-0.3391045331954956,-0.7676170468330383
2.713697910308838,0.23834902048110962,-0.7023603916168213,0.9182179570198059,-0.13499274849891663,-0.3498493432998657,-0.7700603604316711
2.7337875366210938,0.2458495795726776,-0.7065486311912537,0.9227272272109985,-0.13569548726081848,-0.3473885953426361,-0.7778983116149902
2.753849506378174,0.2539546489715576,-0.7196704745292664,0.9165100455284119,-0.1359381079673767,-0.34212666749954224,-0.7876200079917908
2.773956537246704,0.24753612279891968,-0.7174562811851501,0.9203623533248901,-0.13475768268108368,-0.3538273572921753,-0.7906047701835632
2.7940282821655273,0.2607284486293793,-0.731651246547699,0.9101700782775879,-0.13547298312187195,-0.3381205201148987,-0.8015825152397156
2.814087390899658,0.2611691951751709,-0.7341691255569458,0.9135450124740601,-0.1353120356798172,-0.35348981618881226,-0.8122952580451965
2.83437180519104,0.2611357867717743,-0.7305701375007629,0.9204150438308716,-0.13504283130168915,-0.3530486822128296,-0.8161171078681946
2.854484796524048,0.26803600788116455,-0.7378207445144653,0.9151061773300171,-0.1342724710702896,-0.35369613766670227,-0.8292902112007141
2.874552011489868,0.2688246965408325,-0.7373848557472229,0.9201548099517822,-0.13651993870735168,-0.36706745624542236,-0.8421443700790405
2.8950657844543457,0.26952433586120605,-0.7365396618843079,0.9304388761520386,-0.1363394409418106,-0.3726055324077606,-0.8542564511299133
2.9151642322540283,0.26838207244873047,-0.7411845326423645,0.9294168949127197,-0.13288486003875732,-0.37915951013565063,-0.860779345035553
2.9352285861968994,0.27381300926208496,-0.7494440674781799,0.9283630847930908,-0.13105562329292297,-0.38045158982276917,-0.8740043640136719
2.9555821418762207,0.27661052346229553,-0.7489396929740906,0.9314347505569458,-0.13197852671146393,-0.385210245847702,-0.8867011666297913
2.9757497310638428,0.274905264377594,-0.7533919811248779,0.9422893524169922,-0.12723809480667114,-0.39815881848335266,-0.8928791880607605
2.9958322048187256,0.27599838376045227,-0.7559322118759155,0.9435998201370239,-0.12459257990121841,-0.40773776173591614,-0.9038105607032776
3.015854835510254,0.28363046050071716,-0.7604901790618896,0.9437853097915649,-0.1243656650185585,-0.40399327874183655,-0.9165301322937012
3.0359487533569336,0.2801177501678467,-0.7712855339050293,0.9434139132499695,-0.11977297812700272,-0.42017605900764465,-0.9259260296821594
3.0560266971588135,0.27926433086395264,-0.7732248902320862,0.9480482339859009,-0.11585403233766556,-0.42739546298980713,-0.9360231757164001
3.076078414916992,0.29732438921928406,-0.7786607146263123,0.9417383670806885,-0.12147767096757889,-0.3945407271385193,-0.9511094689369202
3.0962471961975098,0.29137688875198364,-0.7895287871360779,0.9492001533508301,-0.11659566313028336,-0.41293734312057495,-0.9587553143501282
3.1163477897644043,0.29819148778915405,-0.7814436554908752,0.9553707838058472,-0.1202208623290062,-0.40984591841697693,-0.9724441170692444
3.1363701820373535,0.3067341446876526,-0.7903892397880554,0.9587029218673706,-0.12029951065778732,-0.3972814679145813,-0.9871776103973389
3.156430244445801,0.299690306186676,-0.7879980206489563,0.9616234302520752,-0.11816247552633286,-0.4125705361366272,-0.9925434589385986
3.176520824432373,0.31054162979125977,-0.7953278422355652,0.9607468843460083,-0.11889614909887314,-0.4020121395587921,-1.0092997550964355
3.1965672969818115,0.30748724937438965,-0.8062098622322083,0.9672958850860596,-0.11136660724878311,-0.4189622700214386,-1.0236003398895264
3.2171990871429443,0.30784815549850464,-0.808138906955719,0.9713873267173767,-0.1099560484290123,-0.42404669523239136,-1.0391333103179932
3.237291097640991,0.31394121050834656,-0.811639666557312,0.9735777378082275,-0.11079845577478409,-0.41847991943359375,-1.0477914810180664
3.2573862075805664,0.3113833963871002,-0.8147318363189697,0.9798381328582764,-0.10534577816724777,-0.4253441393375397,-1.0611482858657837
3.2778377532958984,0.3149700462818146,-0.8269839882850647,0.9753105640411377,-0.1011846587061882,-0.42563557624816895,-1.0753697156906128
3.2979323863983154,0.3129803538322449,-0.8238871693611145,0.9832767248153687,-0.09826796501874924,-0.43471696972846985,-1.08221435546875
3.3179824352264404,0.3159189522266388,-0.8275386691093445,0.9840525984764099,-0.09719675034284592,-0.4265998303890228,-1.0936206579208374
3.3380632400512695,0.31500694155693054,-0.8326937556266785,0.9879734516143799,-0.09408605843782425,-0.4294714331626892,-1.1056592464447021
3.358144521713257,0.3208923637866974,-0.8371279835700989,0.9829643964767456,-0.0948302373290062,-0.4199391305446625,-1.1123571395874023
3.3782143592834473,0.32130804657936096,-0.8470843434333801,0.9847038984298706,-0.09067188948392868,-0.4161456823348999,-1.1231341361999512
3.398271322250366,0.32387205958366394,-0.8426663279533386,0.9914909601211548,-0.09167807549238205,-0.4144524931907654,-1.132921576499939
3.4183566570281982,0.32209742069244385,-0.841058075428009,0.9974557161331177,-0.08833257853984833,-0.4149249792098999,-1.1376852989196777
3.4384217262268066,0.3214453160762787,-0.8505548238754272,0.9948897957801819,-0.08212044090032578,-0.4200657308101654,-1.1486281156539917
3.458491802215576,0.32236775755882263,-0.8574952483177185,0.9946200251579285,-0.07899706810712814,-0.41822344064712524,-1.1577330827713013
3.4785854816436768,0.32078611850738525,-0.8579588532447815,1.0008578300476074,-0.07588037103414536,-0.42357712984085083,-1.161949634552002
3.4986681938171387,0.3215233385562897,-0.8639840483665466,0.9979705810546875,-0.07444819062948227,-0.4195595383644104,-1.1683518886566162
3.518740653991699,0.32275405526161194,-0.8593447208404541,1.0023868083953857,-0.07369659096002579,-0.41578200459480286,-1.1757229566574097
3.5392544269561768,0.3223762810230255,-0.8645183444023132,1.0067152976989746,-0.06968503445386887,-0.4180060029029846,-1.184712290763855
3.5593628883361816,0.323676735162735,-0.8632301688194275,1.0057711601257324,-0.06939977407455444,-0.41081491112709045,-1.1877213716506958
3.5794339179992676,0.32194784283638,-0.8650262355804443,1.0098360776901245,-0.0664961114525795,-0.4087824523448944,-1.1937644481658936
3.5999605655670166,0.32103902101516724,-0.8659271597862244,1.0121757984161377,-0.061956293880939484,-0.4118902087211609,-1.2013038396835327
3.620044708251953,0.3239558935165405,-0.8711591362953186,1.0070608854293823,-0.06088068336248398,-0.40773358941078186,-1.2054340839385986
3.6401336193084717,0.32325926423072815,-0.874730110168457,1.0093389749526978,-0.05912911146879196,-0.4056153893470764,-1.2098655700683594
3.6601994037628174,0.32481417059898376,-0.8707485795021057,1.0156131982803345,-0.059281907975673676,-0.401239275932312,-1.2167410850524902
3.6802854537963867,0.32193484902381897,-0.872536301612854,1.0145363807678223,-0.05705069750547409,-0.40136271715164185,-1.2197762727737427
3.70035982131958,0.3209029734134674,-0.8736993670463562,1.0197497606277466,-0.05343591421842575,-0.4031504690647125,-1.224577784538269
3.7204415798187256,0.31854382157325745,-0.8740625381469727,1.0218828916549683,-0.05188021808862686,-0.4039716124534607,-1.2283810377120972
3.740563154220581,0.3231542110443115,-0.8822866082191467,1.0123212337493896,-0.05093209445476532,-0.39448586106300354,-1.23197340965271
3.7605960369110107,0.32246294617652893,-0.890110433101654,1.0049989223480225,-0.04639550298452377,-0.3907288610935211,-1.2358713150024414
3.7806880474090576,0.32454046607017517,-0.8945876955986023,1.0008255243301392,-0.044467292726039886,-0.3861807584762573,-1.2407822608947754
3.80077862739563,0.3197367489337921,-0.878440797328949,1.0246007442474365,-0.04418780654668808,-0.39737871289253235,-1.23928701877594
3.820849657058716,0.317080020904541,-0.8804473876953125,1.0239684581756592,-0.04406445473432541,-0.39394330978393555,-1.2430256605148315
3.8409197330474854,0.31822022795677185,-0.8829224109649658,1.020232081413269,-0.04175272583961487,-0.3877396583557129,-1.2489022016525269
3.861001968383789,0.31924399733543396,-0.8801625370979309,1.0233360528945923,-0.042269378900527954,-0.3853665590286255,-1.2513688802719116
3.881091833114624,0.32184723019599915,-0.884433925151825,1.0179104804992676,-0.039233990013599396,-0.3790627121925354,-1.2553077936172485
3.901167869567871,0.31494665145874023,-0.8849117755889893,1.0212066173553467,-0.03701954334974289,-0.3886774480342865,-1.2548385858535767
3.92149019241333,0.3164132535457611,-0.8793209791183472,1.0224895477294922,-0.039026662707328796,-0.3854776918888092,-1.2562144994735718
3.941615104675293,0.3170508146286011,-0.8822165131568909,1.0241328477859497,-0.03682611137628555,-0.38191327452659607,-1.2596752643585205
3.9616751670837402,0.3150157034397125,-0.8847604990005493,1.0215471982955933,-0.034565798938274384,-0.38055482506752014,-1.2622023820877075
3.9819514751434326,0.31309425830841064,-0.8799698948860168,1.0239191055297852,-0.03471928834915161,-0.3817358911037445,-1.2642338275909424
4.002035140991211,0.3229869306087494,-0.8886876702308655,1.0099433660507202,-0.03360304236412048,-0.3597429394721985,-1.2686576843261719
4.0220935344696045,0.3198249638080597,-0.8965181708335876,1.0079247951507568,-0.03122994862496853,-0.3610822558403015,-1.2704477310180664
4.042212963104248,0.3168921172618866,-0.8890842795372009,1.0117192268371582,-0.03158147633075714,-0.3642633855342865,-1.2715541124343872
4.062303066253662,0.31234902143478394,-0.882544219493866,1.022042155265808,-0.029300453141331673,-0.3723740577697754,-1.2707208395004272
4.082372426986694,0.31248268485069275,-0.8831217885017395,1.0187630653381348,-0.029062999412417412,-0.3696693778038025,-1.2734929323196411
4.102599859237671,0.31126314401626587,-0.8838932514190674,1.0181454420089722,-0.027285421267151833,-0.36218810081481934,-1.2757967710494995
4.122708082199097,0.31002774834632874,-0.887517511844635,1.015572428703308,-0.026000158861279488,-0.36584755778312683,-1.2756043672561646
4.142799377441406,0.30989664793014526,-0.883843183517456,1.015607476234436,-0.02572922594845295,-0.3654184937477112,-1.2765452861785889
4.162861347198486,0.31173011660575867,-0.8851774334907532,1.015809416770935,-0.026152828708291054,-0.36169347167015076,-1.2767834663391113
4.182941675186157,0.3127466142177582,-0.8815188407897949,1.0148491859436035,-0.026633521541953087,-0.35358867049217224,-1.277769684791565
4.202992916107178,0.31026536226272583,-0.8817839026451111,1.0163960456848145,-0.025724349543452263,-0.3569130599498749,-1.2790846824645996
4.2233192920684814,0.3115684986114502,-0.8805410265922546,1.0144646167755127,-0.025937410071492195,-0.3525834381580353,-1.279171109199524
4.2434093952178955,0.3097113370895386,-0.8823906779289246,1.0131444931030273,-0.024484319612383842,-0.3516634702682495,-1.2805336713790894
4.26348090171814,0.3115624785423279,-0.8777396082878113,1.0117878913879395,-0.025049371644854546,-0.34657877683639526,-1.2815699577331543
4.283836841583252,0.3077124059200287,-0.8810141086578369,1.0133209228515625,-0.023183545097708702,-0.3543907403945923,-1.2816083431243896
4.303936243057251,0.31224325299263,-0.8800065517425537,1.011300802230835,-0.02518587000668049,-0.3458389639854431,-1.283341407775879
4.323997974395752,0.30928924679756165,-0.8793764114379883,1.0116609334945679,-0.023647097870707512,-0.34651321172714233,-1.2840745449066162
4.3444504737854,0.3086908757686615,-0.8756529688835144,1.0132654905319214,-0.023559527471661568,-0.34798258543014526,-1.2856526374816895
4.364535808563232,0.30914416909217834,-0.877021074295044,1.0081658363342285,-0.022410789504647255,-0.34281787276268005,-1.2864230871200562
4.384589672088623,0.30799439549446106,-0.8769670128822327,1.0075657367706299,-0.02033395506441593,-0.3425646424293518,-1.2858604192733765
4.404911518096924,0.30344611406326294,-0.8754662275314331,1.0068846940994263,-0.019077805802226067,-0.34667980670928955,-1.2852097749710083
4.425000429153442,0.30755072832107544,-0.8762178421020508,1.0065444707870483,-0.019471300765872,-0.3392553925514221,-1.287484884262085
4.445056200027466,0.30812641978263855,-0.8780263066291809,1.0033515691757202,-0.019495366141200066,-0.3346576392650604,-1.2870268821716309
4.465766429901123,0.3063209354877472,-0.8760669231414795,1.0035839080810547,-0.020269611850380898,-0.33291125297546387,-1.2866830825805664
4.485860824584961,0.2970878779888153,-0.8753025531768799,1.0041707754135132,-0.016114523634314537,-0.34707334637641907,-1.284337043762207
4.505926132202148,0.3047657608985901,-0.8691243529319763,1.0027400255203247,-0.020193452015519142,-0.330145001411438,-1.285757064819336
4.526266813278198,0.3016360104084015,-0.8739897608757019,0.99891597032547,-0.018346017226576805,-0.332055926322937,-1.286341667175293
4.546357870101929,0.30228281021118164,-0.8700948357582092,1.0008412599563599,-0.019232099875807762,-0.33221349120140076,-1.2864965200424194
4.56642484664917,0.3046862781047821,-0.8675146698951721,1.0009653568267822,-0.019637437537312508,-0.32697731256484985,-1.287545919418335
4.5865418910980225,0.30336013436317444,-0.8688164353370667,0.9975113868713379,-0.018413638696074486,-0.32757994532585144,-1.2869588136672974
4.606659173965454,0.30060049891471863,-0.8704238533973694,0.9979699850082397,-0.0165932085365057,-0.3324286639690399,-1.2868956327438354
4.626746654510498,0.3029044568538666,-0.8737236857414246,0.9953389167785645,-0.01728668622672558,-0.33006417751312256,-1.2873623371124268
4.646874904632568,0.3031049966812134,-0.872001588344574,0.9937307238578796,-0.019034860655665398,-0.3254852592945099,-1.2879410982131958
4.666956663131714,0.2991470396518707,-0.8659545183181763,1.00052809715271,-0.01829572580754757,-0.3325503468513489,-1.2866628170013428
4.687014102935791,0.2990092933177948,-0.8639727234840393,1.0013227462768555,-0.01874534599483013,-0.3310503661632538,-1.286578893661499
4.7072882652282715,0.29621875286102295,-0.8601910471916199,1.0017935037612915,-0.017308467999100685,-0.33409813046455383,-1.2858401536941528
4.727391719818115,0.3038138449192047,-0.8731142282485962,0.9866989850997925,-0.017021672800183296,-0.31904202699661255,-1.2884856462478638
4.747432470321655,0.29976776242256165,-0.8722664713859558,0.9854613542556763,-0.013848548755049706,-0.3234410285949707,-1.288147211074829
4.76749587059021,0.3005070090293884,-0.8723328113555908,0.9836875200271606,-0.014743300154805183,-0.3214300870895386,-1.2881091833114624
4.7875816822052,0.2971232533454895,-0.8605221509933472,0.9990917444229126,-0.016445981338620186,-0.32927465438842773,-1.2872214317321777
4.807650566101074,0.2988929748535156,-0.8620763421058655,0.9955663084983826,-0.016338912770152092,-0.3243463933467865,-1.2871021032333374
4.827720880508423,0.29709070920944214,-0.8597469329833984,0.9944594502449036,-0.01573873497545719,-0.3244778513908386,-1.286582589149475
4.8478102684021,0.29937800765037537,-0.860991358757019,0.9906506538391113,-0.016623595729470253,-0.31814447045326233,-1.287955641746521
4.867879152297974,0.2920827865600586,-0.8607533574104309,0.992102861404419,-0.014085279777646065,-0.32722121477127075,-1.2857270240783691
4.887952089309692,0.2976246774196625,-0.863787829875946,0.9877322316169739,-0.014219732955098152,-0.3198162615299225,-1.2871142625808716
4.908034324645996,0.2956668734550476,-0.8559082746505737,0.9946831464767456,-0.017552612349390984,-0.32305359840393066,-1.286895990371704
4.928107738494873,0.2960036098957062,-0.8599448800086975,0.9914349317550659,-0.0150358397513628,-0.32161039113998413,-1.2861826419830322
4.948182821273804,0.2971806228160858,-0.8648725152015686,0.9867691993713379,-0.013744762167334557,-0.3183693587779999,-1.2869813442230225
4.968337774276733,0.2957325279712677,-0.8537101149559021,0.9928098917007446,-0.018045736476778984,-0.3206932544708252,-1.2863236665725708
4.988429307937622,0.29835253953933716,-0.8590835332870483,0.9876322746276855,-0.015322862192988396,-0.3142941892147064,-1.2862350940704346
5.008497953414917,0.2966690957546234,-0.8596882820129395,0.987382709980011,-0.015644578263163567,-0.3168947100639343,-1.2871044874191284
5.02878475189209,0.29501843452453613,-0.8561660051345825,0.9881182909011841,-0.016495512798428535,-0.3171229660511017,-1.2862522602081299
5.048880577087402,0.29209616780281067,-0.8564469218254089,0.9855450987815857,-0.01449550874531269,-0.3200826942920685,-1.286092758178711
5.0689568519592285,0.2902391850948334,-0.8561444282531738,0.9858399033546448,-0.013720681890845299,-0.3203328549861908,-1.2855666875839233
5.089008569717407,0.29209017753601074,-0.8583346605300903,0.9811325073242188,-0.01291920430958271,-0.31556448340415955,-1.2854437828063965
5.109104871749878,0.294734388589859,-0.8575108051300049,0.9826664924621582,-0.014110295102000237,-0.3115310072898865,-1.2854564189910889
5.129172325134277,0.2931300401687622,-0.8538573980331421,0.9845188856124878,-0.014947732910513878,-0.31318986415863037,-1.285523533821106
5.149241209030151,0.2930755317211151,-0.8540049195289612,0.981935977935791,-0.01375037245452404,-0.31055116653442383,-1.284636378288269
5.169321298599243,0.2926500737667084,-0.8605813384056091,0.9768015742301941,-0.012649325653910637,-0.31046992540359497,-1.2858593463897705
5.189427375793457,0.29351750016212463,-0.8555809855461121,0.9787678718566895,-0.014578627422451973,-0.30880218744277954,-1.285388708114624
5.20946192741394,0.2920222580432892,-0.8576871156692505,0.976858913898468,-0.012787481769919395,-0.3086654543876648,-1.2851192951202393
5.229541540145874,0.29191383719444275,-0.8471689224243164,0.9859327077865601,-0.017155760899186134,-0.3107585310935974,-1.2853262424468994
5.249622583389282,0.2906855046749115,-0.8470305800437927,0.9856603741645813,-0.015163736417889595,-0.3125695288181305,-1.2846436500549316
5.269714832305908,0.2920960485935211,-0.8512692451477051,0.980209231376648,-0.014206135645508766,-0.3083970546722412,-1.285064458847046
5.289979457855225,0.2927415668964386,-0.8506758809089661,0.9796075820922852,-0.014424795284867287,-0.3076569139957428,-1.285313367843628
5.310129165649414,0.2944994568824768,-0.8490552306175232,0.9791204929351807,-0.015069549903273582,-0.30332857370376587,-1.2853554487228394
5.330150365829468,0.29043713212013245,-0.8510444164276123,0.9790500402450562,-0.014276834204792976,-0.30892589688301086,-1.2849512100219727
5.35023832321167,0.29234832525253296,-0.8535891175270081,0.9762254357337952,-0.013738146051764488,-0.3065296411514282,-1.28511381149292
5.370320081710815,0.2929094433784485,-0.8517391085624695,0.9769164323806763,-0.013798346742987633,-0.30550292134284973,-1.2848695516586304
5.390395641326904,0.28962263464927673,-0.8531110286712646,0.9755939245223999,-0.012614170089364052,-0.3089301288127899,-1.2843791246414185
5.4104602336883545,0.2921268343925476,-0.8508617281913757,0.9760264754295349,-0.014128921553492546,-0.30544930696487427,-1.2848817110061646
5.430543422698975,0.2906663417816162,-0.8515982031822205,0.9759975671768188,-0.01310051791369915,-0.3072364330291748,-1.2844922542572021
5.450670957565308,0.29173544049263,-0.8494780659675598,0.9766688346862793,-0.013414105400443077,-0.3048143982887268,-1.2844208478927612
5.470990419387817,0.29059138894081116,-0.8450310826301575,0.9787763357162476,-0.01517939381301403,-0.30421000719070435,-1.2843427658081055
5.491074085235596,0.2897133231163025,-0.8499868512153625,0.9746483564376831,-0.01304006390273571,-0.3048902153968811,-1.284012794494629
5.511131763458252,0.28931155800819397,-0.8479284644126892,0.9763230681419373,-0.01338214986026287,-0.3078767657279968,-1.2837496995925903
5.531586408615112,0.28995004296302795,-0.8500551581382751,0.9755038619041443,-0.012976234778761864,-0.30630943179130554,-1.2838852405548096
5.551686525344849,0.28959521651268005,-0.8474699258804321,0.9762634038925171,-0.013803062960505486,-0.3060133457183838,-1.2839293479919434
5.5717597007751465,0.28947824239730835,-0.8527989983558655,0.9724344611167908,-0.011872032657265663,-0.3053795099258423,-1.2833974361419678
5.591811656951904,0.28819799423217773,-0.8493698835372925,0.9738343954086304,-0.012194665148854256,-0.3079686164855957,-1.2832517623901367
5.611902713775635,0.28964900970458984,-0.8483730554580688,0.9750850200653076,-0.013364257290959358,-0.3053708076477051,-1.283830165863037
5.631973743438721,0.2891699969768524,-0.8485174179077148,0.9741503596305847,-0.01276346854865551,-0.3050190210342407,-1.2834866046905518
5.652051687240601,0.28938543796539307,-0.8464462161064148,0.9745278358459473,-0.013059450313448906,-0.30403444170951843,-1.2835168838500977
5.6721367835998535,0.293557345867157,-0.8443269729614258,0.9740031361579895,-0.01420273445546627,-0.29553064703941345,-1.2835077047348022
5.692245006561279,0.2893752455711365,-0.8504965305328369,0.9703152179718018,-0.01188150979578495,-0.3001478314399719,-1.2831424474716187
5.712302207946777,0.2926594018936157,-0.849602460861206,0.968422532081604,-0.01283385418355465,-0.2951536476612091,-1.2831320762634277
5.732598304748535,0.28902149200439453,-0.84959477186203,0.969514012336731,-0.01223609410226345,-0.3024609088897705,-1.2826107740402222
5.752726793289185,0.2891485095024109,-0.8453139662742615,0.9747433662414551,-0.013543928042054176,-0.30350786447525024,-1.2821718454360962
5.77278470993042,0.2882380783557892,-0.8399782776832581,0.9779691696166992,-0.01548190601170063,-0.3039085566997528,-1.2813774347305298
5.792898178100586,0.28773555159568787,-0.8345649838447571,0.9823706746101379,-0.016496634110808372,-0.3051343560218811,-1.281039834022522
5.8130128383636475,0.2901168763637543,-0.8499773740768433,0.9656862616539001,-0.01334180124104023,-0.29756680130958557,-1.282152771949768
5.833071708679199,0.28922131657600403,-0.8473020195960999,0.9679682850837708,-0.012852786108851433,-0.3005776107311249,-1.2819545269012451
5.8534016609191895,0.2887817621231079,-0.8448885083198547,0.9693214893341064,-0.013204379007220268,-0.3019627630710602,-1.2811191082000732
5.873495578765869,0.28833872079849243,-0.8469971418380737,0.970626950263977,-0.011819621548056602,-0.3029319643974304,-1.2807483673095703
5.893568277359009,0.2883824110031128,-0.8446841239929199,0.9713588953018188,-0.01276499591767788,-0.30381253361701965,-1.2806905508041382
5.913620710372925,0.28881219029426575,-0.846770167350769,0.9701823592185974,-0.012557676061987877,-0.30159392952919006,-1.2805938720703125
5.933709144592285,0.28863200545310974,-0.8462033867835999,0.9698795080184937,-0.012281740084290504,-0.3016546666622162,-1.2808257341384888
5.953776597976685,0.28791722655296326,-0.8449522852897644,0.9704863429069519,-0.012402506545186043,-0.3025047481060028,-1.280433177947998
5.973832845687866,0.28860241174697876,-0.8458909392356873,0.9697222709655762,-0.012462949380278587,-0.3015363812446594,-1.2805631160736084
5.993920087814331,0.28827816247940063,-0.8445829153060913,0.9712232947349548,-0.012805474922060966,-0.30203789472579956,-1.2804169654846191
6.0139970779418945,0.2880943715572357,-0.8426510095596313,0.9723727107048035,-0.01373276673257351,-0.30173349380493164,-1.280340552330017
6.03406834602356,0.28811004757881165,-0.8439030051231384,0.9714174866676331,-0.01287456788122654,-0.3017096519470215,-1.2802958488464355
6.054215669631958,0.2886136770248413,-0.8446936011314392,0.9699445962905884,-0.012741504237055779,-0.30077871680259705,-1.280815601348877
6.074305534362793,0.2883293926715851,-0.8445578217506409,0.9701685905456543,-0.01283259503543377,-0.3015831708908081,-1.2802623510360718
6.094357013702393,0.2888241410255432,-0.845392644405365,0.9694955945014954,-0.01270798034965992,-0.30057597160339355,-1.280165672302246
6.114650011062622,0.28875795006752014,-0.8459299802780151,0.9691287279129028,-0.01232512854039669,-0.3006476163864136,-1.2800562381744385
6.134746789932251,0.2876132130622864,-0.8437240123748779,0.9709262847900391,-0.012732958421111107,-0.3031456470489502,-1.2791497707366943
6.154818296432495,0.28855958580970764,-0.8454142212867737,0.9694117307662964,-0.012441454455256462,-0.3014286458492279,-1.2792505025863647
6.1751625537872314,0.28799280524253845,-0.8454815745353699,0.9693560600280762,-0.012331238016486168,-0.3021640181541443,-1.2791539430618286
6.195255756378174,0.28837263584136963,-0.8429377675056458,0.9715605974197388,-0.013436945155262947,-0.302207350730896,-1.279174566268921
6.21532416343689,0.28839272260665894,-0.8439046144485474,0.9704465866088867,-0.013656659051775932,-0.3004104793071747,-1.2793089151382446
6.235382795333862,0.28852903842926025,-0.8444284796714783,0.9698357582092285,-0.012689566239714622,-0.30125346779823303,-1.2792857885360718
6.255471467971802,0.28866443037986755,-0.8446177244186401,0.9692680239677429,-0.012499583885073662,-0.3011799454689026,-1.2790991067886353
6.275538206100464,0.2881529629230499,-0.8438618779182434,0.9692180156707764,-0.012880804017186165,-0.3019275665283203,-1.27872633934021
6.295595169067383,0.2886893153190613,-0.8450124859809875,0.9689908027648926,-0.012604797258973122,-0.30101338028907776,-1.2791612148284912
6.315687656402588,0.2883265018463135,-0.8432994484901428,0.970324695110321,-0.01290806196630001,-0.30195534229278564,-1.2789424657821655
6.335760831832886,0.2873399257659912,-0.8437255024909973,0.9700970649719238,-0.012336736544966698,-0.30328744649887085,-1.2788842916488647
6.35580849647522,0.28824496269226074,-0.8436444401741028,0.9696047306060791,-0.01278395764529705,-0.30182281136512756,-1.278895616531372
6.375999212265015,0.288467139005661,-0.8436163663864136,0.9699004888534546,-0.012861797586083412,-0.3016146719455719,-1.2790963649749756
6.396088123321533,0.2883979082107544,-0.843790590763092,0.9698772430419922,-0.01284216158092022,-0.30168500542640686,-1.2787545919418335
6.416151523590088,0.28848132491111755,-0.8447421193122864,0.9695163369178772,-0.01263146661221981,-0.3015558123588562,-1.278660774230957
6.436212062835693,0.288431853055954,-0.8450490832328796,0.9687463641166687,-0.012495039030909538,-0.30122196674346924,-1.2787539958953857
6.456317186355591,0.2874980568885803,-0.8434540629386902,0.9699357748031616,-0.012652752920985222,-0.30311983823776245,-1.2783546447753906
6.476377487182617,0.28863245248794556,-0.843201220035553,0.9699753522872925,-0.013037124648690224,-0.30139395594596863,-1.278731346130371
6.496433258056641,0.2877267897129059,-0.8439288139343262,0.9697427749633789,-0.012550560757517815,-0.30251726508140564,-1.278663158416748
6.516608953475952,0.28908100724220276,-0.8440068364143372,0.9695354104042053,-0.013172877952456474,-0.3006231486797333,-1.2789818048477173
6.536656856536865,0.28841108083724976,-0.843923032283783,0.9695831537246704,-0.01291726715862751,-0.3016880750656128,-1.278635025024414
6.556695938110352,0.28839415311813354,-0.8439608216285706,0.969406247138977,-0.012940799817442894,-0.30185437202453613,-1.2784857749938965
6.57749342918396,0.28843945264816284,-0.8439858555793762,0.9695974588394165,-0.012866510078310966,-0.3016481101512909,-1.2786446809768677
6.597586631774902,0.28831854462623596,-0.8438217043876648,0.9695191383361816,-0.012862784788012505,-0.3018314242362976,-1.2785625457763672
6.6176438331604,0.2889036238193512,-0.84389728307724,0.9695849418640137,-0.013080762699246407,-0.3008318543434143,-1.2787126302719116
6.6377034187316895,0.2884937822818756,-0.8440407514572144,0.9697047472000122,-0.01289241574704647,-0.3015456795692444,-1.2786779403686523
6.657811641693115,0.28876352310180664,-0.8437257409095764,0.9694333076477051,-0.013073047623038292,-0.3010238707065582,-1.2786121368408203
6.677878141403198,0.2884621322154999,-0.8439450263977051,0.9697107672691345,-0.012904560193419456,-0.3016549348831177,-1.2786670923233032
6.697933912277222,0.2887454330921173,-0.8438727259635925,0.9694097638130188,-0.013074381276965141,-0.30104365944862366,-1.2785464525222778
6.718034744262695,0.2882201373577118,-0.8440808653831482,0.9698464274406433,-0.012674806639552116,-0.3020109236240387,-1.2785027027130127
6.738084077835083,0.28846535086631775,-0.8442491888999939,0.9699621200561523,-0.012742286548018456,-0.30188941955566406,-1.2783889770507812
6.758148431777954,0.28837117552757263,-0.8438712358474731,0.969571590423584,-0.012829577550292015,-0.3018459677696228,-1.2783727645874023
6.778253078460693,0.28886669874191284,-0.8440495133399963,0.9698309302330017,-0.01297544501721859,-0.3012081980705261,-1.2783982753753662
6.7983176708221436,0.28852933645248413,-0.8441483378410339,0.96971195936203,-0.012890486046671867,-0.3022080361843109,-1.2782018184661865
6.818480730056763,0.2886660695075989,-0.8441924452781677,0.9700093269348145,-0.012877559289336205,-0.30202651023864746,-1.2781658172607422
6.838593244552612,0.2882685959339142,-0.8439194560050964,0.9694684743881226,-0.01283336989581585,-0.3023974299430847,-1.2783303260803223
6.858649492263794,0.2883012592792511,-0.8440980315208435,0.9697922468185425,-0.012742018327116966,-0.3021552562713623,-1.2780697345733643
6.87874698638916,0.2889220714569092,-0.8440166711807251,0.9697883129119873,-0.013074668124318123,-0.3013256788253784,-1.2782199382781982
6.898813724517822,0.28906121850013733,-0.8441657423973083,0.9699941873550415,-0.01309116743505001,-0.30113860964775085,-1.2783173322677612
6.918903589248657,0.2885337173938751,-0.8441491723060608,0.9700045585632324,-0.012870220467448235,-0.3020683526992798,-1.2782124280929565
6.938969612121582,0.28874731063842773,-0.8440333008766174,0.969481885433197,-0.013033049181103706,-0.30152297019958496,-1.2780369520187378
6.959049701690674,0.2884083092212677,-0.8440634608268738,0.9697191715240479,-0.012845853343605995,-0.3021854758262634,-1.278101921081543
6.979243755340576,0.2885936200618744,-0.8441254496574402,0.9698055982589722,-0.012899598106741905,-0.3021458387374878,-1.2781789302825928
6.999331951141357,0.28838077187538147,-0.8442860841751099,0.9699694514274597,-0.01270674355328083,-0.3024166524410248,-1.2778992652893066
7.037329912185669,0.28824543952941895,-0.8440064787864685,0.9697046279907227,-0.012735242024064064,-0.3023509979248047,-1.2778546810150146
7.057412624359131,0.2884159982204437,-0.8442770838737488,0.9699971079826355,-0.012789169326424599,-0.30239999294281006,-1.2779581546783447
7.0774760246276855,0.28822699189186096,-0.8441956639289856,0.9698638916015625,-0.012721629813313484,-0.3025294244289398,-1.2778818607330322
7.09768533706665,0.2886227071285248,-0.8444210886955261,0.9700218439102173,-0.013016780838370323,-0.30231744050979614,-1.2780488729476929
7.1177709102630615,0.28884273767471313,-0.8441554307937622,0.9698137044906616,-0.012952929362654686,-0.30167362093925476,-1.2779821157455444
7.137831687927246,0.28853005170822144,-0.8442813754081726,0.970072329044342,-0.012889189645648003,-0.3023958206176758,-1.2777818441390991
7.157922983169556,0.2883659303188324,-0.8442782759666443,0.969967782497406,-0.0128262247890234,-0.3025912344455719,-1.2775943279266357
7.1779913902282715,0.2883336544036865,-0.8442792296409607,0.9699126482009888,-0.012945873662829399,-0.3026183247566223,-1.2775919437408447
7.198051929473877,0.2888142168521881,-0.8452531695365906,0.9694100618362427,-0.012593535706400871,-0.30231621861457825,-1.2776157855987549
7.2181408405303955,0.2887895107269287,-0.8435428738594055,0.9707214832305908,-0.01278282143175602,-0.30280646681785583,-1.2775088548660278
7.238202095031738,0.28879907727241516,-0.8450158834457397,0.9712738394737244,-0.012793144211173058,-0.30368363857269287,-1.2772407531738281
7.258269309997559,0.28914105892181396,-0.844700813293457,0.9708055257797241,-0.013091186061501503,-0.30206298828125,-1.2773785591125488
7.278385400772095,0.2882857024669647,-0.8448981642723083,0.9703779220581055,-0.012892944738268852,-0.3034120798110962,-1.2773668766021729
7.298460960388184,0.28806519508361816,-0.8448989987373352,0.9704874753952026,-0.01265130378305912,-0.30421796441078186,-1.277029037475586
7.318535804748535,0.28868386149406433,-0.8448284864425659,0.9706481099128723,-0.012918425723910332,-0.3033217787742615,-1.2771592140197754
7.338628768920898,0.2880685031414032,-0.8448639512062073,0.9707831740379333,-0.012621304020285606,-0.3041819930076599,-1.2770559787750244
7.358698129653931,0.28851455450057983,-0.8447678685188293,0.9706847667694092,-0.01283530704677105,-0.3033791780471802,-1.2771106958389282
7.378756523132324,0.2885529696941376,-0.8448081612586975,0.9707247018814087,-0.012859126552939415,-0.3033027946949005,-1.2771247625350952
7.398852586746216,0.2885648310184479,-0.844819188117981,0.9707515835762024,-0.012859335169196129,-0.303286612033844,-1.2771337032318115
7.418924570083618,0.28898367285728455,-0.8448416590690613,0.9707948565483093,-0.013006797060370445,-0.30234456062316895,-1.2772440910339355
7.438978910446167,0.28862372040748596,-0.844757080078125,0.9706302881240845,-0.01292426697909832,-0.30333003401756287,-1.2770800590515137
7.459062099456787,0.28903552889823914,-0.8447410464286804,0.970734715461731,-0.013053534552454948,-0.30248475074768066,-1.2772260904312134
7.47914457321167,0.2885286509990692,-0.8447806239128113,0.9707105159759521,-0.012848904356360435,-0.3033149540424347,-1.2770884037017822
7.499250650405884,0.28886762261390686,-0.8451472520828247,0.970790445804596,-0.01303868554532528,-0.3031506836414337,-1.2772016525268555
7.519347190856934,0.2880921959877014,-0.844693124294281,0.9708510637283325,-0.012616084888577461,-0.3041946291923523,-1.2771356105804443
7.539418458938599,0.28850123286247253,-0.8448452353477478,0.9705531597137451,-0.0129102673381567,-0.30354467034339905,-1.2770256996154785
7.559764385223389,0.28814882040023804,-0.8448674082756042,0.970781683921814,-0.0126559529453516,-0.30419108271598816,-1.2770074605941772
7.579901695251465,0.28846919536590576,-0.8451196551322937,0.9709123969078064,-0.012835660949349403,-0.30394309759140015,-1.2772645950317383
7.599961280822754,0.2885701358318329,-0.844683825969696,0.9707303047180176,-0.012852286919951439,-0.3035174012184143,-1.2770640850067139
7.620093584060669,0.28862306475639343,-0.8449719548225403,0.9706077575683594,-0.01296517439186573,-0.3033963441848755,-1.2771241664886475
7.640182733535767,0.288451224565506,-0.8450116515159607,0.97032231092453,-0.01294730044901371,-0.30349308252334595,-1.2771964073181152
7.660273313522339,0.28923431038856506,-0.8447005152702332,0.9707291722297668,-0.013170881196856499,-0.30241623520851135,-1.2774046659469604
7.680521726608276,0.28855496644973755,-0.8448402285575867,0.9707875847816467,-0.012898361310362816,-0.3033080995082855,-1.2771775722503662
7.700639486312866,0.2886843681335449,-0.84486323595047,0.9707750082015991,-0.012949259951710701,-0.3032776415348053,-1.277187466621399
7.720722436904907,0.288626104593277,-0.84477299451828,0.9708226919174194,-0.012977531179785728,-0.3034571409225464,-1.277234435081482
7.740769386291504,0.2887698709964752,-0.8448799252510071,0.9707861542701721,-0.012958260253071785,-0.30331021547317505,-1.2774522304534912
7.760895490646362,0.28923434019088745,-0.8447656035423279,0.9707433581352234,-0.013193583115935326,-0.30256417393684387,-1.2772572040557861
7.78096604347229,0.2885335683822632,-0.8446094393730164,0.9709148406982422,-0.01289132796227932,-0.303445965051651,-1.277276873588562
7.801027536392212,0.2886441648006439,-0.8449011445045471,0.9707017540931702,-0.012981878593564034,-0.30344969034194946,-1.2773125171661377
7.8210978507995605,0.28824782371520996,-0.8448283076286316,0.970786452293396,-0.012782128527760506,-0.3043077290058136,-1.2770986557006836
7.8411829471588135,0.28929153084754944,-0.8446781039237976,0.9707446098327637,-0.013201678171753883,-0.3025074303150177,-1.2776907682418823
7.861260652542114,0.28906816244125366,-0.8446725010871887,0.9707460403442383,-0.01317129097878933,-0.3026045560836792,-1.2774896621704102
7.881370544433594,0.288551926612854,-0.844964325428009,0.9707005023956299,-0.01289539597928524,-0.3034079670906067,-1.2770335674285889
7.901448965072632,0.2888469994068146,-0.8450478911399841,0.9706757068634033,-0.013197144493460655,-0.3033517301082611,-1.2775182723999023
7.921509504318237,0.2887028753757477,-0.844856858253479,0.9706801176071167,-0.012997960671782494,-0.303419828414917,-1.2774813175201416
7.941699266433716,0.28896448016166687,-0.8450417518615723,0.9708254337310791,-0.013065578415989876,-0.30320820212364197,-1.2775921821594238
7.961817979812622,0.28939470648765564,-0.8446925282478333,0.9708163738250732,-0.013266755267977715,-0.30250388383865356,-1.2776761054992676
7.981902837753296,0.2883399426937103,-0.8450033664703369,0.9708430171012878,-0.012868968769907951,-0.3042370080947876,-1.277277946472168
8.001948118209839,0.2886233627796173,-0.8447796702384949,0.9705578088760376,-0.013006819412112236,-0.30356132984161377,-1.2774903774261475
8.022031784057617,0.28941795229911804,-0.844851016998291,0.9709181785583496,-0.013255259022116661,-0.30249908566474915,-1.2773340940475464
8.042081594467163,0.2893674969673157,-0.8451265692710876,0.9709872007369995,-0.013164913281798363,-0.3025516867637634,-1.2776226997375488
8.062173843383789,0.2890463173389435,-0.8451139330863953,0.9709715247154236,-0.013065023347735405,-0.30309900641441345,-1.2776366472244263
8.082255601882935,0.2887818217277527,-0.8448159694671631,0.9706194400787354,-0.013061312958598137,-0.30346813797950745,-1.277449607849121
8.102338075637817,0.2881525158882141,-0.8446145057678223,0.9708288908004761,-0.012849045917391777,-0.3045129179954529,-1.277277946472168
8.122397422790527,0.2892422378063202,-0.8445397615432739,0.9707745313644409,-0.013294851407408714,-0.3028073310852051,-1.2774403095245361
8.142514705657959,0.28871950507164,-0.8447418808937073,0.9707839488983154,-0.013004457578063011,-0.3034837245941162,-1.2774702310562134
8.162599086761475,0.2893017828464508,-0.8448714017868042,0.9710497856140137,-0.013173783197999,-0.3026321530342102,-1.2776951789855957
8.182668209075928,0.28988227248191833,-0.845174252986908,0.9713485240936279,-0.013443795964121819,-0.3023071587085724,-1.2779326438903809
8.202755689620972,0.2886744737625122,-0.8449245095252991,0.9707140922546387,-0.012975407764315605,-0.3037785589694977,-1.2774357795715332
8.222832441329956,0.28929558396339417,-0.8436629176139832,0.9718387722969055,-0.01369214616715908,-0.30355605483055115,-1.2774567604064941
8.242914915084839,0.2887546420097351,-0.8445159196853638,0.9719969034194946,-0.012883944436907768,-0.30439507961273193,-1.2775263786315918
8.263077020645142,0.2884770929813385,-0.8426101803779602,0.9731177687644958,-0.013557055965065956,-0.305084764957428,-1.277309536933899
8.28318977355957,0.28895530104637146,-0.8445736765861511,0.9708282947540283,-0.013203954324126244,-0.3037852644920349,-1.2777221202850342
8.303258657455444,0.28944632411003113,-0.8454281091690063,0.9706507921218872,-0.013354754075407982,-0.30270877480506897,-1.2777647972106934
8.323531150817871,0.2890750765800476,-0.8453735709190369,0.9715605974197388,-0.013165408745408058,-0.30419209599494934,-1.277968406677246
8.343621492385864,0.2891492247581482,-0.8452452421188354,0.971088171005249,-0.013095704838633537,-0.30382150411605835,-1.277585506439209
8.363688945770264,0.2896023094654083,-0.8452278971672058,0.971229076385498,-0.013452069833874702,-0.3029387891292572,-1.2777564525604248
8.383756160736084,0.2893044054508209,-0.8453800082206726,0.9714661836624146,-0.013401435688138008,-0.30367806553840637,-1.2777984142303467
8.403875589370728,0.2892521917819977,-0.8451901078224182,0.971331000328064,-0.013318484649062157,-0.3037657141685486,-1.277817964553833
8.423950910568237,0.28882861137390137,-0.8451789021492004,0.9712338447570801,-0.013305505737662315,-0.3039829432964325,-1.2776319980621338
8.44404125213623,0.2887793481349945,-0.845295250415802,0.97133469581604,-0.013134380802512169,-0.3045326769351959,-1.278031349182129
8.464110851287842,0.28940799832344055,-0.8454420566558838,0.9713956117630005,-0.013327514752745628,-0.30363941192626953,-1.2777125835418701
8.484187364578247,0.2892371416091919,-0.845346987247467,0.9713445901870728,-0.01326737366616726,-0.3037204444408417,-1.277947187423706
8.504247665405273,0.28961652517318726,-0.8466230034828186,0.9705954790115356,-0.013037888333201408,-0.30282020568847656,-1.2778773307800293
8.52453327178955,0.28898441791534424,-0.8451820015907288,0.9718698263168335,-0.013281909748911858,-0.3044010102748871,-1.2777501344680786
8.544620513916016,0.28889551758766174,-0.8454796671867371,0.9713255763053894,-0.013123953714966774,-0.3042943775653839,-1.2776602506637573
8.564675569534302,0.2886909246444702,-0.8455654382705688,0.9713819026947021,-0.012991366907954216,-0.30493688583374023,-1.2777701616287231
8.584744691848755,0.28867417573928833,-0.8456003069877625,0.9715036153793335,-0.012902462854981422,-0.30488499999046326,-1.2777650356292725
8.604843378067017,0.2893937826156616,-0.8455904722213745,0.9714222550392151,-0.013328516855835915,-0.3039999306201935,-1.2779405117034912
8.624902248382568,0.2892076075077057,-0.8457298278808594,0.9713566303253174,-0.013233078643679619,-0.30402952432632446,-1.2778184413909912
8.644989967346191,0.28908875584602356,-0.8455488085746765,0.9712830185890198,-0.013240424916148186,-0.3042221665382385,-1.277740240097046
8.66506290435791,0.28919169306755066,-0.8455090522766113,0.9713597893714905,-0.013213364407420158,-0.30409571528434753,-1.2778629064559937
8.685110330581665,0.289238840341568,-0.845525324344635,0.971481204032898,-0.013240957632660866,-0.3040655255317688,-1.277909755706787
8.705408334732056,0.28919604420661926,-0.8455153107643127,0.9713551998138428,-0.013213349506258965,-0.3040889501571655,-1.2778667211532593
8.725498914718628,0.28927168250083923,-0.8456445932388306,0.9712721109390259,-0.013292079791426659,-0.30412763357162476,-1.277791142463684
8.745559692382812,0.28916430473327637,-0.8456338047981262,0.9714593887329102,-0.013150712475180626,-0.303956538438797,-1.2779203653335571
8.76569676399231,0.28922903537750244,-0.8454195857048035,0.9712226390838623,-0.013262754306197166,-0.3042007088661194,-1.2778114080429077
8.785868883132935,0.289204865694046,-0.84572833776474,0.971387505531311,-0.01320977695286274,-0.3040540814399719,-1.2778382301330566
8.805868864059448,0.28931963443756104,-0.8454616665840149,0.9715403318405151,-0.013213003054261208,-0.30396223068237305,-1.2780169248580933
8.825928926467896,0.2888872027397156,-0.8455412983894348,0.9717282056808472,-0.013034084811806679,-0.30476996302604675,-1.2779864072799683
8.846022605895996,0.28885072469711304,-0.8456369042396545,0.9713023900985718,-0.013052200898528099,-0.3048773407936096,-1.2778007984161377
8.866088151931763,0.28900018334388733,-0.8454599976539612,0.9712061882019043,-0.013140162453055382,-0.3041599988937378,-1.278090238571167
8.886158227920532,0.28916165232658386,-0.8455172181129456,0.9712264537811279,-0.01323048584163189,-0.30410727858543396,-1.2778619527816772
8.90625,0.2896108627319336,-0.8453510999679565,0.9712991118431091,-0.013422442600131035,-0.3033253252506256,-1.278167963027954
8.926318168640137,0.2892228364944458,-0.8455590009689331,0.9714123010635376,-0.013219578191637993,-0.3039560914039612,-1.278095006942749
8.946369409561157,0.28919345140457153,-0.8455323576927185,0.9713780879974365,-0.013194253668189049,-0.3040095567703247,-1.2780855894088745
8.966471433639526,0.2891061305999756,-0.8454055190086365,0.9712722301483154,-0.01318608783185482,-0.3041585087776184,-1.2780239582061768
8.986565113067627,0.2892051637172699,-0.84551602602005,0.9714300036430359,-0.013214698061347008,-0.3040238618850708,-1.2781012058258057
9.006630420684814,0.2891508638858795,-0.8454864025115967,0.9713431000709534,-0.013194413855671883,-0.3040604591369629,-1.2780512571334839
9.026731491088867,0.28909748792648315,-0.8456149101257324,0.9712212085723877,-0.013196257874369621,-0.3041013479232788,-1.2779620885849
9.046859979629517,0.28972893953323364,-0.8455624580383301,0.9713630080223083,-0.013409299775958061,-0.3030639588832855,-1.2781981229782104
9.066909551620483,0.289743572473526,-0.8453170657157898,0.9714671969413757,-0.0134208332747221,-0.3031275272369385,-1.2782591581344604
9.087051153182983,0.2889952063560486,-0.8454856276512146,0.9712376594543457,-0.0130967628210783,-0.304073691368103,-1.278013825416565
9.107071876525879,0.28916221857070923,-0.8455123901367188,0.9713073968887329,-0.013193497434258461,-0.30403292179107666,-1.2780654430389404
9.127150535583496,0.28913673758506775,-0.8455095291137695,0.9712272882461548,-0.013207821175456047,-0.3040105402469635,-1.278315782546997
9.147271633148193,0.2892874479293823,-0.8454382419586182,0.9716089367866516,-0.013133490458130836,-0.30389291048049927,-1.2781380414962769
9.167316436767578,0.28905460238456726,-0.8453898429870605,0.9712442755699158,-0.013105189427733421,-0.3041165769100189,-1.2781715393066406
9.187540054321289,0.28932762145996094,-0.8455169200897217,0.9715197682380676,-0.013189619407057762,-0.3037985861301422,-1.278473138809204
9.20763611793518,0.28930988907814026,-0.8457080721855164,0.971510648727417,-0.013184210285544395,-0.3037568926811218,-1.278395652770996
9.227704763412476,0.2892394959926605,-0.8456709980964661,0.971366286277771,-0.013155447319149971,-0.30380332469940186,-1.2783297300338745
9.247836112976074,0.28907710313796997,-0.8456224799156189,0.9711812138557434,-0.013169961050152779,-0.3040374517440796,-1.278165340423584
9.267927169799805,0.28929802775382996,-0.8454597592353821,0.9715654850006104,-0.013188904151320457,-0.3038427531719208,-1.2784444093704224
9.28798246383667,0.28919780254364014,-0.8455305099487305,0.9715996980667114,-0.013108698651194572,-0.3037625551223755,-1.2784419059753418
9.308059215545654,0.28902414441108704,-0.845597505569458,0.9710566401481628,-0.013171261176466942,-0.3040463924407959,-1.2780964374542236
9.32815408706665,0.28906726837158203,-0.8454050421714783,0.9711593985557556,-0.013157038018107414,-0.3041055202484131,-1.2782096862792969
9.348219156265259,0.28927794098854065,-0.8455283045768738,0.9712773561477661,-0.013242723420262337,-0.3039652407169342,-1.2782821655273438
9.368309259414673,0.28904372453689575,-0.8455849289894104,0.9711591601371765,-0.013147292658686638,-0.3041101098060608,-1.2781561613082886
9.388389587402344,0.2891506850719452,-0.8455232977867126,0.9712681174278259,-0.01316286064684391,-0.3039732575416565,-1.2782706022262573
9.40849256515503,0.28905928134918213,-0.8456024527549744,0.9711555242538452,-0.013170300051569939,-0.30406445264816284,-1.2781498432159424
9.428675174713135,0.28920191526412964,-0.8455397486686707,0.9714247584342957,-0.013189369812607765,-0.3039381504058838,-1.2783194780349731
9.44868803024292,0.28917309641838074,-0.8455355763435364,0.9713535308837891,-0.013167964294552803,-0.3039528429508209,-1.278289556503296
9.468729019165039,0.2886279225349426,-0.8454844951629639,0.9714829325675964,-0.012883452698588371,-0.3047342300415039,-1.2782986164093018
9.488861799240112,0.28876736760139465,-0.8457725644111633,0.9712029099464417,-0.013030355796217918,-0.30476343631744385,-1.2781102657318115
9.508938074111938,0.28909361362457275,-0.8454628586769104,0.9711946249008179,-0.01314503513276577,-0.30406829714775085,-1.2782361507415771
9.528989315032959,0.2892322838306427,-0.845639169216156,0.9713692665100098,-0.013177158311009407,-0.3038376569747925,-1.2783288955688477
9.549265146255493,0.2891333997249603,-0.8454967141151428,0.971304178237915,-0.013168266043066978,-0.3039938807487488,-1.2782567739486694
9.569385051727295,0.28929877281188965,-0.845460832118988,0.9715638756752014,-0.013188807293772697,-0.30384162068367004,-1.2784451246261597
9.589383602142334,0.2892896831035614,-0.8454680442810059,0.9715544581413269,-0.013172673061490059,-0.3038405776023865,-1.278433084487915
9.610492944717407,0.2891390025615692,-0.8454270362854004,0.9714067578315735,-0.013185227289795876,-0.30406454205513,-1.2782782316207886
9.630584239959717,0.28918561339378357,-0.8455644249916077,0.9712746143341064,-0.013164246454834938,-0.30392986536026,-1.2782987356185913
9.650648593902588,0.2891045808792114,-0.845412015914917,0.9714282751083374,-0.013099117204546928,-0.30390745401382446,-1.278374433517456
9.670753717422485,0.28920072317123413,-0.8453759551048279,0.9713674187660217,-0.013157611712813377,-0.3039305806159973,-1.2783424854278564
9.690868616104126,0.28933584690093994,-0.8455796837806702,0.9713829755783081,-0.01324429176747799,-0.30390408635139465,-1.2783293724060059
9.710936546325684,0.28915488719940186,-0.8455402255058289,0.9712666273117065,-0.013147125020623207,-0.30396249890327454,-1.2782633304595947
9.731185674667358,0.28925201296806335,-0.8456503748893738,0.9714370965957642,-0.013182112947106361,-0.3038218021392822,-1.2783472537994385
9.751268863677979,0.28957876563072205,-0.8453523516654968,0.9712395668029785,-0.013372549787163734,-0.3032482862472534,-1.2783150672912598
9.771331548690796,0.28915759921073914,-0.8455209136009216,0.971328854560852,-0.013189839199185371,-0.30393797159194946,-1.2782578468322754
9.791402816772461,0.28916648030281067,-0.8455407023429871,0.9713250994682312,-0.01316906325519085,-0.3039417862892151,-1.278290033340454
9.811524868011475,0.28913384675979614,-0.8455279469490051,0.9712313413619995,-0.013147668913006783,-0.30397287011146545,-1.2782514095306396
9.83159589767456,0.2892991900444031,-0.8454646468162537,0.9715432524681091,-0.013190267607569695,-0.3038388788700104,-1.2784461975097656
9.851652383804321,0.28918543457984924,-0.8455414175987244,0.9713953733444214,-0.013174375519156456,-0.30394431948661804,-1.2783013582229614
9.871776580810547,0.2890802323818207,-0.8454098105430603,0.9712047576904297,-0.013161195442080498,-0.30410075187683105,-1.278222680091858
9.891830444335938,0.2894532084465027,-0.8453831076622009,0.9712202548980713,-0.013308940455317497,-0.3032163679599762,-1.278294563293457
9.911922693252563,0.28969189524650574,-0.8454862236976624,0.9714028239250183,-0.013422882184386253,-0.3030526638031006,-1.2783905267715454
9.931991577148438,0.28907421231269836,-0.8453933000564575,0.9713829755783081,-0.013089871034026146,-0.30392181873321533,-1.278350591659546
9.952065706253052,0.2899022400379181,-0.8454250693321228,0.9714866876602173,-0.013457166031002998,-0.3029768466949463,-1.2785303592681885
9.972116470336914,0.2892511188983917,-0.8457915782928467,0.9714848399162292,-0.013226902112364769,-0.3038043975830078,-1.2782829999923706
9.992217540740967,0.28911271691322327,-0.8454689383506775,0.9712522029876709,-0.013185510411858559,-0.3040190041065216,-1.2782502174377441
10.012336730957031,0.28868046402931213,-0.8455839157104492,0.9712854623794556,-0.012815235182642937,-0.30476826429367065,-1.2781682014465332
10.032405138015747,0.2890515625476837,-0.84559565782547,0.971129298210144,-0.013136273249983788,-0.30410653352737427,-1.2781568765640259
10.05248475074768,0.2892896831035614,-0.8456575274467468,0.9715173840522766,-0.013200858607888222,-0.3038095533847809,-1.2783780097961426
10.072563648223877,0.28930553793907166,-0.8456922173500061,0.971448540687561,-0.01303100399672985,-0.3037288188934326,-1.2783546447753906
10.092623949050903,0.2890830338001251,-0.8456131815910339,0.971206545829773,-0.013191787526011467,-0.30407050251960754,-1.2781774997711182
10.112683296203613,0.2898087799549103,-0.8454034924507141,0.9714997410774231,-0.01324906013906002,-0.3029569983482361,-1.2785089015960693
10.132774591445923,0.28926631808280945,-0.8456067442893982,0.9714348316192627,-0.013038797304034233,-0.3037984371185303,-1.2783100605010986
10.152852296829224,0.2897290885448456,-0.8455266356468201,0.9713461399078369,-0.013220908120274544,-0.3030105531215668,-1.2783879041671753
10.172932386398315,0.2889763116836548,-0.8454458713531494,0.9712520837783813,-0.013133784756064415,-0.30408361554145813,-1.2782336473464966
10.193006753921509,0.2891024649143219,-0.8454739451408386,0.9712480306625366,-0.013171864673495293,-0.30401989817619324,-1.2782373428344727
10.213075637817383,0.28871843218803406,-0.8456231951713562,0.9713220000267029,-0.012812500819563866,-0.30472689867019653,-1.2781987190246582
10.233194828033447,0.2892364263534546,-0.845649003982544,0.9712243676185608,-0.013273639604449272,-0.30403459072113037,-1.2782138586044312
10.253260374069214,0.2897288203239441,-0.8455802798271179,0.9713564515113831,-0.013386940583586693,-0.30299457907676697,-1.2784141302108765
10.273309707641602,0.2897680997848511,-0.8454058766365051,0.9713786244392395,-0.013269959017634392,-0.302959144115448,-1.2784606218338013
10.29343843460083,0.28906798362731934,-0.8453901410102844,0.9713807106018066,-0.013101188465952873,-0.3039557635784149,-1.2783504724502563
10.313528299331665,0.28936702013015747,-0.8456306457519531,0.971299409866333,-0.01307774893939495,-0.3038181662559509,-1.2783210277557373
10.333577156066895,0.28933054208755493,-0.8454882502555847,0.9714763164520264,-0.013047320768237114,-0.3038092851638794,-1.278434157371521
10.353664875030518,0.2887580096721649,-0.8455124497413635,0.971409797668457,-0.012958506122231483,-0.3047447204589844,-1.2783148288726807
10.3737633228302,0.2891048789024353,-0.845681369304657,0.9712185859680176,-0.013162659481167793,-0.3040040135383606,-1.2781977653503418
10.39380931854248,0.28937041759490967,-0.8456125855445862,0.9713088274002075,-0.013090675696730614,-0.30383095145225525,-1.2783238887786865
10.413905143737793,0.2891620397567749,-0.8454974293708801,0.9712770581245422,-0.013033868744969368,-0.3040115535259247,-1.2782748937606812
10.433984518051147,0.2887527048587799,-0.8454915881156921,0.9714573621749878,-0.012948235496878624,-0.30473071336746216,-1.2783055305480957
10.454027891159058,0.2892465591430664,-0.8456342220306396,0.9714266061782837,-0.013191191479563713,-0.30389612913131714,-1.27837073802948
10.474119424819946,0.2892741858959198,-0.8454418182373047,0.971407413482666,-0.013013681396842003,-0.3038378357887268,-1.2783750295639038
10.494187831878662,0.28862133622169495,-0.8454797863960266,0.9713091254234314,-0.012975862249732018,-0.30495330691337585,-1.278171181678772
10.51425290107727,0.28867271542549133,-0.845571756362915,0.971274733543396,-0.012789828702807426,-0.3048207759857178,-1.2781789302825928
10.534444808959961,0.28931939601898193,-0.8455423712730408,0.9713695645332336,-0.013229286298155785,-0.30397340655326843,-1.2783374786376953
10.554546356201172,0.28921622037887573,-0.845619261264801,0.9713398218154907,-0.01315332017838955,-0.30389517545700073,-1.2783288955688477
10.574632406234741,0.2892404794692993,-0.8453755974769592,0.9713859558105469,-0.013015592470765114,-0.3039134442806244,-1.2783674001693726
10.594736814498901,0.2892836332321167,-0.8456886410713196,0.971340537071228,-0.013040157034993172,-0.3037751317024231,-1.278340220451355
10.614925146102905,0.2897683084011078,-0.8455809950828552,0.9714151620864868,-0.013259390369057655,-0.30293190479278564,-1.2784212827682495
10.634912967681885,0.2892678678035736,-0.8456220030784607,0.9714583158493042,-0.013212567195296288,-0.30384790897369385,-1.2783573865890503
10.655135154724121,0.2893158197402954,-0.8455621004104614,0.9713636636734009,-0.01324327103793621,-0.30391982197761536,-1.278314471244812
10.675231695175171,0.2890268862247467,-0.845571756362915,0.9711140990257263,-0.01314888708293438,-0.3041273057460785,-1.2781420946121216
10.695312261581421,0.2897256314754486,-0.8453704714775085,0.9713751077651978,-0.013375548645853996,-0.30304858088493347,-1.2784720659255981
10.715363502502441,0.2889719009399414,-0.8454770445823669,0.9712303876876831,-0.013073703274130821,-0.30402758717536926,-1.2782107591629028
10.735450983047485,0.2895016074180603,-0.8458107709884644,0.9715725183486938,-0.013275599107146263,-0.3036218583583832,-1.2784572839736938
10.755497217178345,0.2892811894416809,-0.8453972935676575,0.9715762734413147,-0.013185663148760796,-0.3039132058620453,-1.2784385681152344
10.775610208511353,0.2892153561115265,-0.8456583619117737,0.9712541103363037,-0.013148372992873192,-0.30383211374282837,-1.2783067226409912
10.795676946640015,0.28953787684440613,-0.8453335165977478,0.9710989594459534,-0.013386918231844902,-0.30330759286880493,-1.2782875299453735
10.815746068954468,0.2894943058490753,-0.8454260230064392,0.9712588787078857,-0.01333392970263958,-0.30313894152641296,-1.2783116102218628
10.835826873779297,0.28950002789497375,-0.8454347252845764,0.9713082313537598,-0.013326315209269524,-0.3031175434589386,-1.2783193588256836
10.855892419815063,0.2892715632915497,-0.8456841707229614,0.9714514017105103,-0.013196786865592003,-0.3037429451942444,-1.2783465385437012
10.875959634780884,0.2885746955871582,-0.8456981778144836,0.9711475372314453,-0.012937648221850395,-0.30486980080604553,-1.278063416481018
10.896315097808838,0.28932803869247437,-0.845550537109375,0.9714198708534241,-0.013004062697291374,-0.303739994764328,-1.278436303138733
10.9164137840271,0.2885800302028656,-0.8456621170043945,0.971127986907959,-0.01282496564090252,-0.30489951372146606,-1.278039574623108
10.936768770217896,0.28920838236808777,-0.8454055786132812,0.9713456630706787,-0.013131579384207726,-0.3039516508579254,-1.2783780097961426
10.956665277481079,0.28889891505241394,-0.845668375492096,0.9715009927749634,-0.013056119903922081,-0.30470913648605347,-1.278296947479248
10.976832151412964,0.289279967546463,-0.8455381989479065,0.971245288848877,-0.013212481513619423,-0.3039877712726593,-1.2783005237579346
10.996870517730713,0.2891712188720703,-0.8454484939575195,0.9713163375854492,-0.013038991019129753,-0.3040121793746948,-1.278265357017517
11.01693844795227,0.2892623245716095,-0.8454304933547974,0.9714236855506897,-0.013012180104851723,-0.30384591221809387,-1.278369665145874
11.037017107009888,0.28867897391319275,-0.8456133008003235,0.9712913632392883,-0.012973254546523094,-0.30481210350990295,-1.2782090902328491
11.057100772857666,0.28908297419548035,-0.8454501032829285,0.9712092876434326,-0.013151710852980614,-0.3040819764137268,-1.2782355546951294
11.077148675918579,0.2893351912498474,-0.8455637097358704,0.9715261459350586,-0.01317664049565792,-0.3037353754043579,-1.2784606218338013
11.097236156463623,0.2890217900276184,-0.8453722596168518,0.9711277484893799,-0.01313847117125988,-0.30414772033691406,-1.2781682014465332
11.117333173751831,0.28950807452201843,-0.8454996347427368,0.9710810780525208,-0.013378961011767387,-0.30327093601226807,-1.2781987190246582
11.137425422668457,0.28914713859558105,-0.8454233407974243,0.9715626239776611,-0.013117833063006401,-0.3038809299468994,-1.278415322303772
11.157506227493286,0.28923770785331726,-0.8455566763877869,0.9714605212211609,-0.013047972694039345,-0.3038714826107025,-1.278320074081421
11.17757248878479,0.28873950242996216,-0.8456922173500061,0.9714370965957642,-0.0129536222666502,-0.3046784996986389,-1.2782371044158936
11.197748184204102,0.28920629620552063,-0.845633327960968,0.9711731672286987,-0.01324809156358242,-0.30402615666389465,-1.2781803607940674
11.217848300933838,0.2892414331436157,-0.8454590439796448,0.9713535308837891,-0.013143396005034447,-0.3038713335990906,-1.2783801555633545
11.237897157669067,0.2893127501010895,-0.8454714417457581,0.9715867638587952,-0.013195825740695,-0.30382975935935974,-1.2784584760665894
11.259592771530151,0.2890574634075165,-0.845529317855835,0.9714093804359436,-0.01310090534389019,-0.30395883321762085,-1.2782894372940063
11.279687643051147,0.28918492794036865,-0.8455546498298645,0.9713159799575806,-0.0131904985755682,-0.3039066195487976,-1.2782800197601318
11.299760103225708,0.28911760449409485,-0.8456413745880127,0.9714083075523376,-0.013105494901537895,-0.3038300573825836,-1.2783273458480835
11.319827795028687,0.2889455556869507,-0.8454528450965881,0.9710545539855957,-0.01316252164542675,-0.3042232394218445,-1.2780719995498657
11.339919567108154,0.2892526388168335,-0.8455947041511536,0.9714785218238831,-0.013189783319830894,-0.30387401580810547,-1.2783607244491577
11.360020160675049,0.2891826033592224,-0.8455445170402527,0.9713691473007202,-0.013168497011065483,-0.30394190549850464,-1.2782979011535645
11.380073070526123,0.2886170744895935,-0.8454928994178772,0.9712880253791809,-0.01294807530939579,-0.3049151599407196,-1.2781598567962646
11.400189399719238,0.289480060338974,-0.845554530620575,0.9715484380722046,-0.013239467516541481,-0.30375248193740845,-1.278494954109192
11.420263767242432,0.2890056073665619,-0.8455004096031189,0.9712849855422974,-0.013081708922982216,-0.30400359630584717,-1.2782361507415771
11.440359354019165,0.28935644030570984,-0.8456143736839294,0.9713709354400635,-0.01323663629591465,-0.3038668632507324,-1.278350830078125
11.460426807403564,0.2891150116920471,-0.8454791307449341,0.9712622165679932,-0.01314639113843441,-0.3040494918823242,-1.2782584428787231
11.48051905632019,0.2891320288181305,-0.8457137942314148,0.9712342619895935,-0.013176379725337029,-0.3039379119873047,-1.2782000303268433
11.500603914260864,0.2892457842826843,-0.8456601500511169,0.9713728427886963,-0.013172769919037819,-0.3038092255592346,-1.2783393859863281
11.520668268203735,0.2891267240047455,-0.8454891443252563,0.9713031053543091,-0.013168847188353539,-0.30400192737579346,-1.2782511711120605
11.540770530700684,0.28915947675704956,-0.8455253839492798,0.9713174700737,-0.013167386874556541,-0.303965300321579,-1.2782776355743408
11.560855627059937,0.2897176444530487,-0.8455706238746643,0.97137051820755,-0.013388259336352348,-0.3029979169368744,-1.278409719467163
11.580905675888062,0.289316862821579,-0.8455267548561096,0.9713597297668457,-0.0132549237459898,-0.3039330840110779,-1.2783067226409912
11.601001501083374,0.289134681224823,-0.8455093502998352,0.9712651968002319,-0.01314440555870533,-0.3040156960487366,-1.278280258178711
11.621079683303833,0.28943681716918945,-0.8455106019973755,0.9714971780776978,-0.013240789994597435,-0.30380189418792725,-1.2784608602523804
11.641127824783325,0.2891169488430023,-0.8454000353813171,0.9713706970214844,-0.013190289959311485,-0.3040972054004669,-1.2782566547393799
11.661218404769897,0.28919586539268494,-0.845574676990509,0.9712926149368286,-0.01316310279071331,-0.30391767621040344,-1.2783081531524658
11.681293964385986,0.28925082087516785,-0.8456579446792603,0.9713989496231079,-0.013179248198866844,-0.3038133680820465,-1.2783451080322266
11.701358318328857,0.28917354345321655,-0.8453360199928284,0.9712715744972229,-0.012995494529604912,-0.30396121740341187,-1.278306007385254
11.721592426300049,0.28919366002082825,-0.8455701470375061,0.9713373780250549,-0.013184351846575737,-0.3039473593235016,-1.2783132791519165
11.74169111251831,0.28902870416641235,-0.8455693125724792,0.9711361527442932,-0.013172311708331108,-0.3040987253189087,-1.2781260013580322
11.76176381111145,0.28909534215927124,-0.8456255197525024,0.9713470935821533,-0.013098901137709618,-0.30385276675224304,-1.2783079147338867
11.781863451004028,0.28924283385276794,-0.8456577658653259,0.9713948965072632,-0.01317797414958477,-0.3038063943386078,-1.2783435583114624
11.80198049545288,0.2891256809234619,-0.8454908132553101,0.9712936878204346,-0.013168318197131157,-0.30399760603904724,-1.2782490253448486
11.822040557861328,0.2884438931941986,-0.8456276059150696,0.9712497591972351,-0.012907272204756737,-0.30493324995040894,-1.278060793876648
11.842113256454468,0.28940314054489136,-0.8456329703330994,0.9714667797088623,-0.013279018923640251,-0.30380523204803467,-1.2783724069595337
11.862177848815918,0.289336621761322,-0.8456047177314758,0.9713307023048401,-0.01322094164788723,-0.3038877546787262,-1.2783195972442627
11.88232159614563,0.2893405258655548,-0.845714271068573,0.9715579748153687,-0.013197248801589012,-0.30374500155448914,-1.278419017791748
11.902393817901611,0.2896728515625,-0.8454836010932922,0.9713580012321472,-0.013381091877818108,-0.3030964434146881,-1.278383731842041
11.922491550445557,0.2889825403690338,-0.8454673290252686,0.9712514877319336,-0.013097671791911125,-0.30403146147727966,-1.2782257795333862
11.942601919174194,0.28910282254219055,-0.8454760313034058,0.9712464213371277,-0.013169286772608757,-0.30401524901390076,-1.2782366275787354
11.962676763534546,0.2891426384449005,-0.845527708530426,0.9711034297943115,-0.01323346234858036,-0.3041505217552185,-1.2781347036361694
11.982846975326538,0.2887277603149414,-0.8456193804740906,0.9714441299438477,-0.012955645099282265,-0.3047941327095032,-1.2782659530639648
12.002870798110962,0.2892431318759918,-0.8456174731254578,0.9714651107788086,-0.013176342472434044,-0.3038807213306427,-1.2783634662628174
12.023197174072266,0.28920260071754456,-0.845320999622345,0.9714874625205994,-0.013182742521166801,-0.3039988577365875,-1.278377890586853
12.04328441619873,0.28916826844215393,-0.8455725312232971,0.9712221622467041,-0.013142285868525505,-0.30392730236053467,-1.2782783508300781
12.063361883163452,0.28913381695747375,-0.8455317616462708,0.9712029695510864,-0.013149140402674675,-0.30397123098373413,-1.2782518863677979
12.083417892456055,0.28872400522232056,-0.8456313014030457,0.9713101387023926,-0.012813566252589226,-0.3047191798686981,-1.2782037258148193
12.103531837463379,0.289812296628952,-0.8454959988594055,0.9713493585586548,-0.01348341815173626,-0.30311065912246704,-1.2784147262573242
12.123618841171265,-0.06105504184961319,-0.9646257758140564,0.7066992521286011,0.5809943675994873,-0.4197709560394287,-0.4623710811138153
12.143967390060425,0.12008186429738998,-1.10757315158844,0.8017258048057556,0.20174148678779602,-0.3222220838069916,-0.771521270275116
12.164056777954102,0.07573233544826508,-1.0523908138275146,0.7755354642868042,0.30878955125808716,-0.3626399636268616,-0.7019431591033936
12.184110879898071,0.061749204993247986,-1.0361424684524536,0.7767852544784546,0.3309174180030823,-0.37588000297546387,-0.6844720244407654
12.204205989837646,0.05568224936723709,-1.0289580821990967,0.7807598114013672,0.34177693724632263,-0.3807907998561859,-0.6761062145233154
12.22427773475647,0.05763038247823715,-1.0310313701629639,0.7807652354240417,0.3403226137161255,-0.37920576333999634,-0.6789754033088684
12.24433159828186,0.05912993848323822,-1.03182852268219,0.7791246175765991,0.3397585451602936,-0.3757626712322235,-0.6781871318817139
12.264421463012695,0.059910811483860016,-1.0260156393051147,0.7787454128265381,0.3365044593811035,-0.3703826069831848,-0.6770844459533691
12.284502744674683,0.06035831198096275,-1.0315732955932617,0.7779078483581543,0.3379862308502197,-0.36663487553596497,-0.6775012016296387
12.30456018447876,0.05801061540842056,-1.0315171480178833,0.7791857123374939,0.3378542959690094,-0.37201422452926636,-0.6761341691017151
12.324670314788818,0.060015931725502014,-1.0291178226470947,0.7783495187759399,0.33687537908554077,-0.365846186876297,-0.6758524775505066
12.344738245010376,0.060827817767858505,-1.0211679935455322,0.7814019322395325,0.3345583379268646,-0.3656620681285858,-0.6764196753501892
12.364952802658081,0.056551408022642136,-1.0321730375289917,0.7779297232627869,0.33829265832901,-0.36848899722099304,-0.6749809384346008
12.385049104690552,0.06257890909910202,-1.0257079601287842,0.7792812585830688,0.3347311317920685,-0.35590746998786926,-0.674434244632721
12.405113935470581,0.06037973612546921,-1.025442123413086,0.7788658738136292,0.3365357220172882,-0.3602231740951538,-0.6750468611717224
12.425235033035278,0.05976500362157822,-1.0261074304580688,0.7781469225883484,0.3359919786453247,-0.35902872681617737,-0.6737044453620911
12.445326566696167,0.06111377850174904,-1.0206091403961182,0.7802399396896362,0.33418241143226624,-0.3553583323955536,-0.6731488108634949
12.46541452407837,0.05908191204071045,-1.0264180898666382,0.7783098220825195,0.33675336837768555,-0.36179134249687195,-0.673559844493866
12.485627889633179,0.06258302181959152,-1.0214059352874756,0.778631865978241,0.3345705270767212,-0.3529571294784546,-0.6730555891990662
12.505719184875488,0.05960993096232414,-1.021466851234436,0.7801142930984497,0.3357918858528137,-0.360390841960907,-0.6733362078666687
12.525778770446777,0.06158823519945145,-1.0184274911880493,0.7781072854995728,0.33407506346702576,-0.353480726480484,-0.6709936261177063
12.54605746269226,0.06278280168771744,-1.0167824029922485,0.7790517807006836,0.33309003710746765,-0.3518761098384857,-0.6703941822052002
12.566152095794678,0.06110312417149544,-1.0193941593170166,0.7783101797103882,0.3340844511985779,-0.3522597551345825,-0.6706247925758362
12.58623480796814,0.058530379086732864,-1.021437406539917,0.7779090404510498,0.334218293428421,-0.3576365113258362,-0.6695026755332947
12.606549263000488,0.06025934964418411,-1.021507978439331,0.7755683660507202,0.3341429531574249,-0.35203179717063904,-0.6689046025276184
12.626671314239502,0.0628839060664177,-1.0145517587661743,0.7789158821105957,0.33143162727355957,-0.34576302766799927,-0.6685202717781067
12.646761417388916,0.06224370747804642,-1.0164166688919067,0.776954710483551,0.3320285379886627,-0.3428618311882019,-0.6676275134086609
12.667323112487793,0.0677245557308197,-1.007713794708252,0.7790683507919312,0.32892686128616333,-0.3313189148902893,-0.6684949398040771
12.68745470046997,0.05706135183572769,-1.0171456336975098,0.7750018239021301,0.33378610014915466,-0.3489132225513458,-0.6672661900520325
12.70751690864563,0.059505119919776917,-1.0113483667373657,0.7765116095542908,0.3314419388771057,-0.34710296988487244,-0.6670393943786621
12.727623701095581,0.05965140834450722,-1.0167306661605835,0.776227593421936,0.33284926414489746,-0.3439054489135742,-0.6673438549041748
12.747712135314941,0.0629294291138649,-1.0145745277404785,0.7773580551147461,0.3314300775527954,-0.33934271335601807,-0.6661922335624695
12.767780303955078,0.06115167587995529,-1.0130865573883057,0.7752671241760254,0.3316996097564697,-0.3418527841567993,-0.6650797724723816
12.787838697433472,0.05933062359690666,-1.0153236389160156,0.7751100659370422,0.33154982328414917,-0.343955934047699,-0.6651902794837952
12.807936429977417,0.06512604653835297,-1.0061814785003662,0.7792976498603821,0.3280510902404785,-0.33383241295814514,-0.6661604046821594
12.828003644943237,0.0625937432050705,-1.0123006105422974,0.7767564654350281,0.3298078775405884,-0.33504951000213623,-0.6649072766304016
12.848077058792114,0.06472277641296387,-1.0059468746185303,0.7783758640289307,0.3287242352962494,-0.33060741424560547,-0.6637505292892456
12.868184566497803,0.05868048965930939,-1.0139333009719849,0.7746099233627319,0.3319799602031708,-0.3419007956981659,-0.6643735766410828
12.888253688812256,0.060056064277887344,-1.0108195543289185,0.7744742035865784,0.33094269037246704,-0.34188786149024963,-0.6624523997306824
12.908327579498291,0.06397301703691483,-1.0077587366104126,0.7755449414253235,0.3291340470314026,-0.3335812985897064,-0.6620091199874878
12.929121017456055,0.05993008613586426,-1.0099560022354126,0.7744021415710449,0.33064591884613037,-0.3404955267906189,-0.6599690318107605
12.949222087860107,0.06259095668792725,-1.0137146711349487,0.7736022472381592,0.330064058303833,-0.3332009017467499,-0.6608794927597046
12.969282150268555,0.0632011741399765,-1.009840488433838,0.7739008665084839,0.3290066719055176,-0.3287898004055023,-0.6601054072380066
12.989359855651855,0.06149164214730263,-1.0089753866195679,0.7749519944190979,0.33030611276626587,-0.331840455532074,-0.6590887904167175
13.009446859359741,0.06141472980380058,-1.0038387775421143,0.7764063477516174,0.3284911513328552,-0.33216142654418945,-0.6589731574058533
13.029515743255615,0.06514202058315277,-1.007248044013977,0.7741454839706421,0.32827189564704895,-0.32106441259384155,-0.6584286093711853
13.049582719802856,0.06317086517810822,-1.0082581043243408,0.7756789922714233,0.32808125019073486,-0.3232247829437256,-0.6578023433685303
13.069671154022217,0.05970993638038635,-1.0072259902954102,0.7736807465553284,0.3294311761856079,-0.33061856031417847,-0.657969057559967
13.089762449264526,0.05976373702287674,-1.0042897462844849,0.7720485925674438,0.3288715183734894,-0.32570886611938477,-0.6566705107688904
13.109972715377808,0.0611276775598526,-0.9991062879562378,0.7752314209938049,0.3263508677482605,-0.32334256172180176,-0.6559839844703674
13.130057573318481,0.06476562470197678,-1.00248122215271,0.7737220525741577,0.3269607126712799,-0.3136378228664398,-0.6560474634170532
13.150139331817627,0.057741906493902206,-1.0049625635147095,0.7740007638931274,0.32860368490219116,-0.3301575481891632,-0.6551011204719543
13.170422077178955,0.05812042951583862,-1.0001426935195923,0.7733210325241089,0.3278161883354187,-0.3238022029399872,-0.6538389325141907
13.19052767753601,0.06936253607273102,-0.993070125579834,0.7767671346664429,0.32278239727020264,-0.301462858915329,-0.6556089520454407
13.210618019104004,0.06407493352890015,-1.0005396604537964,0.7750301957130432,0.3247089385986328,-0.31178584694862366,-0.6535557508468628
13.230658531188965,0.06437557935714722,-0.9957889914512634,0.7743314504623413,0.3247218728065491,-0.30539894104003906,-0.6518636345863342
13.250744342803955,0.0601053386926651,-0.994536817073822,0.7736823558807373,0.3249441683292389,-0.31443870067596436,-0.6523988842964172
13.270819425582886,0.05855019390583038,-0.9970433712005615,0.7728090882301331,0.3256979286670685,-0.3160758316516876,-0.6518470644950867
13.290882110595703,0.0605524517595768,-0.9969943165779114,0.7716107964515686,0.3253355622291565,-0.30795979499816895,-0.6502832174301147
13.310980319976807,0.06279045343399048,-0.9954252243041992,0.7744459509849548,0.32452452182769775,-0.30850479006767273,-0.6509948372840881
13.331052780151367,0.060158584266901016,-0.995717465877533,0.7738481760025024,0.32546520233154297,-0.30988210439682007,-0.6495455503463745
13.351110458374023,0.05903991684317589,-0.9914385080337524,0.7735652327537537,0.3235337734222412,-0.30612868070602417,-0.6477148532867432
13.371393203735352,0.06256189942359924,-0.9861345887184143,0.7746545672416687,0.3219451308250427,-0.3034917414188385,-0.6473322510719299
13.391485452651978,0.06309722363948822,-0.9902267456054688,0.772301971912384,0.3220953047275543,-0.3005170226097107,-0.6470704674720764
13.411568641662598,0.05994487553834915,-0.9886669516563416,0.7724952697753906,0.3227542042732239,-0.30582863092422485,-0.6463783979415894
13.431660652160645,0.05945872887969017,-0.9947189688682556,0.7700538039207458,0.32383525371551514,-0.30250728130340576,-0.6451618671417236
13.451752662658691,0.06154056638479233,-0.9925523400306702,0.7713955640792847,0.3222712278366089,-0.2992223799228668,-0.6439541578292847
13.471862077713013,0.0596199594438076,-0.9886794090270996,0.7727906703948975,0.3231503963470459,-0.3055848479270935,-0.6437236070632935
13.492273569107056,0.060384515672922134,-0.9961642622947693,0.7693842649459839,0.3231302797794342,-0.2990683913230896,-0.6426705718040466
13.51236629486084,0.06118656322360039,-0.9879300594329834,0.7712027430534363,0.3198782801628113,-0.29581281542778015,-0.6419681310653687
13.53244161605835,0.061333782970905304,-0.9880558848381042,0.7703415751457214,0.3201918601989746,-0.29020604491233826,-0.641585111618042
13.552542448043823,0.06062193959951401,-0.9899125099182129,0.7712533473968506,0.32186272740364075,-0.2945728302001953,-0.642543613910675
13.572627305984497,0.060798726975917816,-0.9738491177558899,0.7756140232086182,0.31887805461883545,-0.2959652543067932,-0.6410065293312073
13.592703104019165,0.05670834332704544,-0.990062415599823,0.7689395546913147,0.32300931215286255,-0.2983407974243164,-0.6399314403533936
13.612755298614502,0.05717872828245163,-0.989151120185852,0.7686309814453125,0.32265400886535645,-0.2931203842163086,-0.639649510383606
13.632852554321289,0.06421779096126556,-0.989462673664093,0.7709215879440308,0.3199738562107086,-0.27977901697158813,-0.6381199955940247
13.652933359146118,0.06449361145496368,-0.9877188801765442,0.7712850570678711,0.31911763548851013,-0.2781014144420624,-0.637864887714386
13.673054456710815,0.06647399067878723,-0.9877359867095947,0.7711097002029419,0.317582368850708,-0.2703573703765869,-0.6365705132484436
13.693190336227417,0.05612068250775337,-0.98378586769104,0.7699024677276611,0.3192095458507538,-0.28729626536369324,-0.6351077556610107
13.713290929794312,0.059712789952754974,-0.9833760857582092,0.7699209451675415,0.31851983070373535,-0.2833596467971802,-0.6356849670410156
13.733367681503296,0.06173892319202423,-0.9788150787353516,0.7713785171508789,0.3174261450767517,-0.27759692072868347,-0.635599672794342
13.754093408584595,0.059396468102931976,-0.9835043549537659,0.7697290182113647,0.31987279653549194,-0.28648561239242554,-0.6347425580024719
13.774189949035645,0.06398449838161469,-0.9785982370376587,0.7692862749099731,0.3170648217201233,-0.271158367395401,-0.632856011390686
13.794257879257202,0.061272889375686646,-0.9779965281486511,0.7687308192253113,0.317455917596817,-0.2731533944606781,-0.6311017870903015
13.8144371509552,0.05999280884861946,-0.982097327709198,0.7685909867286682,0.3176063895225525,-0.2757577896118164,-0.6304594278335571
13.834529399871826,0.059367261826992035,-0.9811139106750488,0.7690256834030151,0.31797945499420166,-0.2759173810482025,-0.6305992603302002
13.854615926742554,0.05828304961323738,-0.979065477848053,0.7683318257331848,0.31834307312965393,-0.27352699637413025,-0.6290409564971924
13.874688863754272,0.05729031562805176,-0.978502094745636,0.7688431739807129,0.317632257938385,-0.27900540828704834,-0.6286740899085999
13.894832849502563,0.05703430622816086,-0.9731475114822388,0.7693236470222473,0.31632304191589355,-0.27310454845428467,-0.627458393573761
13.914921998977661,0.0605776384472847,-0.977141261100769,0.7691929936408997,0.3155979514122009,-0.26266440749168396,-0.627086341381073
13.935117959976196,0.05738820880651474,-0.9688231348991394,0.7709150910377502,0.3150590658187866,-0.2707611322402954,-0.6257827281951904
13.955090284347534,0.05575213208794594,-0.975195586681366,0.7687746286392212,0.3169741928577423,-0.26867637038230896,-0.6261292099952698
13.975187301635742,0.05726287513971329,-0.9742777347564697,0.7663496732711792,0.31553229689598083,-0.26563760638237,-0.6233837604522705
13.995319366455078,0.06011355668306351,-0.9718643426895142,0.7686171531677246,0.31493765115737915,-0.2613394260406494,-0.6237061023712158
14.015345811843872,0.055361878126859665,-0.9765691161155701,0.7676945924758911,0.3173765242099762,-0.2665528655052185,-0.6231383085250854
14.035392761230469,0.0563323050737381,-0.9704335331916809,0.7664750814437866,0.3144189119338989,-0.2630635201931,-0.6207026839256287
14.055529117584229,0.061744511127471924,-0.9745838046073914,0.7674516439437866,0.31440114974975586,-0.24886752665042877,-0.6206433773040771
14.07570505142212,0.062252722680568695,-0.9703349471092224,0.7682536244392395,0.31249767541885376,-0.24644508957862854,-0.6190806031227112
14.095761775970459,0.05929171293973923,-0.9747561812400818,0.7670916318893433,0.3136051893234253,-0.2511279582977295,-0.6178898215293884
14.115824222564697,0.05571600794792175,-0.9700664281845093,0.7685187458992004,0.3150179386138916,-0.26019877195358276,-0.6185609698295593
14.135900497436523,0.053456567227840424,-0.969648540019989,0.7660704851150513,0.31454116106033325,-0.2570428252220154,-0.615695595741272
14.156001567840576,0.05435381084680557,-0.9699021577835083,0.7640455365180969,0.3133436441421509,-0.2500975728034973,-0.61509770154953
14.176589012145996,0.056083887815475464,-0.9676631689071655,0.7655540108680725,0.31263458728790283,-0.2486119568347931,-0.6155089735984802
14.19668984413147,0.06385660171508789,-0.9649617075920105,0.7684124112129211,0.30983248353004456,-0.22915402054786682,-0.6152216792106628
14.216758966445923,0.060534242540597916,-0.9694865942001343,0.7662879824638367,0.3108712434768677,-0.235495924949646,-0.6138592958450317
14.236981868743896,0.057082999497652054,-0.9687798023223877,0.7675641775131226,0.3120902180671692,-0.23929403722286224,-0.6130421757698059
14.257076501846313,0.05927601829171181,-0.9635671377182007,0.7650694847106934,0.30888423323631287,-0.23091495037078857,-0.6106498837471008
14.277281999588013,0.05951645225286484,-0.9664574265480042,0.7645275592803955,0.3091977834701538,-0.22751203179359436,-0.6103618741035461
14.29764437675476,0.06325086951255798,-0.9622539281845093,0.7665926218032837,0.3074171245098114,-0.22110973298549652,-0.6108248829841614
14.317744970321655,0.051662661135196686,-0.9638990759849548,0.7638914585113525,0.31164640188217163,-0.23970557749271393,-0.6078569293022156
14.337879419326782,0.053410910069942474,-0.9608450531959534,0.7624822854995728,0.3109295070171356,-0.23448318243026733,-0.6069717407226562
14.358839511871338,0.05584273487329483,-0.9558267593383789,0.7678298950195312,0.30720916390419006,-0.22323118150234222,-0.6062596440315247
14.378905773162842,0.05126612260937691,-0.9622960686683655,0.7635373473167419,0.3106227219104767,-0.23713622987270355,-0.6028286814689636
14.398968696594238,0.05176013708114624,-0.9614667892456055,0.7632338404655457,0.31035229563713074,-0.23320671916007996,-0.6021506786346436
14.419031620025635,0.052147284150123596,-0.9549074172973633,0.7631838321685791,0.30868983268737793,-0.2215389460325241,-0.6008288860321045
14.43912649154663,0.05564240366220474,-0.9646324515342712,0.7657577991485596,0.3082391619682312,-0.21737785637378693,-0.6012773513793945
14.45920443534851,0.05170749872922897,-0.959327757358551,0.7648789882659912,0.3083248734474182,-0.22578701376914978,-0.599473774433136
14.479273319244385,0.05114950239658356,-0.9603791832923889,0.7626785635948181,0.3089166581630707,-0.22296682000160217,-0.5988122224807739
14.499356985092163,0.056673865765333176,-0.9614874124526978,0.7622048854827881,0.3062134087085724,-0.21148788928985596,-0.5986966490745544
14.519437789916992,0.05862967669963837,-0.9572716951370239,0.7632755041122437,0.3043707609176636,-0.2068382352590561,-0.5978437662124634
