liuyurong129/humanoid-gym/humanoid/data/target_q_20250522-231241.csv
timestamp,joint_1,joint_2,joint_3,joint_4,joint_5,joint_6
5.626678466796875e-05,0.0,0.0,0.0,0.0,0.0,0.0
0.02020573616027832,0.0,0.0,0.0,0.0,0.0,0.0
0.04026985168457031,0.0,0.0,0.0,0.0,0.0,0.0
0.060326337814331055,0.0,0.0,0.0,0.0,0.0,0.0
0.08040547370910645,0.0,0.0,0.0,0.0,0.0,0.0
0.10050654411315918,-0.24934890866279602,-0.2442464530467987,0.26939648389816284,0.7005624771118164,-0.12186294049024582,0.6206074357032776
0.12058639526367188,-0.24934890866279602,-0.2442464530467987,0.26939648389816284,0.7005624771118164,-0.12186294049024582,0.6206074357032776
0.14069890975952148,-0.25301995873451233,-0.6261913776397705,0.3820771872997284,0.7238187789916992,-0.14319293200969696,0.6025100946426392
0.1607367992401123,-0.25301995873451233,-0.6261913776397705,0.3820771872997284,0.7238187789916992,-0.14319293200969696,0.6025100946426392
0.18082714080810547,-0.27325373888015747,-0.6831411123275757,0.3373096287250519,0.7285104990005493,-0.12228527665138245,0.6005511283874512
0.200897216796875,-0.2710682153701782,-0.6861833333969116,0.315096378326416,0.7254126071929932,-0.12191581726074219,0.5992053151130676
0.22098731994628906,-0.2710682153701782,-0.6861833333969116,0.315096378326416,0.7254126071929932,-0.12191581726074219,0.5992053151130676
0.24106884002685547,-0.2670341730117798,-0.6919159889221191,0.306326299905777,0.7242507934570312,-0.12104849517345428,0.6012676358222961
0.2612771987915039,-0.2670341730117798,-0.6919159889221191,0.306326299905777,0.7242507934570312,-0.12104849517345428,0.6012676358222961
0.28128671646118164,-0.2670813202857971,-0.6924651265144348,0.30771875381469727,0.7233659029006958,-0.12048334628343582,0.6017335057258606
0.3013453483581543,-0.2670813202857971,-0.6924651265144348,0.30771875381469727,0.7233659029006958,-0.12048334628343582,0.6017335057258606
0.32143187522888184,-0.26719948649406433,-0.6888657808303833,0.3103936016559601,0.7229260206222534,-0.11932024359703064,0.6016022562980652
0.34149789810180664,-0.2672206163406372,-0.6854031682014465,0.3105498254299164,0.7226893901824951,-0.1184496209025383,0.60197514295578
0.3615903854370117,-0.2672206163406372,-0.6854031682014465,0.3105498254299164,0.7226893901824951,-0.1184496209025383,0.60197514295578
0.3816812038421631,-0.26735129952430725,-0.6863920092582703,0.3116746246814728,0.7225291728973389,-0.11913343518972397,0.6023774147033691
0.40178394317626953,-0.26735129952430725,-0.6863920092582703,0.3116746246814728,0.7225291728973389,-0.11913343518972397,0.6023774147033691
0.42184925079345703,-0.2667688727378845,-0.6859930753707886,0.31410637497901917,0.7227888107299805,-0.11815129965543747,0.6020199656486511
0.44193315505981445,-0.2667688727378845,-0.6859930753707886,0.31410637497901917,0.7227888107299805,-0.11815129965543747,0.6020199656486511
0.4620215892791748,-0.2665216326713562,-0.6873953938484192,0.3130398392677307,0.72286057472229,-0.11713945865631104,0.60272616147995
0.4820733070373535,-0.2674894332885742,-0.6854517459869385,0.3178369700908661,0.7230538129806519,-0.11767752468585968,0.6007793545722961
0.502190351486206,-0.2674894332885742,-0.6854517459869385,0.3178369700908661,0.7230538129806519,-0.11767752468585968,0.6007793545722961
0.5222606658935547,-0.2675244212150574,-0.6847974061965942,0.3177749216556549,0.7238049507141113,-0.11719883978366852,0.6008611917495728
0.542332649230957,-0.2675244212150574,-0.6847974061965942,0.3177749216556549,0.7238049507141113,-0.11719883978366852,0.6008611917495728
0.5624089241027832,-0.26725736260414124,-0.6812766790390015,0.32171258330345154,0.7240318059921265,-0.11617529392242432,0.5997251868247986
0.5825412273406982,-0.26725736260414124,-0.6812766790390015,0.32171258330345154,0.7240318059921265,-0.11617529392242432,0.5997251868247986
0.6026134490966797,-0.2666228413581848,-0.6826355457305908,0.3220745325088501,0.7242773771286011,-0.11534465849399567,0.6003668904304504
0.6226553916931152,-0.2676911950111389,-0.6810641288757324,0.3249673545360565,0.7243504524230957,-0.11567718535661697,0.599547266960144
0.6427700519561768,-0.2676911950111389,-0.6810641288757324,0.3249673545360565,0.7243504524230957,-0.11567718535661697,0.599547266960144
0.6628341674804688,-0.26744747161865234,-0.6802728176116943,0.3238581120967865,0.7246242761611938,-0.11498761922121048,0.5999318361282349
0.6829202175140381,-0.26744747161865234,-0.6802728176116943,0.3238581120967865,0.7246242761611938,-0.11498761922121048,0.5999318361282349
0.7030270099639893,-0.26758071780204773,-0.6762646436691284,0.32681629061698914,0.7240209579467773,-0.11453287303447723,0.599788248538971
0.7231059074401855,-0.26758071780204773,-0.6762646436691284,0.32681629061698914,0.7240209579467773,-0.11453287303447723,0.599788248538971
0.7431907653808594,-0.267858624458313,-0.6747560501098633,0.33055931329727173,0.7246241569519043,-0.1142345517873764,0.5991654992103577
0.7632536888122559,-0.26749932765960693,-0.6776156425476074,0.32801154255867004,0.7250267267227173,-0.1139398068189621,0.5998799800872803
0.7833805084228516,-0.26749932765960693,-0.6776156425476074,0.32801154255867004,0.7250267267227173,-0.1139398068189621,0.5998799800872803
0.8034498691558838,-0.26596230268478394,-0.6781115531921387,0.3286080062389374,0.7247227430343628,-0.11156827956438065,0.6005833148956299
0.8235366344451904,-0.26596230268478394,-0.6781115531921387,0.3286080062389374,0.7247227430343628,-0.11156827956438065,0.6005833148956299
0.8436064720153809,-0.26766982674598694,-0.6736571788787842,0.33025017380714417,0.7240619659423828,-0.11185723543167114,0.6001071333885193
0.86368727684021,-0.26766982674598694,-0.6736571788787842,0.33025017380714417,0.7240619659423828,-0.11185723543167114,0.6001071333885193
0.8837540149688721,-0.2679517865180969,-0.6733070611953735,0.3321438133716583,0.7243174314498901,-0.11258530616760254,0.5998484492301941
0.9038102626800537,-0.2676633298397064,-0.674189031124115,0.3325681984424591,0.7245666980743408,-0.11255042254924774,0.5999446511268616
0.9239139556884766,-0.2676633298397064,-0.674189031124115,0.3325681984424591,0.7245666980743408,-0.11255042254924774,0.5999446511268616
0.9440102577209473,-0.2679298520088196,-0.6702054738998413,0.33753129839897156,0.7247979640960693,-0.11168421059846878,0.5986263155937195
0.9640815258026123,-0.2679298520088196,-0.6702054738998413,0.33753129839897156,0.7247979640960693,-0.11168421059846878,0.5986263155937195
0.9842076301574707,-0.26816612482070923,-0.6701379418373108,0.33806827664375305,0.7255223989486694,-0.11139588803052902,0.5986408591270447
1.0043342113494873,-0.26816612482070923,-0.6701379418373108,0.33806827664375305,0.7255223989486694,-0.11139588803052902,0.5986408591270447
1.0243937969207764,-0.26767778396606445,-0.6706352233886719,0.33837658166885376,0.725765585899353,-0.11058424413204193,0.5987540483474731
1.0444393157958984,-0.2659958004951477,-0.668676495552063,0.3413957953453064,0.7257404327392578,-0.10781345516443253,0.5989852547645569
1.0645208358764648,-0.2659958004951477,-0.668676495552063,0.3413957953453064,0.7257404327392578,-0.10781345516443253,0.5989852547645569
1.084601640701294,-0.2677463889122009,-0.6723875999450684,0.33976373076438904,0.7256323099136353,-0.10988324880599976,0.5993295311927795
1.1046843528747559,-0.2677463889122009,-0.6723875999450684,0.33976373076438904,0.7256323099136353,-0.10988324880599976,0.5993295311927795
1.124762773513794,-0.26725542545318604,-0.6669661998748779,0.3443939983844757,0.7256273031234741,-0.10819786041975021,0.5980356335639954
1.1448450088500977,-0.26725542545318604,-0.6669661998748779,0.3443939983844757,0.7256273031234741,-0.10819786041975021,0.5980356335639954
1.164945363998413,-0.2682822346687317,-0.6639553308486938,0.3482220768928528,0.7262970209121704,-0.1084165871143341,0.5965636372566223
1.185088872909546,-0.2673479914665222,-0.6622115969657898,0.34866175055503845,0.7270444631576538,-0.10629058629274368,0.5970550179481506
1.2051949501037598,-0.2673479914665222,-0.6622115969657898,0.34866175055503845,0.7270444631576538,-0.10629058629274368,0.5970550179481506
1.2252402305603027,-0.26781678199768066,-0.662441611289978,0.35032692551612854,0.7270241975784302,-0.1067693904042244,0.5969338417053223
1.245326280593872,-0.26781678199768066,-0.662441611289978,0.35032692551612854,0.7270241975784302,-0.1067693904042244,0.5969338417053223
1.2654211521148682,-0.26715147495269775,-0.6643096804618835,0.3498368561267853,0.7271381616592407,-0.10632766038179398,0.5974767804145813
1.2854852676391602,-0.26715147495269775,-0.6643096804618835,0.3498368561267853,0.7271381616592407,-0.10632766038179398,0.5974767804145813
1.3055615425109863,-0.2672424018383026,-0.6679154634475708,0.34800946712493896,0.7269765138626099,-0.10670260339975357,0.5981487035751343
1.3256657123565674,-0.2672424018383026,-0.6679154634475708,0.34800946712493896,0.7269765138626099,-0.10670260339975357,0.5981487035751343
1.3457715511322021,-0.26667988300323486,-0.666329562664032,0.35012730956077576,0.7270612716674805,-0.10519373416900635,0.5973849892616272
1.3658239841461182,-0.26627087593078613,-0.6647318601608276,0.3509772717952728,0.7273709774017334,-0.10332220047712326,0.5976410508155823
1.3859150409698486,-0.26627087593078613,-0.6647318601608276,0.3509772717952728,0.7273709774017334,-0.10332220047712326,0.5976410508155823
1.4059948921203613,-0.2667314410209656,-0.6636542081832886,0.35354089736938477,0.7274041175842285,-0.10391168296337128,0.5967677235603333
1.4260742664337158,-0.2667314410209656,-0.6636542081832886,0.35354089736938477,0.7274041175842285,-0.10391168296337128,0.5967677235603333
1.4461703300476074,-0.26739537715911865,-0.6619337797164917,0.35458216071128845,0.7276614904403687,-0.10417216271162033,0.5965461134910583
1.4662284851074219,-0.26739537715911865,-0.6619337797164917,0.35458216071128845,0.7276614904403687,-0.10417216271162033,0.5965461134910583
1.4863061904907227,-0.2671900987625122,-0.6619092226028442,0.3546939194202423,0.7275787591934204,-0.10367363691329956,0.5971142649650574
1.506373405456543,-0.2673611640930176,-0.6613819003105164,0.355922132730484,0.7274975776672363,-0.1035955399274826,0.5969324111938477
1.5264794826507568,-0.2673611640930176,-0.6613819003105164,0.355922132730484,0.7274975776672363,-0.1035955399274826,0.5969324111938477
1.5465874671936035,-0.2659904956817627,-0.6636749505996704,0.35577502846717834,0.728143572807312,-0.10221877694129944,0.597169816493988
1.5666399002075195,-0.2659904956817627,-0.6636749505996704,0.35577502846717834,0.728143572807312,-0.10221877694129944,0.597169816493988
1.5867137908935547,-0.2653282880783081,-0.6638437509536743,0.35588550567626953,0.7280659675598145,-0.1002650260925293,0.5977972745895386
1.6067988872528076,-0.2653282880783081,-0.6638437509536743,0.35588550567626953,0.7280659675598145,-0.1002650260925293,0.5977972745895386
1.6268703937530518,-0.2663654685020447,-0.6630055904388428,0.35927650332450867,0.7281193733215332,-0.10104834288358688,0.5967639088630676
1.6469275951385498,-0.26632124185562134,-0.6611365675926208,0.36067715287208557,0.7284719944000244,-0.1004893034696579,0.5961388945579529
1.6671171188354492,-0.26632124185562134,-0.6611365675926208,0.36067715287208557,0.7284719944000244,-0.1004893034696579,0.5961388945579529
1.6872107982635498,-0.2657032012939453,-0.6622650623321533,0.360876202583313,0.7288122177124023,-0.09978382289409637,0.5964083671569824
1.7072179317474365,-0.2657032012939453,-0.6622650623321533,0.360876202583313,0.7288122177124023,-0.09978382289409637,0.5964083671569824
1.7273428440093994,-0.2645752429962158,-0.6602829098701477,0.36441612243652344,0.7290127277374268,-0.09766026586294174,0.5958440899848938
1.7474300861358643,-0.2645752429962158,-0.6602829098701477,0.36441612243652344,0.7290127277374268,-0.09766026586294174,0.5958440899848938
1.7675025463104248,-0.26628851890563965,-0.6577380299568176,0.36797669529914856,0.7295238971710205,-0.0984063372015953,0.5947187542915344
1.7875475883483887,-0.26506876945495605,-0.655819296836853,0.36776769161224365,0.7297289371490479,-0.09624035656452179,0.5954781770706177
1.8076400756835938,-0.26506876945495605,-0.655819296836853,0.36776769161224365,0.7297289371490479,-0.09624035656452179,0.5954781770706177
1.827824354171753,-0.2657589912414551,-0.6538498401641846,0.3708668649196625,0.7296478748321533,-0.09674971550703049,0.5947843194007874
1.8478209972381592,-0.2657589912414551,-0.6538498401641846,0.3708668649196625,0.7296478748321533,-0.09674971550703049,0.5947843194007874
1.8678972721099854,-0.262986958026886,-0.6545577049255371,0.3711814284324646,0.7296524047851562,-0.09258422255516052,0.596348226070404
1.8880388736724854,-0.262986958026886,-0.6545577049255371,0.3711814284324646,0.7296524047851562,-0.09258422255516052,0.596348226070404
1.9080629348754883,-0.26622527837753296,-0.6530979871749878,0.37482312321662903,0.7293559312820435,-0.09532497078180313,0.5945385098457336
1.9281611442565918,-0.2663456201553345,-0.6528563499450684,0.3740690052509308,0.7302037477493286,-0.09563598781824112,0.5940952897071838
1.9482338428497314,-0.2663456201553345,-0.6528563499450684,0.3740690052509308,0.7302037477493286,-0.09563598781824112,0.5940952897071838
1.968310832977295,-0.26599928736686707,-0.6501096487045288,0.3771369755268097,0.7307666540145874,-0.09521134197711945,0.5932837724685669
1.9883942604064941,-0.26599928736686707,-0.6501096487045288,0.3771369755268097,0.7307666540145874,-0.09521134197711945,0.5932837724685669
2.0084755420684814,-0.26535743474960327,-0.6509152054786682,0.37673261761665344,0.7308870553970337,-0.09402486681938171,0.5938711166381836
2.028549909591675,-0.26535743474960327,-0.6509152054786682,0.37673261761665344,0.7308870553970337,-0.09402486681938171,0.5938711166381836
2.048642635345459,-0.2643977105617523,-0.6474860906600952,0.378525972366333,0.730339765548706,-0.0916609987616539,0.5946149230003357
2.0687050819396973,-0.2659159302711487,-0.6486948728561401,0.37930914759635925,0.730749249458313,-0.09300074726343155,0.5941147208213806
2.0888173580169678,-0.2659159302711487,-0.6486948728561401,0.37930914759635925,0.730749249458313,-0.09300074726343155,0.5941147208213806
2.108882188796997,-0.2656937837600708,-0.6484389305114746,0.38057348132133484,0.7309976816177368,-0.09270860999822617,0.5938646197319031
2.1289656162261963,-0.2656937837600708,-0.6484389305114746,0.38057348132133484,0.7309976816177368,-0.09270860999822617,0.5938646197319031
2.1490674018859863,-0.26575714349746704,-0.6486276388168335,0.3831758201122284,0.7313021421432495,-0.09299176931381226,0.5930257439613342
2.169121503829956,-0.26575714349746704,-0.6486276388168335,0.3831758201122284,0.7313021421432495,-0.09299176931381226,0.5930257439613342
2.189194917678833,-0.2645469307899475,-0.644478440284729,0.38549819588661194,0.7315143346786499,-0.08962677419185638,0.5931220650672913
2.209242820739746,-0.2660202980041504,-0.6456510424613953,0.38524237275123596,0.731418251991272,-0.09095315635204315,0.5931476950645447
2.229360580444336,-0.2660202980041504,-0.6456510424613953,0.38524237275123596,0.731418251991272,-0.09095315635204315,0.5931476950645447
2.249437093734741,-0.2658463716506958,-0.6436854004859924,0.38535913825035095,0.7310409545898438,-0.0902877002954483,0.5929924249649048
2.2695987224578857,-0.2658463716506958,-0.6436854004859924,0.38535913825035095,0.7310409545898438,-0.0902877002954483,0.5929924249649048
2.2896595001220703,-0.26569926738739014,-0.6464959383010864,0.38561588525772095,0.7313504219055176,-0.09146660566329956,0.5931118130683899
2.3097362518310547,-0.26569926738739014,-0.6464959383010864,0.38561588525772095,0.7313504219055176,-0.09146660566329956,0.5931118130683899
2.3298449516296387,-0.2656315565109253,-0.646356463432312,0.3882925510406494,0.7321133613586426,-0.09061894565820694,0.5923454165458679
2.349992513656616,-0.26450425386428833,-0.6442632675170898,0.3900606632232666,0.7326127290725708,-0.08749896287918091,0.5923900604248047
2.370166301727295,-0.26450425386428833,-0.6442632675170898,0.3900606632232666,0.7326127290725708,-0.08749896287918091,0.5923900604248047
2.390265703201294,-0.2663500905036926,-0.6413038372993469,0.39409857988357544,0.7327778339385986,-0.08876393735408783,0.5908954739570618
2.4103078842163086,-0.2663500905036926,-0.6413038372993469,0.39409857988357544,0.7327778339385986,-0.08876393735408783,0.5908954739570618
2.4304122924804688,-0.266189843416214,-0.64391028881073,0.3925314247608185,0.7333608865737915,-0.0890178382396698,0.5910503268241882
2.450474739074707,-0.266189843416214,-0.64391028881073,0.3925314247608185,0.7333608865737915,-0.0890178382396698,0.5910503268241882
2.4705758094787598,-0.26566413044929504,-0.6395648717880249,0.39694997668266296,0.7339191436767578,-0.08748377114534378,0.5897536873817444
2.4906373023986816,-0.26566413044929504,-0.6395648717880249,0.39694997668266296,0.7339191436767578,-0.08748377114534378,0.5897536873817444
2.51084566116333,-0.2660890221595764,-0.63671875,0.3989063799381256,0.7343273162841797,-0.0869772881269455,0.5895165801048279
2.530890703201294,-0.2646852731704712,-0.6353781223297119,0.39987727999687195,0.7344378232955933,-0.0848858505487442,0.5903742909431458
2.550933361053467,-0.2646852731704712,-0.6353781223297119,0.39987727999687195,0.7344378232955933,-0.0848858505487442,0.5903742909431458
2.5710246562957764,-0.2635706663131714,-0.6380407214164734,0.4001486599445343,0.7337847948074341,-0.08393409848213196,0.5915072560310364
2.59116268157959,-0.2635706663131714,-0.6380407214164734,0.4001486599445343,0.7337847948074341,-0.08393409848213196,0.5915072560310364
2.611196279525757,-0.26524680852890015,-0.6370718479156494,0.40349605679512024,0.7338948249816895,-0.08449900150299072,0.5903288125991821
2.6312923431396484,-0.26524680852890015,-0.6370718479156494,0.40349605679512024,0.7338948249816895,-0.08449900150299072,0.5903288125991821
2.6514103412628174,-0.2631746828556061,-0.6346899271011353,0.4053209722042084,0.734491229057312,-0.08103683590888977,0.5904747843742371
2.6715803146362305,-0.26513057947158813,-0.6336802244186401,0.4067934453487396,0.7345056533813477,-0.08221103250980377,0.590079128742218
2.6916868686676025,-0.26513057947158813,-0.6336802244186401,0.4067934453487396,0.7345056533813477,-0.08221103250980377,0.590079128742218
2.711760997772217,-0.26437509059906006,-0.6331568956375122,0.40636271238327026,0.7340084314346313,-0.08122961968183517,0.5905114412307739
2.7318480014801025,-0.26437509059906006,-0.6331568956375122,0.40636271238327026,0.7340084314346313,-0.08122961968183517,0.5905114412307739
2.751950263977051,-0.26346004009246826,-0.6352239847183228,0.4062977731227875,0.7339555025100708,-0.08035299181938171,0.5910606980323792
2.772099018096924,-0.26346004009246826,-0.6352239847183228,0.4062977731227875,0.7339555025100708,-0.08035299181938171,0.5910606980323792
2.7921228408813477,-0.2652911841869354,-0.6333640813827515,0.40950241684913635,0.7341451644897461,-0.08170218765735626,0.5895569920539856
2.812242031097412,-0.2652911841869354,-0.6333640813827515,0.40950241684913635,0.7341451644897461,-0.08170218765735626,0.5895569920539856
2.8323469161987305,-0.26533544063568115,-0.630485475063324,0.4130830466747284,0.7354066371917725,-0.08123704791069031,0.588118314743042
2.8523786067962646,-0.26494917273521423,-0.6287701725959778,0.4138541519641876,0.7357872724533081,-0.07997910678386688,0.5883138179779053
2.872534990310669,-0.26494917273521423,-0.6287701725959778,0.4138541519641876,0.7357872724533081,-0.07997910678386688,0.5883138179779053
2.892590284347534,-0.264391154050827,-0.6328076720237732,0.4124288558959961,0.7358530759811401,-0.08018085360527039,0.5889580845832825
2.9126458168029785,-0.264391154050827,-0.6328076720237732,0.4124288558959961,0.7358530759811401,-0.08018085360527039,0.5889580845832825
2.932725429534912,-0.2642827033996582,-0.6303086280822754,0.4152558743953705,0.7359241247177124,-0.07898150384426117,0.5880017876625061
2.9528074264526367,-0.2642827033996582,-0.6303086280822754,0.4152558743953705,0.7359241247177124,-0.07898150384426117,0.5880017876625061
2.9729106426239014,-0.2637978494167328,-0.6311520338058472,0.41503921151161194,0.7362551689147949,-0.07802915573120117,0.5888802409172058
2.992964029312134,-0.26378118991851807,-0.6295244097709656,0.41607382893562317,0.7358415126800537,-0.0771387591958046,0.5888857841491699
3.0130701065063477,-0.26378118991851807,-0.6295244097709656,0.41607382893562317,0.7358415126800537,-0.0771387591958046,0.5888857841491699
3.0331456661224365,-0.2639039158821106,-0.6319442391395569,0.41604718565940857,0.7359577417373657,-0.07753276824951172,0.5893288254737854
3.0533063411712646,-0.2639039158821106,-0.6319442391395569,0.41604718565940857,0.7359577417373657,-0.07753276824951172,0.5893288254737854
3.0733351707458496,-0.2636992335319519,-0.6311593055725098,0.417811781167984,0.7360531091690063,-0.07695601880550385,0.5886819958686829
3.093417167663574,-0.2636992335319519,-0.6311593055725098,0.417811781167984,0.7360531091690063,-0.07695601880550385,0.5886819958686829
3.1135284900665283,-0.263805091381073,-0.6278328895568848,0.4209193289279938,0.7363629341125488,-0.07599448412656784,0.587751567363739
3.133599281311035,-0.263805091381073,-0.6278328895568848,0.4209193289279938,0.7363629341125488,-0.07599448412656784,0.587751567363739
3.1536924839019775,-0.2642548084259033,-0.625392496585846,0.4246077239513397,0.7374815940856934,-0.07594825327396393,0.5865889191627502
3.173776388168335,-0.2616785168647766,-0.6236218214035034,0.42576804757118225,0.7377803325653076,-0.07164856046438217,0.5872424244880676
3.1938865184783936,-0.2616785168647766,-0.6236218214035034,0.42576804757118225,0.7377803325653076,-0.07164856046438217,0.5872424244880676
3.2139663696289062,-0.2637001574039459,-0.6216115951538086,0.4263707995414734,0.7372362613677979,-0.07262041419744492,0.5875186324119568
3.234105110168457,-0.2637001574039459,-0.6216115951538086,0.4263707995414734,0.7372362613677979,-0.07262041419744492,0.5875186324119568
3.254163980484009,-0.2641194760799408,-0.6251139044761658,0.4258246421813965,0.7372848987579346,-0.07450741529464722,0.5873060822486877
3.274240493774414,-0.2641194760799408,-0.6251139044761658,0.4258246421813965,0.7372848987579346,-0.07450741529464722,0.5873060822486877
3.2945737838745117,-0.2631106376647949,-0.6282883286476135,0.423686683177948,0.7376854419708252,-0.07371870428323746,0.5879215598106384
3.31461501121521,-0.26288944482803345,-0.6244838237762451,0.42963066697120667,0.737963080406189,-0.07216683775186539,0.5863224864006042
3.334735870361328,-0.26288944482803345,-0.6244838237762451,0.42963066697120667,0.737963080406189,-0.07216683775186539,0.5863224864006042
3.35479998588562,-0.2633846402168274,-0.6219743490219116,0.4320310950279236,0.7384035587310791,-0.0713040828704834,0.5857605338096619
3.374878168106079,-0.2633846402168274,-0.6219743490219116,0.4320310950279236,0.7384035587310791,-0.0713040828704834,0.5857605338096619
3.39497709274292,-0.2637801766395569,-0.6209298372268677,0.4345044195652008,0.7389724254608154,-0.07180582731962204,0.5849702954292297
3.4150476455688477,-0.2637801766395569,-0.6209298372268677,0.4345044195652008,0.7389724254608154,-0.07180582731962204,0.5849702954292297
3.435183525085449,-0.2642708420753479,-0.6216393709182739,0.4342348277568817,0.739214301109314,-0.07200852036476135,0.5849894881248474
3.4552011489868164,-0.26360374689102173,-0.6206730604171753,0.43443647027015686,0.739453911781311,-0.0709645226597786,0.584674060344696
3.475292205810547,-0.26360374689102173,-0.6206730604171753,0.43443647027015686,0.739453911781311,-0.0709645226597786,0.584674060344696
3.495365858078003,-0.26246172189712524,-0.6221076846122742,0.4343045651912689,0.7396092414855957,-0.06935178488492966,0.5854924321174622
3.515448808670044,-0.26246172189712524,-0.6221076846122742,0.4343045651912689,0.7396092414855957,-0.06935178488492966,0.5854924321174622
3.535525321960449,-0.26308006048202515,-0.6208242177963257,0.43659186363220215,0.7393962144851685,-0.06892451643943787,0.5852173566818237
3.5556046962738037,-0.26308006048202515,-0.6208242177963257,0.43659186363220215,0.7393962144851685,-0.06892451643943787,0.5852173566818237
3.575697422027588,-0.2630299925804138,-0.622735857963562,0.4361511170864105,0.7394187450408936,-0.069033183157444,0.5854097604751587
3.596412420272827,-0.2629436254501343,-0.6226619482040405,0.4370649755001068,0.7400163412094116,-0.06818576157093048,0.5846930742263794
3.6165032386779785,-0.2629436254501343,-0.6226619482040405,0.4370649755001068,0.7400163412094116,-0.06818576157093048,0.5846930742263794
3.6366031169891357,-0.2620609402656555,-0.6220495104789734,0.4374631345272064,0.7401658296585083,-0.06646125763654709,0.5851356983184814
3.6566617488861084,-0.2620609402656555,-0.6220495104789734,0.4374631345272064,0.7401658296585083,-0.06646125763654709,0.5851356983184814
3.676738977432251,-0.26261335611343384,-0.618440568447113,0.43858054280281067,0.7398393154144287,-0.0665598064661026,0.5850429534912109
3.6968202590942383,-0.26261335611343384,-0.618440568447113,0.43858054280281067,0.7398393154144287,-0.0665598064661026,0.5850429534912109
3.7169888019561768,-0.26230281591415405,-0.6192207336425781,0.4415483772754669,0.7403494119644165,-0.06638387590646744,0.5843742489814758
3.7374072074890137,-0.2626066505908966,-0.6193633079528809,0.44219931960105896,0.7406939268112183,-0.06606733798980713,0.584041953086853
3.7575106620788574,-0.2626066505908966,-0.6193633079528809,0.44219931960105896,0.7406939268112183,-0.06606733798980713,0.584041953086853
3.7775990962982178,-0.26171326637268066,-0.6190783381462097,0.4430883824825287,0.7410826683044434,-0.06456252187490463,0.5842582583427429
3.7977662086486816,-0.26171326637268066,-0.6190783381462097,0.4430883824825287,0.7410826683044434,-0.06456252187490463,0.5842582583427429
3.8177921772003174,-0.262471079826355,-0.619013786315918,0.44392192363739014,0.7412111759185791,-0.06480643153190613,0.5837386250495911
3.8378772735595703,-0.262471079826355,-0.619013786315918,0.44392192363739014,0.7412111759185791,-0.06480643153190613,0.5837386250495911
3.857950448989868,-0.26222652196884155,-0.6124954223632812,0.45028945803642273,0.7417501211166382,-0.06347095221281052,0.5818260312080383
3.8780527114868164,-0.26222652196884155,-0.6124954223632812,0.45028945803642273,0.7417501211166382,-0.06347095221281052,0.5818260312080383
3.898216962814331,-0.26286154985427856,-0.6120415329933167,0.4488714933395386,0.7418068647384644,-0.06373640149831772,0.582389771938324
3.91833233833313,-0.26221492886543274,-0.6160261034965515,0.44785287976264954,0.7423182725906372,-0.06385388225317001,0.5831226706504822
3.9383294582366943,-0.26221492886543274,-0.6160261034965515,0.44785287976264954,0.7423182725906372,-0.06385388225317001,0.5831226706504822
3.9584438800811768,-0.26175224781036377,-0.615407407283783,0.44895729422569275,0.7421109676361084,-0.0621713250875473,0.5830336809158325
3.9785118103027344,-0.26175224781036377,-0.615407407283783,0.44895729422569275,0.7421109676361084,-0.0621713250875473,0.5830336809158325
3.998594284057617,-0.261696994304657,-0.6128929853439331,0.4529363214969635,0.7425495386123657,-0.06136760115623474,0.5821440815925598
4.018672943115234,-0.261696994304657,-0.6128929853439331,0.4529363214969635,0.7425495386123657,-0.06136760115623474,0.5821440815925598
4.038748741149902,-0.26235389709472656,-0.6105914115905762,0.4565946161746979,0.7433048486709595,-0.06128358468413353,0.5803324580192566
4.058804512023926,-0.261862576007843,-0.6081557869911194,0.4587484300136566,0.744340181350708,-0.059728123247623444,0.5799898505210876
4.0789244174957275,-0.261862576007843,-0.6081557869911194,0.4587484300136566,0.744340181350708,-0.059728123247623444,0.5799898505210876
4.098979473114014,-0.26230573654174805,-0.6092068552970886,0.45843297243118286,0.7445120811462402,-0.06036072224378586,0.5800778269767761
4.1190571784973145,-0.26230573654174805,-0.6092068552970886,0.45843297243118286,0.7445120811462402,-0.06036072224378586,0.5800778269767761
4.1391401290893555,-0.2620978355407715,-0.6060040593147278,0.4603872001171112,0.7443381547927856,-0.05936839431524277,0.5799769759178162
4.159233808517456,-0.2620978355407715,-0.6060040593147278,0.4603872001171112,0.7443381547927856,-0.05936839431524277,0.5799769759178162
4.1793084144592285,-0.26149481534957886,-0.6096738576889038,0.45888638496398926,0.7440060377120972,-0.05884663388133049,0.581322968006134
4.19938325881958,-0.2616397738456726,-0.6075640916824341,0.4621579349040985,0.7435935735702515,-0.05855395272374153,0.5808404684066772
4.219494819641113,-0.2616397738456726,-0.6075640916824341,0.4621579349040985,0.7435935735702515,-0.05855395272374153,0.5808404684066772
4.2395806312561035,-0.2621915936470032,-0.609316885471344,0.4618776738643646,0.7440212965011597,-0.0583784319460392,0.580689549446106
4.2596917152404785,-0.2621915936470032,-0.609316885471344,0.4618776738643646,0.7440212965011597,-0.0583784319460392,0.580689549446106
4.279750823974609,-0.2617828845977783,-0.6038170456886292,0.46476665139198303,0.7441902160644531,-0.057368166744709015,0.5799291133880615
4.299886226654053,-0.2617828845977783,-0.6038170456886292,0.46476665139198303,0.7441902160644531,-0.057368166744709015,0.5799291133880615
4.319962501525879,-0.26027578115463257,-0.6067752838134766,0.46373069286346436,0.7442377805709839,-0.05506071075797081,0.5814690589904785
4.34000301361084,-0.2615048587322235,-0.6058262586593628,0.46740543842315674,0.7442570924758911,-0.05611990764737129,0.5800682306289673
4.360092639923096,-0.2615048587322235,-0.6058262586593628,0.46740543842315674,0.7442570924758911,-0.05611990764737129,0.5800682306289673
4.380336284637451,-0.2620707154273987,-0.6030282378196716,0.4704079329967499,0.7452476024627686,-0.05609183385968208,0.5785422921180725
4.400308609008789,-0.2620707154273987,-0.6030282378196716,0.4704079329967499,0.7452476024627686,-0.05609183385968208,0.5785422921180725
4.420450925827026,-0.26169872283935547,-0.6029407382011414,0.470634788274765,0.7458453178405762,-0.05524472892284393,0.578392744064331
4.44050669670105,-0.26169872283935547,-0.6029407382011414,0.470634788274765,0.7458453178405762,-0.05524472892284393,0.578392744064331
4.460585355758667,-0.2613598704338074,-0.603729784488678,0.46941491961479187,0.7455896139144897,-0.054643355309963226,0.5794156193733215
4.480907678604126,-0.26053470373153687,-0.605485200881958,0.4690481424331665,0.745315670967102,-0.054004594683647156,0.5800648331642151
4.50104284286499,-0.26053470373153687,-0.605485200881958,0.4690481424331665,0.745315670967102,-0.054004594683647156,0.5800648331642151
4.521100997924805,-0.259483277797699,-0.6045783758163452,0.4699403941631317,0.7449604272842407,-0.052272651344537735,0.5806180834770203
4.541172027587891,-0.259483277797699,-0.6045783758163452,0.4699403941631317,0.7449604272842407,-0.052272651344537735,0.5806180834770203
4.56126594543457,-0.2609298825263977,-0.6047036647796631,0.47214555740356445,0.7447953224182129,-0.05315835773944855,0.5801555514335632
4.5813562870025635,-0.2609298825263977,-0.6047036647796631,0.47214555740356445,0.7447953224182129,-0.05315835773944855,0.5801555514335632
4.6014323234558105,-0.2607215642929077,-0.6003093719482422,0.4769422113895416,0.7455756664276123,-0.052341897040605545,0.5785771608352661
4.621476888656616,-0.2607215642929077,-0.6003093719482422,0.4769422113895416,0.7455756664276123,-0.052341897040605545,0.5785771608352661
4.641583681106567,-0.26089048385620117,-0.6038680672645569,0.4748401939868927,0.7461757659912109,-0.05253400281071663,0.5791409611701965
4.6616644859313965,-0.2594769597053528,-0.5997812747955322,0.4772433042526245,0.74599289894104,-0.05001009255647659,0.5787468552589417
4.681786775588989,-0.2594769597053528,-0.5997812747955322,0.4772433042526245,0.74599289894104,-0.05001009255647659,0.5787468552589417
4.701864957809448,-0.26079827547073364,-0.5961388945579529,0.48217636346817017,0.7463197708129883,-0.05088842287659645,0.57725989818573
4.721938610076904,-0.26079827547073364,-0.5961388945579529,0.48217636346817017,0.7463197708129883,-0.05088842287659645,0.57725989818573
4.742065191268921,-0.2613181471824646,-0.5941790342330933,0.48506665229797363,0.7474449872970581,-0.050581756979227066,0.5762171149253845
4.762183666229248,-0.2613181471824646,-0.5941790342330933,0.48506665229797363,0.7474449872970581,-0.050581756979227066,0.5762171149253845
4.78222918510437,-0.2604077458381653,-0.5925045013427734,0.48598527908325195,0.747841477394104,-0.04874492436647415,0.5761895775794983
4.80232310295105,-0.26041096448898315,-0.5952876806259155,0.4858798086643219,0.7479723691940308,-0.04874330013990402,0.5765317678451538
4.822407960891724,-0.26041096448898315,-0.5952876806259155,0.4858798086643219,0.7479723691940308,-0.04874330013990402,0.5765317678451538
4.8424787521362305,-0.260378897190094,-0.597618818283081,0.4847938120365143,0.7476248741149902,-0.048449866473674774,0.576751172542572
4.86255955696106,-0.260378897190094,-0.597618818283081,0.4847938120365143,0.7476248741149902,-0.048449866473674774,0.576751172542572
4.882647752761841,-0.2600595951080322,-0.5969773530960083,0.4857618510723114,0.7483230829238892,-0.047711972147226334,0.5761290788650513
4.902727127075195,-0.2600595951080322,-0.5969773530960083,0.4857618510723114,0.7483230829238892,-0.047711972147226334,0.5761290788650513
4.922858715057373,-0.2605990171432495,-0.5975131392478943,0.48582157492637634,0.748350977897644,-0.04836120828986168,0.5764888525009155
4.942909002304077,-0.26003894209861755,-0.5968989729881287,0.487639844417572,0.7484151124954224,-0.047724753618240356,0.5762565732002258
4.962997674942017,-0.26003894209861755,-0.5968989729881287,0.487639844417572,0.7484151124954224,-0.047724753618240356,0.5762565732002258
4.9830756187438965,-0.259524405002594,-0.5996331572532654,0.48604652285575867,0.7483491897583008,-0.04691653326153755,0.576949417591095
5.003203868865967,-0.259524405002594,-0.5996331572532654,0.48604652285575867,0.7483491897583008,-0.04691653326153755,0.576949417591095
5.023267507553101,-0.25923997163772583,-0.598473846912384,0.4870986342430115,0.7487227916717529,-0.04516465961933136,0.5767076015472412
5.043346405029297,-0.25923997163772583,-0.598473846912384,0.4870986342430115,0.7487227916717529,-0.04516465961933136,0.5767076015472412
5.063425302505493,-0.25994187593460083,-0.6006764769554138,0.48762062191963196,0.7489922046661377,-0.04595687612891197,0.576535165309906
5.083515882492065,-0.25897035002708435,-0.5960975885391235,0.4884759187698364,0.7487108707427979,-0.04374874010682106,0.5765354037284851
5.103658437728882,-0.25897035002708435,-0.5960975885391235,0.4884759187698364,0.7487108707427979,-0.04374874010682106,0.5765354037284851
5.123792886734009,-0.25923049449920654,-0.5989431142807007,0.48935413360595703,0.7487009763717651,-0.04523586854338646,0.5766237378120422
5.143823862075806,-0.25923049449920654,-0.5989431142807007,0.48935413360595703,0.7487009763717651,-0.04523586854338646,0.5766237378120422
5.1639721393585205,-0.259210467338562,-0.5980238318443298,0.4904955327510834,0.7492687702178955,-0.04427412524819374,0.5761207938194275
5.183997631072998,-0.259210467338562,-0.5980238318443298,0.4904955327510834,0.7492687702178955,-0.04427412524819374,0.5761207938194275
5.204111337661743,-0.2585982084274292,-0.5982402563095093,0.49157631397247314,0.7495782375335693,-0.04295022785663605,0.5759894847869873
5.2242348194122314,-0.25837552547454834,-0.5999753475189209,0.4908827841281891,0.7496809959411621,-0.042544763535261154,0.5763552784919739
5.244398832321167,-0.25837552547454834,-0.5999753475189209,0.4908827841281891,0.7496809959411621,-0.042544763535261154,0.5763552784919739
5.264482736587524,-0.258355975151062,-0.6005409359931946,0.49132704734802246,0.7496157884597778,-0.04268502816557884,0.5761210322380066
5.284603834152222,-0.258355975151062,-0.6005409359931946,0.49132704734802246,0.7496157884597778,-0.04268502816557884,0.5761210322380066
5.3047168254852295,-0.25885850191116333,-0.5936174392700195,0.49608078598976135,0.749812126159668,-0.04182705283164978,0.574763298034668
5.3248679637908936,-0.25885850191116333,-0.5936174392700195,0.49608078598976135,0.749812126159668,-0.04182705283164978,0.574763298034668
5.344926357269287,-0.25760161876678467,-0.5947902202606201,0.4973621368408203,0.7507929801940918,-0.04033104330301285,0.5751094222068787
5.365142583847046,-0.25899338722229004,-0.5914775729179382,0.5014752745628357,0.7512578964233398,-0.04055921733379364,0.5734731554985046
5.3852643966674805,-0.25899338722229004,-0.5914775729179382,0.5014752745628357,0.7512578964233398,-0.04055921733379364,0.5734731554985046
5.405348300933838,-0.2589389979839325,-0.591913104057312,0.5018714666366577,0.7516835927963257,-0.04038185626268387,0.573266863822937
5.425430536270142,-0.2589389979839325,-0.591913104057312,0.5018714666366577,0.7516835927963257,-0.04038185626268387,0.573266863822937
5.4455132484436035,-0.2591286301612854,-0.5902889966964722,0.5041833519935608,0.7519965171813965,-0.04040232673287392,0.5721984505653381
5.465583086013794,-0.2591286301612854,-0.5902889966964722,0.5041833519935608,0.7519965171813965,-0.04040232673287392,0.5721984505653381
5.485661029815674,-0.25930213928222656,-0.5930294990539551,0.5019097328186035,0.7525603771209717,-0.040136225521564484,0.5730865597724915
5.505854845046997,-0.2575485110282898,-0.5956878066062927,0.49964043498039246,0.752178430557251,-0.03887622803449631,0.5743845701217651
5.5259480476379395,-0.2575485110282898,-0.5956878066062927,0.49964043498039246,0.752178430557251,-0.03887622803449631,0.5743845701217651
5.546017408370972,-0.25609493255615234,-0.5958219766616821,0.5012693405151367,0.7513483762741089,-0.036010004580020905,0.5751858353614807
5.566105842590332,-0.25609493255615234,-0.5958219766616821,0.5012693405151367,0.7513483762741089,-0.036010004580020905,0.5751858353614807
5.586210012435913,-0.2576095461845398,-0.5989202260971069,0.5008453726768494,0.7513154745101929,-0.03786027804017067,0.5756111741065979
5.606287002563477,-0.2576095461845398,-0.5989202260971069,0.5008453726768494,0.7513154745101929,-0.03786027804017067,0.5756111741065979
5.626360893249512,-0.2575322091579437,-0.5990118980407715,0.5018277764320374,0.7516388893127441,-0.03713278844952583,0.5744234323501587
5.64646053314209,-0.2575322091579437,-0.5990118980407715,0.5018277764320374,0.7516388893127441,-0.03713278844952583,0.5744234323501587
5.66657018661499,-0.2563475966453552,-0.5965244770050049,0.5032086968421936,0.7519063949584961,-0.03477362543344498,0.5743653178215027
5.686648845672607,-0.25760310888290405,-0.5939179062843323,0.5039991736412048,0.7517120838165283,-0.03533543273806572,0.5739852786064148
5.706759214401245,-0.25760310888290405,-0.5939179062843323,0.5039991736412048,0.7517120838165283,-0.03533543273806572,0.5739852786064148
5.726834058761597,-0.2573673725128174,-0.5975480079650879,0.5035348534584045,0.7522493600845337,-0.03624190762639046,0.5746983885765076
5.746939182281494,-0.2573673725128174,-0.5975480079650879,0.5035348534584045,0.7522493600845337,-0.03624190762639046,0.5746983885765076
5.767040252685547,-0.2572925090789795,-0.5955003499984741,0.5075140595436096,0.7526051998138428,-0.03575620800256729,0.5727679133415222
5.787086009979248,-0.2572925090789795,-0.5955003499984741,0.5075140595436096,0.7526051998138428,-0.03575620800256729,0.5727679133415222
5.8071606159210205,-0.25689417123794556,-0.5949272513389587,0.507733166217804,0.7535101175308228,-0.03431759402155876,0.5726609826087952
5.827223062515259,-0.25679534673690796,-0.5954768657684326,0.5087961554527283,0.7537634372711182,-0.03429841250181198,0.572601854801178
5.847313404083252,-0.25679534673690796,-0.5954768657684326,0.5087961554527283,0.7537634372711182,-0.03429841250181198,0.572601854801178
5.867480993270874,-0.2572215795516968,-0.5953918695449829,0.5090508460998535,0.7536970376968384,-0.03400447219610214,0.5725207328796387
5.88761568069458,-0.2572215795516968,-0.5953918695449829,0.5090508460998535,0.7536970376968384,-0.03400447219610214,0.5725207328796387
5.907643795013428,-0.2567683160305023,-0.5973868370056152,0.5079317688941956,0.7537627220153809,-0.03424914926290512,0.572587788105011
5.927727460861206,-0.2567683160305023,-0.5973868370056152,0.5079317688941956,0.7537627220153809,-0.03424914926290512,0.572587788105011
5.9477927684783936,-0.2560979127883911,-0.5980604887008667,0.5087005496025085,0.7543354034423828,-0.03322954103350639,0.5726674199104309
5.967856407165527,-0.25641492009162903,-0.5980783104896545,0.5094451904296875,0.7544915676116943,-0.033076196908950806,0.5726054310798645
5.987939834594727,-0.25641492009162903,-0.5980783104896545,0.5094451904296875,0.7544915676116943,-0.033076196908950806,0.5726054310798645
6.008016109466553,-0.2560007572174072,-0.5952329635620117,0.5120531320571899,0.7547094821929932,-0.03125704824924469,0.5720623731613159
6.028095006942749,-0.2560007572174072,-0.5952329635620117,0.5120531320571899,0.7547094821929932,-0.03125704824924469,0.5720623731613159
6.048178434371948,-0.25632143020629883,-0.5988260507583618,0.511443018913269,0.7548524141311646,-0.03198182210326195,0.5716901421546936
6.068252325057983,-0.25632143020629883,-0.5988260507583618,0.511443018913269,0.7548524141311646,-0.03198182210326195,0.5716901421546936
6.088326930999756,-0.2562550902366638,-0.5973869562149048,0.5109132528305054,0.755123496055603,-0.031016673892736435,0.5719621777534485
6.108473539352417,-0.25549769401550293,-0.5996935367584229,0.5103082060813904,0.7550745010375977,-0.030611775815486908,0.5728698372840881
6.128536224365234,-0.25549769401550293,-0.5996935367584229,0.5103082060813904,0.7550745010375977,-0.030611775815486908,0.5728698372840881
6.148656606674194,-0.255861759185791,-0.5991532206535339,0.5129910111427307,0.7553659677505493,-0.030646588653326035,0.5721299648284912
6.168727874755859,-0.255861759185791,-0.5991532206535339,0.5129910111427307,0.7553659677505493,-0.030646588653326035,0.5721299648284912
6.18889856338501,-0.2564648985862732,-0.5940629243850708,0.5183271765708923,0.7562707662582397,-0.030045494437217712,0.5693309903144836
6.209044694900513,-0.2564648985862732,-0.5940629243850708,0.5183271765708923,0.7562707662582397,-0.030045494437217712,0.5693309903144836
6.229069232940674,-0.25325852632522583,-0.5966864228248596,0.5158616304397583,0.7571271657943726,-0.025371700525283813,0.5714893341064453
6.249128580093384,-0.25548499822616577,-0.5983436107635498,0.517299234867096,0.7565497159957886,-0.027949485927820206,0.5705439448356628
6.269201040267944,-0.25548499822616577,-0.5983436107635498,0.517299234867096,0.7565497159957886,-0.027949485927820206,0.5705439448356628
6.289284706115723,-0.25493261218070984,-0.6025567054748535,0.5146094560623169,0.7567306756973267,-0.028603121638298035,0.5713433623313904
6.309370279312134,-0.25493261218070984,-0.6025567054748535,0.5146094560623169,0.7567306756973267,-0.028603121638298035,0.5713433623313904
6.329441070556641,-0.2540719509124756,-0.6019608974456787,0.5163790583610535,0.7568566799163818,-0.027348671108484268,0.5709371566772461
6.349517345428467,-0.2540719509124756,-0.6019608974456787,0.5163790583610535,0.7568566799163818,-0.027348671108484268,0.5709371566772461
6.369612455368042,-0.25284016132354736,-0.5981559753417969,0.5203452110290527,0.7575777769088745,-0.024152297526597977,0.5701468586921692
6.389657974243164,-0.2549453377723694,-0.598598062992096,0.5207766890525818,0.7577478885650635,-0.025263164192438126,0.5698497891426086
6.409775257110596,-0.2549453377723694,-0.598598062992096,0.5207766890525818,0.7577478885650635,-0.025263164192438126,0.5698497891426086
6.429875612258911,-0.2543138861656189,-0.6018185615539551,0.519054651260376,0.757654070854187,-0.025891203433275223,0.5706892013549805
6.450012683868408,-0.2543138861656189,-0.6018185615539551,0.519054651260376,0.757654070854187,-0.025891203433275223,0.5706892013549805
6.470107316970825,-0.2539219260215759,-0.6046741008758545,0.5182421803474426,0.7574723958969116,-0.025941744446754456,0.570884644985199
6.490144729614258,-0.2539219260215759,-0.6046741008758545,0.5182421803474426,0.7574723958969116,-0.025941744446754456,0.570884644985199
6.510240316390991,-0.2521076202392578,-0.6075740456581116,0.5175156593322754,0.7577775716781616,-0.023846857249736786,0.5713483095169067
6.530354738235474,-0.25158625841140747,-0.6068610548973083,0.5193998217582703,0.7579464912414551,-0.021509286016225815,0.5713892579078674
6.550448656082153,-0.25158625841140747,-0.6068610548973083,0.5193998217582703,0.7579464912414551,-0.021509286016225815,0.5713892579078674
6.570515155792236,-0.2531367540359497,-0.6036974787712097,0.5216823220252991,0.7579458951950073,-0.022384297102689743,0.5703586935997009
6.590578556060791,-0.2531367540359497,-0.6036974787712097,0.5216823220252991,0.7579458951950073,-0.022384297102689743,0.5703586935997009
6.610651969909668,-0.2500499188899994,-0.6051218509674072,0.5208667516708374,0.7578907012939453,-0.018647577613592148,0.5724616646766663
6.630726099014282,-0.2500499188899994,-0.6051218509674072,0.5208667516708374,0.7578907012939453,-0.018647577613592148,0.5724616646766663
6.650820016860962,-0.2528759241104126,-0.6057159900665283,0.5232108235359192,0.7573279142379761,-0.021469950675964355,0.5713010430335999
6.670888662338257,-0.2528759241104126,-0.6057159900665283,0.5232108235359192,0.7573279142379761,-0.021469950675964355,0.5713010430335999
6.69097113609314,-0.2523118257522583,-0.6073732972145081,0.5225663781166077,0.7580177783966064,-0.021307997405529022,0.5706158876419067
6.711015939712524,-0.2512969374656677,-0.6100926995277405,0.522132396697998,0.7588388919830322,-0.02070118486881256,0.5705718398094177
6.731109142303467,-0.2512969374656677,-0.6100926995277405,0.522132396697998,0.7588388919830322,-0.02070118486881256,0.5705718398094177
6.751185655593872,-0.25183290243148804,-0.6103706955909729,0.5223667025566101,0.7590137720108032,-0.02057575434446335,0.5703397393226624
6.771261692047119,-0.25183290243148804,-0.6103706955909729,0.5223667025566101,0.7590137720108032,-0.02057575434446335,0.5703397393226624
6.791368246078491,-0.2519723176956177,-0.6095626950263977,0.5238635540008545,0.7592473030090332,-0.02010846510529518,0.569722592830658
6.81144905090332,-0.2519723176956177,-0.6095626950263977,0.5238635540008545,0.7592473030090332,-0.02010846510529518,0.569722592830658
6.8315184116363525,-0.2517881989479065,-0.6092437505722046,0.524279773235321,0.7595068216323853,-0.01963845267891884,0.5691911578178406
6.851559162139893,-0.2507326602935791,-0.6113055348396301,0.5238482356071472,0.7602378129959106,-0.018343191593885422,0.5700774788856506
6.871668338775635,-0.2507326602935791,-0.6113055348396301,0.5238482356071472,0.7602378129959106,-0.018343191593885422,0.5700774788856506
6.891735792160034,-0.25160789489746094,-0.6102991700172424,0.5254838466644287,0.7603746652603149,-0.018708456307649612,0.5693448185920715
6.9118218421936035,-0.25160789489746094,-0.6102991700172424,0.5254838466644287,0.7603746652603149,-0.018708456307649612,0.5693448185920715
6.931918382644653,-0.2511543035507202,-0.6101111173629761,0.5274341106414795,0.7612030506134033,-0.019075099378824234,0.5677877068519592
6.952044248580933,-0.2511543035507202,-0.6101111173629761,0.5274341106414795,0.7612030506134033,-0.019075099378824234,0.5677877068519592
6.972085475921631,-0.25001591444015503,-0.6138906478881836,0.5249793529510498,0.7619763612747192,-0.017174962908029556,0.568913996219635
6.9921300411224365,-0.24835322797298431,-0.6141251921653748,0.5244895219802856,0.7611557245254517,-0.014006170444190502,0.5702230334281921
7.012225151062012,-0.24835322797298431,-0.6141251921653748,0.5244895219802856,0.7611557245254517,-0.014006170444190502,0.5702230334281921
7.032305002212524,-0.25074172019958496,-0.6118957996368408,0.5275934338569641,0.7607284784317017,-0.01591399684548378,0.5692132711410522
7.052379131317139,-0.25074172019958496,-0.6118957996368408,0.5275934338569641,0.7607284784317017,-0.01591399684548378,0.5692132711410522
7.072458505630493,-0.24818281829357147,-0.6134175062179565,0.5267674326896667,0.7614257335662842,-0.013100462965667248,0.5700119733810425
7.092537879943848,-0.24818281829357147,-0.6134175062179565,0.5267674326896667,0.7614257335662842,-0.013100462965667248,0.5700119733810425
7.112673044204712,-0.25080692768096924,-0.6101866960525513,0.5309543013572693,0.7616024017333984,-0.014812330715358257,0.568207323551178
7.132832050323486,-0.250820517539978,-0.6045894622802734,0.5352930426597595,0.7624174356460571,-0.01479348074644804,0.5666100382804871
7.1529316902160645,-0.250820517539978,-0.6045894622802734,0.5352930426597595,0.7624174356460571,-0.01479348074644804,0.5666100382804871
7.173008441925049,-0.2511081099510193,-0.6009900569915771,0.5390709638595581,0.7633541822433472,-0.014580081216990948,0.5652726292610168
7.19309401512146,-0.2511081099510193,-0.6009900569915771,0.5390709638595581,0.7633541822433472,-0.014580081216990948,0.5652726292610168
7.213176012039185,-0.25064677000045776,-0.6077185869216919,0.5341354608535767,0.7636997699737549,-0.014107088558375835,0.5664423704147339
7.233262300491333,-0.25064677000045776,-0.6077185869216919,0.5341354608535767,0.7636997699737549,-0.014107088558375835,0.5664423704147339
7.2533252239227295,-0.24783958494663239,-0.6123476624488831,0.5314154624938965,0.7631157636642456,-0.011074948124587536,0.5686644911766052
7.273418664932251,-0.2491520196199417,-0.6143921613693237,0.5322603583335876,0.7625396251678467,-0.01185868214815855,0.5682281851768494
7.293527364730835,-0.2491520196199417,-0.6143921613693237,0.5322603583335876,0.7625396251678467,-0.01185868214815855,0.5682281851768494
7.313585519790649,-0.2493775486946106,-0.6160725355148315,0.5321909785270691,0.7628074884414673,-0.012524227611720562,0.5681309700012207
7.333692312240601,-0.2493775486946106,-0.6160725355148315,0.5321909785270691,0.7628074884414673,-0.012524227611720562,0.5681309700012207
7.3539347648620605,-0.24982768297195435,-0.6146568059921265,0.5332911610603333,0.7631533145904541,-0.01276047807186842,0.5675163865089417
7.373931169509888,-0.24982768297195435,-0.6146568059921265,0.5332911610603333,0.7631533145904541,-0.01276047807186842,0.5675163865089417
7.394078016281128,-0.24961979687213898,-0.6131405830383301,0.5345351099967957,0.763684868812561,-0.011758151464164257,0.5671895742416382
7.41410493850708,-0.24961979687213898,-0.6131405830383301,0.5345351099967957,0.763684868812561,-0.011758151464164257,0.5671895742416382
7.434201717376709,-0.24829678237438202,-0.6164948344230652,0.5335075259208679,0.7637534141540527,-0.010202976875007153,0.568301796913147
7.454255104064941,-0.24870915710926056,-0.6158124208450317,0.5356589555740356,0.7634342908859253,-0.009601558558642864,0.5675050616264343
7.474360942840576,-0.24870915710926056,-0.6158124208450317,0.5356589555740356,0.7634342908859253,-0.009601558558642864,0.5675050616264343
7.494416236877441,-0.24888138473033905,-0.6179957389831543,0.5350916385650635,0.7639433145523071,-0.010587620548903942,0.5672348737716675
7.514496564865112,-0.24888138473033905,-0.6179957389831543,0.5350916385650635,0.7639433145523071,-0.010587620548903942,0.5672348737716675
7.534582138061523,-0.24896420538425446,-0.6165293455123901,0.5352901220321655,0.7644970417022705,-0.009939777664840221,0.5668317675590515
7.554722785949707,-0.24896420538425446,-0.6165293455123901,0.5352901220321655,0.7644970417022705,-0.009939777664840221,0.5668317675590515
7.574755430221558,-0.2484542280435562,-0.6168175935745239,0.5358622670173645,0.7646480798721313,-0.009346107952296734,0.56695157289505
7.5948145389556885,-0.24726755917072296,-0.6196145415306091,0.5354201197624207,0.7647749185562134,-0.008385482244193554,0.5674920678138733
7.614936113357544,-0.24726755917072296,-0.6196145415306091,0.5354201197624207,0.7647749185562134,-0.008385482244193554,0.5674920678138733
7.634998321533203,-0.2479705661535263,-0.619437575340271,0.5377287268638611,0.7648855447769165,-0.008315901271998882,0.5666297078132629
7.655089616775513,-0.2479705661535263,-0.619437575340271,0.5377287268638611,0.7648855447769165,-0.008315901271998882,0.5666297078132629
7.675177097320557,-0.24837063252925873,-0.6220128536224365,0.5362062454223633,0.765762209892273,-0.00872745644301176,0.5665565133094788
7.695250988006592,-0.24837063252925873,-0.6220128536224365,0.5362062454223633,0.765762209892273,-0.00872745644301176,0.5665565133094788
7.715349435806274,-0.24806980788707733,-0.6194579601287842,0.5391094088554382,0.766364336013794,-0.007852445356547832,0.565445601940155
7.735413551330566,-0.2482486367225647,-0.6143662929534912,0.5442114472389221,0.767367959022522,-0.007110315375030041,0.5632380843162537
7.75549054145813,-0.2482486367225647,-0.6143662929534912,0.5442114472389221,0.767367959022522,-0.007110315375030041,0.5632380843162537
7.775564193725586,-0.24803891777992249,-0.613737940788269,0.5446680188179016,0.7679067850112915,-0.006351928226649761,0.5632255673408508
7.795647621154785,-0.24803891777992249,-0.613737940788269,0.5446680188179016,0.7679067850112915,-0.006351928226649761,0.5632255673408508
7.815728425979614,-0.24679787456989288,-0.6163622140884399,0.5434373021125793,0.7681909799575806,-0.004243168048560619,0.5637445449829102
7.8358473777771,-0.24679787456989288,-0.6163622140884399,0.5434373021125793,0.7681909799575806,-0.004243168048560619,0.5637445449829102
7.855919122695923,-0.247671976685524,-0.6177741289138794,0.5426841974258423,0.767668604850769,-0.004907715134322643,0.5642741918563843
7.875975847244263,-0.2474549561738968,-0.6217776536941528,0.5413646101951599,0.7676935195922852,-0.005758385173976421,0.5647969245910645
7.896060466766357,-0.2474549561738968,-0.6217776536941528,0.5413646101951599,0.7676935195922852,-0.005758385173976421,0.5647969245910645
7.91613245010376,-0.24735639989376068,-0.6249213218688965,0.5403200387954712,0.7680602073669434,-0.006178098730742931,0.5644647479057312
7.936211109161377,-0.24735639989376068,-0.6249213218688965,0.5403200387954712,0.7680602073669434,-0.006178098730742931,0.5644647479057312
7.956299066543579,-0.24709439277648926,-0.6232166886329651,0.542252242565155,0.7684653997421265,-0.004640537314116955,0.5640611052513123
7.976365327835083,-0.24709439277648926,-0.6232166886329651,0.542252242565155,0.7684653997421265,-0.004640537314116955,0.5640611052513123
7.996442079544067,-0.24607612192630768,-0.6241313219070435,0.5419549942016602,0.7688246965408325,-0.0033394498750567436,0.5644617080688477
8.016863107681274,-0.24641136825084686,-0.6245654225349426,0.5426206588745117,0.7687482833862305,-0.0031935377046465874,0.5642864108085632
8.036971807479858,-0.24641136825084686,-0.6245654225349426,0.5426206588745117,0.7687482833862305,-0.0031935377046465874,0.5642864108085632
8.057058095932007,-0.2461865246295929,-0.6216436624526978,0.5433112978935242,0.7690551280975342,-0.0024813292548060417,0.5633919835090637
8.077144622802734,-0.2461865246295929,-0.6216436624526978,0.5433112978935242,0.7690551280975342,-0.0024813292548060417,0.5633919835090637
8.097238540649414,-0.24628102779388428,-0.6247271299362183,0.5432837605476379,0.7695298194885254,-0.0029372377321124077,0.5639645457267761
8.117308378219604,-0.24628102779388428,-0.6247271299362183,0.5432837605476379,0.7695298194885254,-0.0029372377321124077,0.5639645457267761
8.137404918670654,-0.24566316604614258,-0.6257863640785217,0.542802631855011,0.769329309463501,-0.0017895130440592766,0.5646544098854065
8.157602071762085,-0.2460222691297531,-0.6236867904663086,0.5463674664497375,0.7698444128036499,-0.001544932834804058,0.5630338788032532
8.177731037139893,-0.2460222691297531,-0.6236867904663086,0.5463674664497375,0.7698444128036499,-0.001544932834804058,0.5630338788032532
8.197816371917725,-0.243769109249115,-0.626058042049408,0.5446515083312988,0.770050048828125,0.0014315443113446236,0.5638442635536194
8.217893838882446,-0.243769109249115,-0.626058042049408,0.5446515083312988,0.770050048828125,0.0014315443113446236,0.5638442635536194
8.237968683242798,-0.24524222314357758,-0.6264102458953857,0.5450608730316162,0.7696558237075806,0.0002644108608365059,0.5640491843223572
8.25804615020752,-0.24524222314357758,-0.6264102458953857,0.5450608730316162,0.7696558237075806,0.0002644108608365059,0.5640491843223572
8.27820897102356,-0.24541075527668,-0.6279357671737671,0.5446355938911438,0.769790530204773,-0.0006042225286364555,0.5644024014472961
8.298211097717285,-0.24541075527668,-0.6279357671737671,0.5446355938911438,0.769790530204773,-0.0006042225286364555,0.5644024014472961
8.318302631378174,-0.2454247772693634,-0.6295437812805176,0.5446395874023438,0.7701488733291626,-0.0007941601797938347,0.564306378364563
8.338356733322144,-0.24286548793315887,-0.6311153769493103,0.5450735688209534,0.7701911926269531,0.0030356505885720253,0.5648184418678284
8.358449697494507,-0.24286548793315887,-0.6311153769493103,0.5450735688209534,0.7701911926269531,0.0030356505885720253,0.5648184418678284
8.3785560131073,-0.24506248533725739,-0.6285442113876343,0.5481017827987671,0.77018141746521,0.0017280401661992073,0.5627092719078064
8.39862847328186,-0.24506248533725739,-0.6285442113876343,0.5481017827987671,0.77018141746521,0.0017280401661992073,0.5627092719078064
8.418699502944946,-0.2449696958065033,-0.6305097341537476,0.5450231432914734,0.7705007791519165,0.0004576565697789192,0.5640800595283508
8.438777923583984,-0.2449696958065033,-0.6305097341537476,0.5450231432914734,0.7705007791519165,0.0004576565697789192,0.5640800595283508
8.458921194076538,-0.24517478048801422,-0.6252615451812744,0.5504844784736633,0.7710471153259277,0.0010816650465130806,0.5621544122695923
8.478950262069702,-0.24511660635471344,-0.6263625621795654,0.5487684011459351,0.7719186544418335,0.0018733860924839973,0.5623486638069153
8.499043941497803,-0.24511660635471344,-0.6263625621795654,0.5487684011459351,0.7719186544418335,0.0018733860924839973,0.5623486638069153
8.519136428833008,-0.24418990314006805,-0.6299598217010498,0.5481297969818115,0.7717921733856201,0.0025654183700680733,0.5633519291877747
8.539198160171509,-0.24418990314006805,-0.6299598217010498,0.5481297969818115,0.7717921733856201,0.0025654183700680733,0.5633519291877747
8.559270143508911,-0.24335941672325134,-0.6245821714401245,0.5535995364189148,0.7720456123352051,0.004608963616192341,0.5622152090072632
8.579350471496582,-0.24335941672325134,-0.6245821714401245,0.5535995364189148,0.7720456123352051,0.004608963616192341,0.5622152090072632
8.59942889213562,-0.24463041126728058,-0.6291693449020386,0.5515142679214478,0.7723891735076904,0.002903175540268421,0.5628525018692017
8.619484186172485,-0.24407540261745453,-0.6313033103942871,0.5512393116950989,0.7721951007843018,0.0036289067938923836,0.5624986290931702
8.639586925506592,-0.24407540261745453,-0.6313033103942871,0.5512393116950989,0.7721951007843018,0.0036289067938923836,0.5624986290931702
8.659665822982788,-0.2441171556711197,-0.6340389251708984,0.5507065653800964,0.7728484869003296,0.003972095437347889,0.5625852942466736
8.679739236831665,-0.2441171556711197,-0.6340389251708984,0.5507065653800964,0.7728484869003296,0.003972095437347889,0.5625852942466736
8.699847221374512,-0.24155639111995697,-0.6334946155548096,0.5509178042411804,0.7727104425430298,0.007171411998569965,0.5631181001663208
8.719897508621216,-0.24155639111995697,-0.6334946155548096,0.5509178042411804,0.7727104425430298,0.007171411998569965,0.5631181001663208
8.7400381565094,-0.24319256842136383,-0.6296380162239075,0.5556305646896362,0.7732325792312622,0.005976994521915913,0.5609503388404846
8.760307788848877,-0.24377278983592987,-0.6312826871871948,0.5550752282142639,0.7743135690689087,0.005705644376575947,0.5606997013092041
8.780402660369873,-0.24377278983592987,-0.6312826871871948,0.5550752282142639,0.7743135690689087,0.005705644376575947,0.5606997013092041
8.800496816635132,-0.24379576742649078,-0.6333261728286743,0.5542542934417725,0.7743092775344849,0.005512130446732044,0.5607141256332397
8.820568561553955,-0.24379576742649078,-0.6333261728286743,0.5542542934417725,0.7743092775344849,0.005512130446732044,0.5607141256332397
8.840664386749268,-0.24319271743297577,-0.6327474117279053,0.5552808046340942,0.7747526168823242,0.0063270824030041695,0.5608195662498474
8.860738039016724,-0.24319271743297577,-0.6327474117279053,0.5552808046340942,0.7747526168823242,0.0063270824030041695,0.5608195662498474
8.880840301513672,-0.24344822764396667,-0.6323584318161011,0.5583337545394897,0.775158166885376,0.006862149573862553,0.5588140487670898
8.900886058807373,-0.24344822764396667,-0.6323584318161011,0.5583337545394897,0.775158166885376,0.006862149573862553,0.5588140487670898
8.921049118041992,-0.24285632371902466,-0.6356164216995239,0.553704559803009,0.775452733039856,0.007291560061275959,0.5610098242759705
8.941076755523682,-0.24271290004253387,-0.6363168358802795,0.5558984279632568,0.7750488519668579,0.007862680591642857,0.5605123043060303
8.961162090301514,-0.24271290004253387,-0.6363168358802795,0.5558984279632568,0.7750488519668579,0.007862680591642857,0.5605123043060303
8.981289386749268,-0.2429971545934677,-0.6338644027709961,0.5582194328308105,0.7755893468856812,0.007705782540142536,0.5595479607582092
9.001336336135864,-0.2429971545934677,-0.6338644027709961,0.5582194328308105,0.7755893468856812,0.007705782540142536,0.5595479607582092
9.021425247192383,-0.24258215725421906,-0.6372503042221069,0.5565933585166931,0.7763381004333496,0.008693748153746128,0.5599865317344666
9.041513442993164,-0.24258215725421906,-0.6372503042221069,0.5565933585166931,0.7763381004333496,0.008693748153746128,0.5599865317344666
9.061684846878052,-0.24220457673072815,-0.6369136571884155,0.5577895045280457,0.7764657735824585,0.009019841440021992,0.5598641037940979
9.08169937133789,-0.2419329732656479,-0.6398297548294067,0.5572270750999451,0.7767707109451294,0.009761233814060688,0.5597813725471497
9.101783275604248,-0.2419329732656479,-0.6398297548294067,0.5572270750999451,0.7767707109451294,0.009761233814060688,0.5597813725471497
9.121859788894653,-0.24056217074394226,-0.6411352157592773,0.557489275932312,0.7765973806381226,0.011441354639828205,0.5599539279937744
9.14193320274353,-0.24056217074394226,-0.6411352157592773,0.557489275932312,0.7765973806381226,0.011441354639828205,0.5599539279937744
9.162108182907104,-0.24176493287086487,-0.6437550783157349,0.556284487247467,0.7771074771881104,0.010166593827307224,0.5600879788398743
9.18212628364563,-0.24176493287086487,-0.6437550783157349,0.556284487247467,0.7771074771881104,0.010166593827307224,0.5600879788398743
9.202202081680298,-0.24044838547706604,-0.6437988877296448,0.5571790933609009,0.7774436473846436,0.011446391232311726,0.5599104762077332
9.222236633300781,-0.24141445755958557,-0.6462348699569702,0.5560473203659058,0.7774866819381714,0.010663525201380253,0.5602880120277405
9.242369651794434,-0.24141445755958557,-0.6462348699569702,0.5560473203659058,0.7774866819381714,0.010663525201380253,0.5602880120277405
9.262443542480469,-0.2404797524213791,-0.6472836136817932,0.5565950274467468,0.7779138088226318,0.011889961548149586,0.559586763381958
9.282519340515137,-0.2404797524213791,-0.6472836136817932,0.5565950274467468,0.7779138088226318,0.011889961548149586,0.559586763381958
9.302602291107178,-0.24107329547405243,-0.6484971046447754,0.5574874877929688,0.7785099744796753,0.01191838551312685,0.5591105818748474
9.322698593139648,-0.24107329547405243,-0.6484971046447754,0.5574874877929688,0.7785099744796753,0.01191838551312685,0.5591105818748474
9.342753171920776,-0.24104808270931244,-0.6485912799835205,0.5580561757087708,0.7789522409439087,0.012321622110903263,0.5584556460380554
9.362808465957642,-0.240635946393013,-0.650528609752655,0.555949866771698,0.779678225517273,0.011994530446827412,0.558285117149353
9.38290286064148,-0.240635946393013,-0.650528609752655,0.555949866771698,0.779678225517273,0.011994530446827412,0.558285117149353
9.402997255325317,-0.2398291975259781,-0.6539041996002197,0.5548257827758789,0.7796794176101685,0.012346991337835789,0.5592526793479919
9.423075199127197,-0.2398291975259781,-0.6539041996002197,0.5548257827758789,0.7796794176101685,0.012346991337835789,0.5592526793479919
9.443154096603394,-0.23926454782485962,-0.6533443927764893,0.5568301677703857,0.779780387878418,0.014020976610481739,0.5592556595802307
9.46322774887085,-0.23926454782485962,-0.6533443927764893,0.5568301677703857,0.779780387878418,0.014020976610481739,0.5592556595802307
9.483354091644287,-0.2398124486207962,-0.6547641754150391,0.5570856928825378,0.7796534299850464,0.01380844134837389,0.5592278242111206
9.503385066986084,-0.24030953645706177,-0.6523992419242859,0.5592314600944519,0.7801249027252197,0.014343117363750935,0.557811439037323
9.523463010787964,-0.24030953645706177,-0.6523992419242859,0.5592314600944519,0.7801249027252197,0.014343117363750935,0.557811439037323
9.543534755706787,-0.24052520096302032,-0.6526550054550171,0.5585516691207886,0.7805510759353638,0.013677497394382954,0.5582761764526367
9.563627481460571,-0.24052520096302032,-0.6526550054550171,0.5585516691207886,0.7805510759353638,0.013677497394382954,0.5582761764526367
9.583711862564087,-0.23995958268642426,-0.6542884707450867,0.5586784482002258,0.7808669805526733,0.014223461039364338,0.5583558082580566
9.603802919387817,-0.23995958268642426,-0.6542884707450867,0.5586784482002258,0.7808669805526733,0.014223461039364338,0.5583558082580566
9.623877048492432,-0.23904338479042053,-0.6591353416442871,0.556627631187439,0.7809431552886963,0.014404741115868092,0.5588540434837341
9.643930435180664,-0.23823069036006927,-0.6592705249786377,0.557945191860199,0.7813732624053955,0.016752924770116806,0.5586975812911987
9.664017677307129,-0.23823069036006927,-0.6592705249786377,0.557945191860199,0.7813732624053955,0.016752924770116806,0.5586975812911987
9.684093713760376,-0.2378961145877838,-0.6546508073806763,0.5629821419715881,0.7822874784469604,0.017721455544233322,0.5570818185806274
9.704187870025635,-0.2378961145877838,-0.6546508073806763,0.5629821419715881,0.7822874784469604,0.017721455544233322,0.5570818185806274
9.724385261535645,-0.23926980793476105,-0.6561475396156311,0.5625614523887634,0.7829321622848511,0.0165809728205204,0.5564085245132446
9.744374990463257,-0.23926980793476105,-0.6561475396156311,0.5625614523887634,0.7829321622848511,0.0165809728205204,0.5564085245132446
9.764455080032349,-0.2387261837720871,-0.6521683931350708,0.5641112923622131,0.7832785844802856,0.01738981530070305,0.5552930235862732
9.784513711929321,-0.2387261837720871,-0.6521683931350708,0.5641112923622131,0.7832785844802856,0.01738981530070305,0.5552930235862732
9.804608821868896,-0.2386583834886551,-0.65087890625,0.5675675868988037,0.7843132019042969,0.01778388023376465,0.5544710159301758
9.824721336364746,-0.23825006186962128,-0.6523670554161072,0.5668534636497498,0.7845360040664673,0.018033254891633987,0.5541579127311707
9.844804763793945,-0.23825006186962128,-0.6523670554161072,0.5668534636497498,0.7845360040664673,0.018033254891633987,0.5541579127311707
9.864859342575073,-0.23835618793964386,-0.6579937934875488,0.5648801326751709,0.7849128246307373,0.01842966303229332,0.5553541779518127
9.88491678237915,-0.23835618793964386,-0.6579937934875488,0.5648801326751709,0.7849128246307373,0.01842966303229332,0.5553541779518127
9.905041694641113,-0.23817093670368195,-0.6600003242492676,0.5645450353622437,0.7845157384872437,0.019406627863645554,0.5559598803520203
9.925102710723877,-0.23817093670368195,-0.6600003242492676,0.5645450353622437,0.7845157384872437,0.019406627863645554,0.5559598803520203
9.945181846618652,-0.23887403309345245,-0.6569751501083374,0.5683465003967285,0.7845393419265747,0.019146274775266647,0.5544477105140686
9.965240716934204,-0.23861868679523468,-0.660728931427002,0.5660915970802307,0.7854238748550415,0.019671157002449036,0.5551015734672546
9.985371112823486,-0.23861868679523468,-0.660728931427002,0.5660915970802307,0.7854238748550415,0.019671157002449036,0.5551015734672546
10.00548791885376,-0.23709844052791595,-0.6659761071205139,0.5630344748497009,0.7854710817337036,0.019793201237916946,0.5562167763710022
10.025559663772583,-0.23709844052791595,-0.6659761071205139,0.5630344748497009,0.7854710817337036,0.019793201237916946,0.5562167763710022
10.045597791671753,-0.23700553178787231,-0.6662030220031738,0.565794050693512,0.7856149673461914,0.02101454883813858,0.5554631352424622
10.065675497055054,-0.23700553178787231,-0.6662030220031738,0.565794050693512,0.7856149673461914,0.02101454883813858,0.5554631352424622
10.085768699645996,-0.23694728314876556,-0.6622813940048218,0.5669771432876587,0.785737156867981,0.021822497248649597,0.5549036860466003
10.105820894241333,-0.23768192529678345,-0.6594195365905762,0.5709195733070374,0.786919116973877,0.021252676844596863,0.5533100962638855
10.125909805297852,-0.23768192529678345,-0.6594195365905762,0.5709195733070374,0.786919116973877,0.021252676844596863,0.5533100962638855
10.145986557006836,-0.2371223270893097,-0.6662635803222656,0.567722499370575,0.7873131036758423,0.02107502892613411,0.5545547008514404
10.166067361831665,-0.2371223270893097,-0.6662635803222656,0.567722499370575,0.7873131036758423,0.02107502892613411,0.5545547008514404
10.186143398284912,-0.23709996044635773,-0.6662614345550537,0.5689387917518616,0.7870997190475464,0.022033169865608215,0.5543712973594666
10.206226348876953,-0.23709996044635773,-0.6662614345550537,0.5689387917518616,0.7870997190475464,0.022033169865608215,0.5543712973594666
10.226333379745483,-0.23667652904987335,-0.6669467687606812,0.5690350532531738,0.7870543003082275,0.022663060575723648,0.5543022751808167
10.246371507644653,-0.23688100278377533,-0.6688748598098755,0.5683308243751526,0.7871898412704468,0.02273285761475563,0.5547724366188049
10.26647138595581,-0.23688100278377533,-0.6688748598098755,0.5683308243751526,0.7871898412704468,0.02273285761475563,0.5547724366188049
10.286562442779541,-0.23619414865970612,-0.6719554662704468,0.5681954026222229,0.7875466346740723,0.02281370386481285,0.5547674894332886
10.306638240814209,-0.23619414865970612,-0.6719554662704468,0.5681954026222229,0.7875466346740723,0.02281370386481285,0.5547674894332886
10.326720952987671,-0.2360822707414627,-0.6713399887084961,0.57026207447052,0.787817120552063,0.024008166044950485,0.5543820858001709
10.346899509429932,-0.2360822707414627,-0.6713399887084961,0.57026207447052,0.787817120552063,0.024008166044950485,0.5543820858001709
10.366908550262451,-0.2361474186182022,-0.6707352995872498,0.5712122321128845,0.7879617214202881,0.024703361093997955,0.553719162940979
10.386993646621704,-0.2358807474374771,-0.6759058237075806,0.568026065826416,0.7887300252914429,0.023594897240400314,0.5544069409370422
10.407066106796265,-0.2358807474374771,-0.6759058237075806,0.568026065826416,0.7887300252914429,0.023594897240400314,0.5544069409370422
10.427256107330322,-0.2352733016014099,-0.6758192777633667,0.570375382900238,0.7891056537628174,0.024829991161823273,0.553418755531311
10.447304725646973,-0.2352733016014099,-0.6758192777633667,0.570375382900238,0.7891056537628174,0.024829991161823273,0.553418755531311
10.467389106750488,-0.2353869527578354,-0.6774787306785583,0.5698927044868469,0.7902424335479736,0.025039326399564743,0.5527936816215515
10.487473964691162,-0.2353869527578354,-0.6774787306785583,0.5698927044868469,0.7902424335479736,0.025039326399564743,0.5527936816215515
10.507623672485352,-0.23489974439144135,-0.6800522208213806,0.5686002969741821,0.7904162406921387,0.025790877640247345,0.5532587170600891
10.52828073501587,-0.2340773642063141,-0.682645857334137,0.5672063827514648,0.790258526802063,0.025631822645664215,0.553689181804657
10.548519849777222,-0.2340773642063141,-0.682645857334137,0.5672063827514648,0.790258526802063,0.025631822645664215,0.553689181804657
10.56850552558899,-0.23415721952915192,-0.6852806806564331,0.5678168535232544,0.7905788421630859,0.025438781827688217,0.5532485842704773
10.588582515716553,-0.23415721952915192,-0.6852806806564331,0.5678168535232544,0.7905788421630859,0.025438781827688217,0.5532485842704773
10.60866403579712,-0.23418228328227997,-0.6825610399246216,0.5711494088172913,0.7914036512374878,0.02647937461733818,0.5522746443748474
10.628838062286377,-0.23418228328227997,-0.6825610399246216,0.5711494088172913,0.7914036512374878,0.02647937461733818,0.5522746443748474
10.648850679397583,-0.23395398259162903,-0.6783908605575562,0.5747697949409485,0.7923625707626343,0.027723301202058792,0.5511533617973328
10.668927431106567,-0.23395398259162903,-0.6783908605575562,0.5747697949409485,0.7923625707626343,0.027723301202058792,0.5511533617973328
10.68901777267456,-0.23190198838710785,-0.6805416941642761,0.5746617913246155,0.7925746440887451,0.030635274946689606,0.551399827003479
10.70911192893982,-0.20729868113994598,-0.8023914694786072,1.1191205978393555,0.337866872549057,0.06400264799594879,0.12875229120254517
10.729191541671753,-0.20729868113994598,-0.8023914694786072,1.1191205978393555,0.337866872549057,0.06400264799594879,0.12875229120254517
10.74927544593811,-0.2658587396144867,-0.6890787482261658,1.1395457983016968,0.3419194519519806,0.0850578248500824,0.14187252521514893
10.769383192062378,-0.2658587396144867,-0.6890787482261658,1.1395457983016968,0.3419194519519806,0.0850578248500824,0.14187252521514893
10.789509773254395,-0.26537007093429565,-0.6620851755142212,1.1395329236984253,0.3406369686126709,0.07318876683712006,0.1367296576499939
10.809554815292358,-0.26537007093429565,-0.6620851755142212,1.1395329236984253,0.3406369686126709,0.07318876683712006,0.1367296576499939
10.829622030258179,-0.26410266757011414,-0.6538286209106445,1.1448651552200317,0.3434872627258301,0.07196073234081268,0.13378630578517914
10.849750280380249,-0.26356151700019836,-0.6540365815162659,1.1456875801086426,0.3455577790737152,0.07216233015060425,0.1328316628932953
10.869811058044434,-0.26356151700019836,-0.6540365815162659,1.1456875801086426,0.3455577790737152,0.07216233015060425,0.1328316628932953
10.88985800743103,-0.2630363404750824,-0.6553800702095032,1.1448760032653809,0.3463018536567688,0.07235895097255707,0.1321762204170227
10.909977674484253,-0.2630363404750824,-0.6553800702095032,1.1448760032653809,0.3463018536567688,0.07235895097255707,0.1321762204170227
10.930024147033691,-0.2626453936100006,-0.6617423892021179,1.142508864402771,0.346408486366272,0.07239316403865814,0.13310731947422028
10.950105667114258,-0.2626453936100006,-0.6617423892021179,1.142508864402771,0.346408486366272,0.07239316403865814,0.13310731947422028
10.970257043838501,-0.262678861618042,-0.6631472706794739,1.1434768438339233,0.3465055525302887,0.07272911816835403,0.13274528086185455
10.990309238433838,-0.26295554637908936,-0.6663538813591003,1.1430400609970093,0.3465631902217865,0.07220424711704254,0.13297170400619507
11.010437250137329,-0.26295554637908936,-0.6663538813591003,1.1430400609970093,0.3465631902217865,0.07220424711704254,0.13297170400619507
11.030539989471436,-0.2622220516204834,-0.6680537462234497,1.14369797706604,0.3470241129398346,0.07232163846492767,0.13268089294433594
11.050674438476562,-0.2622220516204834,-0.6680537462234497,1.14369797706604,0.3470241129398346,0.07232163846492767,0.13268089294433594
11.070823907852173,-0.2623940706253052,-0.6728284358978271,1.1432164907455444,0.3472905158996582,0.07249274849891663,0.1330026388168335
11.091001749038696,-0.2623940706253052,-0.6728284358978271,1.1432164907455444,0.3472905158996582,0.07249274849891663,0.1330026388168335
11.111023902893066,-0.26121556758880615,-0.6810857057571411,1.1421412229537964,0.34750184416770935,0.073833167552948,0.13346880674362183
11.131690740585327,-0.2618750333786011,-0.6837577819824219,1.1433528661727905,0.34715723991394043,0.07361576706171036,0.13311022520065308
11.151870250701904,-0.2618750333786011,-0.6837577819824219,1.1433528661727905,0.34715723991394043,0.07361576706171036,0.13311022520065308
11.171948671340942,-0.26174044609069824,-0.690822422504425,1.140950083732605,0.34731152653694153,0.07352415472269058,0.13380563259124756
11.191991329193115,-0.26174044609069824,-0.690822422504425,1.140950083732605,0.34731152653694153,0.07352415472269058,0.13380563259124756
11.212074279785156,-0.2607057988643646,-0.6937572360038757,1.141729474067688,0.34743088483810425,0.07496760040521622,0.13414669036865234
11.232155561447144,-0.2607057988643646,-0.6937572360038757,1.141729474067688,0.34743088483810425,0.07496760040521622,0.13414669036865234
11.252239465713501,-0.2611345052719116,-0.6885647773742676,1.1457029581069946,0.3478383719921112,0.07454927265644073,0.13255447149276733
11.27230978012085,-0.2611345052719116,-0.6885647773742676,1.1457029581069946,0.3478383719921112,0.07454927265644073,0.13255447149276733
11.29239821434021,-0.2613070607185364,-0.6928929090499878,1.144673466682434,0.34855496883392334,0.07390458881855011,0.13277864456176758
11.312463998794556,-0.26049453020095825,-0.7056159377098083,1.1414021253585815,0.3488035500049591,0.07438482344150543,0.13374581933021545
11.332581996917725,-0.26049453020095825,-0.7056159377098083,1.1414021253585815,0.3488035500049591,0.07438482344150543,0.13374581933021545
11.352649688720703,-0.26048794388771057,-0.7005742788314819,1.1462215185165405,0.34876561164855957,0.07550102472305298,0.13253767788410187
11.372775077819824,-0.26048794388771057,-0.7005742788314819,1.1462215185165405,0.34876561164855957,0.07550102472305298,0.13253767788410187
11.392824649810791,-0.26020562648773193,-0.7057337760925293,1.145984411239624,0.3492383658885956,0.07589641958475113,0.13317565619945526
11.4128999710083,-0.26020562648773193,-0.7057337760925293,1.145984411239624,0.3492383658885956,0.07589641958475113,0.13317565619945526
11.433014392852783,-0.26038795709609985,-0.717062771320343,1.1427253484725952,0.3493301570415497,0.07567885518074036,0.1347631961107254
11.453065633773804,-0.2602114975452423,-0.7257359623908997,1.140588402748108,0.3489017188549042,0.07556983828544617,0.1356564164161682
11.473149538040161,-0.2602114975452423,-0.7257359623908997,1.140588402748108,0.3489017188549042,0.07556983828544617,0.1356564164161682
11.493234395980835,-0.25986921787261963,-0.727030873298645,1.1430810689926147,0.34933599829673767,0.07638847827911377,0.13407917320728302
11.513362884521484,-0.25986921787261963,-0.727030873298645,1.1430810689926147,0.34933599829673767,0.07638847827911377,0.13407917320728302
11.533506155014038,-0.2592430114746094,-0.7330538630485535,1.1416511535644531,0.34975406527519226,0.07716842740774155,0.13486707210540771
11.553616285324097,-0.2592430114746094,-0.7330538630485535,1.1416511535644531,0.34975406527519226,0.07716842740774155,0.13486707210540771
11.573652982711792,-0.2598671317100525,-0.7364078164100647,1.1434247493743896,0.3501138389110565,0.07688780874013901,0.13401564955711365
11.593817472457886,-0.2598671317100525,-0.7364078164100647,1.1434247493743896,0.3501138389110565,0.07688780874013901,0.13401564955711365
11.61383843421936,-0.25981301069259644,-0.7439159154891968,1.1416966915130615,0.35090169310569763,0.07631029188632965,0.13384662568569183
11.633890151977539,-0.2598007321357727,-0.7485527992248535,1.1407259702682495,0.3514848053455353,0.07604770362377167,0.13370493054389954
11.653976202011108,-0.2598007321357727,-0.7485527992248535,1.1407259702682495,0.3514848053455353,0.07604770362377167,0.13370493054389954
11.674050092697144,-0.25933030247688293,-0.7440344095230103,1.1452966928482056,0.35217076539993286,0.076575867831707,0.1317613124847412
11.6941659450531,-0.25933030247688293,-0.7440344095230103,1.1452966928482056,0.35217076539993286,0.076575867831707,0.1317613124847412
11.714220523834229,-0.2586405873298645,-0.7350496649742126,1.1491178274154663,0.3533156216144562,0.07649111747741699,0.13011464476585388
11.734373807907104,-0.2586405873298645,-0.7350496649742126,1.1491178274154663,0.3533156216144562,0.07649111747741699,0.13011464476585388
11.75440788269043,-0.25923317670822144,-0.7508605718612671,1.1449865102767944,0.35388457775115967,0.07627449929714203,0.13188737630844116
11.774453163146973,-0.25882500410079956,-0.7577000260353088,1.1445895433425903,0.3535821735858917,0.07735460996627808,0.13224273920059204
11.794578790664673,-0.25882500410079956,-0.7577000260353088,1.1445895433425903,0.3535821735858917,0.07735460996627808,0.13224273920059204
11.81472659111023,-0.259535014629364,-0.7658419609069824,1.142126441001892,0.3530788719654083,0.07711733132600784,0.13321176171302795
11.834767580032349,-0.259535014629364,-0.7658419609069824,1.142126441001892,0.3530788719654083,0.07711733132600784,0.13321176171302795
11.854857444763184,-0.25885969400405884,-0.7705155611038208,1.1431752443313599,0.353836327791214,0.07704410701990128,0.13188889622688293
11.87493085861206,-0.25885969400405884,-0.7705155611038208,1.1431752443313599,0.353836327791214,0.07704410701990128,0.13188889622688293
11.895015239715576,-0.2589390277862549,-0.7733254432678223,1.145314335823059,0.3545074164867401,0.07853873074054718,0.1315351128578186
11.915075540542603,-0.2578858733177185,-0.768988311290741,1.1484500169754028,0.35524097084999084,0.07871535420417786,0.13041195273399353
11.935163497924805,-0.2578858733177185,-0.768988311290741,1.1484500169754028,0.35524097084999084,0.07871535420417786,0.13041195273399353
11.95523715019226,-0.25867950916290283,-0.7810513973236084,1.1451932191848755,0.3557591736316681,0.07830816507339478,0.1317662000656128
11.975323915481567,-0.25867950916290283,-0.7810513973236084,1.1451932191848755,0.3557591736316681,0.07830816507339478,0.1317662000656128
11.995420217514038,-0.2562732696533203,-0.7940666675567627,1.1426092386245728,0.3556254804134369,0.08102317899465561,0.13341110944747925
12.015491962432861,-0.2562732696533203,-0.7940666675567627,1.1426092386245728,0.3556254804134369,0.08102317899465561,0.13341110944747925
12.035568952560425,-0.2576521635055542,-0.7967697978019714,1.1444536447525024,0.35550153255462646,0.08039654791355133,0.13206444680690765
12.056371212005615,-0.25660210847854614,-0.7949641942977905,1.149025321006775,0.3567967712879181,0.08102701604366302,0.12986567616462708
12.076467275619507,-0.25660210847854614,-0.7949641942977905,1.149025321006775,0.3567967712879181,0.08102701604366302,0.12986567616462708
12.096527099609375,-0.2570604085922241,-0.8004180192947388,1.1479872465133667,0.35742560029029846,0.08093306422233582,0.13034379482269287
12.116618156433105,-0.2570604085922241,-0.8004180192947388,1.1479872465133667,0.35742560029029846,0.08093306422233582,0.13034379482269287
12.136703491210938,-0.25648295879364014,-0.7973214983940125,1.1517657041549683,0.35788971185684204,0.08120018243789673,0.12927240133285522
12.156800508499146,-0.25648295879364014,-0.7973214983940125,1.1517657041549683,0.35788971185684204,0.08120018243789673,0.12927240133285522
12.176878213882446,-0.25673916935920715,-0.8074303865432739,1.1478888988494873,0.3580968677997589,0.0805327519774437,0.13076083362102509
12.197197437286377,-0.2553941011428833,-0.8202766180038452,1.1463443040847778,0.35839080810546875,0.08188395202159882,0.13106921315193176
12.217296600341797,-0.2553941011428833,-0.8202766180038452,1.1463443040847778,0.35839080810546875,0.08188395202159882,0.13106921315193176
12.237404584884644,-0.25559309124946594,-0.8220912218093872,1.1485954523086548,0.3587871491909027,0.08237117528915405,0.13037684559822083
12.257471799850464,-0.25559309124946594,-0.8220912218093872,1.1485954523086548,0.3587871491909027,0.08237117528915405,0.13037684559822083
12.277551889419556,-0.2559545636177063,-0.8336741924285889,1.1451846361160278,0.35913240909576416,0.08135367184877396,0.13082386553287506
12.297646522521973,-0.2559545636177063,-0.8336741924285889,1.1451846361160278,0.35913240909576416,0.08135367184877396,0.13082386553287506
12.317734241485596,-0.2559029459953308,-0.8404309749603271,1.144476056098938,0.35956868529319763,0.08112870901823044,0.13052065670490265
12.338127851486206,-0.2557648718357086,-0.8472278714179993,1.1425997018814087,0.3597754240036011,0.08079137653112411,0.13124880194664001
12.35823106765747,-0.2557648718357086,-0.8472278714179993,1.1425997018814087,0.3597754240036011,0.08079137653112411,0.13124880194664001
12.378283977508545,-0.2546820044517517,-0.8463758826255798,1.147020936012268,0.3609475791454315,0.08030528575181961,0.1293623000383377
12.398369550704956,-0.2546820044517517,-0.8463758826255798,1.147020936012268,0.3609475791454315,0.08030528575181961,0.1293623000383377
12.418489217758179,-0.2531375586986542,-0.8438855409622192,1.1534171104431152,0.362357497215271,0.08352489769458771,0.12763769924640656
12.438549518585205,-0.2531375586986542,-0.8438855409622192,1.1534171104431152,0.362357497215271,0.08352489769458771,0.12763769924640656
12.458611965179443,-0.2531469464302063,-0.8440441489219666,1.1548875570297241,0.36344006657600403,0.08313051611185074,0.12638436257839203
12.478770732879639,-0.2531469464302063,-0.8440441489219666,1.1548875570297241,0.36344006657600403,0.08313051611185074,0.12638436257839203
12.498810529708862,-0.2529710531234741,-0.8375474214553833,1.161694884300232,0.3647993505001068,0.08368968963623047,0.12418513745069504
12.518848657608032,-0.2526034414768219,-0.8449386358261108,1.1614493131637573,0.3658989369869232,0.08438226580619812,0.12385507673025131
12.53892993927002,-0.2526034414768219,-0.8449386358261108,1.1614493131637573,0.3658989369869232,0.08438226580619812,0.12385507673025131
12.559152126312256,-0.25084179639816284,-0.8401457071304321,1.1660043001174927,0.36651089787483215,0.08632346242666245,0.12332501262426376
12.579121828079224,-0.25084179639816284,-0.8401457071304321,1.1660043001174927,0.36651089787483215,0.08632346242666245,0.12332501262426376
12.599198341369629,-0.2519940435886383,-0.8464139699935913,1.1656888723373413,0.367431640625,0.08438475430011749,0.12252844125032425
12.619315385818481,-0.2519940435886383,-0.8464139699935913,1.1656888723373413,0.367431640625,0.08438475430011749,0.12252844125032425
12.639378070831299,-0.25171148777008057,-0.8509402275085449,1.1682618856430054,0.36806461215019226,0.0852561965584755,0.12137985974550247
12.659541606903076,-0.24968211352825165,-0.8648024797439575,1.1644865274429321,0.3679474890232086,0.08799947798252106,0.1238473430275917
12.679578065872192,-0.24968211352825165,-0.8648024797439575,1.1644865274429321,0.3679474890232086,0.08799947798252106,0.1238473430275917
12.699665069580078,-0.25067198276519775,-0.8711745738983154,1.1677186489105225,0.36843860149383545,0.08693148195743561,0.1221483126282692
12.719747543334961,-0.25067198276519775,-0.8711745738983154,1.1677186489105225,0.36843860149383545,0.08693148195743561,0.1221483126282692
12.739809036254883,-0.25032368302345276,-0.8682524561882019,1.172989010810852,0.3700082004070282,0.08719060570001602,0.12009846419095993
12.759935140609741,-0.25032368302345276,-0.8682524561882019,1.172989010810852,0.3700082004070282,0.08719060570001602,0.12009846419095993
12.77998971939087,-0.2501172423362732,-0.8646425008773804,1.1785749197006226,0.3716568052768707,0.08769059181213379,0.11787758022546768
12.800054788589478,-0.2501172423362732,-0.8646425008773804,1.1785749197006226,0.3716568052768707,0.08769059181213379,0.11787758022546768
12.820121765136719,-0.2510110139846802,-0.8853693008422852,1.1702622175216675,0.37136146426200867,0.08737746626138687,0.12131967395544052
12.840179204940796,-0.24988101422786713,-0.8895382881164551,1.1715469360351562,0.37127789855003357,0.08727268874645233,0.1207139864563942
12.860369682312012,-0.24988101422786713,-0.8895382881164551,1.1715469360351562,0.37127789855003357,0.08727268874645233,0.1207139864563942
12.880390882492065,-0.24891097843647003,-0.8912787437438965,1.1747376918792725,0.37209799885749817,0.08834248036146164,0.12005429714918137
12.900481224060059,-0.24891097843647003,-0.8912787437438965,1.1747376918792725,0.37209799885749817,0.08834248036146164,0.12005429714918137
12.920554637908936,-0.24847984313964844,-0.8904566764831543,1.1790515184402466,0.37307265400886536,0.08891335129737854,0.11920995265245438
12.940642833709717,-0.24847984313964844,-0.8904566764831543,1.1790515184402466,0.37307265400886536,0.08891335129737854,0.11920995265245438
12.960718393325806,-0.24923306703567505,-0.9080613851547241,1.1749086380004883,0.3734929859638214,0.08917292952537537,0.12053973227739334
12.98076844215393,-0.2479410171508789,-0.9183552861213684,1.1748720407485962,0.37407374382019043,0.08900831639766693,0.1210881844162941
13.000889778137207,-0.2479410171508789,-0.9183552861213684,1.1748720407485962,0.37407374382019043,0.08900831639766693,0.1210881844162941
13.020952939987183,-0.24701599776744843,-0.9060924053192139,1.184254765510559,0.37508878111839294,0.09027658402919769,0.11686620861291885
13.04102873802185,-0.24701599776744843,-0.9060924053192139,1.184254765510559,0.37508878111839294,0.09027658402919769,0.11686620861291885
13.061107397079468,-0.24601764976978302,-0.9129524230957031,1.1863641738891602,0.37727999687194824,0.09106411039829254,0.1168990507721901
13.081186771392822,-0.24601764976978302,-0.9129524230957031,1.1863641738891602,0.37727999687194824,0.09106411039829254,0.1168990507721901
13.101260662078857,-0.24456675350666046,-0.9255895614624023,1.184281349182129,0.3772892355918884,0.09350480884313583,0.11746414750814438
13.121335983276367,-0.24486921727657318,-0.9196445941925049,1.1905694007873535,0.3782903254032135,0.09271784126758575,0.11482436209917068
13.14142632484436,-0.24486921727657318,-0.9196445941925049,1.1905694007873535,0.3782903254032135,0.09271784126758575,0.11482436209917068
13.161491632461548,-0.24414168298244476,-0.9288980960845947,1.1898123025894165,0.3791293799877167,0.09383568912744522,0.11516080051660538
13.18159818649292,-0.24414168298244476,-0.9288980960845947,1.1898123025894165,0.3791293799877167,0.09383568912744522,0.11516080051660538
13.201802253723145,-0.2439485639333725,-0.9289563298225403,1.1955385208129883,0.38025984168052673,0.09384143352508545,0.1129206046462059
13.221777200698853,-0.2439485639333725,-0.9289563298225403,1.1955385208129883,0.38025984168052673,0.09384143352508545,0.1129206046462059
13.241876125335693,-0.2433779388666153,-0.9299337863922119,1.201699137687683,0.38238832354545593,0.0951666384935379,0.11066538840532303
13.261937141418457,-0.24261464178562164,-0.9331401586532593,1.2032182216644287,0.38342806696891785,0.09594500064849854,0.11013291031122208
13.282020807266235,-0.24261464178562164,-0.9331401586532593,1.2032182216644287,0.38342806696891785,0.09594500064849854,0.11013291031122208
13.30211877822876,-0.2417096346616745,-0.9460620880126953,1.2009273767471313,0.38345780968666077,0.09780478477478027,0.11157924681901932
13.322185277938843,-0.2417096346616745,-0.9460620880126953,1.2009273767471313,0.38345780968666077,0.09780478477478027,0.11157924681901932
13.342264890670776,-0.2414705604314804,-0.9510496854782104,1.2029582262039185,0.3839321434497833,0.09651115536689758,0.11082557588815689
13.362340927124023,-0.2414705604314804,-0.9510496854782104,1.2029582262039185,0.3839321434497833,0.09651115536689758,0.11082557588815689
13.38246202468872,-0.2382378876209259,-0.9614189863204956,1.2046176195144653,0.38432577252388,0.10204573720693588,0.11242923885583878
13.402568578720093,-0.23954759538173676,-0.9619994163513184,1.2098771333694458,0.385165810585022,0.09890097379684448,0.10927798599004745
13.422667741775513,-0.23954759538173676,-0.9619994163513184,1.2098771333694458,0.385165810585022,0.09890097379684448,0.10927798599004745
13.442740440368652,-0.23973864316940308,-0.9650053381919861,1.2132371664047241,0.38695210218429565,0.09888003766536713,0.10743773728609085
13.462882995605469,-0.23973864316940308,-0.9650053381919861,1.2132371664047241,0.38695210218429565,0.09888003766536713,0.10743773728609085
13.482954740524292,-0.2403119057416916,-0.9622979164123535,1.2178839445114136,0.38882264494895935,0.09739458560943604,0.10509222000837326
13.503016471862793,-0.2403119057416916,-0.9622979164123535,1.2178839445114136,0.38882264494895935,0.09739458560943604,0.10509222000837326
13.523094654083252,-0.23932357132434845,-0.9676826000213623,1.2217825651168823,0.39111363887786865,0.09837064146995544,0.10358064621686935
13.543166399002075,-0.23932357132434845,-0.9676826000213623,1.2217825651168823,0.39111363887786865,0.09837064146995544,0.10358064621686935
13.56324815750122,-0.23786960542201996,-0.9731084704399109,1.224729299545288,0.392512708902359,0.10040577501058578,0.10163448005914688
13.583312273025513,-0.23849114775657654,-0.9761704206466675,1.2288686037063599,0.3937351703643799,0.10003859549760818,0.10041369497776031
13.603395938873291,-0.23849114775657654,-0.9761704206466675,1.2288686037063599,0.3937351703643799,0.10003859549760818,0.10041369497776031
13.623472452163696,-0.2384067326784134,-0.9848064184188843,1.2275227308273315,0.3947707414627075,0.09908103942871094,0.09983495622873306
13.643564939498901,-0.2384067326784134,-0.9848064184188843,1.2275227308273315,0.3947707414627075,0.09908103942871094,0.09983495622873306
13.663646221160889,-0.23674555122852325,-0.9874653816223145,1.2323215007781982,0.3962704837322235,0.10068731009960175,0.09845071285963058
13.683717727661133,-0.23674555122852325,-0.9874653816223145,1.2323215007781982,0.3962704837322235,0.10068731009960175,0.09845071285963058
13.703791856765747,-0.2356288880109787,-0.9955532550811768,1.2342482805252075,0.39712271094322205,0.1025492250919342,0.09819326549768448
13.723861455917358,-0.23606179654598236,-1.0014138221740723,1.2378426790237427,0.3977694511413574,0.10235808789730072,0.09707292914390564
13.743943929672241,-0.23606179654598236,-1.0014138221740723,1.2378426790237427,0.3977694511413574,0.10235808789730072,0.09707292914390564
13.764029741287231,-0.2363419383764267,-1.0073649883270264,1.2412229776382446,0.39966458082199097,0.10138922929763794,0.09516038000583649
13.784103393554688,-0.2363419383764267,-1.0073649883270264,1.2412229776382446,0.39966458082199097,0.10138922929763794,0.09516038000583649
13.804219007492065,-0.23495544493198395,-1.0055091381072998,1.2491055727005005,0.4015466272830963,0.10338053107261658,0.09183045476675034
13.824371576309204,-0.23495544493198395,-1.0055091381072998,1.2491055727005005,0.4015466272830963,0.10338053107261658,0.09183045476675034
13.8444082736969,-0.23497985303401947,-1.0068304538726807,1.2540911436080933,0.4042204022407532,0.103046715259552,0.08994976431131363
13.864467144012451,-0.23480908572673798,-1.0056712627410889,1.2612565755844116,0.40626975893974304,0.10380328446626663,0.08838547766208649
13.884562015533447,-0.23480908572673798,-1.0056712627410889,1.2612565755844116,0.40626975893974304,0.10380328446626663,0.08838547766208649
13.904634952545166,-0.23445092141628265,-1.0087080001831055,1.2651118040084839,0.4075404703617096,0.10388602316379547,0.08635910600423813
13.924712419509888,-0.23445092141628265,-1.0087080001831055,1.2651118040084839,0.4075404703617096,0.10388602316379547,0.08635910600423813
13.94478440284729,-0.23395128548145294,-1.0091749429702759,1.2698746919631958,0.40916457772254944,0.10412736982107162,0.08459421992301941
13.964877843856812,-0.23395128548145294,-1.0091749429702759,1.2698746919631958,0.40916457772254944,0.10412736982107162,0.08459421992301941
13.98497462272644,-0.2319243997335434,-1.0127835273742676,1.273687481880188,0.4107637107372284,0.10709774494171143,0.08353167027235031
14.005038499832153,-0.2319243997335434,-1.0127835273742676,1.273687481880188,0.4107637107372284,0.10709774494171143,0.08353167027235031
14.02510929107666,-0.23029538989067078,-1.0189683437347412,1.2763513326644897,0.41161060333251953,0.1089600920677185,0.08279923349618912
14.045198440551758,-0.23089151084423065,-1.0257775783538818,1.2781802415847778,0.41236984729766846,0.10714168846607208,0.0823121890425682
14.065263748168945,-0.23089151084423065,-1.0257775783538818,1.2781802415847778,0.41236984729766846,0.10714168846607208,0.0823121890425682
14.085346698760986,-0.2285250574350357,-1.036270260810852,1.2809008359909058,0.41289404034614563,0.1100827306509018,0.08199086040258408
14.10541844367981,-0.2285250574350357,-1.036270260810852,1.2809008359909058,0.41289404034614563,0.1100827306509018,0.08199086040258408
14.125507831573486,-0.22855351865291595,-1.033298373222351,1.2858422994613647,0.41313132643699646,0.10941608250141144,0.08147475868463516
14.145566701889038,-0.22855351865291595,-1.033298373222351,1.2858422994613647,0.41313132643699646,0.10941608250141144,0.08147475868463516
14.165644407272339,-0.2271386831998825,-1.040181279182434,1.2911051511764526,0.41471177339553833,0.11056189239025116,0.07946334034204483
14.185882568359375,-0.2230769544839859,-1.0462939739227295,1.2953664064407349,0.4159296154975891,0.11529791355133057,0.07930868119001389
14.205987453460693,-0.2230769544839859,-1.0462939739227295,1.2953664064407349,0.4159296154975891,0.11529791355133057,0.07930868119001389
14.22606372833252,-0.22623850405216217,-1.0485649108886719,1.2994893789291382,0.41720253229141235,0.11177712678909302,0.07633748650550842
14.246148824691772,-0.22623850405216217,-1.0485649108886719,1.2994893789291382,0.41720253229141235,0.11177712678909302,0.07633748650550842
14.2662193775177,-0.22540238499641418,-1.0534170866012573,1.3028178215026855,0.41944602131843567,0.11247926950454712,0.0743282362818718
14.28630518913269,-0.22540238499641418,-1.0534170866012573,1.3028178215026855,0.41944602131843567,0.11247926950454712,0.0743282362818718
14.30637788772583,-0.2261904776096344,-1.057686686515808,1.305956244468689,0.42067232728004456,0.11070826649665833,0.07287999242544174
14.327136993408203,-0.22514747083187103,-1.059930682182312,1.3110350370407104,0.4226129949092865,0.11098214983940125,0.07076548784971237
14.347240447998047,-0.22514747083187103,-1.059930682182312,1.3110350370407104,0.4226129949092865,0.11098214983940125,0.07076548784971237
14.367346048355103,-0.22591541707515717,-1.064888834953308,1.3161760568618774,0.424593061208725,0.1097894087433815,0.0691245049238205
14.387408018112183,-0.22591541707515717,-1.064888834953308,1.3161760568618774,0.424593061208725,0.1097894087433815,0.0691245049238205
14.407500505447388,-0.22493834793567657,-1.064897060394287,1.319185495376587,0.42586520314216614,0.1094912439584732,0.06699367612600327
14.42757534980774,-0.22493834793567657,-1.064897060394287,1.319185495376587,0.42586520314216614,0.1094912439584732,0.06699367612600327
14.447654247283936,-0.2245393842458725,-1.070645809173584,1.3238500356674194,0.4277719557285309,0.11061166226863861,0.06500160694122314
14.46776008605957,-0.22551091015338898,-1.0771126747131348,1.325516939163208,0.42922359704971313,0.11000761389732361,0.06390460580587387
14.487855672836304,-0.22551091015338898,-1.0771126747131348,1.325516939163208,0.42922359704971313,0.11000761389732361,0.06390460580587387
14.507973432540894,-0.22458937764167786,-1.0867596864700317,1.3279072046279907,0.43063750863075256,0.11038520932197571,0.061709679663181305
14.528039932250977,-0.22458937764167786,-1.0867596864700317,1.3279072046279907,0.43063750863075256,0.11038520932197571,0.061709679663181305
14.54813289642334,-0.22420276701450348,-1.0886011123657227,1.334006905555725,0.4327940344810486,0.1107136532664299,0.05900418013334274
14.568200826644897,-0.22420276701450348,-1.0886011123657227,1.334006905555725,0.4327940344810486,0.1107136532664299,0.05900418013334274
14.58836054801941,-0.22166688740253448,-1.0917714834213257,1.3395973443984985,0.43416526913642883,0.11224189400672913,0.05777110904455185
14.60838007926941,-0.22166688740253448,-1.0917714834213257,1.3395973443984985,0.43416526913642883,0.11224189400672913,0.05777110904455185
