liuyurong129/humanoid-gym/humanoid/data/target_q_20250521-035736.csv
timestamp,joint_1,joint_2,joint_3,joint_4,joint_5,joint_6
5.7220458984375e-05,0.0,0.0,0.0,0.0,0.0,0.0
0.020165443420410156,0.0,0.0,0.0,0.0,0.0,0.0
0.040242910385131836,0.0,0.0,0.0,0.0,0.0,0.0
0.06031060218811035,0.0,0.0,0.0,0.0,0.0,0.0
0.08038783073425293,0.0,0.0,0.0,0.0,0.0,0.0
0.1004788875579834,-0.3684770166873932,-0.12455414980649948,0.29817894101142883,0.9524996876716614,0.21439729630947113,0.5846352577209473
0.12055659294128418,-0.40030306577682495,-0.10096215456724167,0.29481053352355957,0.914352536201477,0.23958083987236023,0.6076362133026123
0.14062285423278809,-0.404540479183197,-0.06460774689912796,0.2534014582633972,0.9041843414306641,0.2405356466770172,0.618101179599762
0.16068291664123535,-0.40322452783584595,-0.052373044192790985,0.23706722259521484,0.9086174964904785,0.23700359463691711,0.6191104054450989
0.18077778816223145,-0.4031503200531006,-0.05620560795068741,0.24717587232589722,0.913094699382782,0.23646190762519836,0.6154620051383972
0.20085430145263672,-0.40470901131629944,-0.053798235952854156,0.23733440041542053,0.9046862125396729,0.2352026402950287,0.6188685297966003
0.22090864181518555,-0.40184497833251953,-0.046807996928691864,0.21367508172988892,0.8971689343452454,0.22566603124141693,0.6212960481643677
0.24099421501159668,-0.39420604705810547,-0.048315756022930145,0.216321662068367,0.9026731252670288,0.22661852836608887,0.6195611953735352
0.2610616683959961,-0.3883766531944275,-0.05225522071123123,0.22365188598632812,0.9057742953300476,0.22990790009498596,0.6177542805671692
0.2811305522918701,-0.38773679733276367,-0.053350381553173065,0.2267225682735443,0.9058648347854614,0.23035460710525513,0.616266667842865
0.30130791664123535,-0.38802477717399597,-0.054459087550640106,0.23091962933540344,0.9075170755386353,0.23163241147994995,0.6155717372894287
0.3213162422180176,-0.3783422112464905,-0.05767215043306351,0.23593638837337494,0.9039633870124817,0.23446203768253326,0.6137295961380005
0.3413670063018799,-0.38269931077957153,-0.05383705347776413,0.22783716022968292,0.9013227224349976,0.23282241821289062,0.6156977415084839
0.361466646194458,-0.3822523057460785,-0.05263247340917587,0.22125154733657837,0.8967336416244507,0.22993910312652588,0.6166326403617859
0.38153719902038574,-0.3855507969856262,-0.0535929873585701,0.2268999218940735,0.9014235734939575,0.23004989326000214,0.6141592860221863
0.4016125202178955,-0.385800302028656,-0.054265014827251434,0.2270984649658203,0.9009193181991577,0.23001578450202942,0.6137250065803528
0.4216885566711426,-0.37895721197128296,-0.05656664818525314,0.2328917682170868,0.9053075313568115,0.23268672823905945,0.6117197275161743
0.44179224967956543,-0.3670848608016968,-0.06173142045736313,0.24350300431251526,0.9072940945625305,0.23674260079860687,0.6090503334999084
0.4619162082672119,-0.37679755687713623,-0.0547604039311409,0.22461633384227753,0.8956968784332275,0.23179283738136292,0.6147130131721497
0.48194098472595215,-0.3802831172943115,-0.053763873875141144,0.22232206165790558,0.8959053754806519,0.22849397361278534,0.6136550903320312
0.5020077228546143,-0.37628981471061707,-0.05809777230024338,0.22787177562713623,0.8992983102798462,0.22816306352615356,0.6103077530860901
0.5220770835876465,-0.3765776753425598,-0.056026630103588104,0.22666826844215393,0.8978689312934875,0.2289571315050125,0.6105943918228149
0.5422916412353516,-0.3694179654121399,-0.05890951305627823,0.23082737624645233,0.896577775478363,0.22993601858615875,0.6092662215232849
0.5623929500579834,-0.36659398674964905,-0.05853129178285599,0.23210184276103973,0.8968241214752197,0.23206330835819244,0.6089080572128296
0.5824651718139648,-0.3719295561313629,-0.05957707017660141,0.2359580248594284,0.8980199098587036,0.23276294767856598,0.6080100536346436
0.6034648418426514,-0.3661360442638397,-0.05998022109270096,0.23876012861728668,0.9001927375793457,0.23565301299095154,0.6074299812316895
0.6235580444335938,-0.36467069387435913,-0.06037292629480362,0.23167239129543304,0.8950512409210205,0.23100347816944122,0.6078195571899414
0.643622636795044,-0.3612362742424011,-0.06093394011259079,0.23175904154777527,0.8961955904960632,0.22950202226638794,0.6061023473739624
0.6636898517608643,-0.3614206910133362,-0.06135100871324539,0.23280727863311768,0.8967419862747192,0.23049071431159973,0.6056860685348511
0.6837806701660156,-0.3511621356010437,-0.06252457946538925,0.23521780967712402,0.8959211111068726,0.2325991541147232,0.6046781539916992
0.7038676738739014,-0.3535776138305664,-0.061728112399578094,0.23060742020606995,0.8919294476509094,0.23086051642894745,0.6054732799530029
0.7239177227020264,-0.3492640554904938,-0.06317835301160812,0.2384239286184311,0.8984956741333008,0.23473675549030304,0.60279780626297
0.7440147399902344,-0.35785624384880066,-0.06538970023393631,0.24622899293899536,0.9009838104248047,0.2346055656671524,0.6011130809783936
0.7640886306762695,-0.364298552274704,-0.06076408177614212,0.2344464659690857,0.8944764137268066,0.2318718433380127,0.6045220494270325
0.7841556072235107,-0.3625597655773163,-0.06033299118280411,0.23301191627979279,0.8922908306121826,0.22995205223560333,0.6035152077674866
0.8043396472930908,-0.35384589433670044,-0.06377417594194412,0.24107785522937775,0.8976393938064575,0.23331722617149353,0.600657045841217
0.8245084285736084,-0.35231927037239075,-0.06480125337839127,0.23553764820098877,0.8911834955215454,0.23038709163665771,0.602010190486908
0.8445694446563721,-0.3494492173194885,-0.0629376545548439,0.22728434205055237,0.8853797316551208,0.22774429619312286,0.6025184392929077
0.864614725112915,-0.3480800986289978,-0.06382996588945389,0.2352754771709442,0.8943105936050415,0.23140279948711395,0.5999466776847839
0.8847231864929199,-0.34104880690574646,-0.06546693295240402,0.239435076713562,0.8963266611099243,0.23383547365665436,0.5987076163291931
0.904780387878418,-0.3465547263622284,-0.06745592504739761,0.24636079370975494,0.8954390287399292,0.23477444052696228,0.5972041487693787
0.9248709678649902,-0.3439576029777527,-0.06857871264219284,0.2403210997581482,0.8895949125289917,0.23081497848033905,0.5968740582466125
0.9449474811553955,-0.34111958742141724,-0.06753965467214584,0.24327167868614197,0.8955284953117371,0.2340666502714157,0.5965928435325623
0.9650201797485352,-0.3535230755805969,-0.06525083631277084,0.23984400928020477,0.889774739742279,0.23211997747421265,0.5983844995498657
0.9851009845733643,-0.35021400451660156,-0.06301233917474747,0.23486869037151337,0.890375018119812,0.23001058399677277,0.598029613494873
1.0051772594451904,-0.3472443222999573,-0.0642225369811058,0.23631033301353455,0.8913973569869995,0.23020902276039124,0.5969966650009155
1.0253052711486816,-0.3398372530937195,-0.0681266114115715,0.23964262008666992,0.8929239511489868,0.22994188964366913,0.5953127145767212
1.0453150272369385,-0.3402659296989441,-0.07041796296834946,0.24190270900726318,0.8932973146438599,0.22903476655483246,0.5946688652038574
1.0654115676879883,-0.33561062812805176,-0.07184181362390518,0.24945774674415588,0.8938808441162109,0.23261314630508423,0.5927590131759644
1.085486650466919,-0.33031266927719116,-0.06893286854028702,0.23845301568508148,0.8858875036239624,0.2303088903427124,0.5942525863647461
1.1055610179901123,-0.32890427112579346,-0.07041528075933456,0.2414693981409073,0.8887233138084412,0.23046734929084778,0.5926051139831543
1.1259105205535889,-0.3221778869628906,-0.07220564037561417,0.24323205649852753,0.8885440826416016,0.23115947842597961,0.5912833213806152
1.1460084915161133,-0.32914671301841736,-0.07220093160867691,0.24587033689022064,0.8882278203964233,0.23081307113170624,0.590389609336853
1.1661531925201416,-0.33001264929771423,-0.07534737139940262,0.26228588819503784,0.8959918022155762,0.2363910973072052,0.5867707133293152
1.1862101554870605,-0.33243411779403687,-0.07469285279512405,0.2598568797111511,0.8889639377593994,0.23539382219314575,0.5875315070152283
1.2063031196594238,-0.3313347101211548,-0.07191967219114304,0.2470797449350357,0.883781909942627,0.23275892436504364,0.5902009010314941
1.2263877391815186,-0.33081281185150146,-0.06789126247167587,0.23488476872444153,0.8845563530921936,0.22817382216453552,0.5916363596916199
1.2464423179626465,-0.3291141986846924,-0.06842663139104843,0.23728877305984497,0.8882248401641846,0.2284182608127594,0.590556263923645
1.266533613204956,-0.3152804374694824,-0.07224462181329727,0.23956745862960815,0.88755863904953,0.22907517850399017,0.5887497067451477
1.2866542339324951,-0.3094918131828308,-0.07453515380620956,0.24019166827201843,0.8837583661079407,0.22942987084388733,0.5871595144271851
1.3067054748535156,-0.3044296205043793,-0.07905510812997818,0.26022011041641235,0.8946589231491089,0.2371731400489807,0.5825572609901428
1.3267760276794434,-0.3196312189102173,-0.07683815807104111,0.25548338890075684,0.8887569904327393,0.23491346836090088,0.584928035736084
1.3468585014343262,-0.316933810710907,-0.07548030465841293,0.24611541628837585,0.881374716758728,0.23073622584342957,0.585195004940033
1.3669421672821045,-0.3094937205314636,-0.07796777039766312,0.2543850243091583,0.8884981870651245,0.2326381504535675,0.5822809934616089
1.3872056007385254,-0.31724923849105835,-0.07507418841123581,0.24732176959514618,0.8832178115844727,0.23083887994289398,0.585014283657074
1.4073717594146729,-0.3198510408401489,-0.07281582802534103,0.2388332486152649,0.8778634071350098,0.22686144709587097,0.5864224433898926
1.4274208545684814,-0.31753331422805786,-0.07333231717348099,0.24328002333641052,0.8828297257423401,0.22795425355434418,0.5835924744606018
1.4474782943725586,-0.3154127597808838,-0.0740913525223732,0.2475074976682663,0.8857184648513794,0.23136389255523682,0.5828834176063538
1.467599868774414,-0.30922478437423706,-0.07562681287527084,0.24802535772323608,0.8858295679092407,0.2315180003643036,0.5824404358863831
1.4876823425292969,-0.3065491318702698,-0.07813232392072678,0.24816179275512695,0.8817241787910461,0.2297629565000534,0.5807448625564575
1.5077452659606934,-0.3046709895133972,-0.07874394208192825,0.24998189508914948,0.8820524215698242,0.2302985042333603,0.5798913836479187
1.527841329574585,-0.2963640093803406,-0.08138122409582138,0.2627643346786499,0.8896148204803467,0.2362508922815323,0.5768177509307861
1.5479111671447754,-0.29761868715286255,-0.08131638914346695,0.2555951178073883,0.8817765712738037,0.23271051049232483,0.5781848430633545
1.567976474761963,-0.3018907308578491,-0.08114170283079147,0.25579920411109924,0.8837315440177917,0.23232582211494446,0.5768914818763733
1.58805513381958,-0.30585306882858276,-0.07891843467950821,0.25248047709465027,0.8829407691955566,0.231426402926445,0.5782962441444397
1.608125925064087,-0.30240362882614136,-0.07771699875593185,0.24404729902744293,0.8769428730010986,0.22710321843624115,0.5787893533706665
1.6281933784484863,-0.3016977310180664,-0.08036396652460098,0.24602028727531433,0.8791710138320923,0.22475123405456543,0.5767738223075867
1.648266315460205,-0.2989838421344757,-0.0777902826666832,0.24038268625736237,0.8749378323554993,0.22621901333332062,0.5788213014602661
1.6683955192565918,-0.29997727274894714,-0.07862982898950577,0.24658894538879395,0.8782569169998169,0.22712448239326477,0.5764101147651672
1.6884386539459229,-0.2953507900238037,-0.08240041881799698,0.25034040212631226,0.8804360628128052,0.22806091606616974,0.5742976665496826
1.7086291313171387,-0.2925180196762085,-0.08423671871423721,0.2609863877296448,0.8833060264587402,0.2336447834968567,0.5729168653488159
1.728715181350708,-0.2882227599620819,-0.0822686031460762,0.2555725872516632,0.8816494941711426,0.23317740857601166,0.5740153789520264
1.7487871646881104,-0.2824516296386719,-0.08200683444738388,0.25487834215164185,0.8816606998443604,0.2332647144794464,0.5729125738143921
1.7688539028167725,-0.27950596809387207,-0.08337672799825668,0.25240999460220337,0.8789935111999512,0.23088008165359497,0.5721603035926819
1.7889454364776611,-0.2900671362876892,-0.0825524851679802,0.2509889602661133,0.8776774406433105,0.22850388288497925,0.5722089409828186
1.809028148651123,-0.2879694700241089,-0.08222507685422897,0.2531861662864685,0.8790406584739685,0.22919318079948425,0.5713229775428772
1.8290798664093018,-0.2740626037120819,-0.08695565909147263,0.2601596713066101,0.8787000179290771,0.23214580118656158,0.5687065124511719
1.8491625785827637,-0.2813794016838074,-0.0861363485455513,0.2583087384700775,0.8770328760147095,0.2304113358259201,0.56905198097229
1.8692355155944824,-0.28562793135643005,-0.08491962403059006,0.2632063627243042,0.8811165690422058,0.23354187607765198,0.5685462355613708
1.8892905712127686,-0.28684723377227783,-0.08283812552690506,0.2532171607017517,0.8749008774757385,0.22913220524787903,0.569979727268219
1.9093670845031738,-0.2843494415283203,-0.08200053125619888,0.2503300905227661,0.8732200860977173,0.22874730825424194,0.5697570443153381
1.9294469356536865,-0.2800460755825043,-0.08324747532606125,0.25226691365242004,0.8767551183700562,0.2289399802684784,0.5683519244194031
1.9495301246643066,-0.2784534692764282,-0.08737973123788834,0.26026076078414917,0.8764129281044006,0.22948884963989258,0.5660372376441956
1.9696202278137207,-0.2780209183692932,-0.08679283410310745,0.25643932819366455,0.8735525012016296,0.22846779227256775,0.5667180418968201
1.98970365524292,-0.280131995677948,-0.08479183167219162,0.25637930631637573,0.8769080638885498,0.22986605763435364,0.566459059715271
2.0097954273223877,-0.27299314737319946,-0.08777677267789841,0.2574247121810913,0.8742866516113281,0.22879064083099365,0.5649083256721497
2.0301294326782227,-0.26994583010673523,-0.09250498563051224,0.2625919580459595,0.8710899949073792,0.2272922545671463,0.5623406767845154
2.0502078533172607,-0.27020925283432007,-0.0930042639374733,0.27205997705459595,0.8796691298484802,0.23167774081230164,0.5601969361305237
2.0702760219573975,-0.26718130707740784,-0.08955059200525284,0.25743114948272705,0.8701162934303284,0.22788110375404358,0.5630171895027161
2.090557813644409,-0.2692641615867615,-0.09102541953325272,0.25751736760139465,0.8726096749305725,0.22462737560272217,0.561477541923523
2.110642433166504,-0.26412907242774963,-0.0886852964758873,0.25378233194351196,0.8713175058364868,0.22647061944007874,0.5630466341972351
2.1308023929595947,-0.26586049795150757,-0.0904812440276146,0.26604366302490234,0.8738749027252197,0.22986294329166412,0.5596480965614319
2.1508820056915283,-0.27191826701164246,-0.08799456804990768,0.2577434480190277,0.8711646795272827,0.22719141840934753,0.5614555478096008
2.1709768772125244,-0.2703838646411896,-0.08792416006326675,0.26099735498428345,0.8740557432174683,0.22877448797225952,0.560611367225647
2.1910393238067627,-0.26494506001472473,-0.09033497422933578,0.2597028613090515,0.8708367943763733,0.22656020522117615,0.5595005750656128
2.211099147796631,-0.26148584485054016,-0.09010829776525497,0.25378942489624023,0.8696802854537964,0.22392989695072174,0.5590832233428955
2.2311885356903076,-0.2549271881580353,-0.09237300604581833,0.2544090747833252,0.8703594207763672,0.22326679527759552,0.5582011938095093
2.251253843307495,-0.2592909336090088,-0.09158162027597427,0.2606998085975647,0.8710553646087646,0.22669610381126404,0.558293342590332
2.271308422088623,-0.255210280418396,-0.09076818078756332,0.2499379962682724,0.8630015850067139,0.2215493768453598,0.5587639212608337
2.291402578353882,-0.24896852672100067,-0.09163776785135269,0.25429287552833557,0.8689306378364563,0.22489994764328003,0.556440532207489
2.311483383178711,-0.24714574217796326,-0.09561685472726822,0.2627532184123993,0.8660358786582947,0.2260320782661438,0.5546979308128357
2.331563949584961,-0.2521401345729828,-0.09355499595403671,0.2618148922920227,0.868019163608551,0.22557666897773743,0.5546733736991882
2.3516347408294678,-0.25390371680259705,-0.09243801981210709,0.26380786299705505,0.8697112798690796,0.22758755087852478,0.554328441619873
2.3717100620269775,-0.244679793715477,-0.09315399080514908,0.2563563585281372,0.8662821054458618,0.22442790865898132,0.5545569658279419
2.3918020725250244,-0.24877433478832245,-0.09207648783922195,0.2516002953052521,0.863402783870697,0.22130200266838074,0.5541887879371643
2.4118754863739014,-0.2528027594089508,-0.09229927510023117,0.25377148389816284,0.8667258620262146,0.22127175331115723,0.5536926984786987
2.4319567680358887,-0.24802853167057037,-0.09426390379667282,0.2551622986793518,0.8604006767272949,0.22218447923660278,0.5531389117240906
2.4523112773895264,-0.24799354374408722,-0.09584494680166245,0.2596227824687958,0.8647087812423706,0.22296947240829468,0.5508998036384583
2.4723973274230957,-0.2510649263858795,-0.09338749200105667,0.25504210591316223,0.8658668994903564,0.22228513658046722,0.5519805550575256
2.4924774169921875,-0.23905175924301147,-0.09584826976060867,0.2557545304298401,0.8654937744140625,0.2218172550201416,0.5498680472373962
2.5129520893096924,-0.23340165615081787,-0.09865454584360123,0.2548326849937439,0.8624807000160217,0.2194700837135315,0.5489039421081543
2.5330440998077393,-0.23521211743354797,-0.10030291229486465,0.2642320394515991,0.8642280101776123,0.22170205414295197,0.5462793111801147
2.5531277656555176,-0.23029671609401703,-0.10282521694898605,0.2726344168186188,0.8685593605041504,0.22513490915298462,0.5436299443244934
2.573409080505371,-0.23195390403270721,-0.0988118126988411,0.2612914443016052,0.8644858598709106,0.22452807426452637,0.5466253161430359
2.5935120582580566,-0.23468397557735443,-0.0979565754532814,0.25559335947036743,0.8595927357673645,0.22047865390777588,0.547203004360199
2.613598108291626,-0.2399008721113205,-0.09807901829481125,0.25913625955581665,0.8639527559280396,0.2198587954044342,0.5454328656196594
2.6336429119110107,-0.22945237159729004,-0.10096632689237595,0.25971734523773193,0.8592832088470459,0.2196846306324005,0.5446815490722656
2.653738260269165,-0.23112379014492035,-0.10070391744375229,0.26005280017852783,0.8605880737304688,0.2187238335609436,0.543920636177063
2.673854351043701,-0.2301727682352066,-0.09901120513677597,0.25389277935028076,0.8601540327072144,0.21735987067222595,0.5447179079055786
2.693911075592041,-0.23069250583648682,-0.10197105258703232,0.2678513526916504,0.8642406463623047,0.2214796394109726,0.541622519493103
2.713999032974243,-0.22423529624938965,-0.10242391377687454,0.2606477439403534,0.8569061756134033,0.21933043003082275,0.5424224138259888
2.7341413497924805,-0.22638064622879028,-0.10175908356904984,0.2626466155052185,0.8620429039001465,0.2199452817440033,0.5410507917404175
2.7541515827178955,-0.226418137550354,-0.10149628669023514,0.2593376636505127,0.8552539348602295,0.21806573867797852,0.5412654280662537
2.7742927074432373,-0.2235492765903473,-0.10533077269792557,0.26227694749832153,0.8601958751678467,0.216579407453537,0.5386436581611633
2.7943966388702393,-0.22182708978652954,-0.10376260429620743,0.2613382339477539,0.8562866449356079,0.21685001254081726,0.5398046970367432
2.8144571781158447,-0.2137347161769867,-0.10194862633943558,0.24798332154750824,0.8491057753562927,0.21205773949623108,0.5410617589950562
2.8351352214813232,-0.2174113243818283,-0.10293201357126236,0.2616952657699585,0.86152583360672,0.21661405265331268,0.5374038815498352
2.855226993560791,-0.21491870284080505,-0.10298682004213333,0.25684404373168945,0.8559209704399109,0.21623316407203674,0.5386270880699158
2.875328540802002,-0.2085530310869217,-0.10413724929094315,0.25289469957351685,0.8551062345504761,0.21353399753570557,0.5369713306427002
2.8953728675842285,-0.20561611652374268,-0.10409847646951675,0.2540265619754791,0.8570170998573303,0.21558159589767456,0.5367465615272522
2.9155821800231934,-0.21268106997013092,-0.10542691498994827,0.2592708468437195,0.8561420440673828,0.2143898606300354,0.5353001356124878
2.9356367588043213,-0.21476832032203674,-0.10521658509969711,0.25693532824516296,0.8514606952667236,0.21381600201129913,0.5361304879188538
2.955721378326416,-0.2110832929611206,-0.10671647638082504,0.26402759552001953,0.8575680255889893,0.2166081815958023,0.533358633518219
2.9757838249206543,-0.2135622799396515,-0.10658665746450424,0.2616163492202759,0.8564189672470093,0.21517537534236908,0.5336902141571045
2.9958744049072266,-0.20577770471572876,-0.10670983046293259,0.2586570382118225,0.8526065349578857,0.21427035331726074,0.5333864688873291
3.0159168243408203,-0.20307888090610504,-0.10912530869245529,0.2702842354774475,0.8581477999687195,0.21804089844226837,0.5301735997200012
3.036217212677002,-0.2087162286043167,-0.10707012563943863,0.26107263565063477,0.8505138158798218,0.21542854607105255,0.5327531099319458
3.0563082695007324,-0.20832468569278717,-0.10768618434667587,0.2561487555503845,0.8468977808952332,0.21193082630634308,0.5322668552398682
3.0763754844665527,-0.20636753737926483,-0.10815613716840744,0.25819486379623413,0.8518987894058228,0.21190758049488068,0.530409574508667
3.09657621383667,-0.20176571607589722,-0.10839878767728806,0.2553580403327942,0.848468005657196,0.21133151650428772,0.5299925804138184
3.1166634559631348,-0.20104767382144928,-0.10918960720300674,0.2518400251865387,0.8485432863235474,0.20771744847297668,0.5300326347351074
3.1367411613464355,-0.19171518087387085,-0.11158698052167892,0.26737359166145325,0.8575547933578491,0.2151188850402832,0.5261848568916321
3.1568191051483154,-0.19516970217227936,-0.11078266054391861,0.26224830746650696,0.8500571250915527,0.21385908126831055,0.5268082618713379
3.176891803741455,-0.20111030340194702,-0.1110759899020195,0.2580633759498596,0.8488002419471741,0.20997104048728943,0.5270686149597168
3.1969666481018066,-0.19345782697200775,-0.10930579155683517,0.2552313804626465,0.846287727355957,0.21132495999336243,0.5272486209869385
3.217026472091675,-0.18032526969909668,-0.11359018832445145,0.2608799338340759,0.8518063426017761,0.21244412660598755,0.5236557126045227
3.2371129989624023,-0.19311079382896423,-0.1140139177441597,0.2642399072647095,0.8503288626670837,0.2108190655708313,0.523529589176178
3.2571794986724854,-0.19628824293613434,-0.11049554497003555,0.2548329830169678,0.8442160487174988,0.2086416780948639,0.5260064005851746
3.2772634029388428,-0.18827684223651886,-0.1119980737566948,0.25619953870773315,0.8451501727104187,0.2086060643196106,0.5235304236412048
3.2973363399505615,-0.18335312604904175,-0.11296126991510391,0.2596714496612549,0.8467997312545776,0.21056252717971802,0.5223060250282288
3.317429780960083,-0.18265938758850098,-0.11474279314279556,0.265135794878006,0.8478779792785645,0.21158024668693542,0.5203432440757751
3.337482452392578,-0.18756037950515747,-0.11312203854322433,0.25740209221839905,0.846207857131958,0.20870459079742432,0.5221567153930664
3.357558012008667,-0.18288396298885345,-0.11594117432832718,0.26918870210647583,0.8509069681167603,0.2121211588382721,0.5183717012405396
3.3776488304138184,-0.18412576615810394,-0.11442098766565323,0.2600100040435791,0.8429033756256104,0.21003426611423492,0.5206206440925598
3.397717237472534,-0.18304578959941864,-0.11280832439661026,0.2507469058036804,0.8424867391586304,0.20595839619636536,0.5206570029258728
3.417788028717041,-0.17220117151737213,-0.11738475412130356,0.2608341574668884,0.8435335159301758,0.20761600136756897,0.5167775750160217
3.4378724098205566,-0.17983940243721008,-0.11632940918207169,0.25450408458709717,0.8411140441894531,0.20465701818466187,0.5184389352798462
3.457979679107666,-0.18286657333374023,-0.11331149190664291,0.25464487075805664,0.8418231010437012,0.2059846818447113,0.5187249779701233
3.478039264678955,-0.18017947673797607,-0.11376269906759262,0.24487806856632233,0.8332687616348267,0.2013867199420929,0.5194929838180542
3.4981141090393066,-0.177949920296669,-0.11450456827878952,0.2483203262090683,0.8408241868019104,0.2021147757768631,0.5174321532249451
3.5181875228881836,-0.1728600114583969,-0.1200021281838417,0.26226115226745605,0.8460760116577148,0.20398294925689697,0.5134122967720032
3.5382437705993652,-0.16858874261379242,-0.12097934633493423,0.2598530054092407,0.8440408706665039,0.20345091819763184,0.5136116147041321
3.5583746433258057,-0.17179198563098907,-0.11922527104616165,0.262170672416687,0.8460274338722229,0.20615532994270325,0.5137779116630554
3.5784010887145996,-0.16962668299674988,-0.11926581710577011,0.2570241689682007,0.8341399431228638,0.20434775948524475,0.5141843557357788
3.598463535308838,-0.17080409824848175,-0.12060060352087021,0.2608661353588104,0.8384941816329956,0.2041153758764267,0.5122055411338806
3.618626594543457,-0.1667158305644989,-0.11879441887140274,0.2551300525665283,0.8379355669021606,0.20259591937065125,0.5121316313743591
3.6387135982513428,-0.164572611451149,-0.11925611644983292,0.2554471790790558,0.8378865718841553,0.20203620195388794,0.5115270614624023
3.658853769302368,-0.16381953656673431,-0.12052159756422043,0.2585541307926178,0.840779185295105,0.20203083753585815,0.5103593468666077
3.6792049407958984,-0.16022302210330963,-0.12281230837106705,0.26620709896087646,0.8407492637634277,0.20685258507728577,0.5078614950180054
3.6993017196655273,-0.16429603099822998,-0.1235911026597023,0.26784390211105347,0.8400986790657043,0.204227015376091,0.506962239742279
3.719425678253174,-0.15896666049957275,-0.12106136232614517,0.25198352336883545,0.8332371115684509,0.20020779967308044,0.5085914134979248
3.739473581314087,-0.15575911104679108,-0.12219031900167465,0.25843003392219543,0.8326519727706909,0.20335683226585388,0.5069149136543274
3.7595643997192383,-0.15945732593536377,-0.12628555297851562,0.2683970332145691,0.8378976583480835,0.200641930103302,0.5029622316360474
3.7796106338500977,-0.15420667827129364,-0.12651079893112183,0.2691543400287628,0.8372769355773926,0.20218625664710999,0.5021716952323914
3.7997071743011475,-0.1571888029575348,-0.12626278400421143,0.2707310616970062,0.8415369391441345,0.20287153124809265,0.5011038184165955
3.8197860717773438,-0.15942195057868958,-0.12357548624277115,0.2582331895828247,0.8333661556243896,0.20021364092826843,0.5044517517089844
3.8398585319519043,-0.14418265223503113,-0.12318553775548935,0.24944615364074707,0.8316766023635864,0.1973133683204651,0.5030378699302673
3.859907865524292,-0.13868790864944458,-0.12606927752494812,0.2532007694244385,0.8326611518859863,0.19639983773231506,0.500943660736084
3.879990577697754,-0.14855556190013885,-0.1271991729736328,0.26054221391677856,0.8340433835983276,0.19647982716560364,0.49964195489883423
3.9000720977783203,-0.15505166351795197,-0.12375723570585251,0.24938884377479553,0.8277561664581299,0.1930258572101593,0.5020763874053955
3.920128107070923,-0.1448683887720108,-0.12702053785324097,0.25642502307891846,0.8296186327934265,0.1947389543056488,0.49819689989089966
3.940213203430176,-0.14468663930892944,-0.1261318325996399,0.24362266063690186,0.8211190700531006,0.19098734855651855,0.5005413889884949
3.960280656814575,-0.14092804491519928,-0.12811461091041565,0.2518809139728546,0.824217677116394,0.19417186081409454,0.4983065724372864
3.9803428649902344,-0.14903362095355988,-0.12654966115951538,0.26143768429756165,0.8353725671768188,0.19853314757347107,0.49688029289245605
4.000430345535278,-0.1497531682252884,-0.1273634135723114,0.2605017423629761,0.8316121101379395,0.19503673911094666,0.4966900944709778
4.020504951477051,-0.1406770646572113,-0.12992894649505615,0.26560282707214355,0.8312569260597229,0.19452276825904846,0.49323809146881104
4.040570020675659,-0.13745367527008057,-0.13319295644760132,0.26715928316116333,0.831024706363678,0.1928507536649704,0.4915280342102051
4.0606608390808105,-0.13848043978214264,-0.13082873821258545,0.2556324303150177,0.8276571035385132,0.19233758747577667,0.49413812160491943
4.080731391906738,-0.13370540738105774,-0.13227757811546326,0.26158764958381653,0.8272474408149719,0.193984717130661,0.49249041080474854
4.100826025009155,-0.13233429193496704,-0.13156363368034363,0.2611697316169739,0.8262364268302917,0.1935155987739563,0.4916880130767822
4.120905637741089,-0.13342611491680145,-0.13190403580665588,0.2573235332965851,0.8233413100242615,0.1901368647813797,0.4911929965019226
4.140986204147339,-0.13008923828601837,-0.13064470887184143,0.26061245799064636,0.8258072137832642,0.19270481169223785,0.48959600925445557
4.16103720664978,-0.1326255053281784,-0.12921252846717834,0.25678545236587524,0.8244329690933228,0.19121241569519043,0.4902254343032837
4.181135654449463,-0.1321781724691391,-0.12724071741104126,0.2429235875606537,0.8177155256271362,0.18728476762771606,0.49239760637283325
4.20121693611145,-0.13311481475830078,-0.13027670979499817,0.23899641633033752,0.8149436712265015,0.1810244619846344,0.49149417877197266
4.221301078796387,-0.12915053963661194,-0.13032647967338562,0.24103564023971558,0.8164945840835571,0.18101508915424347,0.48966503143310547
4.241364002227783,-0.12771038711071014,-0.1291446089744568,0.23338128626346588,0.8132909536361694,0.17910221219062805,0.4902571439743042
4.261458158493042,-0.11722565442323685,-0.13000768423080444,0.2311183214187622,0.809292733669281,0.17842108011245728,0.48905396461486816
4.2815163135528564,-0.11759994924068451,-0.1350574791431427,0.24544742703437805,0.8177522420883179,0.1818251758813858,0.48472172021865845
4.301682710647583,-0.1144549772143364,-0.13667327165603638,0.26410603523254395,0.8258650302886963,0.18900787830352783,0.48072129487991333
4.321768522262573,-0.10682285577058792,-0.13846352696418762,0.2601029574871063,0.8217225074768066,0.1864270269870758,0.4795023798942566
4.341826677322388,-0.11312546581029892,-0.13743942975997925,0.25938916206359863,0.819419264793396,0.18682792782783508,0.4789147973060608
4.3619256019592285,-0.11563178896903992,-0.1387239396572113,0.2668434679508209,0.8231031894683838,0.18759089708328247,0.4772934913635254
4.381990194320679,-0.10889188945293427,-0.14109495282173157,0.26596805453300476,0.817662239074707,0.18393394351005554,0.4749261736869812
4.402058839797974,-0.11193112283945084,-0.13989031314849854,0.2526497542858124,0.8143703937530518,0.17877304553985596,0.47677189111709595
4.422151565551758,-0.11210589110851288,-0.13772127032279968,0.24093595147132874,0.8108875751495361,0.17644329369068146,0.4785808324813843
4.442238092422485,-0.10966452211141586,-0.13596224784851074,0.24954254925251007,0.8171287775039673,0.1817222237586975,0.4769132137298584
4.462275743484497,-0.10964507609605789,-0.13757029175758362,0.24729880690574646,0.812185525894165,0.179060161113739,0.47627562284469604
4.482513189315796,-0.10740220546722412,-0.1386689841747284,0.26138949394226074,0.8195828199386597,0.18622849881649017,0.4729432463645935
4.502619028091431,-0.10845819115638733,-0.1440352499485016,0.2856267988681793,0.8262630701065063,0.1877954751253128,0.46744662523269653
4.522743225097656,-0.10454780608415604,-0.1432192623615265,0.27560654282569885,0.8199911117553711,0.18464602530002594,0.4679412245750427
4.542784690856934,-0.0976049080491066,-0.14168351888656616,0.266460657119751,0.8172105550765991,0.18204277753829956,0.467864453792572
4.562875270843506,-0.09960318356752396,-0.14004144072532654,0.2397141456604004,0.8013389706611633,0.1716482937335968,0.47274333238601685
4.582959890365601,-0.09948001801967621,-0.13942387700080872,0.23584549129009247,0.804775595664978,0.17078721523284912,0.4716801047325134
4.6030638217926025,-0.09645812958478928,-0.1382768750190735,0.23326116800308228,0.8023091554641724,0.1692863255739212,0.47043877840042114
4.623221158981323,-0.09067501872777939,-0.13953834772109985,0.23668912053108215,0.7993656992912292,0.1685134768486023,0.4684332013130188
4.643205642700195,-0.0912805125117302,-0.14366036653518677,0.2617079019546509,0.814254105091095,0.1760135293006897,0.4625347852706909
4.663284063339233,-0.08937547355890274,-0.14582398533821106,0.25747591257095337,0.8110432028770447,0.17284895479679108,0.4612935781478882
4.683406829833984,-0.08755353838205338,-0.1432476043701172,0.242576465010643,0.8022076487541199,0.1721501648426056,0.4643939733505249
4.703496217727661,-0.08896744251251221,-0.1444336473941803,0.25022149085998535,0.8057321906089783,0.17368915677070618,0.4620223045349121
4.723575115203857,-0.08944191783666611,-0.1460583508014679,0.25399741530418396,0.8064423203468323,0.17319819331169128,0.45991039276123047
4.743799686431885,-0.08174329251050949,-0.14741185307502747,0.271068811416626,0.8118621706962585,0.17932674288749695,0.4559040665626526
4.7638890743255615,-0.08127973973751068,-0.14796137809753418,0.27075034379959106,0.8088470697402954,0.1775430142879486,0.454520046710968
4.7839906215667725,-0.08010312169790268,-0.14801940321922302,0.2728416621685028,0.8106439709663391,0.17652982473373413,0.4523438811302185
4.804255247116089,-0.07674665749073029,-0.14785084128379822,0.26741689443588257,0.8068186044692993,0.1738922894001007,0.45164668560028076
4.824326515197754,-0.07904227823019028,-0.14508208632469177,0.2346629798412323,0.7905263900756836,0.1650235950946808,0.45741432905197144
4.844408750534058,-0.0734795480966568,-0.1463664174079895,0.23246431350708008,0.788530170917511,0.1630401611328125,0.45524340867996216
4.864472389221191,-0.07284684479236603,-0.1469600796699524,0.2327566146850586,0.7886412143707275,0.16095376014709473,0.45341962575912476
4.884572982788086,-0.07071664184331894,-0.14523297548294067,0.24224181473255157,0.7998161315917969,0.16598957777023315,0.45094573497772217
4.904733180999756,-0.07075788825750351,-0.1436646282672882,0.23884034156799316,0.7992318868637085,0.16729487478733063,0.4506891369819641
4.9247260093688965,-0.07041035592556,-0.1456528604030609,0.243801087141037,0.796363115310669,0.16937977075576782,0.44936972856521606
4.9448466300964355,-0.06275104731321335,-0.14996880292892456,0.2677929401397705,0.8049883842468262,0.17329654097557068,0.4429559111595154
4.964893341064453,-0.06273861974477768,-0.1534523069858551,0.2734391689300537,0.8039060831069946,0.17030054330825806,0.4396513104438782
4.9849512577056885,-0.05837976932525635,-0.15800470113754272,0.28675276041030884,0.8043176531791687,0.17130620777606964,0.4346199035644531
5.005094528198242,-0.056060515344142914,-0.15090058743953705,0.25515469908714294,0.7906577587127686,0.1718665063381195,0.44226187467575073
5.0251593589782715,-0.057479046285152435,-0.15136820077896118,0.25792038440704346,0.7893582582473755,0.17146150767803192,0.4406433701515198
5.045220613479614,-0.05728723108768463,-0.14975817501544952,0.24958284199237823,0.7885066270828247,0.16924792528152466,0.4404124617576599
5.065311670303345,-0.04900822043418884,-0.15639027953147888,0.293864369392395,0.8034497499465942,0.1749517321586609,0.42907971143722534
5.085376024246216,-0.050309449434280396,-0.15669986605644226,0.29906386137008667,0.8040801286697388,0.1765827238559723,0.42741119861602783
5.1054370403289795,-0.04741872847080231,-0.1552472710609436,0.294108510017395,0.8085274696350098,0.1770331859588623,0.4261186718940735
5.125629425048828,-0.04875960946083069,-0.1508132368326187,0.25315070152282715,0.7834559679031372,0.16675186157226562,0.4341360330581665
5.145651340484619,-0.04703202843666077,-0.1480412781238556,0.24945706129074097,0.7831469774246216,0.16699397563934326,0.4329220950603485
5.165709972381592,-0.04871454834938049,-0.14690610766410828,0.2427595555782318,0.7812408208847046,0.16383089125156403,0.43215927481651306
5.185823202133179,-0.05011527240276337,-0.1474105268716812,0.27044594287872314,0.8009500503540039,0.17170695960521698,0.4257010519504547
5.205915927886963,-0.05130079388618469,-0.14850467443466187,0.26382380723953247,0.7961616516113281,0.16581527888774872,0.424113005399704
5.225951671600342,-0.051385559141635895,-0.14855831861495972,0.24642156064510345,0.7852204442024231,0.15689879655838013,0.4253618121147156
5.246029615402222,-0.051419906318187714,-0.14612185955047607,0.23769360780715942,0.786429762840271,0.15858754515647888,0.42683717608451843
5.266099691390991,-0.05082692950963974,-0.14676877856254578,0.23886805772781372,0.7806769609451294,0.15628820657730103,0.4252872169017792
5.286191940307617,-0.06082887202501297,-0.144311785697937,0.23517712950706482,0.7827248573303223,0.1552029550075531,0.4246452748775482
5.306314706802368,-0.04881962388753891,-0.14516529440879822,0.2355530560016632,0.7867597341537476,0.15539667010307312,0.4232668876647949
5.326383829116821,-0.03534606099128723,-0.15048736333847046,0.23781569302082062,0.7807585597038269,0.15112778544425964,0.4184028208255768
5.34646201133728,-0.032825812697410583,-0.15371087193489075,0.24461409449577332,0.7793997526168823,0.15096333622932434,0.4151958227157593
5.366586685180664,-0.03372611850500107,-0.15087679028511047,0.22305920720100403,0.7681909799575806,0.14757199585437775,0.4183720648288727
5.386651277542114,-0.03228447586297989,-0.15171508491039276,0.23153237998485565,0.771124541759491,0.15125876665115356,0.4147202968597412
5.406721591949463,-0.04141522943973541,-0.15305455029010773,0.24161727726459503,0.7690609097480774,0.15316352248191833,0.4126551151275635
5.426811456680298,-0.030155694112181664,-0.15696044266223907,0.27499228715896606,0.7896400690078735,0.16039752960205078,0.40430766344070435
5.446890830993652,-0.028729652985930443,-0.1578473150730133,0.2669750154018402,0.7809863090515137,0.15288519859313965,0.4021686315536499
5.466991662979126,-0.02896217815577984,-0.15828630328178406,0.2738554775714874,0.7835577726364136,0.15219008922576904,0.3990233540534973
5.487097263336182,-0.03733322024345398,-0.1623024344444275,0.2802603840827942,0.78282231092453,0.14615997672080994,0.3940957486629486
5.507188558578491,-0.047542691230773926,-0.15292806923389435,0.21914228796958923,0.7601482272148132,0.13762515783309937,0.40738722681999207
5.527259826660156,-0.04879572242498398,-0.15412861108779907,0.19659005105495453,0.7389814853668213,0.12234196811914444,0.40787065029144287
5.547553062438965,-0.052346087992191315,-0.14945924282073975,0.21778321266174316,0.7529574036598206,0.1366225779056549,0.4037262797355652
5.567644834518433,-0.02399918995797634,-0.1592373549938202,0.3126974105834961,0.7906211614608765,0.15957170724868774,0.38296473026275635
5.58771824836731,-0.023857688531279564,-0.15956461429595947,0.2959723174571991,0.7855594158172607,0.14977909624576569,0.3815377354621887
5.608547687530518,-0.023676840588450432,-0.15919965505599976,0.2907053828239441,0.7826299667358398,0.14507797360420227,0.37877368927001953
5.62867283821106,-0.05656228959560394,-0.14576692879199982,0.1973683387041092,0.7412165403366089,0.12659846246242523,0.39857056736946106
5.64879846572876,-0.06589195132255554,-0.14400404691696167,0.1829773485660553,0.7377836108207703,0.11828667670488358,0.3973727822303772
5.668832540512085,-0.07076245546340942,-0.1422821581363678,0.17814861238002777,0.7396824359893799,0.11601420491933823,0.39643537998199463
5.688954591751099,-0.02757338248193264,-0.15346571803092957,0.28898802399635315,0.7919646501541138,0.14309369027614594,0.3707928955554962
5.7090044021606445,-0.013302898034453392,-0.16063830256462097,0.3067472577095032,0.7887763977050781,0.1440078318119049,0.3630773425102234
5.729061841964722,-0.0032624956220388412,-0.15993833541870117,0.3269173204898834,0.7916278839111328,0.1539703607559204,0.3572509288787842
5.749143123626709,-0.04905112832784653,-0.1453438103199005,0.20175358653068542,0.7328802347183228,0.1241275742650032,0.3829919695854187
5.769209861755371,-0.053792692720890045,-0.1427536904811859,0.20371206104755402,0.7314049601554871,0.12899620831012726,0.37981706857681274
5.789299011230469,-0.034446023404598236,-0.14557480812072754,0.20893853902816772,0.7312416434288025,0.1291888952255249,0.374236136674881
5.809369087219238,-0.002129463478922844,-0.16420012712478638,0.3663348853588104,0.7884888648986816,0.14943452179431915,0.337068110704422
5.829455375671387,-0.009875303134322166,-0.15286362171173096,0.33444109559059143,0.7961699962615967,0.14841347932815552,0.34078681468963623
5.8495001792907715,-0.008890753611922264,-0.154386967420578,0.29776808619499207,0.7810827493667603,0.12418555468320847,0.3383273482322693
5.8695902824401855,-0.031899601221084595,-0.14327706396579742,0.12563523650169373,0.7126805782318115,0.10645810514688492,0.37418973445892334
5.889675855636597,-0.03288467973470688,-0.14525490999221802,0.121306873857975,0.7092781066894531,0.10245190560817719,0.3725196123123169
5.909741640090942,-0.034936122596263885,-0.15073570609092712,0.12801402807235718,0.719832718372345,0.10220197588205338,0.3667113780975342
5.9298694133758545,-0.06647661328315735,-0.1483985185623169,0.07464054226875305,0.6913655996322632,0.07427521795034409,0.37335658073425293
5.950068473815918,-0.02943628840148449,-0.15164873003959656,0.2346165031194687,0.7592817544937134,0.09380356222391129,0.337474524974823
5.9701032638549805,-0.06796582788228989,-0.1685972809791565,0.1957547664642334,0.7442216277122498,0.05435632914304733,0.33771422505378723
5.990170478820801,0.01795087195932865,-0.14993339776992798,0.1243535727262497,0.7059469223022461,0.06689867377281189,0.35274815559387207
6.01025390625,-0.010123087093234062,-0.1608889400959015,0.08727313578128815,0.7038472890853882,0.07122888416051865,0.3547811508178711
6.030316114425659,-0.05624144524335861,-0.15915507078170776,0.16932465136051178,0.7371054291725159,0.09227421134710312,0.34580016136169434
6.050555467605591,0.03793306648731232,-0.1520545482635498,0.1375000774860382,0.6807119846343994,0.0903841182589531,0.3422379493713379
6.070641040802002,0.020106593146920204,-0.15752054750919342,0.15406464040279388,0.7009217739105225,0.08225268870592117,0.33547496795654297
6.090714454650879,-0.13759830594062805,-0.14884239435195923,0.16826973855495453,0.7163273692131042,0.07021840661764145,0.3385119140148163
6.1111366748809814,0.09992298483848572,-0.19370388984680176,0.11715073883533478,0.6775556802749634,0.05349551886320114,0.32745206356048584
6.131237745285034,-0.005114911124110222,-0.18199726939201355,0.13050031661987305,0.6911433339118958,0.05020856112241745,0.32886791229248047
6.151317358016968,-0.10738224536180496,-0.16249150037765503,0.1655171662569046,0.7267550230026245,0.06439127773046494,0.3317703306674957
6.17139196395874,0.1430150717496872,-0.19731280207633972,0.16752496361732483,0.6994704008102417,0.0716053768992424,0.31454411149024963
6.191477298736572,-0.021632863208651543,-0.19534200429916382,0.17707565426826477,0.7037736773490906,0.054434604942798615,0.3152223825454712
6.211593151092529,-0.06475386768579483,-0.1738726794719696,0.2584139108657837,0.7381429672241211,0.10503019392490387,0.3136611580848694
6.2316224575042725,0.07302499562501907,-0.18112196028232574,0.13077867031097412,0.6567955017089844,0.057815633714199066,0.31422948837280273
6.25172233581543,0.0076665375381708145,-0.20239967107772827,0.13514593243598938,0.6943660974502563,0.0199119970202446,0.3067657947540283
6.271814584732056,-0.11495286971330643,-0.1622958779335022,0.137854665517807,0.7353875637054443,0.05521651357412338,0.3275719881057739
6.291895389556885,0.07598469406366348,-0.19310690462589264,0.13639681041240692,0.7301012873649597,0.050490573048591614,0.3193346858024597
6.3120951652526855,0.084497831761837,-0.21013426780700684,0.17475581169128418,0.7348752021789551,0.057581864297389984,0.31137481331825256
6.332183599472046,-0.11043234169483185,-0.16912558674812317,0.28217601776123047,0.7394821047782898,0.10575125366449356,0.3147824704647064
6.352261543273926,0.0026042331010103226,-0.1602056622505188,0.2565261721611023,0.6967193484306335,0.1254594624042511,0.3058205246925354
6.372374773025513,0.12209656089544296,-0.17135657370090485,0.14569959044456482,0.6698156595230103,0.09517368674278259,0.30665507912635803
6.392484903335571,-0.012643544003367424,-0.17346853017807007,0.06339606642723083,0.6475785970687866,0.03573652356863022,0.3161237835884094
6.412549018859863,-0.058784060180187225,-0.17799854278564453,0.04030458629131317,0.6930685043334961,0.006710217334330082,0.3199688196182251
6.432601451873779,-0.03038971684873104,-0.1869809329509735,0.1127321720123291,0.7293106913566589,0.041419073939323425,0.31584763526916504
6.4526917934417725,0.0065056029707193375,-0.18722385168075562,0.22248169779777527,0.7806322574615479,0.09860973060131073,0.30422013998031616
6.472779273986816,-0.06366121023893356,-0.1947893500328064,0.23310457170009613,0.7189267873764038,0.07417222857475281,0.3092960715293884
6.492840766906738,0.07460605353116989,-0.1601436585187912,0.3371363878250122,0.7399572134017944,0.17903366684913635,0.2957909107208252
6.512927055358887,0.03987572342157364,-0.18071198463439941,0.3378070890903473,0.7249727249145508,0.1498313844203949,0.28547969460487366
6.533041954040527,0.012188443914055824,-0.18699270486831665,0.19658955931663513,0.6678639650344849,0.08603459596633911,0.298745334148407
6.553068399429321,-0.023588700219988823,-0.1950322687625885,0.03097018599510193,0.6591899991035461,-0.0119784539565444,0.30857810378074646
6.573151111602783,-0.0321984589099884,-0.20229101181030273,0.025471828877925873,0.6806392669677734,-0.02545628696680069,0.3103773593902588
6.593285083770752,-0.037547796964645386,-0.1917748749256134,0.023419581353664398,0.6920448541641235,-0.011796473525464535,0.319587379693985
6.613309860229492,-0.021432800218462944,-0.18375296890735626,0.13793331384658813,0.7540140748023987,0.04781102389097214,0.31139883399009705
6.633551597595215,-0.02198166213929653,-0.18677037954330444,0.2614939212799072,0.7838982343673706,0.10329131036996841,0.30100592970848083
6.65365195274353,0.04267535358667374,-0.17336294054985046,0.2879621386528015,0.7636724710464478,0.13761119544506073,0.30268216133117676
6.673745632171631,0.03804054856300354,-0.17258793115615845,0.3086031675338745,0.7338649034500122,0.14382043480873108,0.2892843186855316
6.693786144256592,0.03100253827869892,-0.16874679923057556,0.22183147072792053,0.6911515593528748,0.11921928077936172,0.2974032461643219
6.713969945907593,0.008686164394021034,-0.1657598316669464,0.1207091361284256,0.6624840497970581,0.07875322550535202,0.307020902633667
6.734031677246094,-0.05356181412935257,-0.17527037858963013,0.0805654376745224,0.718285322189331,0.027684710919857025,0.30278030037879944
6.754087924957275,-0.0575961172580719,-0.1909482479095459,0.12848877906799316,0.7593308091163635,0.04075109213590622,0.3038698434829712
6.774190425872803,-0.0562325194478035,-0.193962961435318,0.06566447019577026,0.7048988938331604,0.022517099976539612,0.31880342960357666
6.794287443161011,-0.04348283261060715,-0.2046915590763092,0.21920007467269897,0.7645695209503174,0.07433106750249863,0.29947441816329956
6.814364194869995,0.04662119597196579,-0.16513922810554504,0.32639557123184204,0.7537413835525513,0.16292805969715118,0.294373095035553
6.834641218185425,0.04030001908540726,-0.16776658594608307,0.2849879860877991,0.7198550701141357,0.14719566702842712,0.2901306748390198
6.854726552963257,0.036115773022174835,-0.1560254991054535,0.20465432107448578,0.6710739731788635,0.13216754794120789,0.299854576587677
6.874797105789185,-0.01917676441371441,-0.17063933610916138,0.028780348598957062,0.651638388633728,0.02608054131269455,0.30587029457092285
6.895250082015991,-0.09243562817573547,-0.18769219517707825,-0.0028746724128723145,0.6920603513717651,-0.026338964700698853,0.3115450441837311
6.915347576141357,-0.04778023809194565,-0.18033216893672943,0.025727614760398865,0.7126110196113586,0.01676357537508011,0.3176767826080322
6.935400485992432,-0.028068697080016136,-0.18949413299560547,0.1823827624320984,0.7836307883262634,0.07811219990253448,0.29962682723999023
6.955632448196411,-0.03386308252811432,-0.19851210713386536,0.2717682719230652,0.7768732309341431,0.10391148179769516,0.2944190204143524
6.975721597671509,0.026629017665982246,-0.18814688920974731,0.29825448989868164,0.7587876319885254,0.12969323992729187,0.29487013816833496
6.995790243148804,0.058662496507167816,-0.17354299128055573,0.3793644905090332,0.7495469450950623,0.18435826897621155,0.2787909507751465
7.01585054397583,0.03184547275304794,-0.17988364398479462,0.2749917507171631,0.702055811882019,0.13781780004501343,0.2850145101547241
7.035943508148193,0.02841688133776188,-0.1815563589334488,0.15443101525306702,0.6553052663803101,0.08651234954595566,0.2938307821750641
7.056160926818848,-0.04974682629108429,-0.17639389634132385,0.05313059687614441,0.6896404027938843,0.02736707776784897,0.3021541237831116
7.076124668121338,-0.08078965544700623,-0.20080575346946716,0.0889618843793869,0.7403725385665894,0.016340941190719604,0.3002418279647827
7.096217393875122,-0.068421870470047,-0.19998717308044434,0.0752970278263092,0.7182525992393494,0.015203931368887424,0.3089185059070587
7.116299867630005,-0.02135891281068325,-0.21286562085151672,0.24847787618637085,0.7725365161895752,0.08243487775325775,0.2908588945865631
7.136404752731323,0.008527914062142372,-0.17971058189868927,0.29124385118484497,0.7470005750656128,0.12622331082820892,0.29923415184020996
7.1564600467681885,0.04511184245347977,-0.15699106454849243,0.27534782886505127,0.7090266942977905,0.1498110592365265,0.2996746599674225
7.17658257484436,0.017575034871697426,-0.1646876037120819,0.22819969058036804,0.6869155168533325,0.12056117504835129,0.29377448558807373
7.19661808013916,-0.015371842309832573,-0.16416090726852417,-0.00094643235206604,0.626949667930603,0.024081222712993622,0.3132249414920807
7.216708183288574,-0.05715448409318924,-0.1937151849269867,-0.007659032940864563,0.6765889525413513,-0.042001061141490936,0.30113714933395386
7.236785650253296,-0.07045279443264008,-0.1973971128463745,-0.02558058500289917,0.6867401599884033,-0.0427522286772728,0.31679850816726685
7.256866931915283,-0.05955341458320618,-0.1940785050392151,0.07362319529056549,0.73736971616745,-0.0012854328379034996,0.3087313771247864
7.276933193206787,-0.05623355507850647,-0.19286015629768372,0.11128130555152893,0.7422419786453247,0.02707231044769287,0.3108138144016266
7.297020196914673,-0.014938628301024437,-0.1914282739162445,0.3216562569141388,0.8063958883285522,0.13303273916244507,0.29152366518974304
7.317113161087036,0.09610379487276077,-0.15788283944129944,0.31596696376800537,0.7428480982780457,0.17303481698036194,0.2954089343547821
7.337204456329346,0.051359184086322784,-0.1668633222579956,0.34372302889823914,0.7424142360687256,0.17123210430145264,0.28529492020606995
7.357295989990234,0.03841010481119156,-0.16393277049064636,0.25731778144836426,0.7104531526565552,0.1484607458114624,0.29394882917404175
7.377371549606323,0.02494634874165058,-0.17350703477859497,0.1413280963897705,0.6659748554229736,0.08490950614213943,0.30024483799934387
7.397465229034424,-0.04911317676305771,-0.1809651404619217,0.06427542865276337,0.7031785249710083,0.01908233016729355,0.3031116724014282
7.417594909667969,-0.05400630086660385,-0.1918913722038269,0.13228072226047516,0.7635159492492676,0.0420672670006752,0.30212101340293884
7.437641859054565,-0.07053614407777786,-0.196492999792099,0.090662881731987,0.7169822454452515,0.023926295340061188,0.3128393888473511
7.457705020904541,0.014048555865883827,-0.19393610954284668,0.305966854095459,0.8042953014373779,0.12702858448028564,0.29179301857948303
7.477761268615723,0.012478778138756752,-0.16931679844856262,0.3406161665916443,0.7462027668952942,0.16280654072761536,0.2919796407222748
7.497853755950928,0.023050973191857338,-0.17539779841899872,0.3185880184173584,0.7385003566741943,0.14721375703811646,0.2898939251899719
7.517930507659912,0.037132345139980316,-0.16234707832336426,0.2515231966972351,0.6998848915100098,0.1436661183834076,0.2942318022251129
7.538005352020264,0.00521400012075901,-0.178999662399292,0.054514288902282715,0.6439766883850098,0.03300852328538895,0.3044137954711914
7.558355093002319,-0.1132790595293045,-0.19120922684669495,0.057450369000434875,0.7060077786445618,-0.012677713297307491,0.3026915192604065
7.578393459320068,-0.06787070631980896,-0.1965286284685135,0.11346781253814697,0.7542412281036377,0.033710233867168427,0.3034866452217102
7.598463773727417,0.021242709830403328,-0.19896525144577026,0.2169218361377716,0.7911398410797119,0.07833895087242126,0.2954882085323334
7.618517160415649,-0.04599829018115997,-0.1943279206752777,0.2648495137691498,0.7622584104537964,0.08851832896471024,0.2978064715862274
7.638629913330078,0.008427510038018227,-0.1569364368915558,0.32981300354003906,0.7682867050170898,0.16184422373771667,0.30013856291770935
7.658718109130859,0.038902364671230316,-0.1654575914144516,0.32665643095970154,0.7439290285110474,0.1576780080795288,0.284821093082428
7.678791046142578,0.029151493683457375,-0.15842954814434052,0.16632148623466492,0.6736011505126953,0.10827119648456573,0.29953092336654663
7.698846101760864,0.013164037838578224,-0.15972372889518738,0.05410170555114746,0.6425098776817322,0.05476521700620651,0.3085789084434509
7.71893048286438,-0.10822208970785141,-0.18824973702430725,-0.022297054529190063,0.6816787719726562,-0.039241112768650055,0.3113858103752136
7.739001274108887,-0.06207640469074249,-0.18293175101280212,-0.018870875239372253,0.6974214315414429,-0.013253680430352688,0.32657256722450256
7.759165048599243,-0.07798456400632858,-0.18806281685829163,0.027347594499588013,0.7115795612335205,-0.012995838187634945,0.31718745827674866
7.779264688491821,-0.06336236745119095,-0.20192641019821167,0.21436147391796112,0.7877210378646851,0.06566318869590759,0.2992958128452301
7.799326419830322,0.0527089461684227,-0.1984127014875412,0.2949785590171814,0.7547121644020081,0.11892502754926682,0.29623135924339294
7.8195481300354,0.04423244297504425,-0.1793924868106842,0.3274906873703003,0.732613205909729,0.14717642962932587,0.2834184169769287
7.839643239974976,0.028173038735985756,-0.1788577437400818,0.2531362473964691,0.6962770819664001,0.12424468249082565,0.29305708408355713
7.859705448150635,0.000961625948548317,-0.17483283579349518,0.07426904141902924,0.6362711191177368,0.0485253632068634,0.30744263529777527
7.879817485809326,-0.06808800995349884,-0.1866956651210785,0.01965339481830597,0.6917731165885925,-0.013116530142724514,0.30935099720954895
7.8999342918396,-0.06903169304132462,-0.1917622983455658,-0.012215420603752136,0.6779826879501343,-0.02612684667110443,0.3173663020133972
7.919969320297241,-0.05923052132129669,-0.1940649151802063,0.04574655741453171,0.710563600063324,-0.0026818355545401573,0.3149849772453308
7.940261363983154,-0.06745966523885727,-0.19997365772724152,0.22017967700958252,0.7791969776153564,0.06991121917963028,0.29780521988868713
7.960350275039673,-0.03698985278606415,-0.1950891613960266,0.24450023472309113,0.7656240463256836,0.08752454072237015,0.30090734362602234
7.98043417930603,0.10988854616880417,-0.17007485032081604,0.24235627055168152,0.6994761228561401,0.13169193267822266,0.29694023728370667
8.000481367111206,0.010884853079915047,-0.1734730452299118,0.19947099685668945,0.6841080784797668,0.10432346165180206,0.29741621017456055
8.020575761795044,-0.030466003343462944,-0.17404861748218536,0.10738329589366913,0.6619021892547607,0.056578800082206726,0.3051447570323944
8.040767669677734,-0.020494377240538597,-0.1900484263896942,0.03226039558649063,0.7001854181289673,0.0018285373225808144,0.3054940104484558
8.060802936553955,0.005599798634648323,-0.19126269221305847,0.0948614627122879,0.7426058053970337,0.03934987634420395,0.30861690640449524
8.080867767333984,-0.020944295451045036,-0.20091888308525085,0.0869700014591217,0.7187724113464355,0.027233876287937164,0.31035175919532776
8.100946426391602,-0.04747026413679123,-0.2050166130065918,0.2723149359226227,0.7781493663787842,0.09158935397863388,0.2915467917919159
8.121010065078735,0.04065056890249252,-0.15902960300445557,0.3253243565559387,0.7572857141494751,0.16353030502796173,0.2994242310523987
8.141084432601929,0.089378722012043,-0.15339305996894836,0.30295518040657043,0.7085222005844116,0.16913248598575592,0.2943618893623352
