liuyurong129/humanoid-gym/humanoid/data/target_q_20250523-020244.csv
timestamp,joint_1,joint_2,joint_3,joint_4,joint_5,joint_6
0.00021910667419433594,0.0,0.0,0.0,0.0,0.0,0.0
0.020366907119750977,0.0,0.0,0.0,0.0,0.0,0.0
0.04049062728881836,0.0,0.0,0.0,0.0,0.0,0.0
0.060568809509277344,0.0,0.0,0.0,0.0,0.0,0.0
0.08073949813842773,-0.030176404863595963,-0.20722052454948425,0.17765891551971436,0.07078187167644501,-0.07678133249282837,0.14071595668792725
0.10085248947143555,-0.02987045980989933,-0.20875763893127441,0.17756688594818115,0.07060486078262329,-0.07662501186132431,0.14003552496433258
0.12096118927001953,-0.029337456449866295,-0.21176405251026154,0.1776445358991623,0.07027040421962738,-0.07632884383201599,0.13868743181228638
0.1410510540008545,-0.029115503653883934,-0.21322493255138397,0.1778586357831955,0.07011017203330994,-0.07620508968830109,0.1380169838666916
0.16124820709228516,-0.028854692354798317,-0.21601474285125732,0.17891618609428406,0.06976883858442307,-0.07603542506694794,0.1366821825504303
0.18123126029968262,-0.02882596105337143,-0.21734806895256042,0.17977534234523773,0.06958014518022537,-0.07599488645792007,0.13601915538311005
0.20139169692993164,-0.02896975912153721,-0.21989521384239197,0.18203964829444885,0.06916622817516327,-0.07596371322870255,0.13471102714538574
0.2213881015777588,-0.02938348613679409,-0.22226756811141968,0.18491123616695404,0.06870362907648087,-0.0759408175945282,0.13344115018844604
0.24151372909545898,-0.02970150299370289,-0.2233758121728897,0.18655730783939362,0.06845357269048691,-0.07589644193649292,0.1328272819519043
0.2617154121398926,-0.03050272911787033,-0.22542345523834229,0.19017423689365387,0.0679318830370903,-0.0757480040192604,0.13164666295051575
0.2816915512084961,-0.031394802033901215,-0.22732186317443848,0.194066122174263,0.0674666240811348,-0.07540864497423172,0.1305348128080368
0.30173420906066895,-0.03181781619787216,-0.2282434105873108,0.19602884352207184,0.06728886812925339,-0.07517489045858383,0.13000448048114777
0.32183194160461426,-0.03267718479037285,-0.23004937171936035,0.20001022517681122,0.06703661382198334,-0.07450859993696213,0.12900057435035706
0.3419198989868164,-0.033559318631887436,-0.23176957666873932,0.2040211409330368,0.066886305809021,-0.07366883754730225,0.1280795782804489
0.3620493412017822,-0.03440390154719353,-0.23341499269008636,0.20799005031585693,0.06686165928840637,-0.07264978438615799,0.1272394061088562
0.3821699619293213,-0.03482217341661453,-0.2342069298028946,0.20999011397361755,0.06689189374446869,-0.07204656302928925,0.12684914469718933
0.4022214412689209,-0.0355476476252079,-0.2357776015996933,0.2137838900089264,0.06712272018194199,-0.07068872451782227,0.12612706422805786
0.4222579002380371,-0.036230817437171936,-0.2373025119304657,0.2174118608236313,0.06751273572444916,-0.06911762803792953,0.12549151480197906
0.4424574375152588,-0.03654007613658905,-0.23806297779083252,0.21907758712768555,0.06778184324502945,-0.06825911998748779,0.1252104789018631
0.4626610279083252,-0.03718383237719536,-0.2395298331975937,0.2224036157131195,0.06836161762475967,-0.06637092679738998,0.12471853196620941
0.48316526412963867,-0.03785908222198486,-0.24092718958854675,0.2256077527999878,0.06897100806236267,-0.06432551890611649,0.12432823330163956
0.5032422542572021,-0.03823346272110939,-0.24157828092575073,0.22723700106143951,0.0692514106631279,-0.06326805055141449,0.12416785955429077
0.5232949256896973,-0.038966018706560135,-0.24285879731178284,0.2302028089761734,0.0698283314704895,-0.061120450496673584,0.12391798943281174
0.543341875076294,-0.039330217987298965,-0.24349090456962585,0.23154978454113007,0.07011191546916962,-0.06005125492811203,0.12382432818412781
0.5633988380432129,-0.040044866502285004,-0.24474307894706726,0.23399507999420166,0.070635125041008,-0.05797233060002327,0.12369634211063385
0.5836029052734375,-0.04072822257876396,-0.24609412252902985,0.23599548637866974,0.07112383097410202,-0.05599093809723854,0.12364798039197922
0.6036102771759033,-0.04102599248290062,-0.246815487742424,0.2368374913930893,0.07135669887065887,-0.05505695566534996,0.12364806234836578
0.6236824989318848,-0.041485004127025604,-0.2483629435300827,0.23823191225528717,0.07184619456529617,-0.05328632891178131,0.12367916107177734
0.6437356472015381,-0.04172680526971817,-0.25001856684684753,0.23930948972702026,0.07236998528242111,-0.05169922485947609,0.12373833358287811
0.6639187335968018,-0.04177526384592056,-0.250896692276001,0.23973064124584198,0.07265327870845795,-0.05094214528799057,0.1237834021449089
0.6839191913604736,-0.04178936034440994,-0.25272849202156067,0.2404189258813858,0.07321788370609283,-0.04950513318181038,0.12390749156475067
0.7039604187011719,-0.04172566905617714,-0.25466421246528625,0.2409246563911438,0.07375205308198929,-0.048191286623477936,0.12407829612493515
0.7240540981292725,-0.041684459894895554,-0.25566694140434265,0.24113035202026367,0.07399740815162659,-0.04759589210152626,0.12417718023061752
0.7441248893737793,-0.04157331585884094,-0.25775349140167236,0.24142873287200928,0.07449179142713547,-0.04645351693034172,0.12440377473831177
0.7642385959625244,-0.04142406955361366,-0.2599559724330902,0.24157604575157166,0.07501805573701859,-0.0453326590359211,0.12467088550329208
0.784264087677002,-0.041254159063100815,-0.2622659504413605,0.24159498512744904,0.07558565586805344,-0.04418278485536575,0.12498381733894348
0.8043713569641113,-0.04117245972156525,-0.2634436786174774,0.24158939719200134,0.0758679211139679,-0.04362057149410248,0.12515558302402496
0.8245270252227783,-0.04106217250227928,-0.26578617095947266,0.24165570735931396,0.0763963982462883,-0.04255220293998718,0.12552234530448914
0.8450479507446289,-0.0410642996430397,-0.26802167296409607,0.24196147918701172,0.07681860774755478,-0.04158538579940796,0.12593193352222443
0.8651556968688965,-0.04111066833138466,-0.2690708041191101,0.24223187565803528,0.07698206603527069,-0.041128870099782944,0.12616008520126343
0.8852221965789795,-0.04126066341996193,-0.27105262875556946,0.24293841421604156,0.07722233235836029,-0.04021783918142319,0.12668631970882416
0.9052796363830566,-0.041443727910518646,-0.27291956543922424,0.2437736541032791,0.07737907767295837,-0.03929527476429939,0.12730880081653595
0.9254069328308105,-0.04155050218105316,-0.27381831407546997,0.24422375857830048,0.07742106914520264,-0.03883296996355057,0.12765663862228394
0.9454641342163086,-0.04181382805109024,-0.2755199372768402,0.2452375590801239,0.07742636650800705,-0.037905849516391754,0.12841477990150452
0.9656012058258057,-0.04212750121951103,-0.27712270617485046,0.24635908007621765,0.07736457139253616,-0.036955513060092926,0.12924452126026154
0.9856956005096436,-0.04229706525802612,-0.27791300415992737,0.24692006409168243,0.0773325189948082,-0.03647398203611374,0.129680797457695
1.0058095455169678,-0.042655911296606064,-0.2795257568359375,0.24797312915325165,0.07731547206640244,-0.035508893430233,0.13059014081954956
1.0258798599243164,-0.04302959889173508,-0.2811790108680725,0.24893881380558014,0.07736606150865555,-0.03455564007163048,0.13154904544353485
1.045919418334961,-0.043344300240278244,-0.28287366032600403,0.24978981912136078,0.07752983272075653,-0.03357718512415886,0.1325543373823166
1.0660018920898438,-0.043471552431583405,-0.2837284207344055,0.2501775324344635,0.0776473730802536,-0.03307310491800308,0.13307401537895203
1.086071491241455,-0.04369359835982323,-0.28542760014533997,0.2509419620037079,0.07793503999710083,-0.03204383701086044,0.1341388076543808
1.106139898300171,-0.04395265877246857,-0.2870406210422516,0.2518366873264313,0.07819677144289017,-0.031060662120580673,0.13522864878177643
1.1263046264648438,-0.044271599501371384,-0.2885301113128662,0.2529107630252838,0.07837417721748352,-0.030197354033589363,0.13633301854133606
1.146399974822998,-0.04444561526179314,-0.28924354910850525,0.2534793019294739,0.07843577116727829,-0.029795555397868156,0.1368934065103531
1.1664433479309082,-0.04478880390524864,-0.29061877727508545,0.25463831424713135,0.07853613048791885,-0.02899293415248394,0.13803145289421082
1.1865355968475342,-0.045087531208992004,-0.2919996380805969,0.2557046115398407,0.07869184017181396,-0.028113365173339844,0.13919246196746826
1.2067015171051025,-0.045207928866147995,-0.2927045524120331,0.25617796182632446,0.07879959791898727,-0.02764953300356865,0.13978001475334167
1.2268099784851074,-0.045405324548482895,-0.29418492317199707,0.2569761276245117,0.07908598333597183,-0.026677029207348824,0.1409664899110794
1.2468671798706055,-0.045589882880449295,-0.2956930100917816,0.25771307945251465,0.07941443473100662,-0.02572694420814514,0.1421608030796051
1.266918659210205,-0.04581597447395325,-0.2971594035625458,0.25853151082992554,0.07974900305271149,-0.024849729612469673,0.14335811138153076
1.2870068550109863,-0.0459437295794487,-0.29785650968551636,0.25899165868759155,0.07990396022796631,-0.02445591427385807,0.14395883679389954
1.3070716857910156,-0.04620841518044472,-0.29917269945144653,0.2599920928478241,0.08018004149198532,-0.023739097639918327,0.14516648650169373
1.3271374702453613,-0.04647708684206009,-0.3003663718700409,0.26110607385635376,0.08039458096027374,-0.023080430924892426,0.14638139307498932
1.3472535610198975,-0.04662100598216057,-0.3009181022644043,0.26171383261680603,0.08048062771558762,-0.02275126799941063,0.14698827266693115
1.3673489093780518,-0.046948302537202835,-0.30197420716285706,0.2629992365837097,0.08064490556716919,-0.022067954763770103,0.14819525182247162
1.3875095844268799,-0.04727760702371597,-0.30305221676826477,0.2642210125923157,0.0808887779712677,-0.021341171115636826,0.14938786625862122
1.4075040817260742,-0.047572389245033264,-0.3042576313018799,0.26520416140556335,0.0812695249915123,-0.020512502640485764,0.150576651096344
1.4275901317596436,-0.04770190268754959,-0.3049149215221405,0.26560014486312866,0.08150473982095718,-0.020061563700437546,0.15116992592811584
1.447679042816162,-0.047955114394426346,-0.30628764629364014,0.26629889011383057,0.08200245350599289,-0.019125616177916527,0.15235784649848938
1.467726469039917,-0.04820580035448074,-0.3076654076576233,0.2669762372970581,0.08249040693044662,-0.018213758245110512,0.1535445600748062
1.4877986907958984,-0.048463284969329834,-0.30898064374923706,0.2677258849143982,0.08293787389993668,-0.017342157661914825,0.1547289490699768
1.5079026222229004,-0.048597369343042374,-0.3095983862876892,0.2681543231010437,0.0831465944647789,-0.016912057995796204,0.1553182154893875
1.5279653072357178,-0.0488874688744545,-0.3107263445854187,0.2691652774810791,0.0835299864411354,-0.016093002632260323,0.15648342669010162
1.5480573177337646,-0.049209702759981155,-0.3117888867855072,0.27026042342185974,0.0838976576924324,-0.01528420951217413,0.1576421707868576
1.568087100982666,-0.049558792263269424,-0.3128492832183838,0.2713310122489929,0.08426790684461594,-0.014479493722319603,0.15880146622657776
1.5881731510162354,-0.049733467400074005,-0.3133828341960907,0.27184703946113586,0.08445858210325241,-0.014069567434489727,0.15938255190849304
1.6082415580749512,-0.050043970346450806,-0.3144494891166687,0.2728331983089447,0.08487523347139359,-0.013237656094133854,0.16054202616214752
1.628288984298706,-0.05030704662203789,-0.3155513107776642,0.2737235128879547,0.08536496758460999,-0.012348409742116928,0.16170038282871246
1.648353099822998,-0.05042314901947975,-0.316128671169281,0.2741173207759857,0.0856383889913559,-0.011879649013280869,0.1622794270515442
1.668473243713379,-0.05065343156456947,-0.31730225682258606,0.27485886216163635,0.08618535101413727,-0.010938121005892754,0.16343741118907928
1.688507080078125,-0.050886254757642746,-0.3184787631034851,0.27556899189949036,0.08670440316200256,-0.010015539824962616,0.16459670662879944
1.7086715698242188,-0.05114760249853134,-0.31962326169013977,0.2763119637966156,0.08717810362577438,-0.009134741500020027,0.16575774550437927
1.7287590503692627,-0.051296480000019073,-0.32017359137535095,0.27671703696250916,0.08740241080522537,-0.008710982277989388,0.1663362830877304
1.748967170715332,-0.05161666125059128,-0.32124361395835876,0.27756786346435547,0.08784071356058121,-0.007900782860815525,0.16748617589473724
1.7689106464385986,-0.05194782465696335,-0.3222668468952179,0.2784687578678131,0.08827508985996246,-0.007147338707000017,0.16861595213413239
1.7890000343322754,-0.052111636847257614,-0.32276520133018494,0.2789284586906433,0.08849646896123886,-0.006783309858292341,0.16917084157466888
1.8091068267822266,-0.05244649946689606,-0.3237372636795044,0.2798718512058258,0.08894442766904831,-0.006050679367035627,0.17025990784168243
1.8291311264038086,-0.052769243717193604,-0.3246907591819763,0.2808070182800293,0.08940444886684418,-0.005289656110107899,0.17133060097694397
1.8492140769958496,-0.05292000621557236,-0.3251647353172302,0.28125929832458496,0.08963748812675476,-0.004889003932476044,0.17186306416988373
1.869281530380249,-0.053218092769384384,-0.32610630989074707,0.28214484453201294,0.09010288119316101,-0.004069534130394459,0.17292511463165283
1.8893458843231201,-0.053566236048936844,-0.32702478766441345,0.28306517004966736,0.0905432254076004,-0.0032330697868019342,0.1739797592163086
1.909740924835205,-0.05395657569169998,-0.3279397189617157,0.2839982211589813,0.09098939597606659,-0.0023693712428212166,0.17501933872699738
1.9298827648162842,-0.05414605513215065,-0.3283945620059967,0.2844592332839966,0.09122489392757416,-0.001912471023388207,0.17553341388702393
1.9500362873077393,-0.05449294671416283,-0.32931944727897644,0.28533655405044556,0.0917511060833931,-0.0009265335975214839,0.1765536665916443
1.9700665473937988,-0.054653484374284744,-0.32979142665863037,0.2857518792152405,0.0920376107096672,-0.0003996450686827302,0.17706140875816345
1.9901292324066162,-0.05497192591428757,-0.33074209094047546,0.28655731678009033,0.0926210880279541,0.0006492799147963524,0.17807045578956604
2.010206937789917,-0.05530030280351639,-0.3317086696624756,0.2873140573501587,0.09318626672029495,0.0016527315601706505,0.1790802925825119
2.0302481651306152,-0.0556304007768631,-0.33269551396369934,0.288012832403183,0.09372596442699432,0.0025833023246377707,0.18009676039218903
2.0505270957946777,-0.055788833647966385,-0.33319246768951416,0.28834444284439087,0.09399112313985825,0.0030205489601939917,0.18060614168643951
2.070688009262085,-0.05608440563082695,-0.3341512084007263,0.2890205979347229,0.09449965506792068,0.003822829807177186,0.18162015080451965
2.090714931488037,-0.05635175108909607,-0.33507248759269714,0.2896984815597534,0.09498647600412369,0.004559309221804142,0.18262825906276703
2.1107656955718994,-0.056473542004823685,-0.3355260193347931,0.2900296151638031,0.09523184597492218,0.004915028810501099,0.18312855064868927
2.130852222442627,-0.05671193078160286,-0.33640867471694946,0.29070720076560974,0.09572795033454895,0.0056440080516040325,0.18412038683891296
2.15092134475708,-0.05696755275130272,-0.3372816741466522,0.29139280319213867,0.0962323546409607,0.0063982377760112286,0.18510788679122925
2.170978307723999,-0.05726912245154381,-0.3381652235984802,0.29208406805992126,0.09674672782421112,0.007190991193056107,0.18609659373760223
2.1910576820373535,-0.05743785202503204,-0.3386087715625763,0.29243654012680054,0.0970056802034378,0.007602060213685036,0.18658973276615143
2.21113657951355,-0.057782676070928574,-0.3394593298435211,0.29318767786026,0.09751372039318085,0.008446631953120232,0.1875656247138977
2.2311885356903076,-0.058149732649326324,-0.34024396538734436,0.2940145432949066,0.0979694128036499,0.009284647181630135,0.18853595852851868
2.251387596130371,-0.058527134358882904,-0.3409886658191681,0.2948577105998993,0.09838618338108063,0.010077537037432194,0.18950140476226807
2.271474838256836,-0.05872653052210808,-0.3413509428501129,0.29528725147247314,0.09858938306570053,0.010465667583048344,0.1899799406528473
2.2915685176849365,-0.05910477042198181,-0.3420657515525818,0.296134889125824,0.09903683513402939,0.011224714107811451,0.19091732800006866
2.3116204738616943,-0.059444352984428406,-0.3427521884441376,0.2969804108142853,0.09952883422374725,0.01196801383048296,0.19183684885501862
2.3317432403564453,-0.05960217863321304,-0.34308767318725586,0.2973931133747101,0.09978153556585312,0.01232920866459608,0.1922941654920578
2.351813793182373,-0.059901561588048935,-0.34380027651786804,0.2981313169002533,0.10031579434871674,0.013093323446810246,0.19320917129516602
2.371886730194092,-0.06018146499991417,-0.34457215666770935,0.2987639904022217,0.10088898241519928,0.013930026441812515,0.19411644339561462
2.392132043838501,-0.06031539663672447,-0.34497660398483276,0.2990504503250122,0.10118941962718964,0.014366358518600464,0.1945641040802002
2.41211199760437,-0.06057489663362503,-0.3457903265953064,0.2996034324169159,0.10178615897893906,0.015250981785356998,0.19544847309589386
2.4322216510772705,-0.060834504663944244,-0.34661683440208435,0.3001268208026886,0.10237239301204681,0.01613730564713478,0.19632375240325928
2.4522690773010254,-0.06096554920077324,-0.3470286726951599,0.3003849387168884,0.10265842825174332,0.01657632552087307,0.19676069915294647
2.472343921661377,-0.06123914569616318,-0.3478568196296692,0.3008951246738434,0.10323275625705719,0.0174284465610981,0.1976316124200821
2.492429256439209,-0.06154172495007515,-0.3486630916595459,0.30144283175468445,0.10380054265260696,0.01821904256939888,0.19849203526973724
2.512695789337158,-0.06171073019504547,-0.3490416407585144,0.3017559051513672,0.1040707528591156,0.018594970926642418,0.19891665875911713
2.5328314304351807,-0.062071822583675385,-0.34971877932548523,0.30248042941093445,0.1045609712600708,0.019293466582894325,0.19975896179676056
2.5529448986053467,-0.062462806701660156,-0.3503307104110718,0.3032846748828888,0.10501929372549057,0.019984085112810135,0.20060113072395325
2.573397397994995,-0.06284844130277634,-0.35093945264816284,0.30406370759010315,0.10549364238977432,0.020691491663455963,0.20144523680210114
2.593474864959717,-0.06303375214338303,-0.3512417674064636,0.30444037914276123,0.10573215037584305,0.021059947088360786,0.20186831057071686
2.613595962524414,-0.06335195899009705,-0.3518589437007904,0.30511555075645447,0.10622011870145798,0.021830081939697266,0.20271892845630646
2.6337015628814697,-0.06349319964647293,-0.35217973589897156,0.30541500449180603,0.1064741313457489,0.022240949794650078,0.20314626395702362
2.653763771057129,-0.06375157088041306,-0.35287678241729736,0.30591943860054016,0.10703566670417786,0.023122897371649742,0.2039993405342102
2.673865556716919,-0.06403432041406631,-0.3536060154438019,0.3063974678516388,0.10763148963451385,0.02402501180768013,0.20484088361263275
2.693899631500244,-0.06436340510845184,-0.35431796312332153,0.30692026019096375,0.1082053855061531,0.02489013411104679,0.20567686855793
2.714010238647461,-0.06454828381538391,-0.3546557128429413,0.30721163749694824,0.10847140103578568,0.025301126763224602,0.2060941606760025
2.7340760231018066,-0.06494446098804474,-0.35529711842536926,0.3078426122665405,0.10897848010063171,0.026090143248438835,0.2069239616394043
2.7541451454162598,-0.06535935401916504,-0.3558613657951355,0.30856776237487793,0.10945432633161545,0.026826323941349983,0.20773516595363617
2.7742137908935547,-0.06556712090969086,-0.35611584782600403,0.30895861983299255,0.10968458652496338,0.027175527065992355,0.20813432335853577
2.7942728996276855,-0.06596548855304718,-0.3565986752510071,0.3097412884235382,0.11014589667320251,0.02786298282444477,0.2089281976222992
2.8143441677093506,-0.06631527841091156,-0.3571213185787201,0.3104187250137329,0.11065337806940079,0.028614550828933716,0.20972350239753723
2.834442138671875,-0.06647519022226334,-0.357410728931427,0.3107065260410309,0.11092889308929443,0.02901671826839447,0.21012087166309357
2.8545291423797607,-0.06677617132663727,-0.35803505778312683,0.31120744347572327,0.11151082813739777,0.029833925887942314,0.2109065055847168
2.8745906352996826,-0.06706030666828156,-0.35868731141090393,0.31165653467178345,0.11210286617279053,0.03062688745558262,0.2116786241531372
2.894887685775757,-0.06731513142585754,-0.35932013392448425,0.3120998740196228,0.11266958713531494,0.031393613666296005,0.21244478225708008
2.914978265762329,-0.06743883341550827,-0.35962310433387756,0.3123287856578827,0.11293838918209076,0.03176698833703995,0.2128288447856903
2.9350898265838623,-0.0677044540643692,-0.36021313071250916,0.31280258297920227,0.11344867199659348,0.03249822184443474,0.2136005312204361
2.955177068710327,-0.06784655898809433,-0.36050891876220703,0.3130375146865845,0.11370071768760681,0.03285969793796539,0.21398591995239258
2.9752397537231445,-0.06813623011112213,-0.36109575629234314,0.3135068118572235,0.11421053856611252,0.03357626497745514,0.2147454023361206
2.9952852725982666,-0.06843333691358566,-0.3616354763507843,0.3140249252319336,0.11471389979124069,0.03424304723739624,0.2154838889837265
3.015368700027466,-0.06858844310045242,-0.36188793182373047,0.31430479884147644,0.11496608704328537,0.034556783735752106,0.21584837138652802
3.0354702472686768,-0.06893835961818695,-0.36236971616744995,0.31491324305534363,0.11547219753265381,0.0351988822221756,0.21657614409923553
3.0555615425109863,-0.06928958743810654,-0.3628506660461426,0.31550973653793335,0.11599558591842651,0.035897865891456604,0.21730633080005646
3.075645923614502,-0.06945722550153732,-0.3630867898464203,0.3158021569252014,0.1162586435675621,0.03627648949623108,0.2176690250635147
3.095708131790161,-0.06975958496332169,-0.36357009410858154,0.3163357973098755,0.11679231375455856,0.037065260112285614,0.21838605403900146
3.1157686710357666,-0.07006353884935379,-0.36408066749572754,0.3168218433856964,0.1173350140452385,0.03787737712264061,0.2190890610218048
3.135920524597168,-0.07022266834974289,-0.3643457889556885,0.3170512318611145,0.11760405451059341,0.03826909512281418,0.21943485736846924
3.1559383869171143,-0.07054918259382248,-0.36489585041999817,0.31748300790786743,0.11814463883638382,0.03902217373251915,0.22011497616767883
3.1759822368621826,-0.07086589187383652,-0.3654463589191437,0.3178977072238922,0.11868182569742203,0.039724379777908325,0.2207842618227005
3.196072816848755,-0.07102098315954208,-0.36571523547172546,0.3181081712245941,0.11895272880792618,0.040064841508865356,0.22111700475215912
3.2161388397216797,-0.0713256448507309,-0.36621999740600586,0.3185570240020752,0.1194847971200943,0.04074578732252121,0.22178196907043457
3.2363429069519043,-0.07162382453680038,-0.3666764497756958,0.3190481960773468,0.12000780552625656,0.04143734276294708,0.22244030237197876
3.256408929824829,-0.07177457958459854,-0.36689960956573486,0.3192960023880005,0.12027066200971603,0.04179126024246216,0.22276745736598969
3.2765285968780518,-0.07210657000541687,-0.3673330843448639,0.3198181092739105,0.12079575657844543,0.04250236228108406,0.22342246770858765
3.2965965270996094,-0.07247503101825714,-0.36774420738220215,0.32037875056266785,0.12131509184837341,0.043240539729595184,0.22408434748649597
3.316678285598755,-0.07286432385444641,-0.36812129616737366,0.3209719955921173,0.12180576473474503,0.043985817581415176,0.22474892437458038
3.336768388748169,-0.07305885851383209,-0.36831244826316833,0.321254700422287,0.12204668670892715,0.04436180740594864,0.22507964074611664
3.3568336963653564,-0.07344207167625427,-0.36872538924217224,0.3217632472515106,0.1225389614701271,0.04511897265911102,0.2257349193096161
3.3768794536590576,-0.07378741353750229,-0.36918124556541443,0.322186678647995,0.12306343019008636,0.04591987282037735,0.2263830304145813
3.396980047225952,-0.07394281029701233,-0.3694109320640564,0.3223803639411926,0.12332794070243835,0.04631686583161354,0.22670559585094452
3.417055606842041,-0.07423406839370728,-0.36987605690956116,0.32273709774017334,0.1238638162612915,0.047078367322683334,0.22734962403774261
3.437252998352051,-0.07451976090669632,-0.3703395426273346,0.3230751156806946,0.12439429759979248,0.04776798188686371,0.2279910445213318
3.4573397636413574,-0.07479265332221985,-0.3707904517650604,0.32340991497039795,0.1249220073223114,0.048419635742902756,0.22862330079078674
3.4774787425994873,-0.07491811364889145,-0.3710034489631653,0.32358184456825256,0.12518109381198883,0.0487465001642704,0.22893600165843964
3.497520685195923,-0.07515546679496765,-0.37142181396484375,0.32392311096191406,0.12570974230766296,0.04942996799945831,0.22955963015556335
3.517587423324585,-0.07539039105176926,-0.37184035778045654,0.3242548406124115,0.12625224888324738,0.05013706907629967,0.23018476366996765
3.537623643875122,-0.07552264630794525,-0.37205836176872253,0.3244171440601349,0.12652656435966492,0.050496041774749756,0.23049817979335785
3.5576915740966797,-0.07581059634685516,-0.3725022077560425,0.3247411251068115,0.12706737220287323,0.051202744245529175,0.23111958801746368
3.5777406692504883,-0.0761188194155693,-0.372968852519989,0.32504546642303467,0.12760673463344574,0.05190541595220566,0.23172974586486816
3.5978198051452637,-0.07626815140247345,-0.37320753931999207,0.3251868188381195,0.1278780698776245,0.05225563794374466,0.23202988505363464
3.617893695831299,-0.0765518918633461,-0.3736574947834015,0.32548636198043823,0.12840157747268677,0.052931372076272964,0.2326197773218155
3.6379613876342773,-0.0768483579158783,-0.3740313947200775,0.3258681297302246,0.12886348366737366,0.05355105921626091,0.23319949209690094
3.6581838130950928,-0.07717786729335785,-0.3743400573730469,0.32632604241371155,0.12927500903606415,0.05411934852600098,0.23377625644207
3.678271532058716,-0.07735814154148102,-0.37448590993881226,0.326569527387619,0.1294797658920288,0.05440513789653778,0.23406510055065155
3.69834566116333,-0.07772089540958405,-0.3747633099555969,0.3270687758922577,0.1299082338809967,0.054996930062770844,0.234638974070549
3.7189667224884033,-0.07807198911905289,-0.37501001358032227,0.32758766412734985,0.13034941256046295,0.05562443658709526,0.23520198464393616
3.7390527725219727,-0.07824423164129257,-0.37513014674186707,0.32784390449523926,0.13057513535022736,0.05595207214355469,0.23547913134098053
3.7590880393981934,-0.07858278602361679,-0.3753933906555176,0.32831278443336487,0.13103874027729034,0.05664996802806854,0.23602834343910217
3.7791733741760254,-0.07874761521816254,-0.37554502487182617,0.328514039516449,0.13127866387367249,0.05701177567243576,0.23630191385746002
3.799248456954956,-0.07907102257013321,-0.37587910890579224,0.32886457443237305,0.13176225125789642,0.05774209648370743,0.23684869706630707
3.819330930709839,-0.07937975227832794,-0.3762325048446655,0.3291640877723694,0.13223011791706085,0.05844596400856972,0.23740145564079285
3.839501142501831,-0.07966525852680206,-0.3765743374824524,0.3294473886489868,0.13268980383872986,0.059131424874067307,0.23795491456985474
3.8596296310424805,-0.07979077845811844,-0.37674185633659363,0.32957908511161804,0.13293106853961945,0.05946951359510422,0.23822765052318573
3.8797101974487305,-0.08002042025327682,-0.37708789110183716,0.32981735467910767,0.13345439732074738,0.0601298026740551,0.23875807225704193
3.8997480869293213,-0.08025612682104111,-0.37743350863456726,0.3300588130950928,0.133986234664917,0.06073789298534393,0.2392728328704834
3.919839382171631,-0.08038075268268585,-0.377605676651001,0.3301827311515808,0.13424551486968994,0.06104268506169319,0.23952876031398773
3.939908981323242,-0.08061878383159637,-0.3779332637786865,0.3304368555545807,0.13475041091442108,0.06164363771677017,0.24003742635250092
3.959953784942627,-0.08085574209690094,-0.3782496452331543,0.3306911885738373,0.13524578511714935,0.06224040687084198,0.24055115878582
3.9800407886505127,-0.08098240196704865,-0.3784049451351166,0.3308221697807312,0.13549020886421204,0.06252819299697876,0.24081018567085266
4.000167369842529,-0.08126278966665268,-0.37871766090393066,0.3310905396938324,0.13596931099891663,0.0631207674741745,0.24133408069610596
4.020225524902344,-0.08153296262025833,-0.3790406584739685,0.33133867383003235,0.1364675760269165,0.0637783408164978,0.24185119569301605
4.04028058052063,-0.08165513724088669,-0.3792038559913635,0.3314526081085205,0.13672488927841187,0.06413033604621887,0.24210377037525177
4.060424566268921,-0.08189438283443451,-0.3795327842235565,0.3316715359687805,0.13724225759506226,0.06484321504831314,0.24259695410728455
4.080498456954956,-0.08216999471187592,-0.3798723816871643,0.33189594745635986,0.13775107264518738,0.06553864479064941,0.24307678639888763
4.1007020473480225,-0.08248672634363174,-0.380208820104599,0.33214449882507324,0.13823743164539337,0.06618839502334595,0.24354501068592072
4.120788335800171,-0.08264949172735214,-0.3803713917732239,0.33227601647377014,0.13847245275974274,0.06649923324584961,0.2437746822834015
4.140852689743042,-0.08297023922204971,-0.38067886233329773,0.3325501084327698,0.13892365992069244,0.06708969175815582,0.24422620236873627
4.160909414291382,-0.083279088139534,-0.3809448778629303,0.332856148481369,0.13935883343219757,0.06762534379959106,0.24466310441493988
4.180997371673584,-0.08342865109443665,-0.3810536563396454,0.33302953839302063,0.13956743478775024,0.06787128001451492,0.24487745761871338
4.201087236404419,-0.0837092325091362,-0.38121548295021057,0.3334173262119293,0.13996975123882294,0.0683491975069046,0.24530450999736786
4.221193552017212,-0.08397386968135834,-0.3813606798648834,0.33378612995147705,0.14035938680171967,0.06885367631912231,0.24574542045593262
4.2414960861206055,-0.08410854637622833,-0.3814477026462555,0.3339468538761139,0.14056050777435303,0.06913255155086517,0.24597080051898956
4.261598110198975,-0.08438557386398315,-0.3816756308078766,0.3342023491859436,0.14099496603012085,0.0697515606880188,0.24642392992973328
4.281660556793213,-0.08469385653734207,-0.38193827867507935,0.33443883061408997,0.14146555960178375,0.070425845682621,0.24686434864997864
4.302227020263672,-0.08503061532974243,-0.3821928799152374,0.3347032070159912,0.14194482564926147,0.07109083235263824,0.247288316488266
4.322350263595581,-0.08521373569965363,-0.3823050856590271,0.3348591923713684,0.14217311143875122,0.07140731066465378,0.24749596416950226
4.342397451400757,-0.08558253198862076,-0.38252028822898865,0.335170716047287,0.14260783791542053,0.07202093303203583,0.24790984392166138
4.362547397613525,-0.08576324582099915,-0.3826245963573456,0.3353217542171478,0.14281415939331055,0.07232564687728882,0.24811716377735138
4.382627487182617,-0.08608590066432953,-0.38283905386924744,0.33557865023612976,0.14321352541446686,0.07293975353240967,0.24853985011577606
4.4026947021484375,-0.08633968234062195,-0.38303351402282715,0.33580267429351807,0.14362049102783203,0.07354070991277695,0.24896645545959473
4.4232587814331055,-0.08653972297906876,-0.38322094082832336,0.33599478006362915,0.14407533407211304,0.0741429552435875,0.24939097464084625
4.443344354629517,-0.08664145320653915,-0.3833232522010803,0.33608147501945496,0.1443214863538742,0.07444395124912262,0.24960094690322876
4.463459253311157,-0.08687683194875717,-0.3835528492927551,0.33624401688575745,0.1448259949684143,0.07505292445421219,0.25002092123031616
4.483486890792847,-0.08715098351240158,-0.3837975561618805,0.336407333612442,0.14531584084033966,0.0756438598036766,0.2504446804523468
4.503703832626343,-0.08729086816310883,-0.38391607999801636,0.3364919424057007,0.14555029571056366,0.07593247294425964,0.2506590485572815
4.523771047592163,-0.08755795657634735,-0.38414695858955383,0.33665671944618225,0.14601217210292816,0.07652883976697922,0.2510915696620941
4.54374885559082,-0.0878114253282547,-0.3843519985675812,0.33683475852012634,0.14645054936408997,0.07711261510848999,0.25152164697647095
4.56381893157959,-0.08794034272432327,-0.3844512104988098,0.3369254767894745,0.14666403830051422,0.07740059494972229,0.25173383951187134
4.584003925323486,-0.08821163326501846,-0.38464686274528503,0.33711081743240356,0.14708246290683746,0.07795082032680511,0.2521494925022125
4.604003667831421,-0.08849573880434036,-0.3848533034324646,0.3372858464717865,0.14750678837299347,0.07850173115730286,0.2525534927845001
4.624086856842041,-0.08877407759428024,-0.38506317138671875,0.3374491333961487,0.14793744683265686,0.07904243469238281,0.25294479727745056
4.644273519515991,-0.0889095887541771,-0.38517075777053833,0.33752480149269104,0.1481572687625885,0.07931835204362869,0.25313663482666016
4.664332628250122,-0.08917500823736191,-0.385359525680542,0.3377009630203247,0.14858663082122803,0.07987239956855774,0.2535116374492645
4.684436798095703,-0.08943919837474823,-0.38552767038345337,0.33789557218551636,0.14900866150856018,0.0804283544421196,0.25387805700302124
4.704833507537842,-0.08957643806934357,-0.3856085538864136,0.3379971981048584,0.14921419322490692,0.08070091903209686,0.25405916571617126
4.725102424621582,-0.0898623988032341,-0.3857842981815338,0.3381870687007904,0.14962223172187805,0.08125340938568115,0.2544223964214325
4.7450549602508545,-0.09013774245977402,-0.38595131039619446,0.3383728265762329,0.1500207930803299,0.0818374827504158,0.25478890538215637
4.765251159667969,-0.09040902554988861,-0.38606101274490356,0.33860716223716736,0.1503896862268448,0.08240677416324615,0.2551572918891907
4.785399913787842,-0.09054361283779144,-0.38610267639160156,0.33873021602630615,0.15056681632995605,0.08267422765493393,0.25534144043922424
4.805522441864014,-0.09083401411771774,-0.38618260622024536,0.3389821946620941,0.15092125535011292,0.08318666368722916,0.2557048201560974
4.825527667999268,-0.09112366288900375,-0.386299729347229,0.33918657898902893,0.15130645036697388,0.08369950205087662,0.2560587525367737
4.84563136100769,-0.09126563370227814,-0.3863683342933655,0.3392763137817383,0.15151090919971466,0.08396122604608536,0.25623100996017456
4.865784168243408,-0.09154251962900162,-0.3864857256412506,0.3394702970981598,0.1519172638654709,0.0844464972615242,0.25656434893608093
4.885826826095581,-0.09180863201618195,-0.3865816593170166,0.3396715521812439,0.15232300758361816,0.08489099889993668,0.25688689947128296
4.905942440032959,-0.0919368639588356,-0.38662877678871155,0.33976686000823975,0.15252842009067535,0.08511009812355042,0.25704604387283325
4.925961971282959,-0.0921856015920639,-0.3867377042770386,0.3399302661418915,0.15294641256332397,0.08556785434484482,0.25736525654792786
4.946055173873901,-0.09243413805961609,-0.38686588406562805,0.34006381034851074,0.15336406230926514,0.08606622368097305,0.25768935680389404
4.96621298789978,-0.09255339205265045,-0.38693371415138245,0.3401200473308563,0.15357305109500885,0.08632946759462357,0.2578543722629547
4.986286163330078,-0.09278794378042221,-0.3870703876018524,0.3402228057384491,0.15398868918418884,0.08687363564968109,0.258190780878067
5.006376266479492,-0.0930304303765297,-0.3872058093547821,0.34032732248306274,0.15440267324447632,0.08742507547140121,0.2585313320159912
5.026496410369873,-0.09316066652536392,-0.38727179169654846,0.3403855860233307,0.15460549294948578,0.08769217133522034,0.2587004005908966
5.0465803146362305,-0.09343376010656357,-0.38740798830986023,0.340503990650177,0.1550091654062271,0.08821503818035126,0.2590334713459015
5.066669702529907,-0.0936904028058052,-0.38753342628479004,0.34062328934669495,0.15540993213653564,0.08872217684984207,0.2593572735786438
5.086724281311035,-0.09380535781383514,-0.38758987188339233,0.34068143367767334,0.15561214089393616,0.08897428959608078,0.2595151364803314
5.106785774230957,-0.09402329474687576,-0.3876960873603821,0.340795636177063,0.15602049231529236,0.08946757763624191,0.25982195138931274
5.126892805099487,-0.0942467749118805,-0.3878096044063568,0.3409006595611572,0.15643256902694702,0.08996429294347763,0.26012206077575684
5.147139072418213,-0.09435676038265228,-0.38787055015563965,0.3409465253353119,0.15664267539978027,0.0902242660522461,0.2602699398994446
5.167288541793823,-0.09455694258213043,-0.38798758387565613,0.3410288095474243,0.1570645570755005,0.0907733142375946,0.26056230068206787
5.187328577041626,-0.09476037323474884,-0.3880993723869324,0.34111446142196655,0.15748107433319092,0.09132366627454758,0.2608475685119629
5.207425117492676,-0.09500762075185776,-0.3882156014442444,0.3412124216556549,0.1578756421804428,0.09184486418962479,0.26113030314445496
5.2274863719940186,-0.09514620900154114,-0.38827794790267944,0.34126198291778564,0.15806518495082855,0.09210170060396194,0.2612726390361786
5.247639894485474,-0.09542570263147354,-0.3883860409259796,0.34136781096458435,0.15840962529182434,0.09258536994457245,0.26156145334243774
5.267668724060059,-0.09570153057575226,-0.3884747624397278,0.3414755165576935,0.15872399508953094,0.09303971379995346,0.2618584632873535
5.287733554840088,-0.0959658995270729,-0.3885548412799835,0.3415778875350952,0.15904530882835388,0.09347638487815857,0.26215505599975586
5.307837247848511,-0.09609551727771759,-0.388599693775177,0.34162262082099915,0.15921971201896667,0.09370030462741852,0.262300580739975
5.327946186065674,-0.0963476374745369,-0.38869717717170715,0.34170079231262207,0.15958505868911743,0.09416234493255615,0.26258400082588196
5.347974061965942,-0.0965806245803833,-0.3887946307659149,0.3417658507823944,0.15995123982429504,0.09464371204376221,0.2628577947616577
5.368062973022461,-0.09668739885091782,-0.3888393044471741,0.3417956829071045,0.1601315140724182,0.0948837473988533,0.2629905641078949
5.388133525848389,-0.09689577668905258,-0.3889251947402954,0.341852605342865,0.16048674285411835,0.09535875171422958,0.2632485628128052
5.408247947692871,-0.097114197909832,-0.389017254114151,0.34190380573272705,0.1608416736125946,0.09583491832017899,0.2635006606578827
5.428291082382202,-0.09722202271223068,-0.38906586170196533,0.3419249653816223,0.161021426320076,0.0960826724767685,0.2636246681213379
5.448366165161133,-0.09741814434528351,-0.38915398716926575,0.3419647514820099,0.1613856703042984,0.09657619148492813,0.26386600732803345
5.4684765338897705,-0.09758426249027252,-0.3892253041267395,0.3420037031173706,0.1617560237646103,0.09706177562475204,0.264096200466156
5.488856792449951,-0.09767139703035355,-0.38926029205322266,0.34202516078948975,0.16194204986095428,0.09729765355587006,0.26420846581459045
5.508935213088989,-0.09786680340766907,-0.38933688402175903,0.342070996761322,0.16231150925159454,0.09776033461093903,0.2644285261631012
5.529093027114868,-0.09809430688619614,-0.38942304253578186,0.34212160110473633,0.1626703441143036,0.09820324927568436,0.26464545726776123
5.549090147018433,-0.09832891076803207,-0.3895018994808197,0.3421802222728729,0.16301143169403076,0.09861616045236588,0.2648583948612213
5.569180727005005,-0.09844408929347992,-0.38953664898872375,0.34221193194389343,0.16317789256572723,0.09881269931793213,0.2649631202220917
5.589310884475708,-0.09866724908351898,-0.38959646224975586,0.3422798812389374,0.16350913047790527,0.09918651729822159,0.26516884565353394
5.60935378074646,-0.09888092428445816,-0.3896588385105133,0.34233585000038147,0.16385295987129211,0.09957172721624374,0.26537832617759705
5.629417896270752,-0.09897767007350922,-0.3896982669830322,0.34234800934791565,0.1640406847000122,0.0997876450419426,0.2654872238636017
5.649483680725098,-0.0991712287068367,-0.3897762596607208,0.3423726558685303,0.1644301563501358,0.1002366915345192,0.2657124996185303
5.669530868530273,-0.09938440471887589,-0.389833927154541,0.3424290418624878,0.1648094803094864,0.10067570954561234,0.26594460010528564
5.689625024795532,-0.09950695186853409,-0.3898579478263855,0.34247034788131714,0.16498595476150513,0.10088445991277695,0.2660622298717499
5.709712982177734,-0.09976521879434586,-0.38991788029670715,0.3425452709197998,0.1653265506029129,0.10131897777318954,0.266300231218338
5.729776382446289,-0.10001631826162338,-0.3899851441383362,0.342609167098999,0.1656622290611267,0.10179083794355392,0.2665349841117859
5.7498297691345215,-0.10026732832193375,-0.3900093138217926,0.34272217750549316,0.16597391664981842,0.10227189213037491,0.26675891876220703
5.770020484924316,-0.1003970131278038,-0.39000463485717773,0.3427959084510803,0.1661159247159958,0.10250149667263031,0.26686757802963257
5.7901129722595215,-0.10066335648298264,-0.3899863362312317,0.3429393172264099,0.16637343168258667,0.10292743891477585,0.26708275079727173
5.8101396560668945,-0.10092295706272125,-0.3899911046028137,0.3430348336696625,0.16662991046905518,0.10332580655813217,0.2672949731349945
5.830215215682983,-0.10115457326173782,-0.3900200426578522,0.34308338165283203,0.16691535711288452,0.10374972969293594,0.2674993872642517
5.8503217697143555,-0.1012551560997963,-0.39003512263298035,0.3430986702442169,0.1670689880847931,0.10397052019834518,0.267596572637558
5.87047553062439,-0.10144450515508652,-0.39005881547927856,0.3431263864040375,0.16737838089466095,0.10440301895141602,0.2677820324897766
5.89046835899353,-0.10164392739534378,-0.3900764584541321,0.3431583344936371,0.16767610609531403,0.10480944067239761,0.2679600119590759
5.9106597900390625,-0.10175250470638275,-0.39008668065071106,0.34317561984062195,0.16782306134700775,0.1050041913986206,0.2680473029613495
5.930732488632202,-0.10196399688720703,-0.39010778069496155,0.34320390224456787,0.16811875998973846,0.10540302842855453,0.2682187557220459
5.951305150985718,-0.10215329378843307,-0.39012405276298523,0.34322500228881836,0.16842688620090485,0.10581425577402115,0.2683855891227722
5.97137188911438,-0.1022447720170021,-0.39012980461120605,0.34323590993881226,0.16858236491680145,0.10601843893527985,0.26846885681152344
5.991531133651733,-0.10243683308362961,-0.3901376724243164,0.34326356649398804,0.1688915193080902,0.10641095042228699,0.2686402499675751
6.0115156173706055,-0.10264497995376587,-0.39014703035354614,0.3432953655719757,0.16920551657676697,0.10678595304489136,0.2688184380531311
6.031607627868652,-0.1027483344078064,-0.390149861574173,0.3433113992214203,0.16936452686786652,0.10696841031312943,0.26890838146209717
6.0517590045928955,-0.10294042527675629,-0.39015644788742065,0.3433336913585663,0.169695183634758,0.1073530912399292,0.26908746361732483
6.071794509887695,-0.103113554418087,-0.39015859365463257,0.34334811568260193,0.17003130912780762,0.10775617510080338,0.2692625820636749
6.091902256011963,-0.10320152342319489,-0.39016130566596985,0.3433537185192108,0.1702008843421936,0.10796192288398743,0.26934918761253357
6.1119468212127686,-0.10339301824569702,-0.39017242193222046,0.34336599707603455,0.17053629457950592,0.10837187618017197,0.26951971650123596
6.132062911987305,-0.10360844433307648,-0.3901914656162262,0.3433796465396881,0.1708589345216751,0.10877642780542374,0.2696881592273712
6.152163505554199,-0.10371813178062439,-0.3902023434638977,0.343384325504303,0.17101430892944336,0.10898394137620926,0.26977217197418213
6.172321796417236,-0.10391172021627426,-0.39021939039230347,0.3433828353881836,0.1713235080242157,0.10942263156175613,0.26993632316589355
6.192357778549194,-0.10405998677015305,-0.39021459221839905,0.34337881207466125,0.1716356724500656,0.10985848307609558,0.2700907588005066
6.212419271469116,-0.1042078286409378,-0.3901960551738739,0.343384712934494,0.17194074392318726,0.11026176810264587,0.2702379524707794
6.232493162155151,-0.10429651290178299,-0.3901872932910919,0.34339308738708496,0.17208930850028992,0.11044694483280182,0.2703101336956024
6.252657651901245,-0.10450680553913116,-0.3901847302913666,0.3434084951877594,0.1723829209804535,0.11081819236278534,0.27045413851737976
6.272673606872559,-0.10472458600997925,-0.390179842710495,0.34342414140701294,0.1726667881011963,0.11117647588253021,0.2705948054790497
6.292808771133423,-0.10483432561159134,-0.39017412066459656,0.3434320390224457,0.17280183732509613,0.11135062575340271,0.270664781332016
6.312891721725464,-0.10504615306854248,-0.39014357328414917,0.34345492720603943,0.17305639386177063,0.11166626214981079,0.270802766084671
6.332935333251953,-0.10525298118591309,-0.390106737613678,0.3434753119945526,0.17331936955451965,0.11197196692228317,0.27093687653541565
6.353108644485474,-0.10535440593957901,-0.39008694887161255,0.3434843122959137,0.1734565794467926,0.11212246119976044,0.2710019052028656
6.373284578323364,-0.1055619865655899,-0.3900586664676666,0.34349262714385986,0.1737472414970398,0.11244476586580276,0.27112919092178345
6.393425226211548,-0.1057768166065216,-0.3900430202484131,0.34349051117897034,0.17404916882514954,0.11279185116291046,0.2712540626525879
6.413662910461426,-0.10599086433649063,-0.3900355398654938,0.3434801399707794,0.17436054348945618,0.11315727233886719,0.27137669920921326
6.4337732791900635,-0.10609734803438187,-0.3900318741798401,0.3434734046459198,0.17451287806034088,0.11334376782178879,0.2714383900165558
6.453836679458618,-0.10630283504724503,-0.3900239169597626,0.343450665473938,0.17480388283729553,0.11373092979192734,0.2715655267238617
6.4738688468933105,-0.10649097710847855,-0.3900132179260254,0.3434106111526489,0.1750785857439041,0.1141434833407402,0.27170076966285706
6.493977785110474,-0.10658083111047745,-0.39001208543777466,0.34338080883026123,0.17522060871124268,0.11435527354478836,0.2717716097831726
6.514116525650024,-0.10676068067550659,-0.39001229405403137,0.343318372964859,0.1755170375108719,0.11476556956768036,0.2719166576862335
6.534141302108765,-0.10694536566734314,-0.39002060890197754,0.34325262904167175,0.17582905292510986,0.11516911536455154,0.27206286787986755
6.55427360534668,-0.1070372685790062,-0.39002493023872375,0.34322091937065125,0.17598651349544525,0.11536974459886551,0.27213552594184875
6.5742998123168945,-0.10722401738166809,-0.39003634452819824,0.34315910935401917,0.17630159854888916,0.1157751977443695,0.2722804546356201
6.594367504119873,-0.10742226243019104,-0.3900444507598877,0.3431110978126526,0.17660987377166748,0.11615634709596634,0.27242276072502136
6.614612102508545,-0.10752444714307785,-0.3900434970855713,0.34309473633766174,0.17675712704658508,0.11633457988500595,0.2724921405315399
6.634690046310425,-0.107724629342556,-0.3900301158428192,0.3430715799331665,0.1770433783531189,0.11666648834943771,0.2726254165172577
6.654769420623779,-0.10791238397359848,-0.3899950087070465,0.34306150674819946,0.17731784284114838,0.11695563048124313,0.27275148034095764
6.674824237823486,-0.10809087008237839,-0.3899463713169098,0.3430572748184204,0.17758837342262268,0.11721854656934738,0.2728711664676666
6.694952011108398,-0.10817885398864746,-0.38992029428482056,0.34305524826049805,0.17772276699543,0.11734669655561447,0.27292925119400024
6.715021133422852,-0.10835675150156021,-0.38986560702323914,0.34305402636528015,0.17798636853694916,0.11761629581451416,0.273044228553772
6.735085487365723,-0.10852253437042236,-0.38979852199554443,0.34305572509765625,0.17824243009090424,0.1179121807217598,0.2731592357158661
6.7554638385772705,-0.10867989808320999,-0.389737993478775,0.343040406703949,0.17851069569587708,0.11824064701795578,0.27327391505241394
6.775577783584595,-0.10875903815031052,-0.3897167444229126,0.34302130341529846,0.17865332961082458,0.11841271072626114,0.2733302116394043
6.795720338821411,-0.10893265157938004,-0.38969922065734863,0.34296324849128723,0.17895269393920898,0.11877201497554779,0.2734415531158447
6.815717697143555,-0.10910792648792267,-0.3896862268447876,0.34289902448654175,0.17924493551254272,0.11914774030447006,0.2735508680343628
6.835917949676514,-0.10919739305973053,-0.3896786868572235,0.3428669273853302,0.17938311398029327,0.11934057623147964,0.2736058235168457
6.855917453765869,-0.10938546806573868,-0.38965174555778503,0.34281280636787415,0.17962823808193207,0.11971006542444229,0.2737168073654175
6.876058101654053,-0.10959314554929733,-0.389623761177063,0.342764675617218,0.1798580139875412,0.12005745619535446,0.2738257050514221
6.896146774291992,-0.10969798266887665,-0.3896091878414154,0.34274202585220337,0.17997489869594574,0.12022419273853302,0.27387771010398865
6.916200399398804,-0.1099032312631607,-0.38958191871643066,0.34269484877586365,0.1802191287279129,0.12055373191833496,0.27397653460502625
6.936302423477173,-0.11009669303894043,-0.3895476758480072,0.34264862537384033,0.18046273291110992,0.12087356299161911,0.2740723490715027
6.956449747085571,-0.11019040644168854,-0.38952767848968506,0.3426258862018585,0.18058057129383087,0.12103500217199326,0.27412059903144836
6.976529359817505,-0.11036582291126251,-0.38946986198425293,0.3425908088684082,0.18079876899719238,0.12136948108673096,0.2742213010787964
6.996534585952759,-0.11053574830293655,-0.38939398527145386,0.34256836771965027,0.1809971183538437,0.12173252552747726,0.27433067560195923
7.01660943031311,-0.11062423884868622,-0.3893492519855499,0.34256476163864136,0.18108895421028137,0.12191805243492126,0.2743886411190033
7.036705493927002,-0.11080243438482285,-0.38925907015800476,0.3425528407096863,0.18127688765525818,0.12230205535888672,0.27450740337371826
7.056786775588989,-0.11096042394638062,-0.3891817629337311,0.34250766038894653,0.18149305880069733,0.12272489070892334,0.27462416887283325
7.076843738555908,-0.11108357459306717,-0.38911786675453186,0.3424237370491028,0.181745246052742,0.12317321449518204,0.2747323513031006
7.096978187561035,-0.11114683002233505,-0.3890886902809143,0.3423785865306854,0.18187475204467773,0.12338290363550186,0.27478301525115967
7.1170477867126465,-0.11129164695739746,-0.3890230655670166,0.3423008322715759,0.18211252987384796,0.12374331057071686,0.27488091588020325
7.137127637863159,-0.11146225780248642,-0.3889520466327667,0.3422369360923767,0.182322695851326,0.12404950708150864,0.27497532963752747
7.157189846038818,-0.11154783517122269,-0.38891375064849854,0.34220775961875916,0.18242448568344116,0.12419184297323227,0.27501988410949707
7.177373886108398,-0.11171739548444748,-0.38883814215660095,0.34215083718299866,0.18263502418994904,0.12447433918714523,0.27510324120521545
7.197390556335449,-0.111878402531147,-0.3887597620487213,0.34209778904914856,0.18285953998565674,0.12474305927753448,0.2751779854297638
7.217446565628052,-0.11202843487262726,-0.3886730670928955,0.3420492708683014,0.1830948293209076,0.12498901784420013,0.2752453684806824
7.237537384033203,-0.11209917068481445,-0.38862332701683044,0.3420288562774658,0.18321341276168823,0.12509915232658386,0.2752762734889984
7.257630348205566,-0.11223869025707245,-0.38852691650390625,0.34198158979415894,0.1834593266248703,0.12532000243663788,0.27533653378486633
7.277684926986694,-0.11238916963338852,-0.3884401321411133,0.3419278860092163,0.18371006846427917,0.12556572258472443,0.2753986120223999
7.297768831253052,-0.11247013509273529,-0.3884035050868988,0.34189707040786743,0.18383778631687164,0.12570379674434662,0.2754307985305786
7.317792654037476,-0.11264041811227798,-0.38833439350128174,0.34183669090270996,0.18409191071987152,0.12599928677082062,0.275495707988739
7.337846755981445,-0.11280008405447006,-0.38826560974121094,0.34177109599113464,0.18434567749500275,0.12631317973136902,0.27555903792381287
7.357933282852173,-0.11287053674459457,-0.3882284164428711,0.3417363166809082,0.1844734102487564,0.1264733523130417,0.27558931708335876
7.378000020980835,-0.1130058616399765,-0.3881554901599884,0.3416624069213867,0.18473000824451447,0.1268029659986496,0.27564817667007446
7.398062705993652,-0.11315417289733887,-0.3880883455276489,0.34159037470817566,0.1849808245897293,0.1271306276321411,0.2757052481174469
7.418185472488403,-0.11323583871126175,-0.38805946707725525,0.34155401587486267,0.1851038634777069,0.12729696929454803,0.27573370933532715
7.438248872756958,-0.11338834464550018,-0.3880002498626709,0.341478168964386,0.18534532189369202,0.12763838469982147,0.2757887840270996
7.45836067199707,-0.11352664977312088,-0.3879391551017761,0.3413982391357422,0.185587540268898,0.12798313796520233,0.27584099769592285
7.478400230407715,-0.11359456926584244,-0.38790643215179443,0.3413596749305725,0.18570588529109955,0.12814679741859436,0.2758658528327942
7.498559951782227,-0.11374393850564957,-0.38784003257751465,0.3412899672985077,0.18593469262123108,0.12844562530517578,0.27591392397880554
7.51856803894043,-0.1139044314622879,-0.3877756595611572,0.3412211835384369,0.1861496865749359,0.1287236511707306,0.2759619653224945
7.538655757904053,-0.11398474127054214,-0.38774603605270386,0.34118375182151794,0.18625551462173462,0.1288614422082901,0.27598607540130615
7.558749675750732,-0.11413460969924927,-0.3877016007900238,0.3410870432853699,0.18647049367427826,0.12913590669631958,0.27603450417518616
7.578908681869507,-0.11427579075098038,-0.38766366243362427,0.34097936749458313,0.18668290972709656,0.12939994037151337,0.27608242630958557
7.598928689956665,-0.1143442764878273,-0.38764140009880066,0.34092727303504944,0.1867833286523819,0.129525825381279,0.2761058807373047
7.61905574798584,-0.11447670310735703,-0.3875821828842163,0.34083160758018494,0.18696707487106323,0.12977926433086395,0.27615320682525635
7.639079809188843,-0.11459297686815262,-0.3875260353088379,0.34072014689445496,0.18715278804302216,0.13006721436977386,0.27619826793670654
7.659172534942627,-0.11464980989694595,-0.3875010311603546,0.34066087007522583,0.1872488558292389,0.13021767139434814,0.27621883153915405
7.679333209991455,-0.11477522552013397,-0.3874525725841522,0.3405493497848511,0.18744032084941864,0.13051137328147888,0.2762549817562103
7.699328660964966,-0.11492230743169785,-0.3873905837535858,0.34046366810798645,0.18761081993579865,0.13076633214950562,0.27628663182258606
7.719546556472778,-0.11507450044155121,-0.3873254954814911,0.3403812348842621,0.18777219951152802,0.13101547956466675,0.27631711959838867
7.73963189125061,-0.11514394730329514,-0.38729235529899597,0.34033799171447754,0.18785719573497772,0.131143257021904,0.2763304114341736
7.759702682495117,-0.11527293920516968,-0.3872288763523102,0.34024718403816223,0.18804121017456055,0.13140708208084106,0.27635279297828674
7.779749870300293,-0.11539899557828903,-0.3871663212776184,0.3401585817337036,0.18823425471782684,0.13166479766368866,0.276370108127594
7.799899339675903,-0.11546814441680908,-0.3871384263038635,0.3401142954826355,0.18833118677139282,0.13178987801074982,0.2763787806034088
7.819978713989258,-0.11561508476734161,-0.38708269596099854,0.3400287628173828,0.18851642310619354,0.13203082978725433,0.2763965427875519
7.840128660202026,-0.11576279252767563,-0.3870256841182709,0.33994242548942566,0.1886926293373108,0.13226300477981567,0.2764146029949188
7.8604912757873535,-0.11590679734945297,-0.38695770502090454,0.3398648798465729,0.18886110186576843,0.1324748545885086,0.27642980217933655
7.880606412887573,-0.11597554385662079,-0.3869193196296692,0.33982905745506287,0.18894527852535248,0.13257135450839996,0.2764359712600708
7.900789976119995,-0.11610923707485199,-0.38683268427848816,0.33976638317108154,0.1891144961118698,0.13274843990802765,0.2764448821544647
7.920766830444336,-0.11623933911323547,-0.386734277009964,0.3397117853164673,0.18927976489067078,0.13290628790855408,0.27645233273506165
7.9409918785095215,-0.1163056269288063,-0.3866856098175049,0.33968275785446167,0.18936188519001007,0.13298718631267548,0.2764567732810974
7.960958957672119,-0.11644349247217178,-0.38659167289733887,0.3396194577217102,0.18952561914920807,0.1331593245267868,0.27646926045417786
7.981403589248657,-0.11658807843923569,-0.38650429248809814,0.3395489454269409,0.18969279527664185,0.1333485245704651,0.2764851152896881
8.001492977142334,-0.11666079610586166,-0.3864610195159912,0.3395135998725891,0.189779594540596,0.13344477117061615,0.2764929234981537
8.021610736846924,-0.11680357158184052,-0.386382520198822,0.33943015336990356,0.1899554282426834,0.13364320993423462,0.27650952339172363
8.041632175445557,-0.11693613976240158,-0.38632386922836304,0.33931607007980347,0.1901344507932663,0.13385109603405,0.2765279710292816
8.061699390411377,-0.11700090765953064,-0.38630014657974243,0.33925098180770874,0.19022372364997864,0.13395895063877106,0.2765379846096039
8.081812381744385,-0.11713147908449173,-0.38624313473701477,0.33912986516952515,0.19038955867290497,0.1341613233089447,0.2765567898750305
8.101866245269775,-0.11726547032594681,-0.38616010546684265,0.3390379250049591,0.19054380059242249,0.13433925807476044,0.2765718996524811
8.121928930282593,-0.1173323541879654,-0.3861125707626343,0.33899813890457153,0.1906188279390335,0.13442817330360413,0.27657899260520935
8.14198350906372,-0.11745251715183258,-0.38601237535476685,0.3389187753200531,0.1907781958580017,0.1346208155155182,0.2765931785106659
8.162073135375977,-0.11756690591573715,-0.38592100143432617,0.338826060295105,0.19094577431678772,0.1348349004983902,0.2766110599040985
8.182407140731812,-0.11762429773807526,-0.3858805298805237,0.33877286314964294,0.19103199243545532,0.13494375348091125,0.27662184834480286
8.202582120895386,-0.11775282770395279,-0.38580837845802307,0.33866193890571594,0.19120563566684723,0.13515633344650269,0.27664661407470703
8.222651481628418,-0.11789608001708984,-0.3857372999191284,0.33855587244033813,0.19137457013130188,0.13537007570266724,0.2766749858856201
8.24266505241394,-0.11804251372814178,-0.3856540620326996,0.33846378326416016,0.1915353238582611,0.1355712115764618,0.2767057716846466
8.262788772583008,-0.11811505258083344,-0.38561055064201355,0.33841902017593384,0.19161511957645416,0.1356697827577591,0.2767230272293091
8.282938718795776,-0.11825631558895111,-0.38552212715148926,0.3383292257785797,0.19178079068660736,0.1358642280101776,0.2767622172832489
8.302980184555054,-0.11839613318443298,-0.38543322682380676,0.338237464427948,0.19194690883159637,0.13605940341949463,0.2768080234527588
8.323092222213745,-0.11846540123224258,-0.38538822531700134,0.3381894528865814,0.19202697277069092,0.13615597784519196,0.2768331468105316
8.343178033828735,-0.11859720200300217,-0.3852944076061249,0.3380889594554901,0.19217967987060547,0.13634750247001648,0.2768838107585907
8.363249063491821,-0.1187097504734993,-0.3852044641971588,0.33797040581703186,0.19233837723731995,0.1365593671798706,0.2769320607185364
8.383293867111206,-0.11878982931375504,-0.38511914014816284,0.33783137798309326,0.19251680374145508,0.13679802417755127,0.27697357535362244
8.403400659561157,-0.11882726103067398,-0.38508379459381104,0.33775463700294495,0.1926155686378479,0.13692575693130493,0.27699241042137146
8.423489332199097,-0.11891297250986099,-0.3850187659263611,0.3376040756702423,0.19281665980815887,0.13717004656791687,0.2770270109176636
8.44365644454956,-0.11902947723865509,-0.38495326042175293,0.33747339248657227,0.19300609827041626,0.1373852789402008,0.2770600914955139
8.463682174682617,-0.11909133940935135,-0.38491207361221313,0.33741870522499084,0.193092942237854,0.1374765783548355,0.27707549929618835
8.483828067779541,-0.11922121047973633,-0.38481253385543823,0.33733102679252625,0.19325046241283417,0.13764595985412598,0.27710479497909546
8.503918409347534,-0.119356669485569,-0.3846917152404785,0.33726856112480164,0.19339042901992798,0.1378062218427658,0.2771327495574951
8.524158477783203,-0.11942695826292038,-0.38463038206100464,0.33723926544189453,0.1934601366519928,0.13789181411266327,0.27714666724205017
8.544236183166504,-0.11956203728914261,-0.3845132291316986,0.33716943860054016,0.193611279129982,0.1380816549062729,0.27717453241348267
8.564298391342163,-0.11967723071575165,-0.38441044092178345,0.3370707035064697,0.1937868893146515,0.13830672204494476,0.2772007882595062
8.584602355957031,-0.11973181366920471,-0.38436025381088257,0.33701738715171814,0.1938750445842743,0.13842420279979706,0.277213990688324
8.604742288589478,-0.1198480948805809,-0.3842640221118927,0.3369072675704956,0.19404421746730804,0.1386585682630539,0.27724096179008484
8.624772071838379,-0.11998258531093597,-0.38417938351631165,0.3367946147918701,0.1942104995250702,0.13888666033744812,0.2772679626941681
8.64484715461731,-0.12012211233377457,-0.38409170508384705,0.3366907238960266,0.19436953961849213,0.1391025334596634,0.2772926688194275
8.665054559707642,-0.12018854171037674,-0.38404569029808044,0.33664044737815857,0.19444896280765533,0.1392032653093338,0.2773037552833557
8.685102462768555,-0.12030767649412155,-0.3839470148086548,0.3365385830402374,0.1946047693490982,0.13937683403491974,0.27732276916503906
8.705169200897217,-0.1203596368432045,-0.383899450302124,0.3364807367324829,0.1946863830089569,0.13945768773555756,0.2773313522338867
8.725249528884888,-0.12045840919017792,-0.3837997019290924,0.33636242151260376,0.19484294950962067,0.13960398733615875,0.2773483097553253
8.745288133621216,-0.12056843191385269,-0.38369274139404297,0.3362525999546051,0.19498714804649353,0.13975222408771515,0.2773663401603699
8.765363454818726,-0.12063019722700119,-0.3836393356323242,0.3362005352973938,0.19505858421325684,0.13983137905597687,0.2773752808570862
8.785450458526611,-0.12075868248939514,-0.38354092836380005,0.3360927104949951,0.19521145522594452,0.14000816643238068,0.27739113569259644
8.805520296096802,-0.12087580561637878,-0.38345375657081604,0.3359719216823578,0.19538165628910065,0.14022722840309143,0.27740493416786194
8.82559847831726,-0.12092592567205429,-0.3834116458892822,0.3359074294567108,0.19547215104103088,0.14035046100616455,0.277410626411438
8.845628023147583,-0.12102362513542175,-0.3833308815956116,0.33577507734298706,0.19565539062023163,0.14060552418231964,0.2774214446544647
8.865697860717773,-0.12113057076931,-0.38325339555740356,0.33564338088035583,0.19582892954349518,0.14083720743656158,0.2774321138858795
8.885868310928345,-0.1212504506111145,-0.38318192958831787,0.33551153540611267,0.19599074125289917,0.14104188978672028,0.27744337916374207
8.905948162078857,-0.12130844593048096,-0.38314831256866455,0.3354431390762329,0.196070596575737,0.1411406248807907,0.27744853496551514
8.9259934425354,-0.1214229092001915,-0.38307052850723267,0.33532002568244934,0.1962164342403412,0.14132671058177948,0.277457594871521
8.946074485778809,-0.12147809565067291,-0.3830239176750183,0.33526611328125,0.19628359377384186,0.14140896499156952,0.27746039628982544
8.96614384651184,-0.12159159034490585,-0.3829226791858673,0.3351669907569885,0.1964121013879776,0.14156682789325714,0.27746444940567017
8.98621416091919,-0.12170623242855072,-0.3828278183937073,0.3350609540939331,0.19655649363994598,0.1417412906885147,0.2774660885334015
9.006697416305542,-0.12176117300987244,-0.38278552889823914,0.33500105142593384,0.19663353264331818,0.14184516668319702,0.27746760845184326
9.026779651641846,-0.12186285853385925,-0.38270121812820435,0.33487775921821594,0.1967909187078476,0.14206244051456451,0.2774693965911865
9.046898126602173,-0.12191273272037506,-0.3826582133769989,0.3348172605037689,0.1968691349029541,0.1421685814857483,0.27746930718421936
9.067003965377808,-0.12201747298240662,-0.3825698792934418,0.33470281958580017,0.19702062010765076,0.14236363768577576,0.27746742963790894
9.087050437927246,-0.12213405221700668,-0.3824843466281891,0.33459362387657166,0.1971662938594818,0.14254455268383026,0.27746501564979553
9.107134819030762,-0.12219221144914627,-0.38243886828422546,0.3345418870449066,0.19723518192768097,0.14262819290161133,0.27746349573135376
9.127199649810791,-0.12230329215526581,-0.3823353946208954,0.33444744348526,0.19736367464065552,0.14277240633964539,0.27745893597602844
9.1472647190094,-0.12241159379482269,-0.38221803307533264,0.33436650037765503,0.19748474657535553,0.14290057122707367,0.27745217084884644
9.167336463928223,-0.122467041015625,-0.3821594715118408,0.3343261480331421,0.19754526019096375,0.1429676115512848,0.2774486243724823
9.187471151351929,-0.12258057296276093,-0.3820522725582123,0.33423757553100586,0.19767659902572632,0.14312395453453064,0.27744072675704956
9.207526445388794,-0.1226876825094223,-0.38195687532424927,0.3341323733329773,0.19781823456287384,0.14330489933490753,0.27743253111839294
9.227721929550171,-0.12277331203222275,-0.3818714916706085,0.33400315046310425,0.19796833395957947,0.1435125768184662,0.2774261236190796
9.247808694839478,-0.12280706316232681,-0.3818298280239105,0.3339308202266693,0.19804246723651886,0.14361543953418732,0.27742326259613037
9.267872095108032,-0.12287172675132751,-0.38174697756767273,0.33378204703330994,0.19818627834320068,0.14380814135074615,0.27741748094558716
9.287951469421387,-0.12290866672992706,-0.38170042634010315,0.33371466398239136,0.19825027883052826,0.14388833940029144,0.2774137258529663
9.308034181594849,-0.1230025589466095,-0.3816012144088745,0.33359771966934204,0.19836832582950592,0.14403367042541504,0.27740511298179626
9.32803225517273,-0.12310626357793808,-0.3814908266067505,0.33350133895874023,0.19848516583442688,0.14416387677192688,0.2773921489715576
9.348119497299194,-0.12315790355205536,-0.38143426179885864,0.33345556259155273,0.19854731857776642,0.14422710239887238,0.2773841917514801
9.368277311325073,-0.1232600212097168,-0.3813183605670929,0.33336684107780457,0.19867654144763947,0.14435003697872162,0.2773665189743042
9.388264656066895,-0.12337090075016022,-0.3812020719051361,0.3332791328430176,0.1987978219985962,0.14448603987693787,0.2773516774177551
9.408353805541992,-0.12343147397041321,-0.3811434209346771,0.3332366347312927,0.1988520324230194,0.144561767578125,0.2773461937904358
9.428439140319824,-0.12355462461709976,-0.38102832436561584,0.3331468999385834,0.19895528256893158,0.14473383128643036,0.27733680605888367
9.448513984680176,-0.12361164391040802,-0.3809721767902374,0.3330978453159332,0.19900988042354584,0.14482846856117249,0.27733129262924194
9.468594312667847,-0.1237061396241188,-0.38086724281311035,0.3329821527004242,0.19913643598556519,0.14503805339336395,0.27731725573539734
9.488694667816162,-0.12378770112991333,-0.38077086210250854,0.33285197615623474,0.19927558302879333,0.14524519443511963,0.2773001790046692
9.508805274963379,-0.12382648885250092,-0.3807283937931061,0.3327791690826416,0.199346125125885,0.14534138143062592,0.2772917151451111
9.528848648071289,-0.12391013652086258,-0.3806491196155548,0.33263099193573,0.19948145747184753,0.14550742506980896,0.2772744596004486
9.548891305923462,-0.12399639189243317,-0.38056257367134094,0.33249419927597046,0.1996077299118042,0.14564523100852966,0.27725523710250854
9.569150447845459,-0.12404457479715347,-0.38051238656044006,0.3324373662471771,0.19966456294059753,0.1457110345363617,0.2772454023361206
9.589168310165405,-0.12414631992578506,-0.3803933262825012,0.33234959840774536,0.1997649371623993,0.14583255350589752,0.27722442150115967
9.609189748764038,-0.12425252050161362,-0.38027116656303406,0.332269549369812,0.19986434280872345,0.14596347510814667,0.27720239758491516
9.629327297210693,-0.12430538982152939,-0.3802116811275482,0.3322276771068573,0.19991634786128998,0.1460316777229309,0.277191162109375
9.64936113357544,-0.12440837174654007,-0.3801029920578003,0.33212894201278687,0.20002864301204681,0.14617416262626648,0.2771696448326111
9.669493198394775,-0.12450157105922699,-0.3800021708011627,0.33201470971107483,0.2001461535692215,0.14631350338459015,0.27714982628822327
9.689623355865479,-0.1245422214269638,-0.37995389103889465,0.331951767206192,0.20020760595798492,0.14638401567935944,0.2771400809288025
9.709795236587524,-0.12460242956876755,-0.3798629343509674,0.3318101465702057,0.2003411203622818,0.14654487371444702,0.2771199941635132
9.729871988296509,-0.12465812265872955,-0.37977173924446106,0.3316696584224701,0.20047809183597565,0.14671221375465393,0.2770983874797821
9.750031471252441,-0.12468845397233963,-0.3797237277030945,0.3316050171852112,0.2005460262298584,0.14679042994976044,0.2770863473415375
9.770071029663086,-0.12476491183042526,-0.3796234428882599,0.3314899206161499,0.20067507028579712,0.14692066609859467,0.2770611345767975
9.790127515792847,-0.12484810501337051,-0.37951284646987915,0.3313875198364258,0.20079289376735687,0.1470281481742859,0.27703556418418884
9.810278415679932,-0.12489134073257446,-0.3794556260108948,0.33133769035339355,0.20084773004055023,0.14708003401756287,0.27702364325523376
9.830623626708984,-0.12498283386230469,-0.3793351948261261,0.33124634623527527,0.20094986259937286,0.14718376100063324,0.2770007848739624
9.850489854812622,-0.12508192658424377,-0.3792070746421814,0.33116865158081055,0.2010386437177658,0.14729267358779907,0.27697962522506714
9.870566844940186,-0.12513341009616852,-0.37914183735847473,0.33113232254981995,0.20107989013195038,0.14734980463981628,0.27696937322616577
9.890870094299316,-0.12523551285266876,-0.37901562452316284,0.33105528354644775,0.2011689841747284,0.1474705934524536,0.2769477069377899
9.910760641098022,-0.12533636391162872,-0.37890511751174927,0.33095890283584595,0.20127224922180176,0.14760753512382507,0.2769261300563812
9.930920839309692,-0.12538288533687592,-0.3788544237613678,0.3309039771556854,0.20133019983768463,0.14767654240131378,0.2769145965576172
9.950934648513794,-0.1254655122756958,-0.37876757979393005,0.3307698667049408,0.2014501988887787,0.14781714975833893,0.2768939137458801
9.971022605895996,-0.12553536891937256,-0.37869200110435486,0.3306173086166382,0.20157653093338013,0.14795438945293427,0.2768727242946625
9.991387844085693,-0.12556856870651245,-0.3786545693874359,0.3305399417877197,0.20163802802562714,0.14802514016628265,0.2768624424934387
10.011602401733398,-0.12563152611255646,-0.3785668909549713,0.3303995430469513,0.20175279676914215,0.1481778472661972,0.2768404483795166
10.031625032424927,-0.12568998336791992,-0.37846896052360535,0.33027103543281555,0.2018653154373169,0.14835192263126373,0.2768174409866333
10.051764726638794,-0.12575757503509521,-0.3783673048019409,0.3301543891429901,0.20197266340255737,0.14852334558963776,0.2767939269542694
10.071877002716064,-0.12580101191997528,-0.3783160448074341,0.3301028311252594,0.20202204585075378,0.14860178530216217,0.2767820954322815
10.091933965682983,-0.1258949488401413,-0.3782113790512085,0.33000388741493225,0.20210926234722137,0.1487410068511963,0.2767593264579773
10.112012147903442,-0.12598676979541779,-0.37811022996902466,0.3298995792865753,0.2021993100643158,0.14887337386608124,0.2767351269721985
10.132145166397095,-0.12602804601192474,-0.3780645728111267,0.3298387825489044,0.2022494673728943,0.1489378958940506,0.2767227590084076
10.152281999588013,-0.1261044442653656,-0.3779790997505188,0.32970762252807617,0.20235656201839447,0.14906366169452667,0.2766976058483124
10.172284841537476,-0.1261758953332901,-0.3778897821903229,0.32957592606544495,0.20245715975761414,0.14917412400245667,0.2766730785369873
10.192414283752441,-0.12621283531188965,-0.37783899903297424,0.3295164108276367,0.2025006264448166,0.1492217481136322,0.2766610085964203
10.212467908859253,-0.1262882947921753,-0.3777287006378174,0.3294084370136261,0.20258209109306335,0.14930659532546997,0.2766348719596863
10.23253059387207,-0.12636755406856537,-0.37761446833610535,0.32930973172187805,0.20266054570674896,0.14939334988594055,0.2766070067882538
10.252607583999634,-0.12640966475009918,-0.3775544762611389,0.32926711440086365,0.2026960551738739,0.149440199136734,0.27659258246421814
10.272720098495483,-0.12649576365947723,-0.3774343729019165,0.3291851580142975,0.2027629017829895,0.14954695105552673,0.27656421065330505
10.292813301086426,-0.1265672892332077,-0.37732112407684326,0.32908937335014343,0.2028445154428482,0.1496885120868683,0.2765355706214905
10.312885999679565,-0.12662549316883087,-0.3772193193435669,0.32897263765335083,0.2029472142457962,0.1498463749885559,0.27650633454322815
10.333014488220215,-0.12665554881095886,-0.3771696984767914,0.3289129137992859,0.20299939811229706,0.14992493391036987,0.27649223804473877
10.353078842163086,-0.12672585248947144,-0.3770723044872284,0.3287961781024933,0.20309656858444214,0.15006135404109955,0.2764648199081421
10.373172760009766,-0.12679602205753326,-0.37698042392730713,0.32867231965065,0.20318953692913055,0.15017986297607422,0.27643826603889465
10.393222093582153,-0.12682606279850006,-0.3769398331642151,0.32860222458839417,0.2032395750284195,0.15023744106292725,0.2764250338077545
10.41330099105835,-0.12688031792640686,-0.37685975432395935,0.32845935225486755,0.20333930850028992,0.15034189820289612,0.2763959467411041
10.433350801467896,-0.1269329935312271,-0.3767693340778351,0.3283303380012512,0.20343482494354248,0.15042676031589508,0.27636274695396423
10.453429222106934,-0.12698949873447418,-0.37665730714797974,0.32822859287261963,0.20351889729499817,0.15048588812351227,0.2763260006904602
10.473632574081421,-0.12702086567878723,-0.37659692764282227,0.32818424701690674,0.20355677604675293,0.15051408112049103,0.2763080298900604
10.493637084960938,-0.12709076702594757,-0.3764724135398865,0.32810330390930176,0.20362402498722076,0.15057723224163055,0.276273250579834
10.513867855072021,-0.12717102468013763,-0.3763465881347656,0.32802796363830566,0.20368245244026184,0.15065735578536987,0.2762404680252075
10.534073829650879,-0.127212256193161,-0.37628644704818726,0.3279874324798584,0.20371496677398682,0.1507038027048111,0.27622416615486145
10.554207801818848,-0.12729524075984955,-0.37617364525794983,0.327897310256958,0.20378726720809937,0.15080679953098297,0.2761921286582947
10.574300527572632,-0.1273358315229416,-0.37612268328666687,0.32784518599510193,0.20382779836654663,0.15086299180984497,0.2761768698692322
10.594411849975586,-0.12741495668888092,-0.37602269649505615,0.327737957239151,0.20391038060188293,0.15097422897815704,0.2761475443840027
10.614502191543579,-0.12749114632606506,-0.37592923641204834,0.3276233375072479,0.2039983868598938,0.1510891169309616,0.27611878514289856
10.634570837020874,-0.12752744555473328,-0.3758855164051056,0.32756367325782776,0.20404736697673798,0.15114811062812805,0.276103675365448
10.654697179794312,-0.1275995969772339,-0.37580132484436035,0.3274427056312561,0.20414641499519348,0.15126749873161316,0.276073157787323
10.67473030090332,-0.12766534090042114,-0.3757152855396271,0.3273230493068695,0.2042437195777893,0.15139225125312805,0.2760428786277771
10.694871187210083,-0.12769228219985962,-0.3756687641143799,0.32726407051086426,0.20429019629955292,0.15145909786224365,0.276027649641037
10.714995384216309,-0.12774309515953064,-0.37557393312454224,0.32714876532554626,0.20438343286514282,0.15159861743450165,0.27599629759788513
10.735079050064087,-0.1278027892112732,-0.3754744529724121,0.32704463601112366,0.20446734130382538,0.15173178911209106,0.2759646773338318
10.755263566970825,-0.12784148752689362,-0.37542060017585754,0.3270019590854645,0.20449960231781006,0.15178899466991425,0.2759492099285126
10.775451898574829,-0.1279231458902359,-0.3753085732460022,0.32692286372184753,0.20455701649188995,0.15189491212368011,0.27591726183891296
10.795471429824829,-0.12800054252147675,-0.3751966953277588,0.3268415033817291,0.2046210765838623,0.1519937515258789,0.27588218450546265
10.81553602218628,-0.12807101011276245,-0.3750861883163452,0.32675230503082275,0.20469127595424652,0.15208184719085693,0.27584508061408997
10.8356192111969,-0.12810392677783966,-0.3750285506248474,0.32670828700065613,0.20472483336925507,0.15211866796016693,0.2758258283138275
10.855690002441406,-0.12816967070102692,-0.37490954995155334,0.3266219198703766,0.20478485524654388,0.1521850973367691,0.2757881283760071
10.875766038894653,-0.12823687493801117,-0.374798446893692,0.32652977108955383,0.20485487580299377,0.15226300060749054,0.27575063705444336
10.89590859413147,-0.12827259302139282,-0.37474751472473145,0.3264809846878052,0.2048933207988739,0.15231093764305115,0.2757326662540436
10.915961265563965,-0.12834443151950836,-0.37465202808380127,0.32638007402420044,0.20497746765613556,0.15241725742816925,0.27569594979286194
10.93600058555603,-0.12840628623962402,-0.37456560134887695,0.32626473903656006,0.20506474375724792,0.15252149105072021,0.275659441947937
10.956095457077026,-0.1284290850162506,-0.37452802062034607,0.3261956572532654,0.20511068403720856,0.1525721400976181,0.2756419777870178
10.976227521896362,-0.12846297025680542,-0.3744554817676544,0.32604676485061646,0.20520147681236267,0.15267997980117798,0.27560776472091675
10.996274948120117,-0.1284923106431961,-0.37436529994010925,0.3259090483188629,0.20527081191539764,0.15278694033622742,0.2755735516548157
11.016328573226929,-0.12851589918136597,-0.37431058287620544,0.32585442066192627,0.2052925080060959,0.15283983945846558,0.2755556106567383
11.036403894424438,-0.12858080863952637,-0.374199241399765,0.3257574439048767,0.2053285837173462,0.15295003354549408,0.2755175828933716
11.056459665298462,-0.12862242758274078,-0.37415000796318054,0.32570940256118774,0.20535191893577576,0.15301397442817688,0.2754970192909241
11.076678991317749,-0.1287057101726532,-0.37406039237976074,0.32560795545578003,0.2054138481616974,0.15314717590808868,0.27545085549354553
11.096718072891235,-0.12877671420574188,-0.37397000193595886,0.3255009651184082,0.20548246800899506,0.15325585007667542,0.2753991186618805
11.116804599761963,-0.12883035838603973,-0.3738725483417511,0.32538902759552,0.20554734766483307,0.15332680940628052,0.2753447890281677
11.136901140213013,-0.12885352969169617,-0.37382665276527405,0.325327605009079,0.2055816501379013,0.15335969626903534,0.27531811594963074
11.157004594802856,-0.12890015542507172,-0.37373700737953186,0.3252057433128357,0.20565210282802582,0.15342772006988525,0.2752646803855896
11.17710280418396,-0.12895581126213074,-0.3736412227153778,0.32510295510292053,0.20571628212928772,0.15350112318992615,0.27520856261253357
11.197172164916992,-0.1289868801832199,-0.3735834062099457,0.3250660002231598,0.20573803782463074,0.15353265404701233,0.2751796543598175
11.217239141464233,-0.12905065715312958,-0.37346482276916504,0.3249959647655487,0.20577985048294067,0.15359796583652496,0.27512019872665405
11.23731803894043,-0.1291150152683258,-0.37335267663002014,0.3249149024486542,0.20582567155361176,0.15367229282855988,0.27506154775619507
11.257408142089844,-0.12914496660232544,-0.37330326437950134,0.3248647451400757,0.20585626363754272,0.15371179580688477,0.2750312089920044
11.277440786361694,-0.1292029470205307,-0.37320834398269653,0.32475897669792175,0.20591957867145538,0.15378819406032562,0.27496859431266785
11.297523021697998,-0.1292574107646942,-0.37310895323753357,0.3246566653251648,0.20597881078720093,0.15384989976882935,0.27490198612213135
11.317570447921753,-0.12928496301174164,-0.3730570673942566,0.32460886240005493,0.2060074359178543,0.15387777984142303,0.2748676836490631
11.337635278701782,-0.12934236228466034,-0.37295296788215637,0.3245159089565277,0.20606662333011627,0.15393634140491486,0.27479979395866394
11.357763290405273,-0.12940049171447754,-0.3728509843349457,0.32442232966423035,0.20613037049770355,0.153999924659729,0.2747354805469513
11.378165483474731,-0.12945501506328583,-0.37275806069374084,0.32431668043136597,0.20619748532772064,0.15407481789588928,0.2746749520301819
11.398263216018677,-0.12947654724121094,-0.372718870639801,0.32425254583358765,0.20623452961444855,0.15412014722824097,0.274646133184433
11.418327569961548,-0.12949958443641663,-0.3726577162742615,0.32409659028053284,0.20632416009902954,0.15424661338329315,0.27458953857421875
11.438363790512085,-0.12951938807964325,-0.3726024329662323,0.32393601536750793,0.20641814172267914,0.15438687801361084,0.2745336890220642
11.458432674407959,-0.1295357346534729,-0.37256941199302673,0.3238660991191864,0.20645825564861298,0.15445226430892944,0.27450594305992126
11.478503942489624,-0.1295923888683319,-0.3724885582923889,0.32375961542129517,0.20652084052562714,0.15455757081508636,0.2744491696357727
11.498584508895874,-0.12965670228004456,-0.37239691615104675,0.3236721158027649,0.2065759152173996,0.15464523434638977,0.2743906080722809
11.5186767578125,-0.12968690693378448,-0.37234899401664734,0.32363080978393555,0.2066052407026291,0.15468399226665497,0.27436017990112305
11.538743495941162,-0.12974129617214203,-0.3722519874572754,0.32354459166526794,0.2066667675971985,0.15474949777126312,0.2742989957332611
11.558831691741943,-0.12979331612586975,-0.37215250730514526,0.32345759868621826,0.20672662556171417,0.1548054963350296,0.2742396891117096
11.578910827636719,-0.1298203021287918,-0.37210264801979065,0.3234134316444397,0.20675432682037354,0.15483377873897552,0.2742115259170532
11.598983764648438,-0.12987996637821198,-0.3720089793205261,0.3233211934566498,0.20681031048297882,0.15490515530109406,0.27415791153907776
11.619028091430664,-0.12994429469108582,-0.3719228208065033,0.32322439551353455,0.2068699598312378,0.15499302744865417,0.27410680055618286
11.639139413833618,-0.12997660040855408,-0.3718804717063904,0.32317668199539185,0.20690107345581055,0.15503869950771332,0.27408137917518616
11.65921688079834,-0.13003580272197723,-0.3717937767505646,0.3230799436569214,0.20695988833904266,0.15512000024318695,0.2740319073200226
11.67933964729309,-0.13008257746696472,-0.3717106282711029,0.322969526052475,0.207015261054039,0.1551879197359085,0.27398496866226196
11.699493646621704,-0.13010141253471375,-0.37167060375213623,0.3229093551635742,0.20704270899295807,0.15521647036075592,0.27396222949028015
11.719707727432251,-0.13014179468154907,-0.37158527970314026,0.32279735803604126,0.20709003508090973,0.15527129173278809,0.2739177346229553
11.739659309387207,-0.1301969736814499,-0.37148383259773254,0.32271429896354675,0.20712082087993622,0.15533111989498138,0.2738737463951111
11.759718418121338,-0.13022945821285248,-0.3714311420917511,0.32267841696739197,0.20713499188423157,0.1553669422864914,0.27385130524635315
11.779789209365845,-0.13029469549655914,-0.3713300824165344,0.32260382175445557,0.20717288553714752,0.155445858836174,0.2738035321235657
11.799827814102173,-0.1303545981645584,-0.371238648891449,0.3225169777870178,0.20722544193267822,0.15552547574043274,0.27375155687332153
11.819915771484375,-0.13038215041160583,-0.3711912930011749,0.3224739730358124,0.2072504460811615,0.1555585265159607,0.2737247049808502
11.840105295181274,-0.13042840361595154,-0.3710901439189911,0.32238835096359253,0.20729397237300873,0.1556147187948227,0.27367037534713745
11.860087394714355,-0.13045449554920197,-0.3709914982318878,0.32228851318359375,0.20734447240829468,0.15569470822811127,0.27361664175987244
11.880317449569702,-0.13046497106552124,-0.37094464898109436,0.3222353160381317,0.20737376809120178,0.15574410557746887,0.2735903263092041
11.90032434463501,-0.13049282133579254,-0.3708530068397522,0.3221336007118225,0.20743194222450256,0.1558503955602646,0.27353957295417786
11.920371532440186,-0.13053582608699799,-0.3707581162452698,0.32204413414001465,0.2074771672487259,0.1559312492609024,0.27349042892456055
11.940657377243042,-0.13055768609046936,-0.37071493268013,0.3219945728778839,0.20749957859516144,0.1559687703847885,0.2734664976596832
11.960774660110474,-0.13059468567371368,-0.3706347942352295,0.32188278436660767,0.2075478583574295,0.1560341864824295,0.27341946959495544
11.980743169784546,-0.13062894344329834,-0.3705502152442932,0.3217739760875702,0.20759353041648865,0.15608172118663788,0.2733722925186157
12.000919818878174,-0.13064706325531006,-0.3705024719238281,0.32172703742980957,0.20761430263519287,0.15609826147556305,0.27334722876548767
12.020965576171875,-0.1318405121564865,-0.3733395040035248,0.33521148562431335,0.20375315845012665,0.1529296636581421,0.2591329514980316
12.04107117652893,-0.1330670714378357,-0.3761178255081177,0.3483995795249939,0.2000184804201126,0.14987175166606903,0.24532011151313782
12.061117887496948,-0.13369502127170563,-0.37748798727989197,0.35487815737724304,0.19820861518383026,0.1483863890171051,0.2385556995868683
12.08136510848999,-0.13498760759830475,-0.38017621636390686,0.36760345101356506,0.19474367797374725,0.1454814225435257,0.2252669781446457
12.10128664970398,-0.13630563020706177,-0.3827968239784241,0.3800185024738312,0.19152693450450897,0.14267058670520782,0.21225909888744354
12.121472835540771,-0.13696318864822388,-0.3840806484222412,0.3861145079135895,0.19001108407974243,0.14130465686321259,0.2058514803647995
12.141525506973267,-0.13825276494026184,-0.38660913705825806,0.39808857440948486,0.18715150654315948,0.13867338001728058,0.19323396682739258
12.161648511886597,-0.1395321637392044,-0.3891192078590393,0.40978455543518066,0.1845129132270813,0.13620787858963013,0.1808730512857437
12.18198561668396,-0.1408398300409317,-0.39163538813591003,0.42121750116348267,0.1820729374885559,0.13389630615711212,0.16876071691513062
12.202122926712036,-0.14151759445667267,-0.392901211977005,0.42684072256088257,0.18090997636318207,0.1327945590019226,0.16279317438602448
12.222206592559814,-0.142905592918396,-0.3954487442970276,0.4378955662250519,0.17869660258293152,0.13068997859954834,0.15102630853652954
12.242245197296143,-0.1442965865135193,-0.3980037569999695,0.4486803412437439,0.17664620280265808,0.1287158578634262,0.13944891095161438
12.262424945831299,-0.14497265219688416,-0.39928245544433594,0.45396655797958374,0.1756981611251831,0.12778523564338684,0.13372354209423065
12.282476425170898,-0.1463058888912201,-0.40182986855506897,0.46435314416885376,0.17389869689941406,0.1260058581829071,0.12240158766508102
12.304005146026611,-0.14764989912509918,-0.4043353497982025,0.4745396375656128,0.17219211161136627,0.12427794933319092,0.11123761534690857
12.32412075996399,-0.14834727346897125,-0.4055595397949219,0.4795725643634796,0.17135563492774963,0.12340101599693298,0.10570941120386124
12.344234943389893,-0.1497841328382492,-0.4079701006412506,0.4895209074020386,0.16971109807491302,0.12167321890592575,0.09476703405380249
12.364538669586182,-0.1512875258922577,-0.41037631034851074,0.4993014931678772,0.16810306906700134,0.1200433075428009,0.08399344235658646
12.384633779525757,-0.1520659178495407,-0.411587119102478,0.5041348934173584,0.1673063188791275,0.11927441507577896,0.07867790013551712
12.40471363067627,-0.15370851755142212,-0.41401413083076477,0.5136957764625549,0.16573163866996765,0.11776954680681229,0.06816842406988144
12.424785375595093,-0.15544939041137695,-0.4164065420627594,0.5231272578239441,0.16418318450450897,0.11623801290988922,0.057799845933914185
12.444897651672363,-0.15634290874004364,-0.41758960485458374,0.5277897119522095,0.1634325236082077,0.11548082530498505,0.05265781283378601
12.465067386627197,-0.1581391543149948,-0.4199254512786865,0.5370067358016968,0.16194592416286469,0.1140197366476059,0.04248502478003502
12.485106706619263,-0.1599133163690567,-0.4222031235694885,0.5460904836654663,0.16049818694591522,0.11265306174755096,0.03245397284626961
12.505261182785034,-0.16077986359596252,-0.4233083724975586,0.5505747199058533,0.15980269014835358,0.11199094355106354,0.027491839602589607
12.525302171707153,-0.16245998442173004,-0.4254869222640991,0.559399425983429,0.158532977104187,0.11075908690690994,0.01767250895500183
12.545325517654419,-0.16408897936344147,-0.42764294147491455,0.5680186152458191,0.15738283097743988,0.10963338613510132,0.008015941828489304
12.565377950668335,-0.1648908108472824,-0.42871585488319397,0.5722559094429016,0.15682841837406158,0.10910821706056595,0.003254805225878954
12.585477828979492,-0.16645416617393494,-0.4307977557182312,0.5806004405021667,0.15575388073921204,0.10804368555545807,-0.006159034091979265
12.605547428131104,-0.16794684529304504,-0.4328036308288574,0.5887745022773743,0.15476958453655243,0.10700228810310364,-0.01544957235455513
12.625638484954834,-0.169364795088768,-0.4347648024559021,0.5967826843261719,0.15390624105930328,0.10603708773851395,-0.024616073817014694
12.64570951461792,-0.17006196081638336,-0.4357375502586365,0.6007341742515564,0.15350884199142456,0.10559190064668655,-0.029147349298000336
12.665807723999023,-0.17148281633853912,-0.4376676678657532,0.608540415763855,0.15274035930633545,0.10473793745040894,-0.038096167147159576
12.685924530029297,-0.17296427488327026,-0.4395807087421417,0.6162241697311401,0.15198706090450287,0.10392496734857559,-0.04689590632915497
12.705989360809326,-0.1744815558195114,-0.44149693846702576,0.6237610578536987,0.151277095079422,0.10319297760725021,-0.055540770292282104
12.726205348968506,-0.1752581149339676,-0.44246211647987366,0.6274760961532593,0.1509140133857727,0.10286048799753189,-0.059792645275592804
12.746233940124512,-0.17678572237491608,-0.4443911910057068,0.6347940564155579,0.15019764006137848,0.10229838639497757,-0.06816942989826202
12.766296625137329,-0.17825159430503845,-0.44631338119506836,0.6419557929039001,0.14949654042720795,0.10189364850521088,-0.07638408243656158
12.786425113677979,-0.17895273864269257,-0.44726917147636414,0.645479142665863,0.14917410910129547,0.10175317525863647,-0.08044130355119705
12.806447744369507,-0.18032976984977722,-0.44916263222694397,0.6524101495742798,0.1485534906387329,0.1015157699584961,-0.08844221383333206
12.826515436172485,-0.18171259760856628,-0.4510287642478943,0.6592041850090027,0.14791515469551086,0.10128406435251236,-0.09628990292549133
12.846581220626831,-0.18241474032402039,-0.4519459307193756,0.6625499725341797,0.1475764662027359,0.10114512592554092,-0.10015548020601273
12.866799116134644,-0.1838335543870926,-0.453748494386673,0.6691468954086304,0.14686289429664612,0.10082997381687164,-0.10777555406093597
12.886834144592285,-0.18525175750255585,-0.4554944336414337,0.6756237745285034,0.1461237221956253,0.10047189891338348,-0.11525601893663406
12.906960010528564,-0.18667833507061005,-0.45719707012176514,0.6819912195205688,0.14538046717643738,0.10010090470314026,-0.12261335551738739
12.927068948745728,-0.18740257620811462,-0.45803534984588623,0.6851336359977722,0.14501196146011353,0.0999084934592247,-0.12624868750572205
12.94719123840332,-0.18889868259429932,-0.45969048142433167,0.6913495063781738,0.14429214596748352,0.09948685020208359,-0.1334506869316101
12.967206239700317,-0.19045940041542053,-0.4613231420516968,0.6974732279777527,0.14360612630844116,0.0990326851606369,-0.14055748283863068
12.987325668334961,-0.19126588106155396,-0.4621296226978302,0.7005062103271484,0.1432652771472931,0.09879674762487411,-0.14407262206077576
13.007388830184937,-0.1928878277540207,-0.4637129604816437,0.7065081000328064,0.1425904482603073,0.09834355115890503,-0.15101702511310577
13.027460098266602,-0.1944972723722458,-0.4652595818042755,0.7124197483062744,0.1418994963169098,0.09796272963285446,-0.15782399475574493
13.047534704208374,-0.19527894258499146,-0.4660196304321289,0.7153324484825134,0.14156043529510498,0.09781970828771591,-0.16117383539676666
13.067602157592773,-0.19679845869541168,-0.4675277769565582,0.7210566997528076,0.14092864096164703,0.09763726592063904,-0.16776734590530396
13.087651252746582,-0.1982291042804718,-0.4690124988555908,0.7266287803649902,0.140406996011734,0.09758391976356506,-0.17423875629901886
13.107785940170288,-0.19891519844532013,-0.4697466790676117,0.729357123374939,0.1401873677968979,0.0975886806845665,-0.1774347424507141
13.127870082855225,-0.20023015141487122,-0.47119417786598206,0.7347046732902527,0.1398056149482727,0.09765288978815079,-0.1837540864944458
13.147936820983887,-0.20150399208068848,-0.47259941697120667,0.7399285435676575,0.13944800198078156,0.09771241992712021,-0.18997353315353394
13.16800570487976,-0.20275738835334778,-0.47394856810569763,0.745043933391571,0.13908864557743073,0.09771621227264404,-0.19607499241828918
13.188089847564697,-0.20338313281536102,-0.47460469603538513,0.7475622296333313,0.1389009952545166,0.09769634902477264,-0.1990746557712555
13.208150148391724,-0.20463424921035767,-0.47587671875953674,0.7525213956832886,0.13850322365760803,0.09761042892932892,-0.2049621194601059
13.228234052658081,-0.20588725805282593,-0.4771190881729126,0.7573731541633606,0.13808853924274445,0.09751836210489273,-0.2107059359550476
13.248377561569214,-0.20651128888130188,-0.47773247957229614,0.7597594857215881,0.13788367807865143,0.09748528152704239,-0.21353012323379517
13.268385171890259,-0.2077396959066391,-0.4789317548274994,0.764461874961853,0.13751819729804993,0.0974322110414505,-0.21911253035068512
13.288442373275757,-0.2089540958404541,-0.4800954759120941,0.7690713405609131,0.13718602061271667,0.09739165753126144,-0.22459730505943298
13.308563470840454,-0.2095630168914795,-0.4806680679321289,0.7713383436203003,0.13701991736888885,0.09737038612365723,-0.22729645669460297
13.32864785194397,-0.21080005168914795,-0.48183003067970276,0.7757850885391235,0.13667577505111694,0.09736581891775131,-0.2325931191444397
13.348715543746948,-0.21208153665065765,-0.4830138087272644,0.78013014793396,0.13629186153411865,0.09739120304584503,-0.23776282370090485
13.368865728378296,-0.2134140282869339,-0.4841923415660858,0.7844086289405823,0.13587450981140137,0.09740602970123291,-0.24283936619758606
13.388952493667603,-0.21409472823143005,-0.48476463556289673,0.7865303158760071,0.13565325736999512,0.09739475697278976,-0.24534818530082703
13.409024477005005,-0.215447798371315,-0.48586413264274597,0.790729284286499,0.13521918654441833,0.09735596179962158,-0.25029999017715454
13.42913293838501,-0.21678030490875244,-0.486918568611145,0.7948547601699829,0.1348031461238861,0.09733732789754868,-0.255143404006958
13.449226140975952,-0.2174375206232071,-0.4874320328235626,0.7968881130218506,0.13460464775562286,0.09733834862709045,-0.25752365589141846
13.469287395477295,-0.21873041987419128,-0.4884316027164459,0.8009006381034851,0.13423730432987213,0.09737557917833328,-0.26221340894699097
13.489521980285645,-0.2199736088514328,-0.48938465118408203,0.8048316836357117,0.13392654061317444,0.09744801372289658,-0.2668171226978302
13.509619951248169,-0.22057436406612396,-0.4898512065410614,0.8067613244056702,0.13378678262233734,0.09751633554697037,-0.2690812945365906
13.52981972694397,-0.22173473238945007,-0.49076178669929504,0.8105447292327881,0.13354262709617615,0.09769691526889801,-0.2735351622104645
13.549777030944824,-0.22286565601825714,-0.49166339635849,0.8142252564430237,0.13331782817840576,0.0979359894990921,-0.27788522839546204
13.569939613342285,-0.22342033684253693,-0.4921038746833801,0.8160325288772583,0.1332109570503235,0.09805838763713837,-0.28002849221229553
13.589974880218506,-0.2245142161846161,-0.49296659231185913,0.8195847272872925,0.1329978108406067,0.09830105304718018,-0.2842545509338379
13.610123634338379,-0.22558143734931946,-0.4937988519668579,0.8230653405189514,0.1327921450138092,0.09855513274669647,-0.28840920329093933
13.630190134048462,-0.2261078953742981,-0.4942089319229126,0.8247756958007812,0.13270582258701324,0.09868784993886948,-0.2904602289199829
13.650272369384766,-0.22716186940670013,-0.495025098323822,0.8281391263008118,0.1325656622648239,0.0989590585231781,-0.29450979828834534
13.670328140258789,-0.228215754032135,-0.4958246946334839,0.8314306139945984,0.1324625164270401,0.09920310974121094,-0.29849037528038025
13.690462827682495,-0.2292536050081253,-0.4965935945510864,0.8346511721611023,0.1323716640472412,0.09941214323043823,-0.3023979067802429
13.710558652877808,-0.2297528088092804,-0.49696820974349976,0.8362295031547546,0.13234715163707733,0.09951532632112503,-0.30432674288749695
13.730679512023926,-0.230728879570961,-0.49770718812942505,0.83933025598526,0.13231812417507172,0.09972821176052094,-0.3081367313861847
13.750757932662964,-0.23168958723545074,-0.49842166900634766,0.8423754572868347,0.13230063021183014,0.0999424010515213,-0.31188449263572693
13.770842790603638,-0.23216868937015533,-0.4987674057483673,0.8438792824745178,0.1322777420282364,0.10005378723144531,-0.3137257993221283
13.790925741195679,-0.23312395811080933,-0.49943792819976807,0.846839964389801,0.13220980763435364,0.10028661787509918,-0.31732943654060364
13.811015129089355,-0.23408454656600952,-0.5000959038734436,0.8497238755226135,0.1321057379245758,0.10053648054599762,-0.3208191692829132
13.831060647964478,-0.23456688225269318,-0.5004193186759949,0.8511378169059753,0.132048100233078,0.10065672546625137,-0.32252979278564453
13.851208686828613,-0.23553983867168427,-0.501055896282196,0.8539150953292847,0.13190875947475433,0.10088630020618439,-0.3258897066116333
13.871253490447998,-0.23649676144123077,-0.5016731023788452,0.8566301465034485,0.1317702829837799,0.10110698640346527,-0.3291890025138855
13.891693830490112,-0.237417533993721,-0.5022693872451782,0.8592841625213623,0.13166630268096924,0.10134123265743256,-0.332444965839386
13.911875486373901,-0.23786063492298126,-0.5025594830513,0.8605896234512329,0.1316385120153427,0.10146991163492203,-0.33406007289886475
13.931959390640259,-0.23873667418956757,-0.5031375885009766,0.8631547093391418,0.13161426782608032,0.10174967348575592,-0.3372584581375122
13.951982259750366,-0.23962773382663727,-0.5037180185317993,0.8656609058380127,0.13159656524658203,0.1020306944847107,-0.3404010236263275
13.97209358215332,-0.24008196592330933,-0.5040109753608704,0.8668913245201111,0.13157808780670166,0.10216523706912994,-0.34194761514663696
13.992370843887329,-0.24099552631378174,-0.5045863389968872,0.8693127036094666,0.1315099149942398,0.1024225503206253,-0.34498441219329834
14.012385368347168,-0.24189616739749908,-0.5051442384719849,0.8716849684715271,0.13143320381641388,0.10268165171146393,-0.3479625880718231
14.03247880935669,-0.24233834445476532,-0.5054116249084473,0.8728566765785217,0.13140293955802917,0.10281169414520264,-0.3494361639022827
14.05250883102417,-0.24325019121170044,-0.5059249997138977,0.8751853108406067,0.13134551048278809,0.10302428901195526,-0.3523627817630768
14.072558164596558,-0.24420040845870972,-0.5064067244529724,0.8774912357330322,0.13126583397388458,0.10317520797252655,-0.3552386462688446
14.092674016952515,-0.2446851283311844,-0.5066406726837158,0.8786306381225586,0.13121770322322845,0.10324022173881531,-0.3566514849662781
14.11279010772705,-0.2456279993057251,-0.50710529088974,0.8808634877204895,0.13113339245319366,0.1034204289317131,-0.3594167232513428
14.132890701293945,-0.2465410679578781,-0.5075597167015076,0.8830448985099792,0.13108225166797638,0.1036541759967804,-0.3621232509613037
14.152923107147217,-0.24698910117149353,-0.5077753067016602,0.884122908115387,0.13106991350650787,0.10377171635627747,-0.36346375942230225
14.173003196716309,-0.24786406755447388,-0.5081883668899536,0.8862523436546326,0.13107363879680634,0.10402031242847443,-0.3661251962184906
14.193064212799072,-0.2486962229013443,-0.5085843205451965,0.888336718082428,0.13112182915210724,0.10430703312158585,-0.36875227093696594
14.213218450546265,-0.24909937381744385,-0.5087812542915344,0.8893578052520752,0.13115766644477844,0.10447325557470322,-0.37004774808883667
14.233258247375488,-0.2498883754014969,-0.5091674327850342,0.8913642168045044,0.13124467432498932,0.10482599586248398,-0.37260565161705017
14.253336429595947,-0.25066298246383667,-0.5095452070236206,0.8933262228965759,0.13132639229297638,0.105204276740551,-0.37511736154556274
14.273592948913574,-0.2510463297367096,-0.5097315907478333,0.8942890763282776,0.13136760890483856,0.10539763420820236,-0.3763555586338043
14.293637752532959,-0.2518059313297272,-0.5100936889648438,0.8961820006370544,0.1314573436975479,0.10577711462974548,-0.3788004219532013
14.313716650009155,-0.25255587697029114,-0.5104396343231201,0.8980349898338318,0.13155215978622437,0.10614746809005737,-0.3812047243118286
14.333921909332275,-0.2532925009727478,-0.5107766389846802,0.8998459577560425,0.13165543973445892,0.10652025789022446,-0.3835718333721161
14.354029178619385,-0.253664493560791,-0.5109394192695618,0.9007386565208435,0.13170868158340454,0.10669149458408356,-0.38474249839782715
14.374117136001587,-0.25442811846733093,-0.5112601518630981,0.902498722076416,0.1318095475435257,0.1070011779665947,-0.3870551586151123
14.394140005111694,-0.2552124559879303,-0.5115644931793213,0.9042338728904724,0.13189202547073364,0.1072806864976883,-0.38932883739471436
14.414281845092773,-0.25559625029563904,-0.5117146372795105,0.9050859212875366,0.13194288313388824,0.1074342280626297,-0.3904498517513275
