liuyurong129/humanoid-gym/humanoid/data/target_q_20250522-035703.csv
timestamp,joint_1,joint_2,joint_3,joint_4,joint_5,joint_6
7.009506225585938e-05,0.0,0.0,0.0,0.0,0.0,0.0
0.020161867141723633,0.0,0.0,0.0,0.0,0.0,0.0
0.040238142013549805,0.0,0.0,0.0,0.0,0.0,0.0
0.060323476791381836,0.0,0.0,0.0,0.0,0.0,0.0
0.08039236068725586,0.0,0.0,0.0,0.0,0.0,0.0
0.10048937797546387,0.10623401403427124,-0.764878511428833,0.5682529211044312,0.5255369544029236,-0.26843127608299255,-0.04423200339078903
0.12060546875,0.09185102581977844,-0.8035269975662231,0.5908204913139343,0.540520966053009,-0.2685053050518036,-0.04558193311095238
0.14062047004699707,0.08038358390331268,-0.8361907005310059,0.622768223285675,0.5561931729316711,-0.2651553750038147,-0.04685470089316368
0.16073369979858398,0.07435822486877441,-0.8524020314216614,0.6388002038002014,0.5641871094703674,-0.26303744316101074,-0.04754317179322243
0.18085885047912598,0.0645940825343132,-0.8826751112937927,0.6737433671951294,0.5793972015380859,-0.2574338912963867,-0.04881283640861511
0.20118403434753418,0.05507441610097885,-0.9114059805870056,0.7096640467643738,0.5950241088867188,-0.2508031129837036,-0.05010869726538658
0.2212984561920166,0.050258003175258636,-0.9252700209617615,0.7285026907920837,0.6020060777664185,-0.24843202531337738,-0.05067870020866394
0.2413785457611084,0.03983785957098007,-0.9554808139801025,0.7638533115386963,0.6154667735099792,-0.24177148938179016,-0.05210695043206215
0.2615513801574707,0.03468142822384834,-0.969933807849884,0.7819642424583435,0.6225695610046387,-0.23852097988128662,-0.052815672010183334
0.2817103862762451,0.024126719683408737,-0.9987269639968872,0.8178814053535461,0.6365047693252563,-0.23115812242031097,-0.054263532161712646
0.30204057693481445,0.012580573558807373,-1.028384804725647,0.8533745408058167,0.6494593620300293,-0.22379045188426971,-0.05600627139210701
0.32215332984924316,0.0053682634606957436,-1.044723391532898,0.8694583177566528,0.6553564667701721,-0.22042427957057953,-0.05711857229471207
0.34227538108825684,-0.0060971202328801155,-1.07388174533844,0.8993656039237976,0.6634806394577026,-0.21454031765460968,-0.05888369679450989
0.3623642921447754,-0.015879392623901367,-1.0980188846588135,0.9209516048431396,0.6670450568199158,-0.20934414863586426,-0.06046966463327408
0.38248562812805176,-0.017634505406022072,-1.1066683530807495,0.943396270275116,0.6721045970916748,-0.2051503211259842,-0.06086559221148491
0.4026005268096924,-0.022588681429624557,-1.121810793876648,0.9616813063621521,0.674961268901825,-0.19893187284469604,-0.06173267960548401
0.422682523727417,-0.027973998337984085,-1.130473256111145,0.9543275833129883,0.670348048210144,-0.19956764578819275,-0.06258955597877502
0.44280099868774414,-0.03340405225753784,-1.141586184501648,0.9638622403144836,0.6690948009490967,-0.1982325315475464,-0.06376820802688599
0.46282315254211426,-0.03480922058224678,-1.1489877700805664,0.9746895432472229,0.6666995286941528,-0.19613349437713623,-0.06483133882284164
0.4830019474029541,-0.031140867620706558,-1.1501085758209229,0.9988322854042053,0.6704816222190857,-0.19251254200935364,-0.06484979391098022
0.5030612945556641,-0.031665198504924774,-1.1556849479675293,1.0104734897613525,0.6695324182510376,-0.1917852759361267,-0.06543669104576111
0.5232040882110596,-0.03255423158407211,-1.1602212190628052,1.020071268081665,0.6682450771331787,-0.19148068130016327,-0.06631135195493698
0.5433230400085449,-0.03607573360204697,-1.163371205329895,1.007354736328125,0.6631889343261719,-0.19329126179218292,-0.06698660552501678
0.5633623600006104,-0.03236806392669678,-1.1641108989715576,1.0205128192901611,0.6627616882324219,-0.1924544870853424,-0.06729494035243988
0.5835063457489014,-0.028077758848667145,-1.1631213426589966,1.0446240901947021,0.6675291061401367,-0.19124585390090942,-0.06702693551778793
0.6036303043365479,-0.026185689494013786,-1.1642096042633057,1.0587867498397827,0.6684045791625977,-0.19304019212722778,-0.0672944113612175
0.6238498687744141,-0.022543463855981827,-1.1636453866958618,1.0726008415222168,0.6687034368515015,-0.19446426630020142,-0.06758517026901245
0.6439971923828125,-0.025781037285923958,-1.1650081872940063,1.0593152046203613,0.6639450788497925,-0.19821621477603912,-0.06833058595657349
0.6640369892120361,-0.022364607080817223,-1.1631174087524414,1.0700101852416992,0.6631937026977539,-0.20066718757152557,-0.06862704455852509
0.6841673851013184,-0.018648117780685425,-1.1605825424194336,1.078940749168396,0.6618614196777344,-0.2036551535129547,-0.06909127533435822
0.7042808532714844,-0.012622503563761711,-1.1583691835403442,1.1025346517562866,0.667046308517456,-0.20364171266555786,-0.06860610097646713
0.7243750095367432,-0.0070802802219986916,-1.1548006534576416,1.1134451627731323,0.666102409362793,-0.20630499720573425,-0.06876969337463379
0.7444424629211426,-0.008627042174339294,-1.1547800302505493,1.1020426750183105,0.6607224345207214,-0.2105238288640976,-0.06945144385099411
0.764561653137207,-0.005843751132488251,-1.1517016887664795,1.1083608865737915,0.6597034931182861,-0.21532386541366577,-0.06983914971351624
0.7848653793334961,-0.0024025877937674522,-1.1479456424713135,1.11465322971344,0.6596173644065857,-0.22005757689476013,-0.06964487582445145
0.8050222396850586,0.0029363667126744986,-1.1461750268936157,1.136810541152954,0.6650397181510925,-0.22199705243110657,-0.06898727267980576
0.8250889778137207,0.005861079320311546,-1.1443613767623901,1.1427550315856934,0.6638498902320862,-0.22847743332386017,-0.06884965300559998
0.8451879024505615,0.003335112240165472,-1.1446013450622559,1.1326149702072144,0.6592205762863159,-0.23345206677913666,-0.06949195265769958
0.8652338981628418,0.00359219778329134,-1.1427156925201416,1.12975013256073,0.6572673320770264,-0.23882927000522614,-0.06968656182289124
0.8852922916412354,0.003640844952315092,-1.1413546800613403,1.1269803047180176,0.6548699736595154,-0.2440449595451355,-0.0699043869972229
0.9053752422332764,0.004622678272426128,-1.1412298679351807,1.132556438446045,0.6564639806747437,-0.24634060263633728,-0.06986159086227417
0.9255411624908447,0.0025172983296215534,-1.1410460472106934,1.1248044967651367,0.652147114276886,-0.25195130705833435,-0.07088527083396912
0.9457442760467529,-0.0007193181081674993,-1.1412596702575684,1.115749716758728,0.6492006182670593,-0.2572093605995178,-0.07195361703634262
0.9659476280212402,-0.004345179069787264,-1.1413358449935913,1.1044268608093262,0.6459813117980957,-0.2598859965801239,-0.07302025705575943
0.9859838485717773,-0.006060765124857426,-1.1410068273544312,1.0991199016571045,0.6449512243270874,-0.2625255584716797,-0.07399901747703552
1.006040096282959,-0.007468525320291519,-1.1415653228759766,1.098565936088562,0.6461585164070129,-0.26430845260620117,-0.07442598789930344
1.0263237953186035,-0.01016154047101736,-1.1411614418029785,1.0905990600585938,0.6449765563011169,-0.26576489210128784,-0.07594239711761475
1.0463004112243652,-0.011718482710421085,-1.1409214735031128,1.088704228401184,0.6463907957077026,-0.26663655042648315,-0.07722689211368561
1.0663940906524658,-0.01127646304666996,-1.139890432357788,1.0885260105133057,0.6463189125061035,-0.26579388976097107,-0.07807273417711258
1.086477518081665,-0.012843236327171326,-1.1395586729049683,1.0858795642852783,0.6476339101791382,-0.26729679107666016,-0.07965919375419617
1.1076464653015137,-0.010758668184280396,-1.1372597217559814,1.0814605951309204,0.6474921107292175,-0.26728910207748413,-0.08107481896877289
1.127737045288086,-0.00909986812621355,-1.1350125074386597,1.0765239000320435,0.6457936763763428,-0.2657169699668884,-0.08206548541784286
1.1478044986724854,-0.010880802758038044,-1.1348209381103516,1.0733100175857544,0.6478539109230042,-0.26733845472335815,-0.08402682840824127
1.1679081916809082,-0.01028109434992075,-1.1344490051269531,1.0772724151611328,0.6500855684280396,-0.2675648033618927,-0.08493614941835403
1.188004732131958,-0.005573053378611803,-1.1308202743530273,1.0853041410446167,0.6518940329551697,-0.2656894028186798,-0.086483433842659
1.2080776691436768,-0.004004607908427715,-1.1287850141525269,1.0912325382232666,0.6554524302482605,-0.2672283351421356,-0.08796028792858124
1.228149652481079,-0.0027420755941420794,-1.1272989511489868,1.0913505554199219,0.6534483432769775,-0.2683252990245819,-0.08916494250297546
1.248255968093872,-0.0017388634150847793,-1.1259263753890991,1.1001533269882202,0.6586021184921265,-0.2727504074573517,-0.09009584039449692
1.2682974338531494,2.141343429684639e-06,-1.1243977546691895,1.110224962234497,0.6625351309776306,-0.27809685468673706,-0.09093624353408813
1.2884089946746826,-0.00011328532855259255,-1.1231410503387451,1.1123247146606445,0.6641265153884888,-0.280139297246933,-0.09146883338689804
1.3084945678710938,-0.0014196984702721238,-1.1211931705474854,1.1104475259780884,0.6638952493667603,-0.28523895144462585,-0.09304753690958023
1.3285534381866455,-0.004701236262917519,-1.1194896697998047,1.104148268699646,0.6635645031929016,-0.29048019647598267,-0.09484976530075073
1.3487017154693604,-0.007595520466566086,-1.1185002326965332,1.0952494144439697,0.6610526442527771,-0.29265743494033813,-0.09620138257741928
1.3688011169433594,-0.008840182796120644,-1.1157258749008179,1.0904394388198853,0.6595315337181091,-0.295127809047699,-0.09841950237751007
1.3888027667999268,-0.011333037167787552,-1.114284634590149,1.0885217189788818,0.6619263291358948,-0.2995077967643738,-0.099722720682621
1.4088947772979736,-0.011347619816660881,-1.1137241125106812,1.0938646793365479,0.6658602952957153,-0.30208954215049744,-0.09989750385284424
1.4289560317993164,-0.012029921635985374,-1.1108819246292114,1.0925194025039673,0.6667624711990356,-0.3048597574234009,-0.10154946148395538
1.4490623474121094,-0.015101978555321693,-1.1102886199951172,1.0845783948898315,0.6633058786392212,-0.30712127685546875,-0.10346765071153641
1.4691498279571533,-0.014635419473052025,-1.10737144947052,1.0853239297866821,0.6638040542602539,-0.3094119131565094,-0.10531694442033768
1.4892022609710693,-0.014254119247198105,-1.1045688390731812,1.0846335887908936,0.6659256219863892,-0.31231242418289185,-0.10693290829658508
1.5092878341674805,-0.010997186414897442,-1.102800965309143,1.087093472480774,0.6660702228546143,-0.31300902366638184,-0.10814367234706879
1.5293653011322021,-0.00837495643645525,-1.0994129180908203,1.0903780460357666,0.6662717461585999,-0.31495431065559387,-0.11025447398424149
1.5494346618652344,-0.005072383210062981,-1.094670295715332,1.0934040546417236,0.6655764579772949,-0.3156054615974426,-0.11241611838340759
1.569516658782959,-0.006830858066678047,-1.0940933227539062,1.0909841060638428,0.6654716730117798,-0.31899791955947876,-0.11357796937227249
1.5897636413574219,-0.00753549300134182,-1.0909749269485474,1.0880489349365234,0.6639117002487183,-0.3230028450489044,-0.11637333780527115
1.6096739768981934,-0.008757867850363255,-1.0880842208862305,1.0870214700698853,0.6649531722068787,-0.328227162361145,-0.11852354556322098
1.6297614574432373,-0.008836807683110237,-1.0869117975234985,1.0868990421295166,0.6642928719520569,-0.3308503329753876,-0.12014792859554291
1.649848222732544,-0.00931697990745306,-1.084242820739746,1.0834674835205078,0.6614304184913635,-0.3348045349121094,-0.12375308573246002
1.6699697971343994,-0.010845265351235867,-1.081229329109192,1.074405312538147,0.6557211875915527,-0.33703330159187317,-0.12820108234882355
1.6900811195373535,-0.01177964173257351,-1.0795507431030273,1.0679254531860352,0.6538509726524353,-0.336948961019516,-0.13041198253631592
1.710153579711914,-0.0138285793364048,-1.0772212743759155,1.0575592517852783,0.6477712392807007,-0.33884134888648987,-0.13573680818080902
1.7302660942077637,-0.014381547458469868,-1.0756529569625854,1.0503076314926147,0.6437760591506958,-0.3384259045124054,-0.13883791863918304
1.7502946853637695,-0.015805931761860847,-1.0710591077804565,1.0308806896209717,0.6335123777389526,-0.3351570963859558,-0.14584338665008545
1.7703773975372314,-0.01451085414737463,-1.0694220066070557,1.0267326831817627,0.63161301612854,-0.3328912854194641,-0.14873841404914856
1.790452241897583,-0.012885771691799164,-1.0620036125183105,1.0065948963165283,0.6183544993400574,-0.321597695350647,-0.15716859698295593
1.8105075359344482,-0.013945003040134907,-1.058754563331604,0.9959112405776978,0.6114663481712341,-0.3174247145652771,-0.16153068840503693
1.83060622215271,-0.009326581843197346,-1.0488519668579102,0.9755853414535522,0.5942198038101196,-0.3009580373764038,-0.17120271921157837
1.850670337677002,-0.003754742443561554,-1.0389349460601807,0.9633222818374634,0.5804790258407593,-0.2857784032821655,-0.1800149828195572
1.8707571029663086,0.0014858967624604702,-1.0333610773086548,0.9625207185745239,0.57590651512146,-0.2760767340660095,-0.18373824656009674
1.8908421993255615,0.01589922048151493,-1.0214803218841553,0.9674303531646729,0.5662265419960022,-0.2545616924762726,-0.19144131243228912
1.9110560417175293,0.024915384128689766,-1.0150882005691528,0.97221839427948,0.5609835982322693,-0.24265985190868378,-0.19536611437797546
1.9310722351074219,0.048599474132061005,-1.0012638568878174,0.9932852983474731,0.5529839992523193,-0.21641896665096283,-0.2025998830795288
1.9513604640960693,0.05427350103855133,-0.9940674901008606,1.0016717910766602,0.5451081991195679,-0.20809893310070038,-0.20677146315574646
1.9713895320892334,0.05836774408817291,-0.9703075289726257,1.00459885597229,0.5142893195152283,-0.18482504785060883,-0.2172006219625473
1.9915249347686768,0.049837466329336166,-0.9470922946929932,0.9848405718803406,0.48634785413742065,-0.167606920003891,-0.22944055497646332
2.011672019958496,0.0412946455180645,-0.9391379356384277,0.9684481620788574,0.48043859004974365,-0.1615772694349289,-0.2360105961561203
2.03171443939209,0.018960129469633102,-0.9312059879302979,0.9274247288703918,0.477976530790329,-0.1582409143447876,-0.24521341919898987
2.051783561706543,0.005617552436888218,-0.9303206205368042,0.9071832895278931,0.4808501601219177,-0.16235999763011932,-0.24856789410114288
2.07185959815979,-0.005697204265743494,-0.9288032054901123,0.8757008910179138,0.5040047764778137,-0.15568344295024872,-0.26006272435188293
2.091913938522339,0.004774058237671852,-0.9244329929351807,0.8700829148292542,0.5249115228652954,-0.13218802213668823,-0.2712323069572449
2.1120412349700928,0.015314210206270218,-0.922616720199585,0.8764674663543701,0.5371066331863403,-0.11793456971645355,-0.2762586176395416
2.13211989402771,0.03935028612613678,-0.9200971126556396,0.8982082605361938,0.559471845626831,-0.08931542932987213,-0.286148339509964
2.152182102203369,0.0635322779417038,-0.9179145097732544,0.9244086146354675,0.5771331787109375,-0.0644063800573349,-0.29568570852279663
2.1722655296325684,0.07310531288385391,-0.9192325472831726,0.9399362206459045,0.5902281403541565,-0.0554947555065155,-0.30198001861572266
2.192366123199463,0.07838476449251175,-0.9222980737686157,0.9470473527908325,0.6123966574668884,-0.04318385571241379,-0.3150826692581177
2.2124311923980713,0.07141125947237015,-0.9264734983444214,0.9398720264434814,0.6235852837562561,-0.0451735258102417,-0.32090988755226135
2.232492208480835,0.042031753808259964,-0.9369128942489624,0.9120255708694458,0.6393514275550842,-0.06481479853391647,-0.32899001240730286
2.252577066421509,0.02775513008236885,-0.9410911798477173,0.8955709338188171,0.6452839970588684,-0.07351632416248322,-0.333685964345932
2.2726645469665527,0.009130887687206268,-0.9516708254814148,0.8868638873100281,0.6641623377799988,-0.09373840689659119,-0.34219852089881897
2.2927374839782715,0.00852118618786335,-0.9600608348846436,0.8954360485076904,0.686785101890564,-0.10205867886543274,-0.34865808486938477
2.3128271102905273,0.013337183743715286,-0.9622529745101929,0.8970879316329956,0.6961884498596191,-0.09867039322853088,-0.35225996375083923
2.332888603210449,0.03424368426203728,-0.9629941582679749,0.9207217693328857,0.7154335975646973,-0.07928920537233353,-0.36082613468170166
2.35323166847229,0.04594359174370766,-0.9618959426879883,0.9371455907821655,0.7251130938529968,-0.06864942610263824,-0.3640301525592804
2.3733553886413574,0.06257149577140808,-0.9572309851646423,0.9537858963012695,0.7385261654853821,-0.04359801113605499,-0.3732951581478119
2.393378734588623,0.06231948733329773,-0.9536459445953369,0.9448674917221069,0.7470248937606812,-0.02540549449622631,-0.38361862301826477
2.413512945175171,0.05641663819551468,-0.9547087550163269,0.9348872900009155,0.753905177116394,-0.02215585485100746,-0.38803935050964355
2.43359375,0.039918169379234314,-0.9561787247657776,0.9115191102027893,0.7631542682647705,-0.018439963459968567,-0.3973205089569092
2.4538040161132812,0.019442912191152573,-0.9624825119972229,0.8918307423591614,0.7743083238601685,-0.026171017438173294,-0.40450966358184814
2.4739022254943848,0.01275452971458435,-0.9656157493591309,0.8871473073959351,0.7808058857917786,-0.029421113431453705,-0.40736618638038635
2.4939558506011963,0.006715243682265282,-0.9702380299568176,0.8878276944160461,0.793478786945343,-0.03076297417283058,-0.41260647773742676
2.5140466690063477,0.009680503979325294,-0.971741795539856,0.8923794031143188,0.8022407293319702,-0.026279980316758156,-0.4148731231689453
2.5341384410858154,0.026238612830638885,-0.9710102081298828,0.9120834469795227,0.8203563094139099,-0.005905595608055592,-0.420110285282135
2.554210901260376,0.034711796790361404,-0.9702972173690796,0.9249390959739685,0.8298109173774719,0.004302190151065588,-0.4225209355354309
2.574352979660034,0.03874567896127701,-0.9684632420539856,0.929526150226593,0.8388102054595947,0.020036373287439346,-0.42882707715034485
2.5943994522094727,0.032634783536195755,-0.9681468605995178,0.9165024161338806,0.8471496105194092,0.03153012692928314,-0.4347681403160095
2.614546537399292,0.028707074001431465,-0.9684088826179504,0.9045684933662415,0.851352870464325,0.03702178969979286,-0.43747472763061523
2.6346044540405273,0.0117421206086874,-0.9734668135643005,0.8816904425621033,0.8583610653877258,0.03453894704580307,-0.44238054752349854
2.654728412628174,7.815752178430557e-05,-0.9810226559638977,0.8748103380203247,0.8682354688644409,0.028054378926753998,-0.4453747272491455
2.674818992614746,-0.002993507543578744,-0.9843329191207886,0.8775520920753479,0.8731598258018494,0.0262355487793684,-0.44654381275177
2.6948859691619873,0.003544654930010438,-0.9867027997970581,0.8914937376976013,0.8866887092590332,0.03613711893558502,-0.44901105761528015
2.715057134628296,0.01270591001957655,-0.9862823486328125,0.9037386775016785,0.8953898549079895,0.04641983285546303,-0.4502214193344116
2.7352263927459717,0.027306631207466125,-0.986049473285675,0.9293794631958008,0.9122562408447266,0.06263653188943863,-0.45228350162506104
2.755286693572998,0.030495639890432358,-0.9830374121665955,0.9315696358680725,0.9189595580101013,0.08022674173116684,-0.4564446210861206
2.775426149368286,0.03036428987979889,-0.981397807598114,0.9290522336959839,0.9214435815811157,0.08891800045967102,-0.4588121473789215
2.7955005168914795,0.02305687963962555,-0.9807077646255493,0.9110942482948303,0.9251627326011658,0.10108175128698349,-0.46346402168273926
2.815547466278076,0.004474653862416744,-0.9859023094177246,0.8914440274238586,0.9287145137786865,0.09755735844373703,-0.4674821197986603
2.835634469985962,-0.007923257537186146,-0.9906327724456787,0.8821859955787659,0.9305099248886108,0.08959784358739853,-0.4685131013393402
2.8557095527648926,-0.01876646652817726,-0.9973250031471252,0.8750239610671997,0.9374394416809082,0.0840778648853302,-0.4700223207473755
2.875816583633423,-0.019544076174497604,-1.0001864433288574,0.8752114176750183,0.9428954124450684,0.08424436300992966,-0.46991297602653503
2.8958773612976074,-0.007111550308763981,-1.0016889572143555,0.8952322006225586,0.9570675492286682,0.09624610841274261,-0.4699706435203552
2.915945291519165,0.010825852863490582,-0.998571515083313,0.9171881675720215,0.9714371562004089,0.1179310530424118,-0.47082582116127014
2.9360344409942627,0.01588759571313858,-0.9983242750167847,0.9255444407463074,0.9767034649848938,0.1248784214258194,-0.4716310203075409
2.956164598464966,0.0243406742811203,-0.9965434670448303,0.93112713098526,0.9849836230278015,0.14234673976898193,-0.4739624857902527
2.976219415664673,0.024394581094384193,-0.994766116142273,0.9240530729293823,0.9900624752044678,0.15778109431266785,-0.4771656095981598
2.9963202476501465,0.017497941851615906,-0.9973963499069214,0.9167032241821289,0.9912569522857666,0.15673229098320007,-0.47856998443603516
3.016404390335083,0.0005785077810287476,-1.0026370286941528,0.9001721739768982,0.9916765689849854,0.15151356160640717,-0.48159080743789673
3.036707878112793,-0.018628131598234177,-1.0105783939361572,0.8853927850723267,0.9931364059448242,0.13911032676696777,-0.48270919919013977
3.0567967891693115,-0.027059782296419144,-1.0146580934524536,0.8813741207122803,0.9938277006149292,0.13198837637901306,-0.4826453924179077
3.0769450664520264,-0.03223177045583725,-1.0198814868927002,0.8824338316917419,0.9995833039283752,0.1271539181470871,-0.48180335760116577
3.0970306396484375,-0.028502339497208595,-1.0208325386047363,0.8860481977462769,1.0038559436798096,0.13074365258216858,-0.48116666078567505
3.1171069145202637,-0.01504039391875267,-1.0194872617721558,0.9007051587104797,1.0135586261749268,0.14483454823493958,-0.48071521520614624
3.137176752090454,0.0030225487425923347,-1.0146509408950806,0.9183380007743835,1.0228809118270874,0.16619768738746643,-0.48106396198272705
3.1573452949523926,0.005989217199385166,-1.0129624605178833,0.9189884066581726,1.024640679359436,0.17445556819438934,-0.481947660446167
3.1773698329925537,0.010278090834617615,-1.0109105110168457,0.9181246161460876,1.0271632671356201,0.18900592625141144,-0.4840923845767975
3.197521209716797,0.0051964567974209785,-1.0122520923614502,0.9099946022033691,1.0283807516098022,0.1948312520980835,-0.48631301522254944
3.217611074447632,-0.0018939902074635029,-1.0159797668457031,0.9048318862915039,1.0289088487625122,0.19039203226566315,-0.48685455322265625
3.237684488296509,-0.01637209951877594,-1.0235874652862549,0.8978195190429688,1.0294194221496582,0.17875123023986816,-0.4873868227005005
3.2578108310699463,-0.02435149997472763,-1.0274704694747925,0.8956999778747559,1.0300716161727905,0.17133550345897675,-0.4869498610496521
3.277872085571289,-0.030116034671664238,-1.031731367111206,0.8984698057174683,1.0347706079483032,0.16541294753551483,-0.4857417643070221
3.2980945110321045,-0.029725294560194016,-1.0335803031921387,0.9027964472770691,1.0406423807144165,0.1658288836479187,-0.48446738719940186
3.318183422088623,-0.02503548189997673,-1.0331114530563354,0.9071126580238342,1.0444700717926025,0.17049121856689453,-0.4839637279510498
3.3382644653320312,-0.012000820599496365,-1.0310015678405762,0.9192229509353638,1.0535708665847778,0.1833309829235077,-0.48286837339401245
3.358299970626831,-0.007959643378853798,-1.0294129848480225,0.9210734367370605,1.0553858280181885,0.19032911956310272,-0.4830063283443451
3.3783764839172363,-0.004454559180885553,-1.026965618133545,0.9175535440444946,1.0574792623519897,0.2032206654548645,-0.48398396372795105
3.398441791534424,-0.007658851332962513,-1.0283164978027344,0.9140717387199402,1.0573220252990723,0.20339880883693695,-0.48449790477752686
3.418558359146118,-0.018162228167057037,-1.0313783884048462,0.9054186344146729,1.0557355880737305,0.20033545792102814,-0.48555052280426025
3.43861985206604,-0.03196986764669418,-1.0374841690063477,0.8986732959747314,1.0551705360412598,0.18914024531841278,-0.4848518967628479
3.4586966037750244,-0.0376739464700222,-1.0408543348312378,0.8975372910499573,1.0559231042861938,0.18265795707702637,-0.4837280511856079
3.4788458347320557,-0.039089396595954895,-1.0431492328643799,0.9037473797798157,1.0607699155807495,0.17960400879383087,-0.48136746883392334
3.498875141143799,-0.03494100645184517,-1.0425423383712769,0.9078245162963867,1.0642582178115845,0.18338876962661743,-0.4803279936313629
3.5189478397369385,-0.024201177060604095,-1.0386849641799927,0.916311502456665,1.0700886249542236,0.19627745449543,-0.47942227125167847
3.5389976501464844,-0.012165101245045662,-1.0342833995819092,0.9264950156211853,1.0761862993240356,0.2110847532749176,-0.479038804769516
3.5590920448303223,-0.0075685372576117516,-1.0321478843688965,0.9292710423469543,1.0777013301849365,0.21849513053894043,-0.4793253242969513
3.579176425933838,-0.010547004640102386,-1.0325103998184204,0.9223281145095825,1.0772860050201416,0.22320163249969482,-0.48037493228912354
3.599231719970703,-0.01854715123772621,-1.034213900566101,0.9122955203056335,1.075123906135559,0.22333352267742157,-0.4816478490829468
3.619319200515747,-0.025439664721488953,-1.0372025966644287,0.9072775840759277,1.073373794555664,0.2182665467262268,-0.4818071126937866
3.6393966674804688,-0.037909869104623795,-1.0443023443222046,0.9013662338256836,1.0722856521606445,0.2051757574081421,-0.48048511147499084
3.659900665283203,-0.04345857724547386,-1.0478541851043701,0.9016445875167847,1.0735799074172974,0.19850540161132812,-0.47864630818367004
3.6800646781921387,-0.04299481213092804,-1.0479958057403564,0.9033964276313782,1.075071930885315,0.19891926646232605,-0.47780025005340576
3.7000701427459717,-0.03162489831447601,-1.0449180603027344,0.9116673469543457,1.0809717178344727,0.21036291122436523,-0.47627392411231995
3.7201621532440186,-0.024944188073277473,-1.0417922735214233,0.9167484045028687,1.0829753875732422,0.2187710404396057,-0.4762171506881714
3.740218162536621,-0.010847109369933605,-1.0375876426696777,0.930669367313385,1.0891048908233643,0.23292194306850433,-0.4756125211715698
3.760312080383301,-0.0061281174421310425,-1.0364487171173096,0.9329143762588501,1.090865969657898,0.23915636539459229,-0.4757220447063446
3.7803919315338135,-0.014810383319854736,-1.0392640829086304,0.9252005815505981,1.0874673128128052,0.23566898703575134,-0.4768877923488617
3.800445795059204,-0.024387475103139877,-1.0425457954406738,0.9179751873016357,1.0846034288406372,0.23016497492790222,-0.47739875316619873
3.820542097091675,-0.031072478741407394,-1.0453358888626099,0.9134003520011902,1.083674669265747,0.2245309203863144,-0.47705572843551636
3.8406178951263428,-0.04295478016138077,-1.0514249801635742,0.9067689180374146,1.0835574865341187,0.21157881617546082,-0.47504693269729614
3.8608171939849854,-0.04706689342856407,-1.0530833005905151,0.9055576324462891,1.0843548774719238,0.2074742317199707,-0.4733401834964752
3.880899429321289,-0.045719318091869354,-1.0526677370071411,0.907556414604187,1.0857514142990112,0.2085246592760086,-0.4725382924079895
3.9009501934051514,-0.038066357374191284,-1.0500037670135498,0.911209225654602,1.0889217853546143,0.2171487957239151,-0.4713396430015564
3.9210453033447266,-0.031702812761068344,-1.0477977991104126,0.9139111042022705,1.090925693511963,0.22460678219795227,-0.4710494577884674
3.941166877746582,-0.02158442698419094,-1.0446994304656982,0.9200047850608826,1.0936583280563354,0.23638123273849487,-0.4709321856498718
3.961451530456543,-0.013850300572812557,-1.0422654151916504,0.9217461943626404,1.095625638961792,0.24785585701465607,-0.471372127532959
3.98158860206604,-0.015390828251838684,-1.0427749156951904,0.9224299192428589,1.0955737829208374,0.24749484658241272,-0.4716495871543884
4.001672983169556,-0.025218721479177475,-1.0468339920043945,0.9193840026855469,1.0932458639144897,0.23867470026016235,-0.4717746376991272
4.021942138671875,-0.03061365894973278,-1.0486890077590942,0.915941596031189,1.0917916297912598,0.23438529670238495,-0.47174835205078125
4.042060852050781,-0.04289320483803749,-1.0540271997451782,0.9106251001358032,1.0897753238677979,0.2210599035024643,-0.47051510214805603
4.062109708786011,-0.05031510442495346,-1.057105541229248,0.9082151651382446,1.0892666578292847,0.21212461590766907,-0.4687369167804718
4.082321882247925,-0.05027026683092117,-1.0566699504852295,0.9080681204795837,1.0899015665054321,0.21244359016418457,-0.4680640995502472
4.102396011352539,-0.044254451990127563,-1.0540540218353271,0.9083714485168457,1.091918706893921,0.21987684071063995,-0.4671860933303833
4.122535943984985,-0.03042815625667572,-1.049481749534607,0.9139323234558105,1.096737265586853,0.23519599437713623,-0.46661558747291565
4.1426355838775635,-0.025394299998879433,-1.047839879989624,0.9156184196472168,1.0976476669311523,0.24143411219120026,-0.46673452854156494
4.162721395492554,-0.011902942322194576,-1.0430231094360352,0.9222146272659302,1.100467324256897,0.25797197222709656,-0.46734675765037537
4.182950019836426,-0.010955949313938618,-1.0432265996932983,0.9261484146118164,1.1007130146026611,0.2584889531135559,-0.46763867139816284
4.20306396484375,-0.01414559967815876,-1.0459401607513428,0.9315181970596313,1.1001147031784058,0.25291359424591064,-0.46765032410621643
4.2231035232543945,-0.026401784271001816,-1.0508593320846558,0.9270355701446533,1.097521185874939,0.240132674574852,-0.46722301840782166
4.243190050125122,-0.03400139883160591,-1.0538333654403687,0.9229142665863037,1.0964701175689697,0.23205801844596863,-0.4664906859397888
4.263259410858154,-0.04853019118309021,-1.060165286064148,0.9155963659286499,1.0941604375839233,0.21436215937137604,-0.4640830457210541
4.28346061706543,-0.05170084908604622,-1.0600194931030273,0.9107797145843506,1.0929126739501953,0.21195930242538452,-0.4628642499446869
4.303561449050903,-0.051175616681575775,-1.0590875148773193,0.909694492816925,1.0925856828689575,0.21315829455852509,-0.4624726176261902
4.323675155639648,-0.04140304774045944,-1.0550940036773682,0.9113895893096924,1.0952149629592896,0.22425051033496857,-0.4617730975151062
4.343736410140991,-0.03246748074889183,-1.052323579788208,0.9164725542068481,1.098205804824829,0.2328750193119049,-0.46135634183883667
4.363932371139526,-0.019396807998418808,-1.0459794998168945,0.9210188388824463,1.1004750728607178,0.25042030215263367,-0.4619150459766388
4.384361743927002,-0.011575888842344284,-1.0435293912887573,0.9260615110397339,1.102576732635498,0.26024481654167175,-0.4624837636947632
4.404495000839233,-0.011792614124715328,-1.044368863105774,0.9291787147521973,1.1016662120819092,0.25907737016677856,-0.4629647135734558
4.424753427505493,-0.019951477646827698,-1.0476945638656616,0.9275515079498291,1.098353624343872,0.2511991560459137,-0.4637525677680969
4.444856882095337,-0.027814455330371857,-1.0508180856704712,0.9248929619789124,1.0966603755950928,0.2426678091287613,-0.46353527903556824
4.46494460105896,-0.04495985060930252,-1.0576698780059814,0.9156858325004578,1.0927621126174927,0.22361591458320618,-0.4621039628982544
4.485072612762451,-0.05009112507104874,-1.0602624416351318,0.9136260151863098,1.092042088508606,0.21622024476528168,-0.4610658586025238
4.505154609680176,-0.05423762649297714,-1.0611310005187988,0.9101849794387817,1.0910351276397705,0.21104475855827332,-0.4596833884716034
4.525268316268921,-0.046545132994651794,-1.0581605434417725,0.9091302156448364,1.0938811302185059,0.2192583978176117,-0.4585389196872711
4.545325040817261,-0.03872055187821388,-1.0560429096221924,0.9139328002929688,1.0965988636016846,0.2258419245481491,-0.45797425508499146
4.565397262573242,-0.02225314825773239,-1.0482585430145264,0.9215595722198486,1.0999459028244019,0.24594321846961975,-0.45832329988479614
4.585529565811157,-0.011242074891924858,-1.0441951751708984,0.9241460561752319,1.1024328470230103,0.2607259750366211,-0.45924708247184753
4.605649709701538,-0.011679313145577908,-1.0442895889282227,0.9269846677780151,1.1022685766220093,0.26045477390289307,-0.4598361849784851
4.625774383544922,-0.019515549764037132,-1.0475349426269531,0.9262569546699524,1.0990046262741089,0.25236597657203674,-0.4608592987060547
4.646060466766357,-0.028442222625017166,-1.0510437488555908,0.9210525155067444,1.0961871147155762,0.24343204498291016,-0.4609479606151581
4.6662681102752686,-0.04572413116693497,-1.0590883493423462,0.9103399515151978,1.0923736095428467,0.22328223288059235,-0.45951104164123535
4.686265468597412,-0.05764966085553169,-1.0634366273880005,0.9065064191818237,1.0898540019989014,0.20820744335651398,-0.45779791474342346
4.7063844203948975,-0.05887981504201889,-1.0640769004821777,0.9040288329124451,1.0893999338150024,0.2058764547109604,-0.45700138807296753
4.726435661315918,-0.04713566601276398,-1.0603702068328857,0.9041398763656616,1.0933589935302734,0.21741172671318054,-0.4557170271873474
4.7466630935668945,-0.033160652965307236,-1.0559821128845215,0.9172673225402832,1.0979400873184204,0.22831349074840546,-0.4546407461166382
4.766805410385132,-0.02391226589679718,-1.0524991750717163,0.92499178647995,1.1000947952270508,0.23703792691230774,-0.4544351100921631
4.7869038581848145,-0.008596801199018955,-1.0456883907318115,0.9346786737442017,1.1031835079193115,0.2550516724586487,-0.45486536622047424
4.806980609893799,-0.005200584419071674,-1.0433318614959717,0.9396429061889648,1.1039302349090576,0.26096656918525696,-0.4559890031814575
4.827073574066162,-0.010615507140755653,-1.0450211763381958,0.938589334487915,1.1020410060882568,0.25597819685935974,-0.4567175805568695
4.847227096557617,-0.025682877749204636,-1.049155354499817,0.9286072254180908,1.097645878791809,0.243465393781662,-0.45800819993019104
4.867248773574829,-0.0366792194545269,-1.0526864528656006,0.9196412563323975,1.0944523811340332,0.23361964523792267,-0.4582081735134125
4.887420892715454,-0.050902821123600006,-1.0583851337432861,0.9088121652603149,1.0907418727874756,0.21818044781684875,-0.4574774503707886
4.907511472702026,-0.05809314176440239,-1.06156587600708,0.9033670425415039,1.0886163711547852,0.2085268795490265,-0.4562002122402191
4.9276487827301025,-0.05387767776846886,-1.0597466230392456,0.9027064442634583,1.08957040309906,0.2133355438709259,-0.45587676763534546
4.947723150253296,-0.04010822996497154,-1.055938720703125,0.9089140892028809,1.0943979024887085,0.22569558024406433,-0.45482391119003296
4.967766046524048,-0.01894019916653633,-1.0481045246124268,0.9231094121932983,1.0996997356414795,0.2474231719970703,-0.45457106828689575
4.987849950790405,-0.010457225143909454,-1.0445051193237305,0.9294862747192383,1.1013939380645752,0.25710219144821167,-0.45484787225723267
5.007999897003174,-0.0005205643828958273,-1.0398597717285156,0.9376554489135742,1.1039230823516846,0.2700297236442566,-0.4560786485671997
5.028204441070557,-0.008902832865715027,-1.0432803630828857,0.9379555583000183,1.101668357849121,0.2613619267940521,-0.4575048089027405
5.048291444778442,-0.015437435358762741,-1.044557809829712,0.9334729313850403,1.0993391275405884,0.25691086053848267,-0.45838311314582825
5.068369388580322,-0.03340890631079674,-1.0510276556015015,0.9208743572235107,1.0943154096603394,0.2397589236497879,-0.45897743105888367
5.088455438613892,-0.04159950464963913,-1.0552810430526733,0.9152221083641052,1.0927624702453613,0.22953377664089203,-0.4582960903644562
5.108561754226685,-0.05285797640681267,-1.0612080097198486,0.9090392589569092,1.0910534858703613,0.2135104537010193,-0.456491619348526
5.128616571426392,-0.05125986039638519,-1.0607954263687134,0.9090731143951416,1.0916893482208252,0.21290293335914612,-0.455478310585022
5.148810625076294,-0.046316180378198624,-1.0590629577636719,0.9107754230499268,1.093457579612732,0.2173134684562683,-0.45498132705688477
5.168884515762329,-0.026915663853287697,-1.0516247749328613,0.9222577810287476,1.0995880365371704,0.23662471771240234,-0.45437192916870117
5.18889307975769,-0.008960757404565811,-1.0445895195007324,0.9348478317260742,1.104125738143921,0.25556713342666626,-0.4546353816986084
5.209009170532227,0.0003050072118639946,-1.0397138595581055,0.9407868385314941,1.1056028604507446,0.2672463059425354,-0.45527732372283936
5.229086637496948,-0.005475397687405348,-1.042380928993225,0.938633382320404,1.1031386852264404,0.2625954747200012,-0.4570104777812958
5.2492992877960205,-0.01820462755858898,-1.0458276271820068,0.9323366284370422,1.0981889963150024,0.25179174542427063,-0.4589499533176422
5.269396066665649,-0.03000819683074951,-1.0496690273284912,0.9234064817428589,1.0941224098205566,0.24123108386993408,-0.4593852758407593
5.289472818374634,-0.05326124280691147,-1.05812406539917,0.9022407531738281,1.0866557359695435,0.21859660744667053,-0.45897579193115234
5.310051918029785,-0.06602060049772263,-1.0634596347808838,0.8937383890151978,1.0843558311462402,0.20243114233016968,-0.45711851119995117
5.330195426940918,-0.060959089547395706,-1.0628061294555664,0.8952018022537231,1.0860304832458496,0.2052280455827713,-0.4562791585922241
5.350265979766846,-0.04965273663401604,-1.0603593587875366,0.9001906514167786,1.090507984161377,0.21356284618377686,-0.454664409160614
5.370342493057251,-0.04407597333192825,-1.05924391746521,0.9052815437316895,1.0931429862976074,0.2169976830482483,-0.4538397490978241
5.390397548675537,-0.020379558205604553,-1.0504000186920166,0.9274467825889587,1.1008274555206299,0.23768261075019836,-0.45296913385391235
5.410465240478516,0.0029883375391364098,-1.0421651601791382,0.9483669400215149,1.1081771850585938,0.25937938690185547,-0.452591210603714
5.4305455684661865,0.0026273387484252453,-1.0397459268569946,0.9484903812408447,1.1064043045043945,0.2627991735935211,-0.4539102017879486
5.450616121292114,-0.0053609516471624374,-1.0415757894515991,0.9452889561653137,1.102421760559082,0.25765353441238403,-0.45577195286750793
5.470907688140869,-0.016523325815796852,-1.0443114042282104,0.9393549561500549,1.0980972051620483,0.2489297091960907,-0.45737990736961365
5.490990877151489,-0.02610904350876808,-1.0469685792922974,0.9302917122840881,1.0945779085159302,0.24177175760269165,-0.45800143480300903
5.511151075363159,-0.048279259353876114,-1.0543793439865112,0.9101901054382324,1.088248610496521,0.22205603122711182,-0.45772555470466614
5.5312933921813965,-0.05629824101924896,-1.0573756694793701,0.9021666646003723,1.0860964059829712,0.21420098841190338,-0.45726272463798523
5.5513012409210205,-0.06154939532279968,-1.0588018894195557,0.890601634979248,1.0836347341537476,0.21072933077812195,-0.45680874586105347
5.57187557220459,-0.05431947857141495,-1.0564132928848267,0.8935233950614929,1.0862261056900024,0.2177986055612564,-0.4561954736709595
5.592034339904785,-0.04203233867883682,-1.0523802042007446,0.8970903158187866,1.0887551307678223,0.2313186228275299,-0.4557342529296875
5.612339019775391,-0.022496450692415237,-1.0456594228744507,0.9122866988182068,1.0933088064193726,0.25098320841789246,-0.4559645652770996
5.632436275482178,-0.01413021981716156,-1.0422697067260742,0.9196304082870483,1.095231533050537,0.26011738181114197,-0.45634424686431885
5.652493476867676,-0.003932970575988293,-1.0400844812393188,0.9290191531181335,1.0992928743362427,0.2701829671859741,-0.45702123641967773
5.672570705413818,-0.008149238303303719,-1.043073296546936,0.9307074546813965,1.0985223054885864,0.2639262080192566,-0.4574127197265625
5.692725419998169,-0.024296585470438004,-1.0496997833251953,0.9246792793273926,1.094663381576538,0.24654521048069,-0.4580804407596588
5.712761640548706,-0.04489455744624138,-1.058454990386963,0.9149949550628662,1.0901050567626953,0.22220361232757568,-0.45703476667404175
5.732860326766968,-0.05259518325328827,-1.061789631843567,0.9122987985610962,1.0889345407485962,0.21180160343647003,-0.45606252551078796
5.752922058105469,-0.057803940027952194,-1.0637520551681519,0.9052954912185669,1.0879663228988647,0.20439505577087402,-0.4545832872390747
5.772974491119385,-0.0453411340713501,-1.0597869157791138,0.9072170853614807,1.0925477743148804,0.21593794226646423,-0.45349782705307007
5.79310154914856,-0.03989676013588905,-1.0582257509231567,0.9120027422904968,1.0945425033569336,0.21983221173286438,-0.4530220329761505
5.813145160675049,-0.02507946453988552,-1.0517631769180298,0.924349308013916,1.0985361337661743,0.23414796590805054,-0.4528736472129822
5.833217144012451,-0.00999221857637167,-1.0440086126327515,0.9334837198257446,1.1012697219848633,0.25284165143966675,-0.45393580198287964
5.853294849395752,-0.005265025421977043,-1.042398452758789,0.9368488192558289,1.1022833585739136,0.2582250237464905,-0.45457133650779724
5.873368740081787,-0.013860881328582764,-1.0449743270874023,0.9330379366874695,1.0987648963928223,0.25173768401145935,-0.4562329053878784
5.893465995788574,-0.0295039564371109,-1.0483733415603638,0.9180946946144104,1.0913019180297852,0.24173399806022644,-0.45838233828544617
5.913569450378418,-0.038759004324674606,-1.0511243343353271,0.9084056615829468,1.0878996849060059,0.234743133187294,-0.4588649868965149
5.933710336685181,-0.05231272056698799,-1.0566128492355347,0.8982363343238831,1.084454894065857,0.22073976695537567,-0.4584222435951233
5.953723192214966,-0.06402637809515,-1.0626477003097534,0.8919298648834229,1.0817251205444336,0.20439736545085907,-0.45653077960014343
5.97392201423645,-0.05623572692275047,-1.0607045888900757,0.8933143615722656,1.0850043296813965,0.21126969158649445,-0.4557114541530609
5.9939610958099365,-0.04122970998287201,-1.0579020977020264,0.9063450694084167,1.091295599937439,0.22063197195529938,-0.4538041353225708
6.014070749282837,-0.026573892682790756,-1.0524773597717285,0.9210244417190552,1.0955922603607178,0.2331639528274536,-0.4532276690006256
6.034212112426758,-0.01573054865002632,-1.0478407144546509,0.9302839636802673,1.0990220308303833,0.24393302202224731,-0.4531540274620056
6.054354190826416,0.0005642962642014027,-1.043304443359375,0.9458784461021423,1.1050993204116821,0.25751793384552,-0.45299357175827026
6.074324369430542,-0.006288147531449795,-1.0437380075454712,0.9423241019248962,1.1022802591323853,0.25452277064323425,-0.4547799229621887
6.0944013595581055,-0.011405909433960915,-1.0451290607452393,0.9397826790809631,1.1009154319763184,0.2502788305282593,-0.45534244179725647
6.114503860473633,-0.028037628158926964,-1.0493502616882324,0.9287554025650024,1.0947052240371704,0.2364865392446518,-0.45674657821655273
6.134551048278809,-0.04886985570192337,-1.0565123558044434,0.9101260304450989,1.0881259441375732,0.21700845658779144,-0.4566539525985718
6.154645681381226,-0.05759669095277786,-1.0585501194000244,0.9012312889099121,1.0848290920257568,0.21003654599189758,-0.4566861391067505
6.17472243309021,-0.06065148860216141,-1.060251235961914,0.8938069939613342,1.083526611328125,0.20599529147148132,-0.4556627869606018
6.194784164428711,-0.054061368107795715,-1.0584022998809814,0.8958216309547424,1.0859711170196533,0.21209803223609924,-0.4550377428531647
6.214870929718018,-0.038912367075681686,-1.0540032386779785,0.9046640396118164,1.090184211730957,0.2259889841079712,-0.4541747570037842
6.23503565788269,-0.0166613906621933,-1.0455124378204346,0.9231306314468384,1.096860408782959,0.24820806086063385,-0.4539419710636139
6.25509238243103,-0.007583233527839184,-1.042145013809204,0.931374192237854,1.099790334701538,0.25749295949935913,-0.4541231095790863
6.275171279907227,-0.0003340271068736911,-1.0384800434112549,0.9390217065811157,1.1015889644622803,0.267332524061203,-0.45549970865249634
6.295217990875244,-0.013083224184811115,-1.0420033931732178,0.9317310452461243,1.0964857339859009,0.258068710565567,-0.45749321579933167
6.315298318862915,-0.020511873066425323,-1.0438026189804077,0.9267609715461731,1.0936098098754883,0.252518892288208,-0.4585074484348297
6.3353753089904785,-0.04235891252756119,-1.0506057739257812,0.9077184796333313,1.0860358476638794,0.2340962439775467,-0.45934733748435974
6.356290817260742,-0.06385447084903717,-1.0603253841400146,0.8918097019195557,1.0807092189788818,0.20859190821647644,-0.4572909474372864
6.376381874084473,-0.06703285872936249,-1.0618315935134888,0.8899060487747192,1.080040454864502,0.2038954198360443,-0.45653900504112244
6.396480083465576,-0.05206733196973801,-1.0590721368789673,0.8964420557022095,1.086414098739624,0.21464350819587708,-0.4547392725944519
6.4166131019592285,-0.04623030871152878,-1.0591154098510742,0.9020524621009827,1.0895212888717651,0.2165754735469818,-0.45367109775543213
6.436679840087891,-0.028327621519565582,-1.0528564453125,0.9187696576118469,1.0969854593276978,0.23149773478507996,-0.4528382420539856
6.45674991607666,-0.006488116458058357,-1.0442627668380737,0.9390820264816284,1.1042852401733398,0.25138506293296814,-0.4529256820678711
6.476804971694946,0.002889326773583889,-1.0412299633026123,0.9482163190841675,1.1079405546188354,0.2595297396183014,-0.4528799057006836
6.496892929077148,-0.007180794607847929,-1.0428277254104614,0.9411823749542236,1.1019543409347534,0.25420644879341125,-0.4551420211791992
6.517090082168579,-0.02384304255247116,-1.0467820167541504,0.9284464120864868,1.094722867012024,0.24204480648040771,-0.45711714029312134
6.5371856689453125,-0.03275420516729355,-1.048919439315796,0.9201976656913757,1.090868353843689,0.23566564917564392,-0.4578944444656372
6.55730414390564,-0.05691111460328102,-1.056696891784668,0.897201418876648,1.0828642845153809,0.21438588201999664,-0.4577349126338959
6.577359437942505,-0.06531983613967896,-1.0604259967803955,0.8911731243133545,1.0810225009918213,0.20437465608119965,-0.45680901408195496
6.597494125366211,-0.05915427207946777,-1.0599557161331177,0.891965389251709,1.0837011337280273,0.20751190185546875,-0.45521780848503113
6.61753511428833,-0.0476657897233963,-1.058824896812439,0.9001450538635254,1.0891914367675781,0.21400633454322815,-0.4532070755958557
6.637612581253052,-0.03927703574299812,-1.0564050674438477,0.9079042077064514,1.0918408632278442,0.2205943614244461,-0.452667772769928
6.657702684402466,-0.018243152648210526,-1.0476421117782593,0.9251517057418823,1.0977470874786377,0.24163663387298584,-0.4525589048862457
6.677743673324585,0.0008372622542083263,-1.0411653518676758,0.942210853099823,1.1043039560317993,0.2597126066684723,-0.4528089761734009
6.697840213775635,-0.001784750260412693,-1.0398112535476685,0.9403403997421265,1.1017225980758667,0.2609304189682007,-0.45431429147720337
6.71796441078186,-0.01293361559510231,-1.0425190925598145,0.930243194103241,1.0966876745224,0.2548264265060425,-0.45641010999679565
6.7380664348602295,-0.023076828569173813,-1.0455665588378906,0.9228295683860779,1.0931086540222168,0.2466975301504135,-0.457290917634964
6.758207321166992,-0.046519793570041656,-1.0539982318878174,0.9049664735794067,1.0856127738952637,0.2247346043586731,-0.4576743543148041
6.7782628536224365,-0.06767553091049194,-1.0633715391159058,0.8917620778083801,1.0813679695129395,0.19916962087154388,-0.4554126262664795
6.798354864120483,-0.06454571336507797,-1.062835693359375,0.8926706910133362,1.0827553272247314,0.20061010122299194,-0.45464980602264404
6.8184287548065186,-0.052353039383888245,-1.059259057044983,0.8979213833808899,1.0874240398406982,0.21106310188770294,-0.4533030092716217
6.838596343994141,-0.02993055246770382,-1.0529711246490479,0.9143807888031006,1.0956056118011475,0.23004010319709778,-0.4516882300376892
6.858694553375244,-0.021071994677186012,-1.0485275983810425,0.9209239482879639,1.097447395324707,0.24037766456604004,-0.452036052942276
6.878772735595703,-0.0028264010325074196,-1.0399420261383057,0.9339760541915894,1.1020301580429077,0.2621197998523712,-0.45301470160484314
6.898859977722168,-0.0008109880145639181,-1.0396296977996826,0.9374516010284424,1.1024835109710693,0.26433831453323364,-0.4537142813205719
6.918926477432251,-0.014375985600054264,-1.0433658361434937,0.9293311834335327,1.0956696271896362,0.25454866886138916,-0.45605817437171936
6.938993692398071,-0.03414413332939148,-1.0493377447128296,0.9119771718978882,1.0879278182983398,0.2393806129693985,-0.45775270462036133
6.959075689315796,-0.04314696788787842,-1.0532995462417603,0.9055649638175964,1.0852104425430298,0.22996094822883606,-0.45772942900657654
6.9791483879089355,-0.059388577938079834,-1.0612194538116455,0.8954582810401917,1.0823707580566406,0.20986515283584595,-0.45593759417533875
6.999199390411377,-0.0566348098218441,-1.0608811378479004,0.897912859916687,1.0850695371627808,0.2096058577299118,-0.4543263912200928
7.019315719604492,-0.04899154230952263,-1.0583120584487915,0.9008468389511108,1.088191270828247,0.2169584184885025,-0.4536301791667938
7.039408445358276,-0.030250027775764465,-1.0528637170791626,0.9177155494689941,1.0958890914916992,0.23161858320236206,-0.45217716693878174
7.059494972229004,-0.015745148062705994,-1.0468053817749023,0.9302938580513,1.1004376411437988,0.24571840465068817,-0.45173409581184387
7.079585552215576,0.0003135646693408489,-1.0405266284942627,0.9435746669769287,1.1053681373596191,0.26238569617271423,-0.45197468996047974
7.09964656829834,0.004115504678338766,-1.0384817123413086,0.9481558799743652,1.1061537265777588,0.26692959666252136,-0.4527304172515869
7.119718790054321,-0.006717543583363295,-1.043198823928833,0.9454925060272217,1.1022015810012817,0.25586748123168945,-0.4541146755218506
7.139773607254028,-0.026941843330860138,-1.0473552942276,0.9279065132141113,1.0927424430847168,0.24178411066532135,-0.45656728744506836
7.159996747970581,-0.03812599927186966,-1.0504124164581299,0.915890097618103,1.0885075330734253,0.23334068059921265,-0.4572155773639679
7.1800148487091064,-0.060289166867733,-1.0572612285614014,0.895735502243042,1.0822349786758423,0.21333347260951996,-0.4570464789867401
7.200235366821289,-0.06494419276714325,-1.0611095428466797,0.8883565664291382,1.0811553001403809,0.2046201080083847,-0.45545095205307007
7.220293760299683,-0.0608099102973938,-1.0601752996444702,0.8883405923843384,1.082429051399231,0.20807179808616638,-0.45486339926719666
7.240346431732178,-0.045759767293930054,-1.0570157766342163,0.8964455127716064,1.087138295173645,0.21978861093521118,-0.4533925950527191
7.260453939437866,-0.035907912999391556,-1.0549497604370117,0.9075740575790405,1.090538740158081,0.22608882188796997,-0.45268771052360535
7.2805705070495605,-0.01145863439887762,-1.0456918478012085,0.930520236492157,1.0980960130691528,0.24859291315078735,-0.4523351192474365
7.300621747970581,-0.0016251215711236,-1.042253017425537,0.9406737089157104,1.1022827625274658,0.25742143392562866,-0.45225897431373596
7.320711374282837,0.007741153240203857,-1.0389089584350586,0.9526287317276001,1.1060829162597656,0.26611799001693726,-0.4530349373817444
7.340777635574341,-0.004758061841130257,-1.042405605316162,0.9477497339248657,1.101170539855957,0.2557004690170288,-0.4549536108970642
7.360935211181641,-0.014552325010299683,-1.0447298288345337,0.9426552653312683,1.0973293781280518,0.24749794602394104,-0.45598360896110535
7.3810036182403564,-0.03317636251449585,-1.0497183799743652,0.9257605671882629,1.0916554927825928,0.2328677773475647,-0.4569738805294037
7.401091575622559,-0.055609773844480515,-1.0586049556732178,0.9067067503929138,1.08551025390625,0.20902734994888306,-0.455485463142395
7.421167850494385,-0.06193798407912254,-1.0593738555908203,0.898476243019104,1.0824174880981445,0.20510825514793396,-0.4555875062942505
7.441237211227417,-0.05787459388375282,-1.0586985349655151,0.8943206667900085,1.0837053060531616,0.20880620181560516,-0.45478934049606323
7.461950302124023,-0.04846775159239769,-1.056257724761963,0.8994050621986389,1.0868197679519653,0.21688717603683472,-0.4542643427848816
7.482093572616577,-0.024513019248843193,-1.048326849937439,0.9162085056304932,1.0943396091461182,0.23979239165782928,-0.4534549415111542
7.502123832702637,-0.0014691343531012535,-1.040195345878601,0.9366077184677124,1.1005390882492065,0.2622958719730377,-0.4535600543022156
7.522225618362427,0.010012570768594742,-1.0367002487182617,0.9487600922584534,1.1050463914871216,0.2721840739250183,-0.4535670578479767
7.5423583984375,0.007373981177806854,-1.0365570783615112,0.9526535868644714,1.1030280590057373,0.2714393138885498,-0.45577365159988403
7.562463283538818,-0.0007742205634713173,-1.0392686128616333,0.9512391686439514,1.1011161804199219,0.2634003758430481,-0.45644113421440125
7.582650184631348,-0.019904933869838715,-1.0434478521347046,0.939117431640625,1.093665361404419,0.24822896718978882,-0.4587668180465698
7.60271692276001,-0.030065789818763733,-1.0463483333587646,0.9315323233604431,1.0911097526550293,0.23936086893081665,-0.4591614902019501
7.622833013534546,-0.04603190720081329,-1.0532957315444946,0.9188650846481323,1.0889580249786377,0.22157412767410278,-0.45811402797698975
7.64309024810791,-0.059944529086351395,-1.0584204196929932,0.9067114591598511,1.0852956771850586,0.20626112818717957,-0.4569375813007355
7.663131475448608,-0.06219418719410896,-1.0598212480545044,0.9009482860565186,1.0851154327392578,0.20316001772880554,-0.4560842216014862
7.683239221572876,-0.05452527850866318,-1.0574747323989868,0.896896481513977,1.087256908416748,0.2113642692565918,-0.4552188217639923
7.703508138656616,-0.03720937669277191,-1.0522693395614624,0.9052994251251221,1.0915355682373047,0.22816503047943115,-0.45488423109054565
7.723664283752441,-0.02512541227042675,-1.0478029251098633,0.9144369959831238,1.093755841255188,0.24027174711227417,-0.4550466537475586
7.743696212768555,-0.008575457148253918,-1.041785717010498,0.9274073839187622,1.0977985858917236,0.25787854194641113,-0.4557606875896454
7.763841152191162,-0.001335994340479374,-1.0399463176727295,0.9337068796157837,1.100261926651001,0.2648530900478363,-0.45604971051216125
7.783963203430176,-0.0016858938615769148,-1.0418434143066406,0.9421201944351196,1.1012797355651855,0.26180925965309143,-0.45685505867004395
7.8046040534973145,-0.0171519685536623,-1.0469940900802612,0.9374034404754639,1.0965194702148438,0.24660377204418182,-0.4578613042831421
7.824756145477295,-0.024155238643288612,-1.0491960048675537,0.9324960112571716,1.0949143171310425,0.2402370572090149,-0.4580919146537781
7.844836711883545,-0.04284078627824783,-1.057647943496704,0.9208399057388306,1.0928500890731812,0.21801629662513733,-0.45635148882865906
7.864941358566284,-0.04739592596888542,-1.0595237016677856,0.9172190427780151,1.0920450687408447,0.21231012046337128,-0.4557039737701416
7.885093450546265,-0.05389707535505295,-1.0610342025756836,0.9114912152290344,1.0906857252120972,0.2049620896577835,-0.4546571969985962
7.905136585235596,-0.044388297945261,-1.0565592050552368,0.9092586636543274,1.0925827026367188,0.21683579683303833,-0.45437783002853394
7.925209045410156,-0.037821777164936066,-1.0540844202041626,0.912645697593689,1.093645453453064,0.22362282872200012,-0.4543682336807251
7.945285081863403,-0.020579949021339417,-1.0471291542053223,0.9221124649047852,1.0971012115478516,0.2428896278142929,-0.4546256959438324
7.9653637409210205,-0.006067646201699972,-1.04116952419281,0.9279953241348267,1.1000711917877197,0.26192551851272583,-0.4556112587451935
7.985545873641968,-0.0034693870693445206,-1.0402941703796387,0.933344841003418,1.1004003286361694,0.26440566778182983,-0.4564365744590759
8.005578756332397,-0.009161580353975296,-1.0428862571716309,0.9370482563972473,1.0985546112060547,0.25782525539398193,-0.4579033851623535
8.02567172050476,-0.01874210312962532,-1.0461468696594238,0.9323360323905945,1.0950640439987183,0.24915802478790283,-0.45917248725891113
8.045730113983154,-0.026058167219161987,-1.0486891269683838,0.9269579648971558,1.0934957265853882,0.24251192808151245,-0.4593316912651062
8.065844774246216,-0.04081018641591072,-1.055675745010376,0.9187839031219482,1.0919679403305054,0.2246183305978775,-0.4580191373825073
8.085950374603271,-0.04943881556391716,-1.060080885887146,0.9150794744491577,1.0905797481536865,0.21186544001102448,-0.4564400613307953
8.106067657470703,-0.050783153623342514,-1.0600874423980713,0.9140448570251465,1.0907727479934692,0.21002885699272156,-0.4558122158050537
8.126152515411377,-0.04347693920135498,-1.0563997030258179,0.9129807949066162,1.0936840772628784,0.21867892146110535,-0.4550327956676483
8.146414756774902,-0.0389694981276989,-1.0548871755599976,0.9153205156326294,1.0950520038604736,0.22283709049224854,-0.45485827326774597
8.166517496109009,-0.022678114473819733,-1.0486905574798584,0.921968936920166,1.099161982536316,0.2409050315618515,-0.45495885610580444
8.186603546142578,-0.010842087678611279,-1.0441900491714478,0.9266552925109863,1.1013482809066772,0.25585031509399414,-0.4559609293937683
8.206712484359741,-0.009514238685369492,-1.0444515943527222,0.9300397038459778,1.1018668413162231,0.2564692199230194,-0.4564344584941864
8.226776599884033,-0.016105350106954575,-1.0467233657836914,0.9302770495414734,1.0984026193618774,0.250302255153656,-0.4578625559806824
8.24681544303894,-0.025756385177373886,-1.050808310508728,0.926455557346344,1.0957876443862915,0.24006345868110657,-0.458321750164032
8.266911745071411,-0.03155897557735443,-1.0531443357467651,0.922416090965271,1.0942240953445435,0.23411628603935242,-0.4582427144050598
8.28698444366455,-0.04372991621494293,-1.058371663093567,0.9171057343482971,1.0927191972732544,0.21920669078826904,-0.4568038582801819
8.307125329971313,-0.046426206827163696,-1.059153437614441,0.9144078493118286,1.0920264720916748,0.21543800830841064,-0.4560390114784241
8.327298879623413,-0.04526884853839874,-1.057897686958313,0.9140653610229492,1.0921274423599243,0.21725866198539734,-0.45594340562820435
8.347363471984863,-0.0381077416241169,-1.054884910583496,0.9195205569267273,1.0947816371917725,0.2234249711036682,-0.45524513721466064
8.367578029632568,-0.02670815959572792,-1.049776554107666,0.9231792688369751,1.0977225303649902,0.237127885222435,-0.45531296730041504
8.387722730636597,-0.020786743611097336,-1.0476820468902588,0.9262757301330566,1.0991103649139404,0.24363543093204498,-0.4555363655090332
8.407876014709473,-0.011965027078986168,-1.0438951253890991,0.9256430864334106,1.1003544330596924,0.25733810663223267,-0.4567309021949768
8.428176403045654,-0.018690556287765503,-1.0463863611221313,0.9249258041381836,1.0961030721664429,0.2513902187347412,-0.45843201875686646
8.44827389717102,-0.023143528029322624,-1.0480902194976807,0.9237488508224487,1.09489905834198,0.2469579577445984,-0.4588148295879364
8.468360662460327,-0.03451106697320938,-1.0529478788375854,0.9153711795806885,1.0920917987823486,0.2356143593788147,-0.4589061737060547
8.488686323165894,-0.04082819074392319,-1.055998682975769,0.912032961845398,1.0905922651290894,0.2279677838087082,-0.45844900608062744
8.508786916732788,-0.04727489501237869,-1.0591198205947876,0.9117445349693298,1.089860439300537,0.21817870438098907,-0.45721250772476196
8.528837442398071,-0.04738285392522812,-1.0584806203842163,0.9128183126449585,1.0900652408599854,0.2169390469789505,-0.4564439058303833
8.548924207687378,-0.04351385682821274,-1.0572274923324585,0.9141315221786499,1.0919383764266968,0.22016587853431702,-0.4558882415294647
8.568994998931885,-0.029806748032569885,-1.0525877475738525,0.9230673909187317,1.0973576307296753,0.2323964238166809,-0.45501458644866943
8.589051485061646,-0.01816091686487198,-1.0479767322540283,0.9281795024871826,1.10048508644104,0.2455233782529831,-0.45524173974990845
8.6091468334198,-0.013392964377999306,-1.0466266870498657,0.9287771582603455,1.1017870903015137,0.25133633613586426,-0.455572247505188
8.629216432571411,-0.011692924425005913,-1.046303391456604,0.9316664338111877,1.1014883518218994,0.25381577014923096,-0.4566619098186493
8.649511575698853,-0.02313907817006111,-1.0492823123931885,0.9257824420928955,1.0965955257415771,0.2443947046995163,-0.4581480026245117
8.669599533081055,-0.030195487663149834,-1.0513867139816284,0.9207634329795837,1.0933680534362793,0.2383200079202652,-0.4587806761264801
8.68969202041626,-0.04431317746639252,-1.0576462745666504,0.9110206365585327,1.0899937152862549,0.22260139882564545,-0.4579692482948303
8.709761619567871,-0.04978325963020325,-1.0595684051513672,0.9096337556838989,1.0885694026947021,0.21597015857696533,-0.4574228823184967
8.729857683181763,-0.0549236424267292,-1.0608466863632202,0.9057376980781555,1.0867919921875,0.21008388698101044,-0.45651116967201233
8.750076293945312,-0.046417731791734695,-1.0584511756896973,0.9054619669914246,1.0907410383224487,0.2181159108877182,-0.45527052879333496
8.770167589187622,-0.03752019628882408,-1.0553897619247437,0.9102186560630798,1.0941126346588135,0.22682631015777588,-0.4547771215438843
8.790244817733765,-0.021458666771650314,-1.0494205951690674,0.9193176031112671,1.098210334777832,0.24412448704242706,-0.4548928737640381
8.810297012329102,-0.0147750498726964,-1.0474574565887451,0.9248771667480469,1.1001791954040527,0.2504982054233551,-0.4550495743751526
8.83038878440857,-0.0004286663606762886,-1.0428440570831299,0.937312126159668,1.1047985553741455,0.2647620439529419,-0.4555988907814026
8.850504398345947,-0.0009440942667424679,-1.0438019037246704,0.9417720437049866,1.104844570159912,0.2627391219139099,-0.4559960961341858
8.87069034576416,-0.008720243349671364,-1.0462783575057983,0.9422780871391296,1.1024730205535889,0.2548876404762268,-0.4570780396461487
8.891300201416016,-0.021700553596019745,-1.0499646663665771,0.9359397888183594,1.098964810371399,0.24305462837219238,-0.45752260088920593
8.911547422409058,-0.029923658818006516,-1.0527602434158325,0.9301837086677551,1.0971789360046387,0.23526903986930847,-0.4571933150291443
8.931568145751953,-0.04256727546453476,-1.0575064420700073,0.9199537038803101,1.093773365020752,0.2221524566411972,-0.4562145471572876
8.951652765274048,-0.04534216597676277,-1.0580782890319824,0.9173948168754578,1.092903971672058,0.2195514589548111,-0.45589888095855713
8.971716403961182,-0.0458870492875576,-1.0574942827224731,0.9148774147033691,1.0931161642074585,0.21927081048488617,-0.4551275074481964
8.991768836975098,-0.03445159271359444,-1.0525389909744263,0.918692946434021,1.0954957008361816,0.232310950756073,-0.45499372482299805
9.011857032775879,-0.02630694769322872,-1.0491174459457397,0.9226434230804443,1.0971179008483887,0.24169349670410156,-0.4551314115524292
9.03196406364441,-0.0102942930534482,-1.0421558618545532,0.929753303527832,1.1007184982299805,0.26188766956329346,-0.45588207244873047
9.052440166473389,-0.010942429304122925,-1.0429913997650146,0.9326379299163818,1.1004078388214111,0.2618890106678009,-0.4571310579776764
9.072607517242432,-0.016143593937158585,-1.0442527532577515,0.9303860068321228,1.0975782871246338,0.2579686641693115,-0.4581124186515808
9.092666864395142,-0.02997172251343727,-1.0486841201782227,0.9197717905044556,1.0928685665130615,0.246530681848526,-0.4591730237007141
9.112897872924805,-0.04398775100708008,-1.056144118309021,0.9103562235832214,1.0907436609268188,0.22924388945102692,-0.4581008851528168
9.133013725280762,-0.0511857345700264,-1.0599745512008667,0.9071006178855896,1.0890449285507202,0.21918821334838867,-0.4571755528450012
9.15310263633728,-0.05656851828098297,-1.0621390342712402,0.9031693935394287,1.087361454963684,0.21145325899124146,-0.4559159278869629
9.17317819595337,-0.05057884752750397,-1.0606236457824707,0.9059780836105347,1.0901861190795898,0.2158241719007492,-0.4551740288734436
9.193350791931152,-0.03484151139855385,-1.0560263395309448,0.9148697257041931,1.09636390209198,0.2291475236415863,-0.45373404026031494
9.21364712715149,-0.013984275981783867,-1.0473932027816772,0.929629921913147,1.1018067598342896,0.2510286271572113,-0.4537484347820282
9.233717679977417,-0.006715159863233566,-1.0454697608947754,0.9355869889259338,1.103985071182251,0.2577170729637146,-0.45381101965904236
9.253889322280884,-0.003136290004476905,-1.0422409772872925,0.9418020248413086,1.1038669347763062,0.2638248801231384,-0.4554043412208557
9.27420711517334,-0.013013050891458988,-1.044365644454956,0.9357547760009766,1.0996448993682861,0.25694796442985535,-0.45732054114341736
9.294302225112915,-0.020273888483643532,-1.0468127727508545,0.9310357570648193,1.097078800201416,0.25036847591400146,-0.45806241035461426
9.314371347427368,-0.039254941046237946,-1.0543324947357178,0.9158720970153809,1.0924385786056519,0.23151129484176636,-0.45782536268234253
9.334484338760376,-0.05041636526584625,-1.0582842826843262,0.905552089214325,1.089213490486145,0.22062711417675018,-0.4573989510536194
9.354596614837646,-0.06093717738986015,-1.0624107122421265,0.8970389366149902,1.08613121509552,0.20847293734550476,-0.4563867151737213
9.374687910079956,-0.05264758691191673,-1.0602294206619263,0.9018411040306091,1.0894109010696411,0.21400240063667297,-0.4549943804740906
9.394819498062134,-0.047429610043764114,-1.0590026378631592,0.9046008586883545,1.0914149284362793,0.2179567813873291,-0.454273521900177
9.414858341217041,-0.028704455122351646,-1.052648663520813,0.918232798576355,1.0975701808929443,0.23495611548423767,-0.4535723030567169
9.43515920639038,-0.017805855721235275,-1.0480070114135742,0.9260431528091431,1.1001629829406738,0.24669136106967926,-0.45367276668548584
9.455290794372559,0.0008026682771742344,-1.0414866209030151,0.9407719969749451,1.1059362888336182,0.2654723823070526,-0.45402467250823975
9.475309133529663,-0.008300144225358963,-1.0442900657653809,0.9393019676208496,1.1024140119552612,0.25758183002471924,-0.45561569929122925
9.495402812957764,-0.015530431643128395,-1.0461888313293457,0.9363889694213867,1.0995615720748901,0.25122854113578796,-0.45651933550834656
9.515501022338867,-0.030647531151771545,-1.0513825416564941,0.9241566061973572,1.0949804782867432,0.23769932985305786,-0.4572676122188568
9.536542415618896,-0.04951132461428642,-1.0588023662567139,0.9087224006652832,1.0904197692871094,0.21813854575157166,-0.45623505115509033
9.55664587020874,-0.05642439052462578,-1.0617930889129639,0.9041246771812439,1.0884747505187988,0.2097133994102478,-0.4554795026779175
9.576778650283813,-0.05760272219777107,-1.0609468221664429,0.8982738256454468,1.0868849754333496,0.2098628580570221,-0.45498812198638916
9.597214698791504,-0.05065290629863739,-1.0589592456817627,0.901238203048706,1.089625358581543,0.21592864394187927,-0.45437300205230713
9.617316722869873,-0.032431021332740784,-1.0539534091949463,0.9121757745742798,1.0959014892578125,0.23208478093147278,-0.4533131718635559
9.63741159439087,-0.013921063393354416,-1.044822335243225,0.9247404336929321,1.0993489027023315,0.2541438341140747,-0.4541739523410797
9.657493114471436,-0.0067053548991680145,-1.0425760746002197,0.931337833404541,1.101436734199524,0.26131004095077515,-0.45449164509773254
9.677662372589111,-0.0120770912617445,-1.0438309907913208,0.9317016005516052,1.097921371459961,0.2579500079154968,-0.4563266932964325
9.69774341583252,-0.017433881759643555,-1.04561448097229,0.9272212982177734,1.0961626768112183,0.2539878189563751,-0.4571014940738678
9.717878341674805,-0.031578000634908676,-1.051774263381958,0.915800929069519,1.0927789211273193,0.24038086831569672,-0.45758822560310364
9.737940788269043,-0.04131174460053444,-1.05637526512146,0.9130555391311646,1.0908558368682861,0.22805996239185333,-0.4568467438220978
9.758043050765991,-0.053969983011484146,-1.0616792440414429,0.9050458073616028,1.0882291793823242,0.21298792958259583,-0.4553914964199066
9.778175115585327,-0.05198986083269119,-1.06111478805542,0.906331479549408,1.0893422365188599,0.21276861429214478,-0.45414867997169495
9.79833173751831,-0.04681200161576271,-1.0592036247253418,0.9070926308631897,1.0915699005126953,0.2180749475955963,-0.4535732567310333
9.81837010383606,-0.0313236266374588,-1.0539920330047607,0.91995769739151,1.0977531671524048,0.23106658458709717,-0.45250552892684937
9.838509559631348,-0.015648767352104187,-1.0470373630523682,0.9284732937812805,1.1006985902786255,0.24932989478111267,-0.45307204127311707
9.85859489440918,-0.009630851447582245,-1.0441635847091675,0.9315146803855896,1.1016254425048828,0.257276713848114,-0.4536038637161255
9.878685712814331,-0.011210635304450989,-1.0448352098464966,0.9319503307342529,1.100554347038269,0.2572377622127533,-0.45497286319732666
9.898823738098145,-0.018166907131671906,-1.047788143157959,0.9290666580200195,1.097957968711853,0.25000622868537903,-0.45564448833465576
9.918927192687988,-0.03673645481467247,-1.0551283359527588,0.9168644547462463,1.092069387435913,0.23123669624328613,-0.4560806155204773
9.938984394073486,-0.051909781992435455,-1.060060739517212,0.9035479426383972,1.0873236656188965,0.21674823760986328,-0.4557938575744629
9.959079265594482,-0.05909464508295059,-1.0631883144378662,0.8993849158287048,1.0861726999282837,0.20774272084236145,-0.45482051372528076
9.979160070419312,-0.05079154297709465,-1.061315655708313,0.9035261869430542,1.0897163152694702,0.2126968801021576,-0.45335620641708374
9.999683141708374,-0.03962494060397148,-1.0577415227890015,0.9106379151344299,1.0939172506332397,0.22230732440948486,-0.4523661136627197
10.019821882247925,-0.03155232220888138,-1.05434250831604,0.9178172945976257,1.0968167781829834,0.22997526824474335,-0.4521028995513916
10.039913892745972,-0.016481824219226837,-1.0475077629089355,0.9302151799201965,1.1002166271209717,0.24594654142856598,-0.4526074230670929
10.060152530670166,-0.006301925517618656,-1.0428272485733032,0.9359897375106812,1.1020896434783936,0.25920727849006653,-0.45366793870925903
10.08027958869934,-0.006483346223831177,-1.0432140827178955,0.936352014541626,1.102277159690857,0.2595980167388916,-0.45424017310142517
10.10034704208374,-0.017839644104242325,-1.0461314916610718,0.9297598004341125,1.0965332984924316,0.25129032135009766,-0.45638883113861084
10.120527505874634,-0.026583924889564514,-1.0487170219421387,0.9242017269134521,1.093552827835083,0.24383142590522766,-0.4570433497428894
10.140555620193481,-0.04415994510054588,-1.0571463108062744,0.912354588508606,1.0900877714157104,0.22349189221858978,-0.455905020236969
10.160612344741821,-0.0537220723927021,-1.0614041090011597,0.9054411053657532,1.0884358882904053,0.21166223287582397,-0.4547153115272522
10.180719375610352,-0.05620170384645462,-1.0622622966766357,0.9042454957962036,1.0876117944717407,0.20814985036849976,-0.45425012707710266
10.200789451599121,-0.04398611932992935,-1.0582860708236694,0.9089981317520142,1.0922023057937622,0.2191516011953354,-0.45310327410697937
10.220872163772583,-0.02798396907746792,-1.0530039072036743,0.9205387830734253,1.09773850440979,0.2336098700761795,-0.45227035880088806
10.240970849990845,-0.018692554906010628,-1.0486257076263428,0.9256728291511536,1.099449872970581,0.24472519755363464,-0.452511727809906
10.261080265045166,-0.00451253168284893,-1.0437324047088623,0.9357137680053711,1.103826642036438,0.2598802447319031,-0.45302435755729675
10.281134128570557,-0.0072939470410346985,-1.0436278581619263,0.9391082525253296,1.10115647315979,0.2586853802204132,-0.45484715700149536
10.301255464553833,-0.01409802958369255,-1.046005368232727,0.9361149668693542,1.0986623764038086,0.25232958793640137,-0.45556211471557617
10.321284055709839,-0.027552418410778046,-1.0503889322280884,0.9259911179542542,1.0940613746643066,0.24076992273330688,-0.45658737421035767
10.34139347076416,-0.03566594421863556,-1.0540844202041626,0.9203532934188843,1.0923444032669067,0.23179735243320465,-0.4562322795391083
10.361451148986816,-0.05153270065784454,-1.060799479484558,0.9077858924865723,1.0887824296951294,0.21408475935459137,-0.4548507034778595
10.381595373153687,-0.05612925440073013,-1.0627961158752441,0.9048116207122803,1.087666392326355,0.20688918232917786,-0.45355018973350525
10.401679277420044,-0.052954450249671936,-1.061623215675354,0.9048680067062378,1.0889137983322144,0.20968464016914368,-0.452932208776474
10.421764135360718,-0.03754193335771561,-1.056704044342041,0.9107926487922668,1.094504714012146,0.2245878130197525,-0.45189496874809265
10.441949605941772,-0.030004989355802536,-1.0543789863586426,0.9168504476547241,1.097055196762085,0.2312101125717163,-0.45164695382118225
10.462095499038696,-0.012675857171416283,-1.0473436117172241,0.9279589653015137,1.1010832786560059,0.2503742575645447,-0.45213326811790466
10.482183456420898,-0.003941119182854891,-1.0442779064178467,0.9374032616615295,1.103692889213562,0.2595650553703308,-0.45313170552253723
10.502304792404175,-0.008580228313803673,-1.0456600189208984,0.9382069110870361,1.1013343334197998,0.25496426224708557,-0.45401307940483093
10.522388219833374,-0.018409879878163338,-1.0472087860107422,0.933509111404419,1.0964123010635376,0.2481665015220642,-0.4559187591075897
10.542460441589355,-0.0367167592048645,-1.0545365810394287,0.9196783304214478,1.0915480852127075,0.22975528240203857,-0.45580530166625977
10.56251573562622,-0.046236686408519745,-1.058850646018982,0.9125072360038757,1.0900570154190063,0.21872368454933167,-0.4548230767250061
10.582608461380005,-0.058486342430114746,-1.0629501342773438,0.9010959267616272,1.0861164331436157,0.20624558627605438,-0.4539812505245209
10.602668046951294,-0.053246088325977325,-1.0602284669876099,0.9019665718078613,1.0872329473495483,0.21137717366218567,-0.4532412588596344
10.622751951217651,-0.04621193930506706,-1.0582056045532227,0.9044092893600464,1.089666485786438,0.21785946190357208,-0.4526193141937256
10.642830610275269,-0.028329405933618546,-1.0528173446655273,0.9164056777954102,1.0952844619750977,0.23414960503578186,-0.4520292282104492
10.66379165649414,-0.008362526074051857,-1.0454181432724,0.9318690299987793,1.1005027294158936,0.2546952962875366,-0.4521618187427521
10.683890342712402,0.002075349912047386,-1.0404160022735596,0.9397326111793518,1.1029804944992065,0.26714572310447693,-0.45252135396003723
10.703947305679321,0.005486937705427408,-1.0398188829421997,0.948163628578186,1.104164481163025,0.270186185836792,-0.453706294298172
10.724139213562012,-0.00015674717724323273,-1.0417789220809937,0.9481233358383179,1.102285623550415,0.26445063948631287,-0.4544384181499481
10.744148969650269,-0.0186740905046463,-1.047499179840088,0.9407046437263489,1.096351981163025,0.2464562952518463,-0.4557862877845764
10.764234781265259,-0.027918417006731033,-1.0499444007873535,0.9339830279350281,1.0937246084213257,0.23842813074588776,-0.456168532371521
10.784509658813477,-0.04858100414276123,-1.0568726062774658,0.9167219996452332,1.0895862579345703,0.218263179063797,-0.4554433822631836
10.804472208023071,-0.06208544597029686,-1.0604650974273682,0.9045182466506958,1.0849720239639282,0.20519833266735077,-0.4548247754573822
10.82463264465332,-0.05937059223651886,-1.0602234601974487,0.8980536460876465,1.0866609811782837,0.20823217928409576,-0.4541054964065552
10.84474229812622,-0.047278665006160736,-1.0561848878860474,0.9004501104354858,1.0900628566741943,0.22060003876686096,-0.4534914493560791
10.864890575408936,-0.032503318041563034,-1.0522291660308838,0.9096145033836365,1.0937211513519287,0.23410503566265106,-0.45344310998916626
10.884982585906982,-0.019679516553878784,-1.0477735996246338,0.9186499118804932,1.0968348979949951,0.24693158268928528,-0.4534793794155121
10.905049324035645,-0.0028227404691278934,-1.041674256324768,0.9335349798202515,1.1014381647109985,0.2644384503364563,-0.4541535973548889
10.925106525421143,0.000253231730312109,-1.041035532951355,0.938267707824707,1.1027246713638306,0.2671676278114319,-0.4546259045600891
10.945226669311523,-0.007956155575811863,-1.0430757999420166,0.9387638568878174,1.099484920501709,0.25998836755752563,-0.45647361874580383
10.965292692184448,-0.02297678031027317,-1.0469844341278076,0.930560827255249,1.0940446853637695,0.24699585139751434,-0.45810168981552124
10.985376834869385,-0.030461851507425308,-1.04988694190979,0.924898087978363,1.0921367406845093,0.23951582610607147,-0.4583267569541931
11.00549578666687,-0.05225424841046333,-1.0587130784988403,0.910607635974884,1.0877567529678345,0.21503788232803345,-0.45680058002471924
11.025522470474243,-0.06084694713354111,-1.0625524520874023,0.9025478959083557,1.0852549076080322,0.20355023443698883,-0.4553954005241394
11.045673370361328,-0.0591265894472599,-1.0623188018798828,0.8991130590438843,1.0865767002105713,0.20488156378269196,-0.4546239972114563
11.065735340118408,-0.04331522062420845,-1.056885004043579,0.9046606421470642,1.0908880233764648,0.2203693836927414,-0.45357751846313477
11.085781335830688,-0.02486293762922287,-1.0500109195709229,0.9191757440567017,1.0954113006591797,0.23802737891674042,-0.4532606303691864
11.105897426605225,-0.014373032376170158,-1.0450403690338135,0.9255347847938538,1.0974195003509521,0.250602662563324,-0.45363757014274597
11.126006364822388,0.00010221544653177261,-1.0391895771026611,0.9377843141555786,1.1013766527175903,0.26688385009765625,-0.4547135829925537
11.146050930023193,-0.00410762894898653,-1.040773868560791,0.9390168786048889,1.0993775129318237,0.2638248801231384,-0.45648252964019775
11.166260480880737,-0.011885656043887138,-1.0426747798919678,0.9345262050628662,1.0966194868087769,0.25794243812561035,-0.4575250744819641
11.186352968215942,-0.02875489369034767,-1.0476645231246948,0.9225378632545471,1.0906368494033813,0.24372228980064392,-0.4591512680053711
11.206425428390503,-0.04678704962134361,-1.0565345287322998,0.910111665725708,1.0884698629379272,0.22221767902374268,-0.45778489112854004
11.22651720046997,-0.05307786539196968,-1.0605647563934326,0.9077245593070984,1.0883445739746094,0.21192798018455505,-0.45640289783477783
11.246572256088257,-0.05363824963569641,-1.0611495971679688,0.9054926633834839,1.0881208181381226,0.2090299427509308,-0.4553225338459015
11.2666494846344,-0.04870481789112091,-1.0594631433486938,0.9078673720359802,1.0912747383117676,0.2129586786031723,-0.454453706741333
11.286725759506226,-0.030071789398789406,-1.0522265434265137,0.9200442433357239,1.0967601537704468,0.23099428415298462,-0.4537259638309479
11.30706262588501,-0.01340148039162159,-1.0450704097747803,0.9294252991676331,1.1002511978149414,0.2502880096435547,-0.4543251693248749
11.327155590057373,-0.00660337321460247,-1.0418332815170288,0.9331321716308594,1.1014822721481323,0.2591266632080078,-0.45493894815444946
11.347291946411133,-0.008044593967497349,-1.0423336029052734,0.9326341152191162,1.0995903015136719,0.25988325476646423,-0.45681220293045044
11.367425203323364,-0.015157820656895638,-1.0450431108474731,0.9300127029418945,1.0970818996429443,0.25295162200927734,-0.4575987458229065
11.38751482963562,-0.035562895238399506,-1.0514050722122192,0.915858268737793,1.0888551473617554,0.23501896858215332,-0.45902472734451294
11.40761399269104,-0.0536893792450428,-1.057680606842041,0.8997651934623718,1.083547592163086,0.21779865026474,-0.4588000774383545
11.427821636199951,-0.06386559456586838,-1.061669945716858,0.8924062252044678,1.0816090106964111,0.20635196566581726,-0.4577149748802185
11.447911024093628,-0.05857092887163162,-1.0610665082931519,0.8953728675842285,1.0848917961120605,0.20765598118305206,-0.4560231566429138
11.467989921569824,-0.04575871676206589,-1.059008002281189,0.9034690260887146,1.0908377170562744,0.21579928696155548,-0.4541889727115631
11.488077163696289,-0.038758788257837296,-1.0572826862335205,0.9094378352165222,1.0938011407852173,0.22079706192016602,-0.453449547290802
11.508184432983398,-0.020032141357660294,-1.0490796566009521,0.9236654043197632,1.0984416007995605,0.24035558104515076,-0.4537126421928406
11.528313636779785,-0.0037232600152492523,-1.041614055633545,0.9357547760009766,1.1025381088256836,0.25924843549728394,-0.45459163188934326
11.548445224761963,-0.0005965903401374817,-1.039668321609497,0.9377246499061584,1.102885365486145,0.2645297944545746,-0.4554605782032013
11.568487405776978,-0.013234429061412811,-1.0425429344177246,0.9317615628242493,1.096376895904541,0.2556450664997101,-0.4579232633113861
11.58856725692749,-0.022088220342993736,-1.0452229976654053,0.9260486364364624,1.0933080911636353,0.24829143285751343,-0.4586615562438965
11.60863971710205,-0.03800448775291443,-1.0506099462509155,0.9117113351821899,1.087744951248169,0.23495391011238098,-0.4595641493797302
11.628767251968384,-0.057539623230695724,-1.0588077306747437,0.8968502283096313,1.0832741260528564,0.21352390944957733,-0.45804882049560547
11.648859739303589,-0.062269214540719986,-1.0611790418624878,0.8941494226455688,1.0825997591018677,0.20693181455135345,-0.4571770429611206
11.668940305709839,-0.05466239154338837,-1.0605148077011108,0.8971337676048279,1.0870119333267212,0.21042588353157043,-0.4552760720252991
11.689135313034058,-0.03759035840630531,-1.056410789489746,0.9066654443740845,1.0932995080947876,0.22440025210380554,-0.45379403233528137
11.709231853485107,-0.028045637533068657,-1.0537868738174438,0.915535032749176,1.0968351364135742,0.2319568693637848,-0.453349769115448
11.72930359840393,-0.009895363822579384,-1.0464227199554443,0.9319184422492981,1.1021442413330078,0.24954545497894287,-0.45377275347709656
11.749382019042969,-0.0021026087924838066,-1.044245719909668,0.9402099847793579,1.105206847190857,0.2558448314666748,-0.45387065410614014
11.769454956054688,-0.008579123765230179,-1.04584538936615,0.9394173622131348,1.1015300750732422,0.2508378326892853,-0.45552515983581543
11.78951096534729,-0.023667048662900925,-1.0497524738311768,0.9297840595245361,1.0956482887268066,0.2384730726480484,-0.4569286108016968
11.809617757797241,-0.03220682963728905,-1.0518417358398438,0.9206899404525757,1.091949701309204,0.23242707550525665,-0.4577038884162903
11.829678773880005,-0.05067159980535507,-1.0597846508026123,0.9098047018051147,1.0876396894454956,0.21091507375240326,-0.45628252625465393
11.849879503250122,-0.0588388666510582,-1.0620828866958618,0.9027206897735596,1.0852247476577759,0.20218470692634583,-0.4550987482070923
11.869833946228027,-0.05319518595933914,-1.0605592727661133,0.9040495157241821,1.087384581565857,0.20689630508422852,-0.4544120132923126
11.889910221099854,-0.03805223107337952,-1.0559945106506348,0.9111081957817078,1.093313455581665,0.22082921862602234,-0.453235387802124
11.910062551498413,-0.01824457012116909,-1.0484213829040527,0.92876136302948,1.098791241645813,0.23964503407478333,-0.4529808461666107
11.930146932601929,-0.008448172360658646,-1.045250654220581,0.9378322958946228,1.101697325706482,0.24858808517456055,-0.4528622031211853
11.95020866394043,-0.0003603820223361254,-1.0389573574066162,0.9420828819274902,1.1023656129837036,0.26289260387420654,-0.4545592665672302
11.970330953598022,-0.003753629047423601,-1.0402413606643677,0.9426014423370361,1.1016483306884766,0.25974375009536743,-0.45533448457717896
11.990412712097168,-0.013125177472829819,-1.04201078414917,0.9386932849884033,1.0976141691207886,0.2531697154045105,-0.45734769105911255
12.010473489761353,-0.03179846331477165,-1.047784447669983,0.9223836660385132,1.0910687446594238,0.23809073865413666,-0.45872920751571655
12.030558347702026,-0.04381851479411125,-1.0520738363265991,0.9119447469711304,1.0878548622131348,0.22683660686016083,-0.45860201120376587
12.050625324249268,-0.06323926150798798,-1.0593690872192383,0.8955237865447998,1.08229660987854,0.20650023221969604,-0.45753517746925354
12.070676803588867,-0.06046473979949951,-1.0609462261199951,0.8946291208267212,1.0843350887298584,0.20456156134605408,-0.4556777775287628
12.090806007385254,-0.05384394899010658,-1.05918550491333,0.8955464363098145,1.086866021156311,0.21072037518024445,-0.45489928126335144
12.110845565795898,-0.034097835421562195,-1.053093433380127,0.9072187542915344,1.0933963060379028,0.22949182987213135,-0.45378053188323975
12.131128549575806,-0.009110883809626102,-1.045186996459961,0.9320099353790283,1.100513219833374,0.2509058117866516,-0.45326587557792664
12.151292324066162,0.002714423928409815,-1.040670394897461,0.941974937915802,1.1038086414337158,0.2630760669708252,-0.4532454013824463
12.171299457550049,0.00834647286683321,-1.036745309829712,0.9479067921638489,1.1049153804779053,0.27252197265625,-0.4550206959247589
12.191446304321289,0.008071186020970345,-1.0367227792739868,0.9499189853668213,1.1047389507293701,0.2729291021823883,-0.45583149790763855
12.211489915847778,-0.002479675691574812,-1.0399224758148193,0.9442797899246216,1.1018352508544922,0.265245258808136,-0.45747536420822144
12.231544017791748,-0.029950037598609924,-1.0476603507995605,0.9248017072677612,1.0924785137176514,0.24205735325813293,-0.4590018689632416
12.251631498336792,-0.04380849376320839,-1.0523732900619507,0.9142645597457886,1.0883022546768188,0.22868290543556213,-0.45904064178466797
12.271777629852295,-0.06265686452388763,-1.0595669746398926,0.9003320932388306,1.0843627452850342,0.20771457254886627,-0.4576297998428345
12.291838884353638,-0.0634528174996376,-1.0616990327835083,0.8931213617324829,1.0848183631896973,0.20363354682922363,-0.45598435401916504
12.311930656433105,-0.05734606459736824,-1.059131383895874,0.8920869827270508,1.0863900184631348,0.21100369095802307,-0.4556124806404114
12.331994533538818,-0.03968420997262001,-1.0549137592315674,0.9043003916740417,1.0919694900512695,0.22516712546348572,-0.4545173645019531
12.352171182632446,-0.02632480300962925,-1.0493382215499878,0.9150161743164062,1.094970941543579,0.23883840441703796,-0.4544121026992798
12.372204780578613,-0.004161243326961994,-1.0404143333435059,0.932410478591919,1.1003730297088623,0.2626523971557617,-0.45486804842948914
12.392249345779419,0.0011611602967604995,-1.0392552614212036,0.9426787495613098,1.102340579032898,0.26705020666122437,-0.45614030957221985
12.412357330322266,-0.001778272446244955,-1.0403212308883667,0.9400578141212463,1.1006416082382202,0.26557469367980957,-0.4571091830730438
12.432476282119751,-0.015624944120645523,-1.0446903705596924,0.9345611333847046,1.0964019298553467,0.2528069317340851,-0.4587818682193756
12.452584028244019,-0.036033544689416885,-1.0494474172592163,0.9180638194084167,1.0889806747436523,0.23714682459831238,-0.4601469337940216
12.472663164138794,-0.04870641976594925,-1.0543851852416992,0.9082334041595459,1.0858161449432373,0.22395673394203186,-0.4596676528453827
12.492716312408447,-0.06776589900255203,-1.0602883100509644,0.8915070295333862,1.1007338762283325,0.2128906548023224,-0.4474051892757416
12.512927532196045,-0.07046780735254288,-1.0602344274520874,0.8797748684883118,1.115983009338379,0.21952146291732788,-0.4374385476112366
12.533037900924683,-0.061913564801216125,-1.0577292442321777,0.8737998604774475,1.145637035369873,0.24008184671401978,-0.42045122385025024
12.553066492080688,-0.04519709199666977,-1.053794026374817,0.8803980350494385,1.1694077253341675,0.26499637961387634,-0.40768179297447205
12.573206901550293,-0.03708982467651367,-1.052332878112793,0.8849218487739563,1.179097294807434,0.27627623081207275,-0.40269485116004944
12.59327483177185,-0.018172990530729294,-1.0480676889419556,0.8974118232727051,1.195256233215332,0.30094876885414124,-0.39529356360435486
12.613353967666626,-0.005241242237389088,-1.0481793880462646,0.9052134156227112,1.2075310945510864,0.31629806756973267,-0.38947418332099915
12.63344693183899,-0.00195871340110898,-1.0485689640045166,0.9070658683776855,1.2111577987670898,0.32140788435935974,-0.3873862028121948
12.653525829315186,-0.004056897945702076,-1.053615927696228,0.9061496257781982,1.215510368347168,0.32015079259872437,-0.3834996223449707
12.673614978790283,-0.0065382118336856365,-1.0564278364181519,0.9040995836257935,1.2167975902557373,0.3178367018699646,-0.3816232979297638
12.693755865097046,-0.019573330879211426,-1.0647625923156738,0.8995275497436523,1.2168934345245361,0.3027890920639038,-0.37763741612434387
12.71487307548523,-0.03370261192321777,-1.0714739561080933,0.8986470103263855,1.2172096967697144,0.2857993245124817,-0.3732354938983917
12.73499870300293,-0.03977971524000168,-1.074319839477539,0.8995644450187683,1.2166012525558472,0.27730804681777954,-0.3709160387516022
12.755077838897705,-0.04091493412852287,-1.0767271518707275,0.9062203764915466,1.22017502784729,0.269280344247818,-0.365666002035141
12.775129556655884,-0.0395573228597641,-1.076686978340149,0.9096715450286865,1.222054123878479,0.2678435444831848,-0.36319467425346375
12.79526400566101,-0.03484068438410759,-1.0751676559448242,0.9155219793319702,1.224918246269226,0.2685796320438385,-0.358831524848938
12.815261602401733,-0.028249895200133324,-1.0724626779556274,0.9195238351821899,1.2273725271224976,0.27293306589126587,-0.3550626337528229
12.835356712341309,-0.024745268747210503,-1.0703766345977783,0.9202388525009155,1.2282960414886475,0.27685439586639404,-0.35353147983551025
12.855480432510376,-0.017968500033020973,-1.0675902366638184,0.9189884662628174,1.229488730430603,0.2843322455883026,-0.35078465938568115
12.875508546829224,-0.018289715051651,-1.067417860031128,0.9175507426261902,1.2285726070404053,0.28435128927230835,-0.3483520448207855
12.89560317993164,-0.020753663033246994,-1.068646788597107,0.9164102077484131,1.2280584573745728,0.2810719907283783,-0.3469412326812744
12.915741920471191,-0.027662187814712524,-1.0714715719223022,0.9143327474594116,1.2270491123199463,0.2717156410217285,-0.3438664376735687
12.93583607673645,-0.032295022159814835,-1.0728623867034912,0.9142735004425049,1.227722406387329,0.2644253373146057,-0.3404081165790558
12.955894947052002,-0.03404156118631363,-1.0733461380004883,0.9150658845901489,1.2285964488983154,0.26072704792022705,-0.33843088150024414
12.976035594940186,-0.034701358526945114,-1.0728815793991089,0.9212508201599121,1.2299234867095947,0.2557685971260071,-0.33459746837615967
12.996097564697266,-0.02890588343143463,-1.0701152086257935,0.9278450012207031,1.2336840629577637,0.2578820288181305,-0.3307915925979614
13.016190767288208,-0.025731485337018967,-1.0679347515106201,0.9295273423194885,1.2352641820907593,0.26084548234939575,-0.329319566488266
13.036302328109741,-0.020057734102010727,-1.0641494989395142,0.9305800199508667,1.2359870672225952,0.2670285701751709,-0.3273313045501709
13.056417226791382,-0.01811523362994194,-1.0627113580703735,0.9282242059707642,1.235184669494629,0.27000537514686584,-0.32672083377838135
13.076512336730957,-0.019669760018587112,-1.0625677108764648,0.9215236902236938,1.2328215837478638,0.2696942090988159,-0.3253965973854065
13.096692085266113,-0.025071853771805763,-1.064249038696289,0.9132556319236755,1.2298287153244019,0.26476195454597473,-0.3237582743167877
13.11672329902649,-0.02952207624912262,-1.0660321712493896,0.910493791103363,1.2281216382980347,0.2593962550163269,-0.322644978761673
13.136903524398804,-0.031769730150699615,-1.0669536590576172,0.911048173904419,1.2283620834350586,0.2544039785861969,-0.32002219557762146
13.157518148422241,-0.03039143607020378,-1.0661342144012451,0.9151430130004883,1.2298305034637451,0.25302720069885254,-0.31740617752075195
13.177615404129028,-0.02826143056154251,-1.0649250745773315,0.9176193475723267,1.2306114435195923,0.2542791962623596,-0.3163343667984009
13.197671175003052,-0.020976921543478966,-1.060192584991455,0.9214164018630981,1.2315704822540283,0.2624843418598175,-0.3150629699230194
13.217752695083618,-0.018643487244844437,-1.0594062805175781,0.9225398898124695,1.2315599918365479,0.26404356956481934,-0.31442317366600037
13.237862348556519,-0.01656448096036911,-1.0591264963150024,0.9226474761962891,1.2308775186538696,0.26458096504211426,-0.31313326954841614
13.257914781570435,-0.02147647738456726,-1.060678243637085,0.9182024002075195,1.2278672456741333,0.2588111162185669,-0.31195810437202454
13.278034448623657,-0.026846863329410553,-1.0627801418304443,0.9144836664199829,1.2251349687576294,0.2522915005683899,-0.3112506568431854
13.298148393630981,-0.035248544067144394,-1.0655566453933716,0.9080054759979248,1.2226978540420532,0.24195216596126556,-0.30922961235046387
13.318341255187988,-0.036704011261463165,-1.0661659240722656,0.9085202217102051,1.2233269214630127,0.23690283298492432,-0.30703142285346985
13.338422060012817,-0.036093514412641525,-1.0657472610473633,0.909674882888794,1.2238304615020752,0.23595073819160461,-0.3060652017593384
13.358470678329468,-0.02932107262313366,-1.062168002128601,0.9150949120521545,1.2251989841461182,0.2409040629863739,-0.30465078353881836
13.378573656082153,-0.023659219965338707,-1.0600676536560059,0.9201636910438538,1.2267718315124512,0.24488086998462677,-0.3038669228553772
13.398662567138672,-0.01370471902191639,-1.0549252033233643,0.9233237504959106,1.2283563613891602,0.25612157583236694,-0.30326783657073975
13.418706893920898,-0.006961027160286903,-1.0526132583618164,0.924625039100647,1.2298604249954224,0.2629490792751312,-0.3029228448867798
13.438798427581787,-0.010018657892942429,-1.0537989139556885,0.923523485660553,1.2285306453704834,0.25942811369895935,-0.30275803804397583
13.458985567092896,-0.0194675475358963,-1.0576857328414917,0.9201890230178833,1.225527048110962,0.24766314029693604,-0.3020526170730591
13.47917127609253,-0.037213053554296494,-1.0629634857177734,0.910082221031189,1.2189804315567017,0.22861097753047943,-0.3009830713272095
13.499264001846313,-0.04225191846489906,-1.064082384109497,0.9057857990264893,1.2169498205184937,0.22307135164737701,-0.30042603611946106
13.519315958023071,-0.04891536757349968,-1.066011667251587,0.9003124833106995,1.2145206928253174,0.2129654735326767,-0.29862451553344727
13.539502382278442,-0.043021608144044876,-1.0641117095947266,0.9007901549339294,1.2163653373718262,0.21724554896354675,-0.2977750897407532
13.559598922729492,-0.029853230342268944,-1.060647964477539,0.9070945978164673,1.2201956510543823,0.226248100399971,-0.2963384687900543
13.579645872116089,-0.011445211246609688,-1.052566409111023,0.9197971820831299,1.2236449718475342,0.24500645697116852,-0.29594558477401733
13.599741697311401,-0.0034939944744110107,-1.0500428676605225,0.9268820285797119,1.2260791063308716,0.2518160045146942,-0.2956942319869995
13.619816064834595,0.010736210271716118,-1.0450315475463867,0.9399948120117188,1.2297861576080322,0.26502469182014465,-0.29548394680023193
13.64008903503418,-0.0009339437820017338,-1.050154685974121,0.9429374933242798,1.2267810106277466,0.24976034462451935,-0.29500457644462585
13.660157203674316,-0.009082128293812275,-1.0521223545074463,0.9395337104797363,1.224420428276062,0.2419138252735138,-0.29494309425354004
13.680224895477295,-0.026320800185203552,-1.0574034452438354,0.9230854511260986,1.2191054821014404,0.22485847771167755,-0.2947123646736145
13.700498819351196,-0.0349017009139061,-1.0609980821609497,0.9179494976997375,1.2167760133743286,0.2135361135005951,-0.29388290643692017
13.720632076263428,-0.04725761339068413,-1.063808798789978,0.90946364402771,1.2113885879516602,0.19915206730365753,-0.29284101724624634
13.740654468536377,-0.040704645216464996,-1.0601751804351807,0.9016156196594238,1.2121976613998413,0.20666339993476868,-0.2924518287181854
13.76075530052185,-0.03500373661518097,-1.0580980777740479,0.906975507736206,1.2145819664001465,0.21067938208580017,-0.2919146418571472
13.780827760696411,-0.019208166748285294,-1.0512003898620605,0.9195078015327454,1.2183191776275635,0.22601325809955597,-0.2917182743549347
13.800952911376953,0.0005340906791388988,-1.0430312156677246,0.9341127872467041,1.2230145931243896,0.2469397485256195,-0.2921598553657532
13.821049451828003,0.0092081343755126,-1.0392217636108398,0.9407917261123657,1.2248250246047974,0.2567591369152069,-0.29254645109176636
13.841135501861572,0.0038869783747941256,-1.0410561561584473,0.938639223575592,1.222436785697937,0.25296011567115784,-0.2936646342277527
13.861211776733398,-0.007284271530807018,-1.0455844402313232,0.9328460097312927,1.2177430391311646,0.24140264093875885,-0.29467812180519104
13.881436109542847,-0.01612710952758789,-1.0483895540237427,0.9262169599533081,1.2144527435302734,0.23318728804588318,-0.2951110303401947
13.901425838470459,-0.039114464074373245,-1.0567238330841064,0.9079574346542358,1.2066497802734375,0.20876727998256683,-0.2948448359966278
13.922047138214111,-0.05047722905874252,-1.0617034435272217,0.8995755910873413,1.2043328285217285,0.19193267822265625,-0.2930353283882141
13.94213604927063,-0.0458221510052681,-1.0603336095809937,0.8972940444946289,1.2051080465316772,0.1954537183046341,-0.2926866114139557
13.962275981903076,-0.034196000546216965,-1.056909441947937,0.9034020304679871,1.2095650434494019,0.20361903309822083,-0.2914997637271881
13.982413053512573,-0.014910375699400902,-1.0500359535217285,0.9218581318855286,1.215710163116455,0.21962493658065796,-0.29064399003982544
14.002539157867432,-0.004557821899652481,-1.0449858903884888,0.9295040965080261,1.2179502248764038,0.2314710170030594,-0.2909151315689087
14.022626638412476,0.011786922812461853,-1.0371487140655518,0.9422450065612793,1.222306728363037,0.25124630331993103,-0.2917640209197998
14.042687177658081,0.010393762029707432,-1.0375890731811523,0.942139744758606,1.2211463451385498,0.2508816719055176,-0.29248282313346863
14.062873601913452,-0.0028177297208458185,-1.0425794124603271,0.93557208776474,1.2169413566589355,0.2383982092142105,-0.293720543384552
14.082907438278198,-0.020262349396944046,-1.049251675605774,0.9231639504432678,1.2114603519439697,0.22060000896453857,-0.29434239864349365
14.10296893119812,-0.03151489049196243,-1.0535798072814941,0.9134197235107422,1.2077196836471558,0.2084844410419464,-0.29421350359916687
14.123112916946411,-0.04618874937295914,-1.0595115423202515,0.9041445255279541,1.2035136222839355,0.18973347544670105,-0.293182909488678
14.143200635910034,-0.04810287803411484,-1.0601409673690796,0.9003572463989258,1.2022013664245605,0.1865352988243103,-0.2928241789340973
14.163346290588379,-0.03333408385515213,-1.0545592308044434,0.9025180339813232,1.2071210145950317,0.20098237693309784,-0.292211651802063
14.1834077835083,-0.01666310988366604,-1.0471042394638062,0.9143754243850708,1.2108120918273926,0.21894162893295288,-0.29234275221824646
14.203527450561523,-0.003728083334863186,-1.040756106376648,0.9246239066123962,1.213485598564148,0.23405958712100983,-0.29274994134902954
14.223642349243164,0.010810676962137222,-1.0361794233322144,0.9356263875961304,1.2176740169525146,0.24959538877010345,-0.2934408485889435
14.24370288848877,0.011442088522017002,-1.0364705324172974,0.9375290274620056,1.218299150466919,0.25050967931747437,-0.29401078820228577
14.263805150985718,0.00338574661873281,-1.039418339729309,0.9364198446273804,1.2158217430114746,0.2435217797756195,-0.2953649163246155
14.283910036087036,-0.012280348688364029,-1.0443334579467773,0.9265928268432617,1.210605502128601,0.22966822981834412,-0.2966824769973755
14.304057359695435,-0.021761402487754822,-1.0475462675094604,0.918341338634491,1.2073858976364136,0.22077488899230957,-0.29711538553237915
14.32412052154541,-0.03987675532698631,-1.0571045875549316,0.9072331190109253,1.2036185264587402,0.19552470743656158,-0.2956484258174896
14.344207763671875,-0.044793277978897095,-1.0595483779907227,0.9032750725746155,1.202326774597168,0.18611101806163788,-0.29448381066322327
14.364285707473755,-0.04010648652911186,-1.0578162670135498,0.9016073942184448,1.20328950881958,0.1903882473707199,-0.2942167818546295
14.384391069412231,-0.02581356279551983,-1.0525527000427246,0.908001184463501,1.208080530166626,0.2036905139684677,-0.2935009300708771
14.404439926147461,-0.009003745391964912,-1.0459387302398682,0.9225472807884216,1.212648630142212,0.2203254997730255,-0.29347681999206543
14.42456340789795,-0.0007618982344865799,-1.0410103797912598,0.9273478984832764,1.2143363952636719,0.23193654417991638,-0.2941078245639801
14.44462251663208,0.008984694257378578,-1.0389084815979004,0.9363933801651001,1.2183458805084229,0.24113482236862183,-0.294680655002594
14.464720010757446,0.005442002788186073,-1.040300726890564,0.9347489476203918,1.2166187763214111,0.23832127451896667,-0.2952967584133148
14.48481011390686,-0.013273895718157291,-1.047444462776184,0.9261393547058105,1.2103172540664673,0.21911361813545227,-0.2960561513900757
14.504948616027832,-0.034395553171634674,-1.0562169551849365,0.9146676063537598,1.204477071762085,0.19428566098213196,-0.29539310932159424
14.525132417678833,-0.04237618297338486,-1.0584344863891602,0.9092892408370972,1.2020936012268066,0.18575844168663025,-0.2950728237628937
14.545230865478516,-0.04625317454338074,-1.0592936277389526,0.9023239612579346,1.2012943029403687,0.1798366904258728,-0.2939724922180176
