liuyurong129/humanoid-gym/humanoid/data/target_q_20250522-231712.csv
timestamp,joint_1,joint_2,joint_3,joint_4,joint_5,joint_6
9.632110595703125e-05,0.0,0.0,0.0,0.0,0.0,0.0
0.020183086395263672,0.0,0.0,0.0,0.0,0.0,0.0
0.040238142013549805,0.0,0.0,0.0,0.0,0.0,0.0
0.060304880142211914,0.0,0.0,0.0,0.0,0.0,0.0
0.08037805557250977,-0.6301522850990295,-0.731587290763855,0.4447920322418213,-0.31492841243743896,-0.37775954604148865,-0.3829478621482849
0.10046029090881348,-0.6301522850990295,-0.731587290763855,0.4447920322418213,-0.31492841243743896,-0.37775954604148865,-0.3829478621482849
0.1205291748046875,-0.6301522850990295,-0.731587290763855,0.4447920322418213,-0.31492841243743896,-0.37775954604148865,-0.3829478621482849
0.1405951976776123,-0.7993522882461548,-0.5999678373336792,0.3874591886997223,-0.22023674845695496,-0.49926021695137024,-0.47082996368408203
0.16066288948059082,-0.7993522882461548,-0.5999678373336792,0.3874591886997223,-0.22023674845695496,-0.49926021695137024,-0.47082996368408203
0.18073487281799316,-0.7993522882461548,-0.5999678373336792,0.3874591886997223,-0.22023674845695496,-0.49926021695137024,-0.47082996368408203
0.20082473754882812,-0.7844448685646057,-0.5363827347755432,0.3903961181640625,-0.19923684000968933,-0.5144973397254944,-0.5113791823387146
0.2209618091583252,-0.7844448685646057,-0.5363827347755432,0.3903961181640625,-0.19923684000968933,-0.5144973397254944,-0.5113791823387146
0.2409968376159668,-0.7844448685646057,-0.5363827347755432,0.3903961181640625,-0.19923684000968933,-0.5144973397254944,-0.5113791823387146
0.26107192039489746,-0.7844448685646057,-0.5363827347755432,0.3903961181640625,-0.19923684000968933,-0.5144973397254944,-0.5113791823387146
0.28115057945251465,-0.7628002166748047,-0.5177136659622192,0.4065760374069214,-0.18650585412979126,-0.4987454116344452,-0.515869677066803
0.301222562789917,-0.7628002166748047,-0.5177136659622192,0.4065760374069214,-0.18650585412979126,-0.4987454116344452,-0.515869677066803
0.3212902545928955,-0.7628002166748047,-0.5177136659622192,0.4065760374069214,-0.18650585412979126,-0.4987454116344452,-0.515869677066803
0.3413543701171875,-0.7475627660751343,-0.5098483562469482,0.4211479723453522,-0.18296027183532715,-0.4831787049770355,-0.5143105387687683
0.36142444610595703,-0.7475627660751343,-0.5098483562469482,0.4211479723453522,-0.18296027183532715,-0.4831787049770355,-0.5143105387687683
0.38149499893188477,-0.7475627660751343,-0.5098483562469482,0.4211479723453522,-0.18296027183532715,-0.4831787049770355,-0.5143105387687683
0.4015665054321289,-0.7475627660751343,-0.5098483562469482,0.4211479723453522,-0.18296027183532715,-0.4831787049770355,-0.5143105387687683
0.42163991928100586,-0.7350654602050781,-0.5167831778526306,0.43078696727752686,-0.18348419666290283,-0.4691486060619354,-0.5122970342636108
0.4417097568511963,-0.7350654602050781,-0.5167831778526306,0.43078696727752686,-0.18348419666290283,-0.4691486060619354,-0.5122970342636108
0.46178650856018066,-0.7350654602050781,-0.5167831778526306,0.43078696727752686,-0.18348419666290283,-0.4691486060619354,-0.5122970342636108
0.4818549156188965,-0.7189108729362488,-0.5242081880569458,0.44249582290649414,-0.18266573548316956,-0.45526209473609924,-0.5114092826843262
0.501934289932251,-0.7189108729362488,-0.5242081880569458,0.44249582290649414,-0.18266573548316956,-0.45526209473609924,-0.5114092826843262
0.5220048427581787,-0.7189108729362488,-0.5242081880569458,0.44249582290649414,-0.18266573548316956,-0.45526209473609924,-0.5114092826843262
0.5420520305633545,-0.7026964426040649,-0.5337213277816772,0.4571447968482971,-0.1833413541316986,-0.44483116269111633,-0.5114932060241699
0.562140703201294,-0.7026964426040649,-0.5337213277816772,0.4571447968482971,-0.1833413541316986,-0.44483116269111633,-0.5114932060241699
0.5822036266326904,-0.7026964426040649,-0.5337213277816772,0.4571447968482971,-0.1833413541316986,-0.44483116269111633,-0.5114932060241699
0.6022708415985107,-0.7026964426040649,-0.5337213277816772,0.4571447968482971,-0.1833413541316986,-0.44483116269111633,-0.5114932060241699
0.6223454475402832,-0.689752995967865,-0.5447072386741638,0.46751999855041504,-0.1826772838830948,-0.4295922815799713,-0.5087301135063171
0.6424071788787842,-0.689752995967865,-0.5447072386741638,0.46751999855041504,-0.1826772838830948,-0.4295922815799713,-0.5087301135063171
0.6624796390533447,-0.689752995967865,-0.5447072386741638,0.46751999855041504,-0.1826772838830948,-0.4295922815799713,-0.5087301135063171
0.6825566291809082,-0.6748020648956299,-0.5610414743423462,0.48003214597702026,-0.1828051209449768,-0.41732457280158997,-0.5085425972938538
0.7026197910308838,-0.6748020648956299,-0.5610414743423462,0.48003214597702026,-0.1828051209449768,-0.41732457280158997,-0.5085425972938538
0.722689151763916,-0.6748020648956299,-0.5610414743423462,0.48003214597702026,-0.1828051209449768,-0.41732457280158997,-0.5085425972938538
0.7427563667297363,-0.6748020648956299,-0.5610414743423462,0.48003214597702026,-0.1828051209449768,-0.41732457280158997,-0.5085425972938538
0.7628357410430908,-0.6575719118118286,-0.5727313756942749,0.4913189709186554,-0.18101154267787933,-0.39744868874549866,-0.5066605806350708
0.7828974723815918,-0.6575719118118286,-0.5727313756942749,0.4913189709186554,-0.18101154267787933,-0.39744868874549866,-0.5066605806350708
0.8029682636260986,-0.6575719118118286,-0.5727313756942749,0.4913189709186554,-0.18101154267787933,-0.39744868874549866,-0.5066605806350708
0.8230416774749756,-0.6401176452636719,-0.5881584286689758,0.5041046738624573,-0.18167689442634583,-0.3800957500934601,-0.5053002834320068
0.8431088924407959,-0.6401176452636719,-0.5881584286689758,0.5041046738624573,-0.18167689442634583,-0.3800957500934601,-0.5053002834320068
0.8632204532623291,-0.6401176452636719,-0.5881584286689758,0.5041046738624573,-0.18167689442634583,-0.3800957500934601,-0.5053002834320068
0.8832731246948242,-0.618242621421814,-0.6045467853546143,0.5228180885314941,-0.1824050098657608,-0.3603478968143463,-0.5046229958534241
0.9033427238464355,-0.618242621421814,-0.6045467853546143,0.5228180885314941,-0.1824050098657608,-0.3603478968143463,-0.5046229958534241
0.9234082698822021,-0.618242621421814,-0.6045467853546143,0.5228180885314941,-0.1824050098657608,-0.3603478968143463,-0.5046229958534241
0.9434747695922852,-0.618242621421814,-0.6045467853546143,0.5228180885314941,-0.1824050098657608,-0.3603478968143463,-0.5046229958534241
0.9636509418487549,-0.5917899012565613,-0.6239510774612427,0.5439436435699463,-0.18176522850990295,-0.3380955457687378,-0.502123236656189
0.9836552143096924,-0.5917899012565613,-0.6239510774612427,0.5439436435699463,-0.18176522850990295,-0.3380955457687378,-0.502123236656189
1.0037195682525635,-0.5917899012565613,-0.6239510774612427,0.5439436435699463,-0.18176522850990295,-0.3380955457687378,-0.502123236656189
1.0237855911254883,-0.5672574043273926,-0.6476882696151733,0.5618117451667786,-0.18018396198749542,-0.31346595287323,-0.49817731976509094
1.0438635349273682,-0.5672574043273926,-0.6476882696151733,0.5618117451667786,-0.18018396198749542,-0.31346595287323,-0.49817731976509094
1.0639328956604004,-0.5672574043273926,-0.6476882696151733,0.5618117451667786,-0.18018396198749542,-0.31346595287323,-0.49817731976509094
1.0840001106262207,-0.5389702320098877,-0.6737154722213745,0.5870164632797241,-0.18053343892097473,-0.2889241576194763,-0.4948599338531494
1.1040823459625244,-0.5389702320098877,-0.6737154722213745,0.5870164632797241,-0.18053343892097473,-0.2889241576194763,-0.4948599338531494
1.124147891998291,-0.5389702320098877,-0.6737154722213745,0.5870164632797241,-0.18053343892097473,-0.2889241576194763,-0.4948599338531494
1.1442129611968994,-0.5389702320098877,-0.6737154722213745,0.5870164632797241,-0.18053343892097473,-0.2889241576194763,-0.4948599338531494
1.1642882823944092,-0.5083452463150024,-0.7049170732498169,0.6162213683128357,-0.17942523956298828,-0.25930097699165344,-0.4913281500339508
1.1843581199645996,-0.5083452463150024,-0.7049170732498169,0.6162213683128357,-0.17942523956298828,-0.25930097699165344,-0.4913281500339508
1.2044336795806885,-0.5083452463150024,-0.7049170732498169,0.6162213683128357,-0.17942523956298828,-0.25930097699165344,-0.4913281500339508
1.2245173454284668,-0.46969908475875854,-0.7355120182037354,0.6587035655975342,-0.17909106612205505,-0.22563709318637848,-0.48706308007240295
1.244582176208496,-0.46969908475875854,-0.7355120182037354,0.6587035655975342,-0.17909106612205505,-0.22563709318637848,-0.48706308007240295
1.264662504196167,-0.46969908475875854,-0.7355120182037354,0.6587035655975342,-0.17909106612205505,-0.22563709318637848,-0.48706308007240295
1.2847256660461426,-0.46969908475875854,-0.7355120182037354,0.6587035655975342,-0.17909106612205505,-0.22563709318637848,-0.48706308007240295
1.304802417755127,-0.4229644536972046,-0.7685329914093018,0.7138227820396423,-0.1789819598197937,-0.18646635115146637,-0.4810473918914795
1.3248610496520996,-0.4229644536972046,-0.7685329914093018,0.7138227820396423,-0.1789819598197937,-0.18646635115146637,-0.4810473918914795
1.3449361324310303,-0.4229644536972046,-0.7685329914093018,0.7138227820396423,-0.1789819598197937,-0.18646635115146637,-0.4810473918914795
1.364999532699585,-0.37460166215896606,-0.795029878616333,0.7771159410476685,-0.17736375331878662,-0.14349912106990814,-0.4749533534049988
1.3850746154785156,-0.37460166215896606,-0.795029878616333,0.7771159410476685,-0.17736375331878662,-0.14349912106990814,-0.4749533534049988
1.4051408767700195,-0.37460166215896606,-0.795029878616333,0.7771159410476685,-0.17736375331878662,-0.14349912106990814,-0.4749533534049988
1.4251954555511475,-0.330422043800354,-0.8180237412452698,0.8395345211029053,-0.17495635151863098,-0.10011745989322662,-0.4668020009994507
1.4452815055847168,-0.330422043800354,-0.8180237412452698,0.8395345211029053,-0.17495635151863098,-0.10011745989322662,-0.4668020009994507
1.4653470516204834,-0.330422043800354,-0.8180237412452698,0.8395345211029053,-0.17495635151863098,-0.10011745989322662,-0.4668020009994507
1.4854178428649902,-0.330422043800354,-0.8180237412452698,0.8395345211029053,-0.17495635151863098,-0.10011745989322662,-0.4668020009994507
1.5055029392242432,-0.2954302430152893,-0.8544694781303406,0.880562424659729,-0.1751718819141388,-0.05283895879983902,-0.45366019010543823
1.525562047958374,-0.2954302430152893,-0.8544694781303406,0.880562424659729,-0.1751718819141388,-0.05283895879983902,-0.45366019010543823
1.5456366539001465,-0.2954302430152893,-0.8544694781303406,0.880562424659729,-0.1751718819141388,-0.05283895879983902,-0.45366019010543823
1.565706491470337,-0.2668393850326538,-0.8939621448516846,0.9078109264373779,-0.17934755980968475,-0.014039180241525173,-0.43985307216644287
1.5857739448547363,-0.2668393850326538,-0.8939621448516846,0.9078109264373779,-0.17934755980968475,-0.014039180241525173,-0.43985307216644287
1.6058619022369385,-0.2668393850326538,-0.8939621448516846,0.9078109264373779,-0.17934755980968475,-0.014039180241525173,-0.43985307216644287
1.6259610652923584,-0.2668393850326538,-0.8939621448516846,0.9078109264373779,-0.17934755980968475,-0.014039180241525173,-0.43985307216644287
1.6460480690002441,-0.2474435567855835,-0.9289699196815491,0.9269523024559021,-0.1837959885597229,0.011878357268869877,-0.4274410307407379
1.6661245822906494,-0.2474435567855835,-0.9289699196815491,0.9269523024559021,-0.1837959885597229,0.011878357268869877,-0.4274410307407379
1.6862998008728027,-0.2474435567855835,-0.9289699196815491,0.9269523024559021,-0.1837959885597229,0.011878357268869877,-0.4274410307407379
1.7063090801239014,-0.22975865006446838,-0.9495370388031006,0.9551078081130981,-0.1845272183418274,0.02674667164683342,-0.42104649543762207
1.7264814376831055,-0.22975865006446838,-0.9495370388031006,0.9551078081130981,-0.1845272183418274,0.02674667164683342,-0.42104649543762207
1.7465007305145264,-0.22975865006446838,-0.9495370388031006,0.9551078081130981,-0.1845272183418274,0.02674667164683342,-0.42104649543762207
1.7665870189666748,-0.22434116899967194,-0.9747363328933716,0.9675687551498413,-0.18237392604351044,0.034282952547073364,-0.41685840487480164
1.7867474555969238,-0.22434116899967194,-0.9747363328933716,0.9675687551498413,-0.18237392604351044,0.034282952547073364,-0.41685840487480164
1.8067972660064697,-0.22434116899967194,-0.9747363328933716,0.9675687551498413,-0.18237392604351044,0.034282952547073364,-0.41685840487480164
1.8268687725067139,-0.22434116899967194,-0.9747363328933716,0.9675687551498413,-0.18237392604351044,0.034282952547073364,-0.41685840487480164
1.8469808101654053,-0.22501616179943085,-0.977235734462738,0.9872676730155945,-0.1738554686307907,0.03009859472513199,-0.41925740242004395
1.8670203685760498,-0.22501616179943085,-0.977235734462738,0.9872676730155945,-0.1738554686307907,0.03009859472513199,-0.41925740242004395
1.8871057033538818,-0.22501616179943085,-0.977235734462738,0.9872676730155945,-0.1738554686307907,0.03009859472513199,-0.41925740242004395
1.9073326587677002,-0.23098744451999664,-1.0002756118774414,0.9850448369979858,-0.16822604835033417,0.03091646358370781,-0.4200201630592346
1.927354335784912,-0.23098744451999664,-1.0002756118774414,0.9850448369979858,-0.16822604835033417,0.03091646358370781,-0.4200201630592346
1.9474236965179443,-0.23098744451999664,-1.0002756118774414,0.9850448369979858,-0.16822604835033417,0.03091646358370781,-0.4200201630592346
1.967470645904541,-0.23098744451999664,-1.0002756118774414,0.9850448369979858,-0.16822604835033417,0.03091646358370781,-0.4200201630592346
1.9875421524047852,-0.23474016785621643,-1.0056440830230713,0.9936246871948242,-0.16034254431724548,0.026112716645002365,-0.4233190417289734
2.007674217224121,-0.23474016785621643,-1.0056440830230713,0.9936246871948242,-0.16034254431724548,0.026112716645002365,-0.4233190417289734
2.0277645587921143,-0.23474016785621643,-1.0056440830230713,0.9936246871948242,-0.16034254431724548,0.026112716645002365,-0.4233190417289734
2.0478429794311523,-0.24170273542404175,-1.0217400789260864,0.9960619211196899,-0.1485278606414795,0.021825261414051056,-0.4252568781375885
2.067923069000244,-0.24170273542404175,-1.0217400789260864,0.9960619211196899,-0.1485278606414795,0.021825261414051056,-0.4252568781375885
2.08797287940979,-0.24170273542404175,-1.0217400789260864,0.9960619211196899,-0.1485278606414795,0.021825261414051056,-0.4252568781375885
2.108039617538452,-0.246704563498497,-1.0358760356903076,0.9998789429664612,-0.1411297619342804,0.022103149443864822,-0.427424818277359
2.1282007694244385,-0.246704563498497,-1.0358760356903076,0.9998789429664612,-0.1411297619342804,0.022103149443864822,-0.427424818277359
2.1482882499694824,-0.246704563498497,-1.0358760356903076,0.9998789429664612,-0.1411297619342804,0.022103149443864822,-0.427424818277359
2.1684346199035645,-0.246704563498497,-1.0358760356903076,0.9998789429664612,-0.1411297619342804,0.022103149443864822,-0.427424818277359
2.1884682178497314,-0.2527245879173279,-1.059317946434021,0.9902816414833069,-0.13301260769367218,0.025468438863754272,-0.4239365756511688
2.208554983139038,-0.2527245879173279,-1.059317946434021,0.9902816414833069,-0.13301260769367218,0.025468438863754272,-0.4239365756511688
2.2286107540130615,-0.2527245879173279,-1.059317946434021,0.9902816414833069,-0.13301260769367218,0.025468438863754272,-0.4239365756511688
2.2486791610717773,-0.2533039450645447,-1.062286138534546,0.9988601207733154,-0.13387957215309143,0.028064385056495667,-0.42108696699142456
2.268745183944702,-0.2533039450645447,-1.062286138534546,0.9988601207733154,-0.13387957215309143,0.028064385056495667,-0.42108696699142456
2.2888317108154297,-0.2533039450645447,-1.062286138534546,0.9988601207733154,-0.13387957215309143,0.028064385056495667,-0.42108696699142456
2.308887481689453,-0.2533039450645447,-1.062286138534546,0.9988601207733154,-0.13387957215309143,0.028064385056495667,-0.42108696699142456
2.328955888748169,-0.24770528078079224,-1.0545949935913086,1.0124577283859253,-0.13861671090126038,0.03458951786160469,-0.4157184362411499
2.349022388458252,-0.24770528078079224,-1.0545949935913086,1.0124577283859253,-0.13861671090126038,0.03458951786160469,-0.4157184362411499
2.3691132068634033,-0.24770528078079224,-1.0545949935913086,1.0124577283859253,-0.13861671090126038,0.03458951786160469,-0.4157184362411499
2.3892662525177,-0.24298357963562012,-1.0421291589736938,1.0255626440048218,-0.14369814097881317,0.03828609362244606,-0.40844184160232544
2.409306049346924,-0.24298357963562012,-1.0421291589736938,1.0255626440048218,-0.14369814097881317,0.03828609362244606,-0.40844184160232544
2.4294943809509277,-0.24298357963562012,-1.0421291589736938,1.0255626440048218,-0.14369814097881317,0.03828609362244606,-0.40844184160232544
2.449491500854492,-0.23248472809791565,-1.031894326210022,1.0386017560958862,-0.15114036202430725,0.046572767198085785,-0.39910146594047546
2.4695613384246826,-0.23248472809791565,-1.031894326210022,1.0386017560958862,-0.15114036202430725,0.046572767198085785,-0.39910146594047546
2.4896345138549805,-0.23248472809791565,-1.031894326210022,1.0386017560958862,-0.15114036202430725,0.046572767198085785,-0.39910146594047546
2.50970721244812,-0.23248472809791565,-1.031894326210022,1.0386017560958862,-0.15114036202430725,0.046572767198085785,-0.39910146594047546
2.5298845767974854,-0.2324998676776886,-1.0268090963363647,1.0468041896820068,-0.15748803317546844,0.044276945292949677,-0.38912174105644226
2.549888849258423,-0.2324998676776886,-1.0268090963363647,1.0468041896820068,-0.15748803317546844,0.044276945292949677,-0.38912174105644226
2.570023536682129,-0.2324998676776886,-1.0268090963363647,1.0468041896820068,-0.15748803317546844,0.044276945292949677,-0.38912174105644226
2.5900890827178955,-0.22477875649929047,-1.0285580158233643,1.0575870275497437,-0.16998594999313354,0.05072425305843353,-0.3791310787200928
2.610159397125244,-0.22477875649929047,-1.0285580158233643,1.0575870275497437,-0.16998594999313354,0.05072425305843353,-0.3791310787200928
2.630220413208008,-0.22477875649929047,-1.0285580158233643,1.0575870275497437,-0.16998594999313354,0.05072425305843353,-0.3791310787200928
2.6502878665924072,-0.22477875649929047,-1.0285580158233643,1.0575870275497437,-0.16998594999313354,0.05072425305843353,-0.3791310787200928
2.670361042022705,-0.21945662796497345,-1.031508445739746,1.0665254592895508,-0.18072152137756348,0.056786417961120605,-0.36896154284477234
2.6904478073120117,-0.21945662796497345,-1.031508445739746,1.0665254592895508,-0.18072152137756348,0.056786417961120605,-0.36896154284477234
2.710536241531372,-0.21945662796497345,-1.031508445739746,1.0665254592895508,-0.18072152137756348,0.056786417961120605,-0.36896154284477234
2.7306551933288574,-0.21670907735824585,-1.0271515846252441,1.07967209815979,-0.18896211683750153,0.05294334888458252,-0.3610362410545349
2.750694513320923,-0.21670907735824585,-1.0271515846252441,1.07967209815979,-0.18896211683750153,0.05294334888458252,-0.3610362410545349
2.770756721496582,-0.21670907735824585,-1.0271515846252441,1.07967209815979,-0.18896211683750153,0.05294334888458252,-0.3610362410545349
2.7908031940460205,-0.20925143361091614,-1.0232237577438354,1.0903499126434326,-0.1977049857378006,0.053705282509326935,-0.35481539368629456
2.8108913898468018,-0.20925143361091614,-1.0232237577438354,1.0903499126434326,-0.1977049857378006,0.053705282509326935,-0.35481539368629456
2.830965518951416,-0.20925143361091614,-1.0232237577438354,1.0903499126434326,-0.1977049857378006,0.053705282509326935,-0.35481539368629456
2.851053476333618,-0.20925143361091614,-1.0232237577438354,1.0903499126434326,-0.1977049857378006,0.053705282509326935,-0.35481539368629456
2.8711111545562744,-0.20822878181934357,-1.0229542255401611,1.0988471508026123,-0.20492295920848846,0.05252976715564728,-0.34869566559791565
2.891172170639038,-0.20822878181934357,-1.0229542255401611,1.0988471508026123,-0.20492295920848846,0.05252976715564728,-0.34869566559791565
2.911264181137085,-0.20822878181934357,-1.0229542255401611,1.0988471508026123,-0.20492295920848846,0.05252976715564728,-0.34869566559791565
2.9313249588012695,-0.20977841317653656,-1.0296868085861206,1.1013433933258057,-0.20971441268920898,0.05097722262144089,-0.34393081068992615
2.951413869857788,-0.20977841317653656,-1.0296868085861206,1.1013433933258057,-0.20971441268920898,0.05097722262144089,-0.34393081068992615
2.971472978591919,-0.20977841317653656,-1.0296868085861206,1.1013433933258057,-0.20971441268920898,0.05097722262144089,-0.34393081068992615
2.991544485092163,-0.20977841317653656,-1.0296868085861206,1.1013433933258057,-0.20971441268920898,0.05097722262144089,-0.34393081068992615
3.0116138458251953,-0.20572155714035034,-1.0421274900436401,1.103896141052246,-0.21626470983028412,0.05680172145366669,-0.33953630924224854
3.0316829681396484,-0.20572155714035034,-1.0421274900436401,1.103896141052246,-0.21626470983028412,0.05680172145366669,-0.33953630924224854
3.051753282546997,-0.20572155714035034,-1.0421274900436401,1.103896141052246,-0.21626470983028412,0.05680172145366669,-0.33953630924224854
3.0718300342559814,-0.21039511263370514,-1.0527013540267944,1.1043134927749634,-0.2185656577348709,0.05352199077606201,-0.3352268636226654
3.091926097869873,-0.21039511263370514,-1.0527013540267944,1.1043134927749634,-0.2185656577348709,0.05352199077606201,-0.3352268636226654
3.1119863986968994,-0.21039511263370514,-1.0527013540267944,1.1043134927749634,-0.2185656577348709,0.05352199077606201,-0.3352268636226654
3.1320269107818604,-0.2116624265909195,-1.0650007724761963,1.0996804237365723,-0.22250771522521973,0.051836058497428894,-0.3327035903930664
3.15212345123291,-0.2116624265909195,-1.0650007724761963,1.0996804237365723,-0.22250771522521973,0.051836058497428894,-0.3327035903930664
3.1721906661987305,-0.2116624265909195,-1.0650007724761963,1.0996804237365723,-0.22250771522521973,0.051836058497428894,-0.3327035903930664
3.192262887954712,-0.2116624265909195,-1.0650007724761963,1.0996804237365723,-0.22250771522521973,0.051836058497428894,-0.3327035903930664
3.212374687194824,-0.2108515352010727,-1.0757110118865967,1.1021186113357544,-0.226515531539917,0.05255391448736191,-0.3294488191604614
3.232438564300537,-0.2108515352010727,-1.0757110118865967,1.1021186113357544,-0.226515531539917,0.05255391448736191,-0.3294488191604614
3.2525136470794678,-0.2108515352010727,-1.0757110118865967,1.1021186113357544,-0.226515531539917,0.05255391448736191,-0.3294488191604614
3.2725706100463867,-0.218663290143013,-1.0857988595962524,1.1011757850646973,-0.2279670387506485,0.04558475315570831,-0.32662299275398254
3.2927041053771973,-0.218663290143013,-1.0857988595962524,1.1011757850646973,-0.2279670387506485,0.04558475315570831,-0.32662299275398254
3.3127260208129883,-0.218663290143013,-1.0857988595962524,1.1011757850646973,-0.2279670387506485,0.04558475315570831,-0.32662299275398254
3.332775592803955,-0.2190694808959961,-1.088193655014038,1.1066046953201294,-0.23106500506401062,0.04433099180459976,-0.32628750801086426
3.3528621196746826,-0.2190694808959961,-1.088193655014038,1.1066046953201294,-0.23106500506401062,0.04433099180459976,-0.32628750801086426
3.372920513153076,-0.2190694808959961,-1.088193655014038,1.1066046953201294,-0.23106500506401062,0.04433099180459976,-0.32628750801086426
3.392991542816162,-0.2190694808959961,-1.088193655014038,1.1066046953201294,-0.23106500506401062,0.04433099180459976,-0.32628750801086426
3.413100481033325,-0.2220436930656433,-1.0916552543640137,1.108947992324829,-0.2329188585281372,0.04147372394800186,-0.32428044080734253
3.4331390857696533,-0.2220436930656433,-1.0916552543640137,1.108947992324829,-0.2329188585281372,0.04147372394800186,-0.32428044080734253
3.4532339572906494,-0.2220436930656433,-1.0916552543640137,1.108947992324829,-0.2329188585281372,0.04147372394800186,-0.32428044080734253
3.473299264907837,-0.22628343105316162,-1.0941404104232788,1.1111148595809937,-0.23432229459285736,0.03705109655857086,-0.3232751190662384
3.4933743476867676,-0.22628343105316162,-1.0941404104232788,1.1111148595809937,-0.23432229459285736,0.03705109655857086,-0.3232751190662384
3.51348614692688,-0.22628343105316162,-1.0941404104232788,1.1111148595809937,-0.23432229459285736,0.03705109655857086,-0.3232751190662384
3.53354549407959,-0.22628343105316162,-1.0941404104232788,1.1111148595809937,-0.23432229459285736,0.03705109655857086,-0.3232751190662384
3.5536184310913086,-0.23393623530864716,-1.1086506843566895,1.1050970554351807,-0.23657599091529846,0.03494908660650253,-0.32033807039260864
3.5736849308013916,-0.23393623530864716,-1.1086506843566895,1.1050970554351807,-0.23657599091529846,0.03494908660650253,-0.32033807039260864
3.593778133392334,-0.23393623530864716,-1.1086506843566895,1.1050970554351807,-0.23657599091529846,0.03494908660650253,-0.32033807039260864
3.613844394683838,-0.2382221519947052,-1.1169508695602417,1.1059517860412598,-0.23986560106277466,0.03194062039256096,-0.3176110088825226
3.6339199542999268,-0.2382221519947052,-1.1169508695602417,1.1059517860412598,-0.23986560106277466,0.03194062039256096,-0.3176110088825226
3.653982639312744,-0.2382221519947052,-1.1169508695602417,1.1059517860412598,-0.23986560106277466,0.03194062039256096,-0.3176110088825226
3.6740195751190186,-0.24446053802967072,-1.122137188911438,1.1075942516326904,-0.24277251958847046,0.025575734674930573,-0.3152337670326233
3.6941030025482178,-0.24446053802967072,-1.122137188911438,1.1075942516326904,-0.24277251958847046,0.025575734674930573,-0.3152337670326233
3.7141776084899902,-0.24446053802967072,-1.122137188911438,1.1075942516326904,-0.24277251958847046,0.025575734674930573,-0.3152337670326233
3.7342517375946045,-0.24446053802967072,-1.122137188911438,1.1075942516326904,-0.24277251958847046,0.025575734674930573,-0.3152337670326233
3.7543678283691406,-0.24712392687797546,-1.121010661125183,1.1118927001953125,-0.24502766132354736,0.020785905420780182,-0.31493204832077026
3.7743642330169678,-0.24712392687797546,-1.121010661125183,1.1118927001953125,-0.24502766132354736,0.020785905420780182,-0.31493204832077026
3.7944304943084717,-0.24712392687797546,-1.121010661125183,1.1118927001953125,-0.24502766132354736,0.020785905420780182,-0.31493204832077026
3.8144941329956055,-0.2516300082206726,-1.1249079704284668,1.113646388053894,-0.24740275740623474,0.017199978232383728,-0.3128168284893036
3.8345754146575928,-0.2516300082206726,-1.1249079704284668,1.113646388053894,-0.24740275740623474,0.017199978232383728,-0.3128168284893036
3.854632616043091,-0.2516300082206726,-1.1249079704284668,1.113646388053894,-0.24740275740623474,0.017199978232383728,-0.3128168284893036
3.8746914863586426,-0.2516300082206726,-1.1249079704284668,1.113646388053894,-0.24740275740623474,0.017199978232383728,-0.3128168284893036
3.8947715759277344,-0.26204195618629456,-1.1291335821151733,1.1165777444839478,-0.24881361424922943,0.009946797974407673,-0.3114488124847412
3.9148337841033936,-0.26204195618629456,-1.1291335821151733,1.1165777444839478,-0.24881361424922943,0.009946797974407673,-0.3114488124847412
3.9349141120910645,-0.26204195618629456,-1.1291335821151733,1.1165777444839478,-0.24881361424922943,0.009946797974407673,-0.3114488124847412
3.9549925327301025,-0.27191227674484253,-1.1424100399017334,1.1169548034667969,-0.2532925307750702,0.004321725107729435,-0.3080378472805023
3.9750616550445557,-0.27191227674484253,-1.1424100399017334,1.1169548034667969,-0.2532925307750702,0.004321725107729435,-0.3080378472805023
3.995126724243164,-0.27191227674484253,-1.1424100399017334,1.1169548034667969,-0.2532925307750702,0.004321725107729435,-0.3080378472805023
4.015169143676758,-0.28475266695022583,-1.1503689289093018,1.1260961294174194,-0.25291281938552856,-0.008437483571469784,-0.30759507417678833
4.035263538360596,-0.28475266695022583,-1.1503689289093018,1.1260961294174194,-0.25291281938552856,-0.008437483571469784,-0.30759507417678833
4.055356740951538,-0.28475266695022583,-1.1503689289093018,1.1260961294174194,-0.25291281938552856,-0.008437483571469784,-0.30759507417678833
4.075443267822266,-0.28475266695022583,-1.1503689289093018,1.1260961294174194,-0.25291281938552856,-0.008437483571469784,-0.30759507417678833
4.095525503158569,-0.3015543818473816,-1.178885579109192,1.1219854354858398,-0.24957893788814545,-0.0149839511141181,-0.31078872084617615
4.115575790405273,-0.3015543818473816,-1.178885579109192,1.1219854354858398,-0.24957893788814545,-0.0149839511141181,-0.31078872084617615
4.135647773742676,-0.3015543818473816,-1.178885579109192,1.1219854354858398,-0.24957893788814545,-0.0149839511141181,-0.31078872084617615
4.155719757080078,-0.31463027000427246,-1.1661964654922485,1.1406402587890625,-0.24111077189445496,-0.03237161040306091,-0.3277364671230316
4.175810813903809,-0.31463027000427246,-1.1661964654922485,1.1406402587890625,-0.24111077189445496,-0.03237161040306091,-0.3277364671230316
4.1958677768707275,-0.31463027000427246,-1.1661964654922485,1.1406402587890625,-0.24111077189445496,-0.03237161040306091,-0.3277364671230316
4.215938091278076,-0.31463027000427246,-1.1661964654922485,1.1406402587890625,-0.24111077189445496,-0.03237161040306091,-0.3277364671230316
4.236013174057007,-0.3094056248664856,-1.2030733823776245,1.1174942255020142,-0.23650653660297394,-0.010417780838906765,-0.3367577791213989
4.256078481674194,-0.3094056248664856,-1.2030733823776245,1.1174942255020142,-0.23650653660297394,-0.010417780838906765,-0.3367577791213989
4.276147842407227,-0.3094056248664856,-1.2030733823776245,1.1174942255020142,-0.23650653660297394,-0.010417780838906765,-0.3367577791213989
4.296226501464844,-0.30321693420410156,-1.1740936040878296,1.152299165725708,-0.22229759395122528,-0.02489379793405533,-0.35033321380615234
4.31630539894104,-0.30321693420410156,-1.1740936040878296,1.152299165725708,-0.22229759395122528,-0.02489379793405533,-0.35033321380615234
4.336371183395386,-0.30321693420410156,-1.1740936040878296,1.152299165725708,-0.22229759395122528,-0.02489379793405533,-0.35033321380615234
4.356461048126221,-0.32062041759490967,-1.2050987482070923,1.1253653764724731,-0.21043168008327484,-0.02684330940246582,-0.35357484221458435
4.376527309417725,-0.32062041759490967,-1.2050987482070923,1.1253653764724731,-0.21043168008327484,-0.02684330940246582,-0.35357484221458435
4.3965935707092285,-0.32062041759490967,-1.2050987482070923,1.1253653764724731,-0.21043168008327484,-0.02684330940246582,-0.35357484221458435
4.416661739349365,-0.32062041759490967,-1.2050987482070923,1.1253653764724731,-0.21043168008327484,-0.02684330940246582,-0.35357484221458435
4.436729669570923,-0.30801695585250854,-1.2016228437423706,1.139067530632019,-0.2062954157590866,-0.01764320582151413,-0.3660019040107727
4.456802129745483,-0.30801695585250854,-1.2016228437423706,1.139067530632019,-0.2062954157590866,-0.01764320582151413,-0.3660019040107727
4.476863384246826,-0.30801695585250854,-1.2016228437423706,1.139067530632019,-0.2062954157590866,-0.01764320582151413,-0.3660019040107727
4.496935844421387,-0.3005540370941162,-1.1482186317443848,1.1784056425094604,-0.1928422451019287,-0.02562224119901657,-0.37739765644073486
4.517122983932495,-0.3005540370941162,-1.1482186317443848,1.1784056425094604,-0.1928422451019287,-0.02562224119901657,-0.37739765644073486
4.537124395370483,-0.3005540370941162,-1.1482186317443848,1.1784056425094604,-0.1928422451019287,-0.02562224119901657,-0.37739765644073486
4.557267665863037,-0.33143913745880127,-1.2883808612823486,1.051844596862793,-0.19566205143928528,-0.0023777997121214867,-0.3614876866340637
4.57737135887146,-0.33143913745880127,-1.2883808612823486,1.051844596862793,-0.19566205143928528,-0.0023777997121214867,-0.3614876866340637
4.597426652908325,-0.33143913745880127,-1.2883808612823486,1.051844596862793,-0.19566205143928528,-0.0023777997121214867,-0.3614876866340637
4.617503881454468,-0.33143913745880127,-1.2883808612823486,1.051844596862793,-0.19566205143928528,-0.0023777997121214867,-0.3614876866340637
4.637571096420288,-0.3204602003097534,-1.2566081285476685,1.1219837665557861,-0.19245608150959015,-0.023843839764595032,-0.3749948740005493
4.6576457023620605,-0.3204602003097534,-1.2566081285476685,1.1219837665557861,-0.19245608150959015,-0.023843839764595032,-0.3749948740005493
4.677712440490723,-0.3204602003097534,-1.2566081285476685,1.1219837665557861,-0.19245608150959015,-0.023843839764595032,-0.3749948740005493
4.697772741317749,-0.2970151901245117,-1.0910207033157349,1.226272463798523,-0.17327512800693512,-0.04382561892271042,-0.40291357040405273
4.717984914779663,-0.2970151901245117,-1.0910207033157349,1.226272463798523,-0.17327512800693512,-0.04382561892271042,-0.40291357040405273
4.737979173660278,-0.2970151901245117,-1.0910207033157349,1.226272463798523,-0.17327512800693512,-0.04382561892271042,-0.40291357040405273
4.758036375045776,-0.2970151901245117,-1.0910207033157349,1.226272463798523,-0.17327512800693512,-0.04382561892271042,-0.40291357040405273
4.7781360149383545,-0.31033986806869507,-1.145868182182312,1.1542398929595947,-0.16753779351711273,-0.021884940564632416,-0.39461416006088257
4.798189163208008,-0.31033986806869507,-1.145868182182312,1.1542398929595947,-0.16753779351711273,-0.021884940564632416,-0.39461416006088257
4.818274259567261,-0.31033986806869507,-1.145868182182312,1.1542398929595947,-0.16753779351711273,-0.021884940564632416,-0.39461416006088257
4.838335037231445,-0.3238985538482666,-1.2844877243041992,1.0720241069793701,-0.17691896855831146,-0.0020660599693655968,-0.38041263818740845
4.858418226242065,-0.3238985538482666,-1.2844877243041992,1.0720241069793701,-0.17691896855831146,-0.0020660599693655968,-0.38041263818740845
4.878475904464722,-0.3238985538482666,-1.2844877243041992,1.0720241069793701,-0.17691896855831146,-0.0020660599693655968,-0.38041263818740845
4.898520469665527,-0.30942851305007935,-1.213901400566101,1.1612135171890259,-0.17025412619113922,-0.024952851235866547,-0.39463379979133606
4.9186179637908936,-0.30942851305007935,-1.213901400566101,1.1612135171890259,-0.17025412619113922,-0.024952851235866547,-0.39463379979133606
4.938684701919556,-0.30942851305007935,-1.213901400566101,1.1612135171890259,-0.17025412619113922,-0.024952851235866547,-0.39463379979133606
4.958753824234009,-0.30942851305007935,-1.213901400566101,1.1612135171890259,-0.17025412619113922,-0.024952851235866547,-0.39463379979133606
4.978824853897095,-0.31406068801879883,-1.1953924894332886,1.152238368988037,-0.16313737630844116,-0.021728530526161194,-0.39802849292755127
4.9988930225372314,-0.31406068801879883,-1.1953924894332886,1.152238368988037,-0.16313737630844116,-0.021728530526161194,-0.39802849292755127
5.019001483917236,-0.31406068801879883,-1.1953924894332886,1.152238368988037,-0.16313737630844116,-0.021728530526161194,-0.39802849292755127
5.0391950607299805,-0.3191758394241333,-1.2522578239440918,1.1083660125732422,-0.16741828620433807,-0.00864309724420309,-0.39242076873779297
5.0591936111450195,-0.3191758394241333,-1.2522578239440918,1.1083660125732422,-0.16741828620433807,-0.00864309724420309,-0.39242076873779297
5.0792670249938965,-0.3191758394241333,-1.2522578239440918,1.1083660125732422,-0.16741828620433807,-0.00864309724420309,-0.39242076873779297
5.099334478378296,-0.3191758394241333,-1.2522578239440918,1.1083660125732422,-0.16741828620433807,-0.00864309724420309,-0.39242076873779297
5.119472503662109,-0.3019976019859314,-1.126686692237854,1.2086989879608154,-0.15613870322704315,-0.038695164024829865,-0.41190192103385925
5.139495611190796,-0.3019976019859314,-1.126686692237854,1.2086989879608154,-0.15613870322704315,-0.038695164024829865,-0.41190192103385925
5.1595683097839355,-0.3019976019859314,-1.126686692237854,1.2086989879608154,-0.15613870322704315,-0.038695164024829865,-0.41190192103385925
5.179663181304932,-0.32049286365509033,-1.1777158975601196,1.1454094648361206,-0.1534111052751541,-0.0236920565366745,-0.402188241481781
5.199718952178955,-0.32049286365509033,-1.1777158975601196,1.1454094648361206,-0.1534111052751541,-0.0236920565366745,-0.402188241481781
5.219802618026733,-0.32049286365509033,-1.1777158975601196,1.1454094648361206,-0.1534111052751541,-0.0236920565366745,-0.402188241481781
5.23986029624939,-0.325089693069458,-1.291558861732483,1.0740530490875244,-0.1668713390827179,0.00016021821647882462,-0.39279794692993164
5.25996470451355,-0.325089693069458,-1.291558861732483,1.0740530490875244,-0.1668713390827179,0.00016021821647882462,-0.39279794692993164
5.280038595199585,-0.325089693069458,-1.291558861732483,1.0740530490875244,-0.1668713390827179,0.00016021821647882462,-0.39279794692993164
5.300102949142456,-0.325089693069458,-1.291558861732483,1.0740530490875244,-0.1668713390827179,0.00016021821647882462,-0.39279794692993164
5.320231676101685,-0.30040961503982544,-1.1825343370437622,1.182828426361084,-0.15901470184326172,-0.02261863648891449,-0.40899765491485596
5.340258836746216,-0.30040961503982544,-1.1825343370437622,1.182828426361084,-0.15901470184326172,-0.02261863648891449,-0.40899765491485596
5.360353708267212,-0.30040961503982544,-1.1825343370437622,1.182828426361084,-0.15901470184326172,-0.02261863648891449,-0.40899765491485596
5.380424737930298,-0.33002984523773193,-1.2330682277679443,1.1114263534545898,-0.1550794243812561,-0.018394358456134796,-0.3978974223136902
5.400439500808716,-0.33002984523773193,-1.2330682277679443,1.1114263534545898,-0.1550794243812561,-0.018394358456134796,-0.3978974223136902
5.42052435874939,-0.33002984523773193,-1.2330682277679443,1.1114263534545898,-0.1550794243812561,-0.018394358456134796,-0.3978974223136902
5.440608501434326,-0.33002984523773193,-1.2330682277679443,1.1114263534545898,-0.1550794243812561,-0.018394358456134796,-0.3978974223136902
5.460728883743286,-0.3077314496040344,-1.2098115682601929,1.1531145572662354,-0.16042961180210114,-0.016308419406414032,-0.40697401762008667
5.4808149337768555,-0.3077314496040344,-1.2098115682601929,1.1531145572662354,-0.16042961180210114,-0.016308419406414032,-0.40697401762008667
5.500848770141602,-0.3077314496040344,-1.2098115682601929,1.1531145572662354,-0.16042961180210114,-0.016308419406414032,-0.40697401762008667
5.520988464355469,-0.3116568326950073,-1.13300621509552,1.1931517124176025,-0.14761552214622498,-0.036363281309604645,-0.41410011053085327
5.541032075881958,-0.3116568326950073,-1.13300621509552,1.1931517124176025,-0.14761552214622498,-0.036363281309604645,-0.41410011053085327
5.5610973834991455,-0.3116568326950073,-1.13300621509552,1.1931517124176025,-0.14761552214622498,-0.036363281309604645,-0.41410011053085327
5.58115553855896,-0.33626216650009155,-1.313643455505371,1.0319592952728271,-0.1623775213956833,0.010162503458559513,-0.3890044689178467
5.601239204406738,-0.33626216650009155,-1.313643455505371,1.0319592952728271,-0.1623775213956833,0.010162503458559513,-0.3890044689178467
5.621297597885132,-0.33626216650009155,-1.313643455505371,1.0319592952728271,-0.1623775213956833,0.010162503458559513,-0.3890044689178467
5.641371011734009,-0.33626216650009155,-1.313643455505371,1.0319592952728271,-0.1623775213956833,0.010162503458559513,-0.3890044689178467
5.661523103713989,-0.3169483542442322,-1.3140186071395874,1.0914061069488525,-0.17111806571483612,0.0025470713153481483,-0.3921910226345062
5.681551218032837,-0.3169483542442322,-1.3140186071395874,1.0914061069488525,-0.17111806571483612,0.0025470713153481483,-0.3921910226345062
5.701599359512329,-0.3169483542442322,-1.3140186071395874,1.0914061069488525,-0.17111806571483612,0.0025470713153481483,-0.3921910226345062
5.72169828414917,-0.30071550607681274,-1.145199179649353,1.2114055156707764,-0.15323710441589355,-0.03203091770410538,-0.4142376184463501
5.741753101348877,-0.30071550607681274,-1.145199179649353,1.2114055156707764,-0.15323710441589355,-0.03203091770410538,-0.4142376184463501
5.761831760406494,-0.30071550607681274,-1.145199179649353,1.2114055156707764,-0.15323710441589355,-0.03203091770410538,-0.4142376184463501
5.7819390296936035,-0.3330008387565613,-1.269152283668518,1.0778913497924805,-0.15689128637313843,-0.0035619428381323814,-0.3941955268383026
5.802049875259399,-0.3330008387565613,-1.269152283668518,1.0778913497924805,-0.15689128637313843,-0.0035619428381323814,-0.3941955268383026
5.822123050689697,-0.3330008387565613,-1.269152283668518,1.0778913497924805,-0.15689128637313843,-0.0035619428381323814,-0.3941955268383026
5.842192649841309,-0.3330008387565613,-1.269152283668518,1.0778913497924805,-0.15689128637313843,-0.0035619428381323814,-0.3941955268383026
5.862360715866089,-0.3138381242752075,-1.2146360874176025,1.1600892543792725,-0.15829505026340485,-0.0256781205534935,-0.4078056812286377
5.882381200790405,-0.3138381242752075,-1.2146360874176025,1.1600892543792725,-0.15829505026340485,-0.0256781205534935,-0.4078056812286377
5.9024498462677,-0.3138381242752075,-1.2146360874176025,1.1600892543792725,-0.15829505026340485,-0.0256781205534935,-0.4078056812286377
5.92252516746521,-0.3055034279823303,-1.1050950288772583,1.2146669626235962,-0.14573118090629578,-0.0408765971660614,-0.4212874174118042
5.942588806152344,-0.3055034279823303,-1.1050950288772583,1.2146669626235962,-0.14573118090629578,-0.0408765971660614,-0.4212874174118042
5.962670564651489,-0.3055034279823303,-1.1050950288772583,1.2146669626235962,-0.14573118090629578,-0.0408765971660614,-0.4212874174118042
5.982728004455566,-0.3055034279823303,-1.1050950288772583,1.2146669626235962,-0.14573118090629578,-0.0408765971660614,-0.4212874174118042
6.0028088092803955,-0.3247774839401245,-1.2313469648361206,1.0992975234985352,-0.15299314260482788,-0.005501381121575832,-0.4009867310523987
6.0228800773620605,-0.3247774839401245,-1.2313469648361206,1.0992975234985352,-0.15299314260482788,-0.005501381121575832,-0.4009867310523987
6.042947053909302,-0.3247774839401245,-1.2313469648361206,1.0992975234985352,-0.15299314260482788,-0.005501381121575832,-0.4009867310523987
6.063075542449951,-0.3108716607093811,-1.1966181993484497,1.1599091291427612,-0.15443068742752075,-0.023577898740768433,-0.40838903188705444
6.08309531211853,-0.3108716607093811,-1.1966181993484497,1.1599091291427612,-0.15443068742752075,-0.023577898740768433,-0.40838903188705444
6.103163003921509,-0.3108716607093811,-1.1966181993484497,1.1599091291427612,-0.15443068742752075,-0.023577898740768433,-0.40838903188705444
6.123207330703735,-0.3153401017189026,-1.1456379890441895,1.183626413345337,-0.14464642107486725,-0.03613390028476715,-0.4139310419559479
6.14335560798645,-0.3153401017189026,-1.1456379890441895,1.183626413345337,-0.14464642107486725,-0.03613390028476715,-0.4139310419559479
6.1634087562561035,-0.3153401017189026,-1.1456379890441895,1.183626413345337,-0.14464642107486725,-0.03613390028476715,-0.4139310419559479
6.183467388153076,-0.3153401017189026,-1.1456379890441895,1.183626413345337,-0.14464642107486725,-0.03613390028476715,-0.4139310419559479
6.203566312789917,-0.33864349126815796,-1.3251458406448364,1.0282247066497803,-0.16175618767738342,0.009213597513735294,-0.3900144696235657
6.223586320877075,-0.33864349126815796,-1.3251458406448364,1.0282247066497803,-0.16175618767738342,0.009213597513735294,-0.3900144696235657
6.243658542633057,-0.33864349126815796,-1.3251458406448364,1.0282247066497803,-0.16175618767738342,0.009213597513735294,-0.3900144696235657
6.263725757598877,-0.3229297995567322,-1.3089350461959839,1.0961167812347412,-0.16786326467990875,-0.005159004591405392,-0.39477235078811646
6.283799171447754,-0.3229297995567322,-1.3089350461959839,1.0961167812347412,-0.16786326467990875,-0.005159004591405392,-0.39477235078811646
6.303863763809204,-0.3229297995567322,-1.3089350461959839,1.0961167812347412,-0.16786326467990875,-0.005159004591405392,-0.39477235078811646
6.32393479347229,-0.3229297995567322,-1.3089350461959839,1.0961167812347412,-0.16786326467990875,-0.005159004591405392,-0.39477235078811646
6.34400749206543,-0.3063265085220337,-1.1522356271743774,1.2045361995697021,-0.15145553648471832,-0.03377735614776611,-0.4158133864402771
6.364076137542725,-0.3063265085220337,-1.1522356271743774,1.2045361995697021,-0.15145553648471832,-0.03377735614776611,-0.4158133864402771
6.384149551391602,-0.3063265085220337,-1.1522356271743774,1.2045361995697021,-0.15145553648471832,-0.03377735614776611,-0.4158133864402771
6.404179096221924,-0.3345934748649597,-1.282791256904602,1.067258596420288,-0.15743015706539154,-0.0009695803746581078,-0.3946017026901245
6.424247980117798,-0.3345934748649597,-1.282791256904602,1.067258596420288,-0.15743015706539154,-0.0009695803746581078,-0.3946017026901245
6.444309949874878,-0.3345934748649597,-1.282791256904602,1.067258596420288,-0.15743015706539154,-0.0009695803746581078,-0.3946017026901245
6.464372873306274,-0.316139280796051,-1.2594525814056396,1.1295266151428223,-0.16175885498523712,-0.014651446603238583,-0.40209126472473145
6.484450817108154,-0.316139280796051,-1.2594525814056396,1.1295266151428223,-0.16175885498523712,-0.014651446603238583,-0.40209126472473145
6.504514694213867,-0.316139280796051,-1.2594525814056396,1.1295266151428223,-0.16175885498523712,-0.014651446603238583,-0.40209126472473145
6.524582147598267,-0.316139280796051,-1.2594525814056396,1.1295266151428223,-0.16175885498523712,-0.014651446603238583,-0.40209126472473145
6.544655084609985,-0.30242598056793213,-1.1193233728408813,1.2162259817123413,-0.1464722603559494,-0.03766883164644241,-0.41987746953964233
6.564716815948486,-0.30242598056793213,-1.1193233728408813,1.2162259817123413,-0.1464722603559494,-0.03766883164644241,-0.41987746953964233
6.584787130355835,-0.30242598056793213,-1.1193233728408813,1.2162259817123413,-0.1464722603559494,-0.03766883164644241,-0.41987746953964233
6.604868173599243,-0.3168574571609497,-1.1475671529769897,1.1637511253356934,-0.14293310046195984,-0.025077208876609802,-0.4128054678440094
6.624929189682007,-0.3168574571609497,-1.1475671529769897,1.1637511253356934,-0.14293310046195984,-0.025077208876609802,-0.4128054678440094
6.644994497299194,-0.3168574571609497,-1.1475671529769897,1.1637511253356934,-0.14293310046195984,-0.025077208876609802,-0.4128054678440094
6.665148496627808,-0.3168574571609497,-1.1475671529769897,1.1637511253356934,-0.14293310046195984,-0.025077208876609802,-0.4128054678440094
6.685350179672241,-0.3298734426498413,-1.333354115486145,1.0334746837615967,-0.16422763466835022,0.012889944948256016,-0.3908962309360504
6.705347776412964,-0.3298734426498413,-1.333354115486145,1.0334746837615967,-0.16422763466835022,0.012889944948256016,-0.3908962309360504
6.72541880607605,-0.3298734426498413,-1.333354115486145,1.0334746837615967,-0.16422763466835022,0.012889944948256016,-0.3908962309360504
6.745503664016724,-0.31291401386260986,-1.2851184606552124,1.1229650974273682,-0.16372327506542206,-0.007248356007039547,-0.39715060591697693
6.765564680099487,-0.31291401386260986,-1.2851184606552124,1.1229650974273682,-0.16372327506542206,-0.007248356007039547,-0.39715060591697693
6.785638332366943,-0.31291401386260986,-1.2851184606552124,1.1229650974273682,-0.16372327506542206,-0.007248356007039547,-0.39715060591697693
6.8056862354278564,-0.30565500259399414,-1.153238296508789,1.1976017951965332,-0.14946363866329193,-0.031063809990882874,-0.41432851552963257
6.825772762298584,-0.30565500259399414,-1.153238296508789,1.1976017951965332,-0.14946363866329193,-0.031063809990882874,-0.41432851552963257
6.845838785171509,-0.30565500259399414,-1.153238296508789,1.1976017951965332,-0.14946363866329193,-0.031063809990882874,-0.41432851552963257
6.865914583206177,-0.30565500259399414,-1.153238296508789,1.1976017951965332,-0.14946363866329193,-0.031063809990882874,-0.41432851552963257
6.886007070541382,-0.32608383893966675,-1.2579022645950317,1.0898994207382202,-0.15641753375530243,-0.004223658703267574,-0.39854592084884644
6.906060218811035,-0.32608383893966675,-1.2579022645950317,1.0898994207382202,-0.15641753375530243,-0.004223658703267574,-0.39854592084884644
6.9261462688446045,-0.32608383893966675,-1.2579022645950317,1.0898994207382202,-0.15641753375530243,-0.004223658703267574,-0.39854592084884644
6.946208715438843,-0.301375150680542,-1.1746556758880615,1.1835367679595947,-0.15374910831451416,-0.024737171828746796,-0.41387706995010376
6.966443300247192,-0.301375150680542,-1.1746556758880615,1.1835367679595947,-0.15374910831451416,-0.024737171828746796,-0.41387706995010376
6.986411809921265,-0.301375150680542,-1.1746556758880615,1.1835367679595947,-0.15374910831451416,-0.024737171828746796,-0.41387706995010376
7.006441831588745,-0.3221008777618408,-1.1892253160476685,1.1446688175201416,-0.14948303997516632,-0.025052085518836975,-0.40688806772232056
7.026532411575317,-0.3221008777618408,-1.1892253160476685,1.1446688175201416,-0.14948303997516632,-0.025052085518836975,-0.40688806772232056
7.046603202819824,-0.3221008777618408,-1.1892253160476685,1.1446688175201416,-0.14948303997516632,-0.025052085518836975,-0.40688806772232056
7.066683530807495,-0.3221008777618408,-1.1892253160476685,1.1446688175201416,-0.14948303997516632,-0.025052085518836975,-0.40688806772232056
7.086748123168945,-0.3231291174888611,-1.2817283868789673,1.0864043235778809,-0.16147339344024658,-0.001844882033765316,-0.39773643016815186
7.106847763061523,-0.3231291174888611,-1.2817283868789673,1.0864043235778809,-0.16147339344024658,-0.001844882033765316,-0.39773643016815186
7.1269142627716064,-0.3231291174888611,-1.2817283868789673,1.0864043235778809,-0.16147339344024658,-0.001844882033765316,-0.39773643016815186
7.146971940994263,-0.3013450503349304,-1.1614465713500977,1.1950223445892334,-0.15270502865314484,-0.030273452401161194,-0.41515037417411804
7.167062282562256,-0.3013450503349304,-1.1614465713500977,1.1950223445892334,-0.15270502865314484,-0.030273452401161194,-0.41515037417411804
7.187134027481079,-0.3013450503349304,-1.1614465713500977,1.1950223445892334,-0.15270502865314484,-0.030273452401161194,-0.41515037417411804
7.207258939743042,-0.3013450503349304,-1.1614465713500977,1.1950223445892334,-0.15270502865314484,-0.030273452401161194,-0.41515037417411804
7.227285146713257,-0.31715166568756104,-1.1860311031341553,1.1495780944824219,-0.14813032746315002,-0.022521421313285828,-0.4085947573184967
7.247391223907471,-0.31715166568756104,-1.1860311031341553,1.1495780944824219,-0.14813032746315002,-0.022521421313285828,-0.4085947573184967
7.267442941665649,-0.31715166568756104,-1.1860311031341553,1.1495780944824219,-0.14813032746315002,-0.022521421313285828,-0.4085947573184967
7.287509441375732,-0.3245398998260498,-1.3110970258712769,1.062023639678955,-0.16420350968837738,0.0058004120364785194,-0.3945651650428772
7.307583808898926,-0.3245398998260498,-1.3110970258712769,1.062023639678955,-0.16420350968837738,0.0058004120364785194,-0.3945651650428772
7.327648162841797,-0.3245398998260498,-1.3110970258712769,1.062023639678955,-0.16420350968837738,0.0058004120364785194,-0.3945651650428772
7.347696781158447,-0.3083798289299011,-1.2395058870315552,1.1498031616210938,-0.1598634570837021,-0.015301092527806759,-0.4039636254310608
7.367783308029175,-0.3083798289299011,-1.2395058870315552,1.1498031616210938,-0.1598634570837021,-0.015301092527806759,-0.4039636254310608
7.387852907180786,-0.3083798289299011,-1.2395058870315552,1.1498031616210938,-0.1598634570837021,-0.015301092527806759,-0.4039636254310608
7.407924652099609,-0.3083798289299011,-1.2395058870315552,1.1498031616210938,-0.1598634570837021,-0.015301092527806759,-0.4039636254310608
7.427999258041382,-0.30893129110336304,-1.148974895477295,1.1885148286819458,-0.14738932251930237,-0.03005233407020569,-0.41407909989356995
7.448103427886963,-0.30893129110336304,-1.148974895477295,1.1885148286819458,-0.14738932251930237,-0.03005233407020569,-0.41407909989356995
7.46815299987793,-0.30893129110336304,-1.148974895477295,1.1885148286819458,-0.14738932251930237,-0.03005233407020569,-0.41407909989356995
7.4882402420043945,-0.3295198082923889,-1.3008590936660767,1.0574818849563599,-0.16042053699493408,0.006112054921686649,-0.39334407448768616
7.508307933807373,-0.3295198082923889,-1.3008590936660767,1.0574818849563599,-0.16042053699493408,0.006112054921686649,-0.39334407448768616
7.528374910354614,-0.3295198082923889,-1.3008590936660767,1.0574818849563599,-0.16042053699493408,0.006112054921686649,-0.39334407448768616
7.54843807220459,-0.3295198082923889,-1.3008590936660767,1.0574818849563599,-0.16042053699493408,0.006112054921686649,-0.39334407448768616
7.568580389022827,-0.31296998262405396,-1.250941276550293,1.1391589641571045,-0.16056762635707855,-0.014466776512563229,-0.4017983078956604
7.5886006355285645,-0.31296998262405396,-1.250941276550293,1.1391589641571045,-0.16056762635707855,-0.014466776512563229,-0.4017983078956604
7.6086931228637695,-0.31296998262405396,-1.250941276550293,1.1391589641571045,-0.16056762635707855,-0.014466776512563229,-0.4017983078956604
7.628753423690796,-0.3072051405906677,-1.1333413124084473,1.2038257122039795,-0.14632567763328552,-0.036291830241680145,-0.41685283184051514
7.648826360702515,-0.3072051405906677,-1.1333413124084473,1.2038257122039795,-0.14632567763328552,-0.036291830241680145,-0.41685283184051514
7.668914318084717,-0.3072051405906677,-1.1333413124084473,1.2038257122039795,-0.14632567763328552,-0.036291830241680145,-0.41685283184051514
7.688981056213379,-0.33005595207214355,-1.2437995672225952,1.0961451530456543,-0.15287815034389496,-0.008806533180177212,-0.400285542011261
7.709072589874268,-0.33005595207214355,-1.2437995672225952,1.0961451530456543,-0.15287815034389496,-0.008806533180177212,-0.400285542011261
7.729139566421509,-0.33005595207214355,-1.2437995672225952,1.0961451530456543,-0.15287815034389496,-0.008806533180177212,-0.400285542011261
7.74922251701355,-0.33005595207214355,-1.2437995672225952,1.0961451530456543,-0.15287815034389496,-0.008806533180177212,-0.400285542011261
7.769287824630737,-0.3026256561279297,-1.169703722000122,1.1881890296936035,-0.15188415348529816,-0.02456890046596527,-0.4144817292690277
7.7893500328063965,-0.3026256561279297,-1.169703722000122,1.1881890296936035,-0.15188415348529816,-0.02456890046596527,-0.4144817292690277
7.809425354003906,-0.3026256561279297,-1.169703722000122,1.1881890296936035,-0.15188415348529816,-0.02456890046596527,-0.4144817292690277
7.829583168029785,-0.32272446155548096,-1.203265905380249,1.1367391347885132,-0.14870643615722656,-0.02077586203813553,-0.40556880831718445
7.849637031555176,-0.32272446155548096,-1.203265905380249,1.1367391347885132,-0.14870643615722656,-0.02077586203813553,-0.40556880831718445
7.869705438613892,-0.32272446155548096,-1.203265905380249,1.1367391347885132,-0.14870643615722656,-0.02077586203813553,-0.40556880831718445
7.889762878417969,-0.32272446155548096,-1.203265905380249,1.1367391347885132,-0.14870643615722656,-0.02077586203813553,-0.40556880831718445
7.910061597824097,-0.3229857087135315,-1.269966721534729,1.0986592769622803,-0.15866370499134064,-0.0070105260238051414,-0.39915189146995544
7.930005311965942,-0.3229857087135315,-1.269966721534729,1.0986592769622803,-0.15866370499134064,-0.0070105260238051414,-0.39915189146995544
7.950075387954712,-0.3229857087135315,-1.269966721534729,1.0986592769622803,-0.15866370499134064,-0.0070105260238051414,-0.39915189146995544
7.970145225524902,-0.30341416597366333,-1.1281293630599976,1.210545539855957,-0.14767687022686005,-0.038802675902843475,-0.420074999332428
7.990217924118042,-0.30341416597366333,-1.1281293630599976,1.210545539855957,-0.14767687022686005,-0.038802675902843475,-0.420074999332428
8.010288000106812,-0.30341416597366333,-1.1281293630599976,1.210545539855957,-0.14767687022686005,-0.038802675902843475,-0.420074999332428
8.030338048934937,-0.3157549500465393,-1.1272655725479126,1.1796116828918457,-0.14019666612148285,-0.033795587718486786,-0.4174147844314575
8.050523042678833,-0.3157549500465393,-1.1272655725479126,1.1796116828918457,-0.14019666612148285,-0.033795587718486786,-0.4174147844314575
8.070557355880737,-0.3157549500465393,-1.1272655725479126,1.1796116828918457,-0.14019666612148285,-0.033795587718486786,-0.4174147844314575
8.090629816055298,-0.3157549500465393,-1.1272655725479126,1.1796116828918457,-0.14019666612148285,-0.033795587718486786,-0.4174147844314575
8.110730171203613,-0.33527523279190063,-1.312576413154602,1.0361328125,-0.16065412759780884,0.006265864707529545,-0.39348772168159485
8.130791902542114,-0.33527523279190063,-1.312576413154602,1.0361328125,-0.16065412759780884,0.006265864707529545,-0.39348772168159485
8.150861024856567,-0.33527523279190063,-1.312576413154602,1.0361328125,-0.16065412759780884,0.006265864707529545,-0.39348772168159485
8.170936346054077,-0.3182297348976135,-1.257732629776001,1.133955955505371,-0.16044631600379944,-0.018046215176582336,-0.4024617671966553
8.191019535064697,-0.3182297348976135,-1.257732629776001,1.133955955505371,-0.16044631600379944,-0.018046215176582336,-0.4024617671966553
8.211137294769287,-0.3182297348976135,-1.257732629776001,1.133955955505371,-0.16044631600379944,-0.018046215176582336,-0.4024617671966553
8.231186628341675,-0.31071919202804565,-1.1208213567733765,1.2081903219223022,-0.1446901559829712,-0.040584370493888855,-0.4199155569076538
8.251332521438599,-0.31071919202804565,-1.1208213567733765,1.2081903219223022,-0.1446901559829712,-0.040584370493888855,-0.4199155569076538
8.271363735198975,-0.31071919202804565,-1.1208213567733765,1.2081903219223022,-0.1446901559829712,-0.040584370493888855,-0.4199155569076538
8.291430950164795,-0.31071919202804565,-1.1208213567733765,1.2081903219223022,-0.1446901559829712,-0.040584370493888855,-0.4199155569076538
8.311514377593994,-0.3280717730522156,-1.2164448499679565,1.1096848249435425,-0.15077823400497437,-0.01322340127080679,-0.4055941104888916
8.331583738327026,-0.3280717730522156,-1.2164448499679565,1.1096848249435425,-0.15077823400497437,-0.01322340127080679,-0.4055941104888916
8.351685285568237,-0.3280717730522156,-1.2164448499679565,1.1096848249435425,-0.15077823400497437,-0.01322340127080679,-0.4055941104888916
8.37179446220398,-0.30972540378570557,-1.1828112602233887,1.1673011779785156,-0.1510300189256668,-0.02172894775867462,-0.4120468497276306
8.391865968704224,-0.30972540378570557,-1.1828112602233887,1.1673011779785156,-0.1510300189256668,-0.02172894775867462,-0.4120468497276306
8.411948442459106,-0.30972540378570557,-1.1828112602233887,1.1673011779785156,-0.1510300189256668,-0.02172894775867462,-0.4120468497276306
8.43201994895935,-0.30972540378570557,-1.1828112602233887,1.1673011779785156,-0.1510300189256668,-0.02172894775867462,-0.4120468497276306
8.452104568481445,-0.3225325345993042,-1.228092908859253,1.1210447549819946,-0.15231473743915558,-0.011353968642652035,-0.40273725986480713
8.472195148468018,-0.3225325345993042,-1.228092908859253,1.1210447549819946,-0.15231473743915558,-0.011353968642652035,-0.40273725986480713
8.49228024482727,-0.3225325345993042,-1.228092908859253,1.1210447549819946,-0.15231473743915558,-0.011353968642652035,-0.40273725986480713
8.512362718582153,-0.3124679923057556,-1.1982089281082153,1.159822940826416,-0.15123888850212097,-0.022051304578781128,-0.4101226329803467
8.532437801361084,-0.3124679923057556,-1.1982089281082153,1.159822940826416,-0.15123888850212097,-0.022051304578781128,-0.4101226329803467
8.552504777908325,-0.3124679923057556,-1.1982089281082153,1.159822940826416,-0.15123888850212097,-0.022051304578781128,-0.4101226329803467
8.5725576877594,-0.31481343507766724,-1.1578235626220703,1.175067663192749,-0.14569875597953796,-0.03214310109615326,-0.41378259658813477
8.592646598815918,-0.31481343507766724,-1.1578235626220703,1.175067663192749,-0.14569875597953796,-0.03214310109615326,-0.41378259658813477
8.61276364326477,-0.31481343507766724,-1.1578235626220703,1.175067663192749,-0.14569875597953796,-0.03214310109615326,-0.41378259658813477
8.632796049118042,-0.31481343507766724,-1.1578235626220703,1.175067663192749,-0.14569875597953796,-0.03214310109615326,-0.41378259658813477
8.65286111831665,-0.33364224433898926,-1.3177742958068848,1.0435073375701904,-0.16011281311511993,0.007091262377798557,-0.39262276887893677
8.67293095588684,-0.33364224433898926,-1.3177742958068848,1.0435073375701904,-0.16011281311511993,0.007091262377798557,-0.39262276887893677
8.69300103187561,-0.33364224433898926,-1.3177742958068848,1.0435073375701904,-0.16011281311511993,0.007091262377798557,-0.39262276887893677
8.713083505630493,-0.3188452124595642,-1.2848787307739258,1.116086721420288,-0.16211162507534027,-0.010246454738080502,-0.3993118107318878
8.73314642906189,-0.3188452124595642,-1.2848787307739258,1.116086721420288,-0.16211162507534027,-0.010246454738080502,-0.3993118107318878
8.753231287002563,-0.3188452124595642,-1.2848787307739258,1.116086721420288,-0.16211162507534027,-0.010246454738080502,-0.3993118107318878
8.773393154144287,-0.3188452124595642,-1.2848787307739258,1.116086721420288,-0.16211162507534027,-0.010246454738080502,-0.3993118107318878
8.793500185012817,-0.30321967601776123,-1.1206046342849731,1.21757173538208,-0.1455082893371582,-0.03971397876739502,-0.4217349886894226
8.813591957092285,-0.30321967601776123,-1.1206046342849731,1.21757173538208,-0.1455082893371582,-0.03971397876739502,-0.4217349886894226
8.83364725112915,-0.30321967601776123,-1.1206046342849731,1.21757173538208,-0.1455082893371582,-0.03971397876739502,-0.4217349886894226
8.853753805160522,-0.32224446535110474,-1.1920064687728882,1.1316728591918945,-0.1461840718984604,-0.01732339709997177,-0.4094701409339905
8.873794317245483,-0.32224446535110474,-1.1920064687728882,1.1316728591918945,-0.1461840718984604,-0.01732339709997177,-0.4094701409339905
8.893862009048462,-0.32224446535110474,-1.1920064687728882,1.1316728591918945,-0.1461840718984604,-0.01732339709997177,-0.4094701409339905
8.913935899734497,-0.3176865577697754,-1.2411047220230103,1.120008111000061,-0.15423618257045746,-0.010690606199204922,-0.4057837426662445
8.93400526046753,-0.3176865577697754,-1.2411047220230103,1.120008111000061,-0.15423618257045746,-0.010690606199204922,-0.4057837426662445
8.954084873199463,-0.3176865577697754,-1.2411047220230103,1.120008111000061,-0.15423618257045746,-0.010690606199204922,-0.4057837426662445
8.974177598953247,-0.3176865577697754,-1.2411047220230103,1.120008111000061,-0.15423618257045746,-0.010690606199204922,-0.4057837426662445
8.994239807128906,-0.2990231513977051,-1.1288058757781982,1.2057220935821533,-0.14531202614307404,-0.030033089220523834,-0.41993898153305054
9.014307022094727,-0.2990231513977051,-1.1288058757781982,1.2057220935821533,-0.14531202614307404,-0.030033089220523834,-0.41993898153305054
9.034374475479126,-0.2990231513977051,-1.1288058757781982,1.2057220935821533,-0.14531202614307404,-0.030033089220523834,-0.41993898153305054
9.054440259933472,-0.318265438079834,-1.1871936321258545,1.1368293762207031,-0.1453496366739273,-0.013636804185807705,-0.4085437059402466
9.074508428573608,-0.318265438079834,-1.1871936321258545,1.1368293762207031,-0.1453496366739273,-0.013636804185807705,-0.4085437059402466
9.094599962234497,-0.318265438079834,-1.1871936321258545,1.1368293762207031,-0.1453496366739273,-0.013636804185807705,-0.4085437059402466
9.11475920677185,-0.31983089447021484,-1.272843599319458,1.094950795173645,-0.1575227975845337,-0.0012676408514380455,-0.3999084532260895
9.134850263595581,-0.31983089447021484,-1.272843599319458,1.094950795173645,-0.1575227975845337,-0.0012676408514380455,-0.3999084532260895
9.15494418144226,-0.31983089447021484,-1.272843599319458,1.094950795173645,-0.1575227975845337,-0.0012676408514380455,-0.3999084532260895
9.17501425743103,-0.31983089447021484,-1.272843599319458,1.094950795173645,-0.1575227975845337,-0.0012676408514380455,-0.3999084532260895
9.19513726234436,-0.29694801568984985,-1.1092597246170044,1.2239408493041992,-0.14473482966423035,-0.03914274275302887,-0.4229664206504822
9.215204000473022,-0.29694801568984985,-1.1092597246170044,1.2239408493041992,-0.14473482966423035,-0.03914274275302887,-0.4229664206504822
9.235294103622437,-0.29694801568984985,-1.1092597246170044,1.2239408493041992,-0.14473482966423035,-0.03914274275302887,-0.4229664206504822
9.25536036491394,-0.313464879989624,-1.1268393993377686,1.1766338348388672,-0.1385306417942047,-0.029140323400497437,-0.41760575771331787
9.275433778762817,-0.313464879989624,-1.1268393993377686,1.1766338348388672,-0.1385306417942047,-0.029140323400497437,-0.41760575771331787
9.295502662658691,-0.313464879989624,-1.1268393993377686,1.1766338348388672,-0.1385306417942047,-0.029140323400497437,-0.41760575771331787
9.315601110458374,-0.313464879989624,-1.1268393993377686,1.1766338348388672,-0.1385306417942047,-0.029140323400497437,-0.41760575771331787
9.335675716400146,-0.3256869316101074,-1.281444787979126,1.0646724700927734,-0.15686525404453278,0.0036733904853463173,-0.398428350687027
9.355744123458862,-0.3256869316101074,-1.281444787979126,1.0646724700927734,-0.15686525404453278,0.0036733904853463173,-0.398428350687027
9.375816345214844,-0.3256869316101074,-1.281444787979126,1.0646724700927734,-0.15686525404453278,0.0036733904853463173,-0.398428350687027
9.395893096923828,-0.3039281964302063,-1.1747921705245972,1.18241548538208,-0.15102817118167877,-0.028822340071201324,-0.4145059585571289
9.415958642959595,-0.3039281964302063,-1.1747921705245972,1.18241548538208,-0.15102817118167877,-0.028822340071201324,-0.4145059585571289
9.436033010482788,-0.3039281964302063,-1.1747921705245972,1.18241548538208,-0.15102817118167877,-0.028822340071201324,-0.4145059585571289
9.456077814102173,-0.3239603638648987,-1.2244317531585693,1.1191532611846924,-0.150015726685524,-0.014782323502004147,-0.4046432077884674
9.476158380508423,-0.3239603638648987,-1.2244317531585693,1.1191532611846924,-0.150015726685524,-0.014782323502004147,-0.4046432077884674
9.49622917175293,-0.3239603638648987,-1.2244317531585693,1.1191532611846924,-0.150015726685524,-0.014782323502004147,-0.4046432077884674
9.516303539276123,-0.3239603638648987,-1.2244317531585693,1.1191532611846924,-0.150015726685524,-0.014782323502004147,-0.4046432077884674
9.536370992660522,-0.3141412138938904,-1.2223197221755981,1.1399446725845337,-0.1539977639913559,-0.01691276580095291,-0.40855875611305237
9.556437730789185,-0.3141412138938904,-1.2223197221755981,1.1399446725845337,-0.1539977639913559,-0.01691276580095291,-0.40855875611305237
9.576502561569214,-0.3141412138938904,-1.2223197221755981,1.1399446725845337,-0.1539977639913559,-0.01691276580095291,-0.40855875611305237
9.596569776535034,-0.3028619885444641,-1.1094623804092407,1.2124278545379639,-0.14211274683475494,-0.03869492560625076,-0.42218929529190063
9.61664080619812,-0.3028619885444641,-1.1094623804092407,1.2124278545379639,-0.14211274683475494,-0.03869492560625076,-0.42218929529190063
9.636766195297241,-0.3028619885444641,-1.1094623804092407,1.2124278545379639,-0.14211274683475494,-0.03869492560625076,-0.42218929529190063
9.656838417053223,-0.3028619885444641,-1.1094623804092407,1.2124278545379639,-0.14211274683475494,-0.03869492560625076,-0.42218929529190063
9.676886558532715,-0.3236790895462036,-1.2180696725845337,1.1076889038085938,-0.14834246039390564,-0.00905883964151144,-0.40480276942253113
9.69696044921875,-0.3236790895462036,-1.2180696725845337,1.1076889038085938,-0.14834246039390564,-0.00905883964151144,-0.40480276942253113
9.717025518417358,-0.3236790895462036,-1.2180696725845337,1.1076889038085938,-0.14834246039390564,-0.00905883964151144,-0.40480276942253113
9.737127542495728,-0.30587780475616455,-1.1927438974380493,1.1592496633529663,-0.15229976177215576,-0.015778616070747375,-0.41068196296691895
9.757176399230957,-0.30587780475616455,-1.1927438974380493,1.1592496633529663,-0.15229976177215576,-0.015778616070747375,-0.41068196296691895
9.777240753173828,-0.30587780475616455,-1.1927438974380493,1.1592496633529663,-0.15229976177215576,-0.015778616070747375,-0.41068196296691895
9.797302007675171,-0.31723570823669434,-1.1630390882492065,1.170442819595337,-0.14418460428714752,-0.03146301209926605,-0.4117515981197357
9.817403793334961,-0.31723570823669434,-1.1630390882492065,1.170442819595337,-0.14418460428714752,-0.03146301209926605,-0.4117515981197357
9.837538003921509,-0.31723570823669434,-1.1630390882492065,1.170442819595337,-0.14418460428714752,-0.03146301209926605,-0.4117515981197357
