liuyurong129/humanoid-gym/humanoid/data/target_q_20250523-025823.csv
timestamp,joint_1,joint_2,joint_3,joint_4,joint_5,joint_6
0.00010418891906738281,0.0,0.0,0.0,0.0,0.0,0.0
0.020189285278320312,0.0,0.0,0.0,0.0,0.0,0.0
0.04022836685180664,0.0,0.0,0.0,0.0,0.0,0.0
0.060390472412109375,0.0,0.0,0.0,0.0,0.0,0.0
0.08041191101074219,-0.18687725067138672,-0.05987892672419548,0.4543405771255493,0.5638519525527954,0.4040910601615906,0.6043180227279663
0.10094714164733887,-0.16060590744018555,-0.1589883714914322,0.3385268449783325,0.3480834364891052,0.30869781970977783,0.5651189088821411
0.12108063697814941,-0.15101978182792664,-0.212848961353302,0.30269497632980347,0.3266490399837494,0.25247544050216675,0.5571825504302979
0.14123773574829102,-0.14863082766532898,-0.20203907787799835,0.3257008194923401,0.32585203647613525,0.2646474838256836,0.5551252365112305
0.1612842082977295,-0.1490931212902069,-0.20848794281482697,0.3223103880882263,0.32668107748031616,0.260986864566803,0.5557976365089417
0.18134570121765137,-0.1477602869272232,-0.20888005197048187,0.32753893733024597,0.3273140788078308,0.26634180545806885,0.5562565922737122
0.201493501663208,-0.15039756894111633,-0.20401541888713837,0.33737432956695557,0.3301197290420532,0.2651713490486145,0.5566923022270203
0.22150635719299316,-0.15521222352981567,-0.20331552624702454,0.3513484001159668,0.33294451236724854,0.2557673454284668,0.555635929107666
0.24155235290527344,-0.14784172177314758,-0.20150791108608246,0.3542119264602661,0.32894155383110046,0.28645217418670654,0.5568101406097412
0.26171875,-0.15074369311332703,-0.20680658519268036,0.3510105609893799,0.33240920305252075,0.27089935541152954,0.5577592849731445
0.2818481922149658,-0.14648602902889252,-0.2115481048822403,0.35062670707702637,0.3303108215332031,0.2834160327911377,0.5572482347488403
0.30184459686279297,-0.1501639187335968,-0.2121679037809372,0.3496584892272949,0.3305387496948242,0.2738189697265625,0.5579191446304321
0.32192254066467285,-0.14971290528774261,-0.21853263676166534,0.3349562883377075,0.3324621319770813,0.26161694526672363,0.5600836277008057
0.34202098846435547,-0.14872580766677856,-0.2216012328863144,0.3340599536895752,0.33275967836380005,0.2667735815048218,0.560746967792511
0.36208367347717285,-0.1515524685382843,-0.21936942636966705,0.34035372734069824,0.33388978242874146,0.26436054706573486,0.560882568359375
0.3821260929107666,-0.15038710832595825,-0.2215629667043686,0.3415479063987732,0.3338095545768738,0.2682957053184509,0.5613715648651123
0.4022536277770996,-0.14839327335357666,-0.2213887721300125,0.35507336258888245,0.33023613691329956,0.2881903052330017,0.55997633934021
0.42237162590026855,-0.14980018138885498,-0.22585467994213104,0.3470739424228668,0.33174315094947815,0.27915358543395996,0.5614857077598572
0.4424111843109131,-0.150562584400177,-0.22779510915279388,0.34899094700813293,0.332608699798584,0.2782817482948303,0.562401294708252
0.46251630783081055,-0.1520170271396637,-0.22900861501693726,0.34146177768707275,0.3324592709541321,0.2682352662086487,0.562670111656189
0.4825911521911621,-0.15304666757583618,-0.23354800045490265,0.34464025497436523,0.3362846076488495,0.26317858695983887,0.5644867420196533
0.5026862621307373,-0.15234963595867157,-0.23054753243923187,0.34858983755111694,0.3358881175518036,0.2685531973838806,0.5640166401863098
0.5227451324462891,-0.15258640050888062,-0.2296452820301056,0.3520808219909668,0.33470624685287476,0.2741049528121948,0.5644717216491699
0.5428817272186279,-0.15160952508449554,-0.22759774327278137,0.3786260783672333,0.3341599106788635,0.3009180426597595,0.5625565052032471
0.5630075931549072,-0.1545858532190323,-0.2332812249660492,0.3708505928516388,0.33482515811920166,0.2877589464187622,0.5627784132957458
0.5830004215240479,-0.1518530696630478,-0.23511850833892822,0.370311439037323,0.3330731987953186,0.2909155488014221,0.5624399781227112
0.6030807495117188,-0.15310518443584442,-0.2393132895231247,0.3659491539001465,0.3350260555744171,0.2837316393852234,0.5633436441421509
0.623180627822876,-0.15395218133926392,-0.2415124922990799,0.3534564971923828,0.3374881446361542,0.2707131505012512,0.565327525138855
0.6433455944061279,-0.15328410267829895,-0.24419687688350677,0.35215628147125244,0.33683305978775024,0.2728164792060852,0.5660533905029297
0.6634097099304199,-0.15615330636501312,-0.24385009706020355,0.35418200492858887,0.3373119831085205,0.26707011461257935,0.5662353038787842
0.6834471225738525,-0.15489274263381958,-0.2527730464935303,0.35179510712623596,0.33842653036117554,0.26771265268325806,0.5677979588508606
0.70353102684021,-0.15199042856693268,-0.24523596465587616,0.371441125869751,0.33404242992401123,0.299543559551239,0.5654482841491699
0.7235970497131348,-0.15356305241584778,-0.24506069719791412,0.3876584768295288,0.3371536135673523,0.3053431510925293,0.5656071901321411
0.7437479496002197,-0.15401393175125122,-0.24483932554721832,0.3895827531814575,0.33647051453590393,0.3019104599952698,0.5655953884124756
0.7638099193572998,-0.1571127027273178,-0.2557741105556488,0.35975968837738037,0.3403465747833252,0.26779645681381226,0.5700868368148804
0.7839126586914062,-0.15939173102378845,-0.25597572326660156,0.3632749617099762,0.342181921005249,0.2616288661956787,0.5695436000823975
0.8039679527282715,-0.15636342763900757,-0.2593225836753845,0.3595353960990906,0.34060168266296387,0.27257049083709717,0.5699728727340698
0.8240976333618164,-0.15537092089653015,-0.2650844156742096,0.3570607304573059,0.34102320671081543,0.2778934836387634,0.5711891055107117
0.8441252708435059,-0.1564723551273346,-0.2563193142414093,0.376342236995697,0.3377971649169922,0.28852730989456177,0.5679114460945129
0.8642399311065674,-0.15735264122486115,-0.2540816366672516,0.38957589864730835,0.3390328288078308,0.2946116328239441,0.5680817365646362
0.8842642307281494,-0.15696343779563904,-0.2553516626358032,0.3921927213668823,0.3383060395717621,0.3027217984199524,0.5672022700309753
0.9043703079223633,-0.15611416101455688,-0.26763099431991577,0.37300044298171997,0.3439199924468994,0.29105204343795776,0.5728887319564819
0.9245009422302246,-0.15928447246551514,-0.27027660608291626,0.37198472023010254,0.34466978907585144,0.2789308428764343,0.573603630065918
0.9445126056671143,-0.15860268473625183,-0.26774993538856506,0.3779297173023224,0.34430238604545593,0.2869746685028076,0.5730395913124084
0.9646341800689697,-0.1578601598739624,-0.2744944393634796,0.3761991560459137,0.3388632535934448,0.28840172290802,0.5708810091018677
0.9847192764282227,-0.1573614478111267,-0.26416218280792236,0.39700520038604736,0.33933550119400024,0.30698609352111816,0.5697000622749329
1.0048465728759766,-0.15942558646202087,-0.2711196541786194,0.3891269564628601,0.340312123298645,0.2940638065338135,0.5695393085479736
1.0250027179718018,-0.15818125009536743,-0.277916818857193,0.37417471408843994,0.3445069193840027,0.2862604856491089,0.5738056898117065
1.0450067520141602,-0.15615198016166687,-0.2881856858730316,0.36594483256340027,0.3442418575286865,0.2897142171859741,0.5763109922409058
1.0650737285614014,-0.15846148133277893,-0.2874188721179962,0.3745453357696533,0.34787946939468384,0.28674161434173584,0.576752781867981
1.0851161479949951,-0.16019490361213684,-0.284267395734787,0.3799210488796234,0.347872793674469,0.2848058342933655,0.5760176181793213
1.1052298545837402,-0.1581314206123352,-0.2729988396167755,0.4120267629623413,0.3419533967971802,0.3189905881881714,0.5717779397964478
1.1254277229309082,-0.15728531777858734,-0.28565919399261475,0.3998038172721863,0.3430340588092804,0.31550776958465576,0.5741668939590454
1.145423412322998,-0.15873563289642334,-0.2797604203224182,0.41692835092544556,0.3436793088912964,0.3221399784088135,0.5738335251808167
1.1655974388122559,-0.16250602900981903,-0.2922559380531311,0.37736383080482483,0.3463723659515381,0.2778325080871582,0.5775770545005798
1.1856045722961426,-0.16323012113571167,-0.2903817892074585,0.38488227128982544,0.34722763299942017,0.2838113307952881,0.5774936676025391
1.2057769298553467,-0.16256457567214966,-0.2961758077144623,0.38118234276771545,0.3468243479728699,0.28124409914016724,0.5780431032180786
1.2258868217468262,-0.16233712434768677,-0.30209964513778687,0.38112229108810425,0.34859347343444824,0.285305917263031,0.5797384977340698
1.246159553527832,-0.1598510444164276,-0.2907688617706299,0.4162853956222534,0.3423427939414978,0.32222503423690796,0.5753964185714722
1.266099214553833,-0.16056254506111145,-0.29999199509620667,0.41327500343322754,0.34657222032546997,0.31732451915740967,0.577457070350647
1.2861659526824951,-0.16693086922168732,-0.29566290974617004,0.400779128074646,0.34888437390327454,0.28388434648513794,0.5782325267791748
1.3062787055969238,-0.16807648539543152,-0.2981094419956207,0.3978925049304962,0.3483809530735016,0.2833990454673767,0.5778926610946655
1.326373815536499,-0.16532933712005615,-0.30563631653785706,0.3920276463031769,0.3477323055267334,0.28604549169540405,0.5796757936477661
1.3464300632476807,-0.16868415474891663,-0.3091358244419098,0.38918396830558777,0.34989768266677856,0.27541446685791016,0.580166220664978
1.3665242195129395,-0.16472531855106354,-0.30552712082862854,0.41809722781181335,0.3499132990837097,0.3077670931816101,0.5789835453033447
1.3866136074066162,-0.16398349404335022,-0.3038361966609955,0.4186784625053406,0.3474757671356201,0.3106737732887268,0.5785239934921265
1.4067165851593018,-0.16418656706809998,-0.3107215464115143,0.41939735412597656,0.34907200932502747,0.3114261031150818,0.5798530578613281
1.4267966747283936,-0.1661118119955063,-0.3170830309391022,0.3985997140407562,0.3528883755207062,0.28970831632614136,0.5834245681762695
1.4468703269958496,-0.16436612606048584,-0.32531583309173584,0.39325737953186035,0.35298311710357666,0.29516279697418213,0.5850291848182678
1.466928243637085,-0.16397958993911743,-0.32861676812171936,0.3969293236732483,0.354775607585907,0.29835522174835205,0.5852488279342651
1.4869720935821533,-0.1664671152830124,-0.31233835220336914,0.425811767578125,0.3481890857219696,0.31014955043792725,0.5784461498260498
1.5070946216583252,-0.16690665483474731,-0.31417185068130493,0.43429839611053467,0.3498023748397827,0.31765490770339966,0.5797421932220459
1.5271539688110352,-0.16331635415554047,-0.3154114782810211,0.44037434458732605,0.34922611713409424,0.3326326012611389,0.5798426866531372
1.547290563583374,-0.16435770690441132,-0.32116347551345825,0.4439155161380768,0.35172247886657715,0.3307359218597412,0.5815618634223938
1.5673353672027588,-0.16802388429641724,-0.3301665782928467,0.4116067886352539,0.35723036527633667,0.29775363206863403,0.5862759351730347
1.5874042510986328,-0.1672254353761673,-0.3373658061027527,0.40943971276283264,0.35758209228515625,0.29833340644836426,0.5883274674415588
1.6074767112731934,-0.16870412230491638,-0.33763888478279114,0.42109155654907227,0.36101967096328735,0.296916127204895,0.5887956619262695
1.6275300979614258,-0.1664382368326187,-0.33819523453712463,0.42337459325790405,0.358853280544281,0.3113629221916199,0.5889572501182556
1.6476914882659912,-0.16950707137584686,-0.32560819387435913,0.4530910849571228,0.35408610105514526,0.3182796835899353,0.5829291343688965
1.6677310466766357,-0.16857188940048218,-0.326823353767395,0.44950202107429504,0.3531777262687683,0.32227623462677,0.5822931528091431
1.6878139972686768,-0.17032282054424286,-0.33205991983413696,0.4484632611274719,0.35517188906669617,0.3156602382659912,0.5834089517593384
1.707850456237793,-0.16933764517307281,-0.3294326364994049,0.45418381690979004,0.3538602888584137,0.32558369636535645,0.5822305679321289
1.7279415130615234,-0.16984058916568756,-0.34625694155693054,0.42803117632865906,0.3622609078884125,0.3028549551963806,0.5889955759048462
1.7480456829071045,-0.17015491425991058,-0.3464514911174774,0.4239087700843811,0.3594227433204651,0.3030599355697632,0.5883246064186096
1.7680845260620117,-0.17119771242141724,-0.3544636070728302,0.420799195766449,0.3603048026561737,0.29631197452545166,0.5898141860961914
1.7882566452026367,-0.17004448175430298,-0.35119619965553284,0.43512216210365295,0.3609294593334198,0.3140066862106323,0.5895931720733643
1.8083486557006836,-0.17089588940143585,-0.3486786484718323,0.43794262409210205,0.35732555389404297,0.30999869108200073,0.5868006944656372
1.8284111022949219,-0.17264458537101746,-0.34804627299308777,0.4391658902168274,0.35937047004699707,0.3058397173881531,0.5872151851654053
1.848475456237793,-0.172691211104393,-0.3462916314601898,0.4419286847114563,0.35876429080963135,0.3088993430137634,0.5861377716064453
1.8688201904296875,-0.16980570554733276,-0.3525755703449249,0.4429856836795807,0.358090341091156,0.31852275133132935,0.5878981947898865
1.8889062404632568,-0.17149639129638672,-0.3571343421936035,0.43402135372161865,0.3615225553512573,0.30994361639022827,0.5902904272079468
1.9089758396148682,-0.17157459259033203,-0.3632937967777252,0.4264957904815674,0.3616611361503601,0.3053792119026184,0.5909165143966675
1.9290194511413574,-0.173976331949234,-0.36377331614494324,0.43430012464523315,0.36404120922088623,0.3022451400756836,0.5913212299346924
1.949115514755249,-0.17086684703826904,-0.3587647080421448,0.4517242908477783,0.35889512300491333,0.32334673404693604,0.5890763998031616
1.9691925048828125,-0.17237389087677002,-0.35748571157455444,0.4590601921081543,0.36009350419044495,0.32622313499450684,0.5891802310943604
1.989255428314209,-0.17347335815429688,-0.35338297486305237,0.46862655878067017,0.3594213128089905,0.33032548427581787,0.5880624055862427
2.0094685554504395,-0.17094402015209198,-0.37282636761665344,0.44364291429519653,0.3659448027610779,0.3261181712150574,0.5948019027709961
2.02955961227417,-0.17065981030464172,-0.376598060131073,0.438356876373291,0.365908682346344,0.31956833600997925,0.5962476134300232
2.049654960632324,-0.17324328422546387,-0.3751095235347748,0.44628822803497314,0.367730975151062,0.31426161527633667,0.5950851440429688
2.0697438716888428,-0.17284780740737915,-0.38217034935951233,0.4359833002090454,0.366698682308197,0.31586700677871704,0.5955172777175903
2.089812755584717,-0.17605066299438477,-0.36280906200408936,0.4758414030075073,0.36375880241394043,0.3283500075340271,0.5892214179039001
2.109893798828125,-0.17701932787895203,-0.37307748198509216,0.46411752700805664,0.3649153709411621,0.31849098205566406,0.59090256690979
2.1299614906311035,-0.17673873901367188,-0.3664354979991913,0.47895902395248413,0.3655118942260742,0.32706671953201294,0.590764582157135
2.1501054763793945,-0.17370998859405518,-0.3883051574230194,0.4539911150932312,0.37028494477272034,0.32735979557037354,0.5970687866210938
2.170147657394409,-0.1736670434474945,-0.3943650722503662,0.4468899965286255,0.37072286009788513,0.32453256845474243,0.5984508991241455
2.1901957988739014,-0.17465859651565552,-0.3922068178653717,0.450813353061676,0.37049221992492676,0.324187695980072,0.598484992980957
2.2102901935577393,-0.1758287400007248,-0.37407293915748596,0.4835047125816345,0.36558806896209717,0.3381198048591614,0.5922183394432068
2.2304787635803223,-0.17543941736221313,-0.3809148371219635,0.4772210717201233,0.36529427766799927,0.33350640535354614,0.5935933589935303
2.2504799365997314,-0.1762150228023529,-0.384142130613327,0.4768792390823364,0.3671318292617798,0.3314979076385498,0.5946376323699951
2.271131753921509,-0.17758315801620483,-0.3849687874317169,0.477073073387146,0.3685316741466522,0.33027273416519165,0.5960201621055603
2.291271209716797,-0.17701543867588043,-0.4005056321620941,0.4569777846336365,0.3728507459163666,0.3257301449775696,0.6004037857055664
2.3113412857055664,-0.175622820854187,-0.40421077609062195,0.4547349214553833,0.37239813804626465,0.32772499322891235,0.6006454229354858
2.3314363956451416,-0.17967204749584198,-0.4022555947303772,0.46298134326934814,0.37570348381996155,0.3158387541770935,0.6008807420730591
2.351585865020752,-0.17650438845157623,-0.39653682708740234,0.4734762907028198,0.3677063584327698,0.3341798186302185,0.5971530675888062
2.371713638305664,-0.17949950695037842,-0.39140936732292175,0.4877777099609375,0.37072059512138367,0.33647143840789795,0.5971159934997559
2.391763925552368,-0.17927131056785583,-0.3943615257740021,0.48704296350479126,0.3705870509147644,0.3375043272972107,0.5969533920288086
2.411776304244995,-0.1791754961013794,-0.3951101005077362,0.49189209938049316,0.3706165552139282,0.34143495559692383,0.5971646904945374
2.4319045543670654,-0.17818012833595276,-0.405495285987854,0.48328977823257446,0.3760918974876404,0.3400360941886902,0.6020907759666443
2.4519588947296143,-0.17972058057785034,-0.41210922598838806,0.4700080156326294,0.3746638894081116,0.32643330097198486,0.6017329692840576
2.472081184387207,-0.17991837859153748,-0.40958505868911743,0.4812784194946289,0.3757857382297516,0.33196699619293213,0.6017074584960938
2.492133140563965,-0.17932432889938354,-0.4143630564212799,0.47609204053878784,0.37231433391571045,0.3350299596786499,0.6001775860786438
2.512315273284912,-0.18281251192092896,-0.41138792037963867,0.4848429560661316,0.3754619359970093,0.32723546028137207,0.6002703905105591
2.532357931137085,-0.18276116251945496,-0.4091046154499054,0.49291855096817017,0.3733353614807129,0.33329635858535767,0.599528431892395
2.552788257598877,-0.18401405215263367,-0.4015195965766907,0.5084463357925415,0.37403473258018494,0.3448742628097534,0.5978202223777771
2.572880983352661,-0.18179479241371155,-0.4359999895095825,0.4611777067184448,0.3813474178314209,0.32256489992141724,0.6067793369293213
2.5929195880889893,-0.18169263005256653,-0.42966756224632263,0.4694347381591797,0.3799207806587219,0.3313677906990051,0.6059869527816772
2.613020181655884,-0.18260987102985382,-0.43122464418411255,0.475455105304718,0.378545880317688,0.33240675926208496,0.6065188646316528
2.6331448554992676,-0.18199098110198975,-0.41727036237716675,0.5028502941131592,0.37603670358657837,0.34681302309036255,0.6021959185600281
2.6531758308410645,-0.1844499558210373,-0.4220527410507202,0.49783045053482056,0.3770786225795746,0.33814191818237305,0.6022974848747253
2.6732590198516846,-0.186731219291687,-0.4217317998409271,0.4994547963142395,0.3782932162284851,0.3320816159248352,0.6018568873405457
2.6933364868164062,-0.18145962059497833,-0.443582683801651,0.4777873754501343,0.38090044260025024,0.345733106136322,0.6079158782958984
2.71341872215271,-0.1853792667388916,-0.44002285599708557,0.48744237422943115,0.38312670588493347,0.3392685055732727,0.6079365015029907
2.7335753440856934,-0.18645626306533813,-0.43933847546577454,0.4920259714126587,0.3825715184211731,0.33925551176071167,0.6073180437088013
2.7537238597869873,-0.18518535792827606,-0.43606606125831604,0.5047717690467834,0.382121205329895,0.3498305678367615,0.6073141098022461
2.773810863494873,-0.18514323234558105,-0.4402073323726654,0.49652743339538574,0.3812750279903412,0.345559298992157,0.6070603728294373
2.7938716411590576,-0.1854316145181656,-0.44449689984321594,0.4973970651626587,0.383206307888031,0.34262585639953613,0.6083228588104248
2.813936710357666,-0.18744313716888428,-0.4481746256351471,0.49596548080444336,0.38510024547576904,0.3414079546928406,0.6086676120758057
2.83412504196167,-0.18847590684890747,-0.43910354375839233,0.5135666131973267,0.3839270770549774,0.3425118327140808,0.6064890623092651
2.854126214981079,-0.1888853758573532,-0.4396754503250122,0.517090380191803,0.3839191794395447,0.34646815061569214,0.6072255373001099
2.8742728233337402,-0.1897290199995041,-0.4449772536754608,0.5114586353302002,0.3834240436553955,0.34307944774627686,0.6085449457168579
2.8943049907684326,-0.18987315893173218,-0.45075365900993347,0.500358521938324,0.3821200728416443,0.341735303401947,0.6085721254348755
2.914410352706909,-0.18717962503433228,-0.45287010073661804,0.5151468515396118,0.38699227571487427,0.3593044877052307,0.6119598150253296
2.9345743656158447,-0.1888177990913391,-0.4611678421497345,0.5017437934875488,0.38648736476898193,0.34400880336761475,0.6116805076599121
2.9545748233795166,-0.1881106048822403,-0.4613560736179352,0.5068302750587463,0.3866061866283417,0.3505406975746155,0.6123629808425903
2.9747202396392822,-0.19040705263614655,-0.45052289962768555,0.5322403907775879,0.3882203996181488,0.356545627117157,0.6097478866577148
2.9947993755340576,-0.18971166014671326,-0.47644534707069397,0.4911235570907593,0.39047229290008545,0.3394760489463806,0.6150063276290894
3.014986991882324,-0.19058698415756226,-0.47624751925468445,0.5011515021324158,0.39407825469970703,0.34607040882110596,0.617440938949585
3.034984827041626,-0.1902812421321869,-0.4816513657569885,0.4966110587120056,0.3941507935523987,0.3448389172554016,0.6180116534233093
3.055082321166992,-0.1890232264995575,-0.44929006695747375,0.5527773499488831,0.38462668657302856,0.37561166286468506,0.607914924621582
3.0751442909240723,-0.19078445434570312,-0.44937342405319214,0.5591139197349548,0.38579192757606506,0.37614530324935913,0.6074213981628418
3.0952205657958984,-0.19012653827667236,-0.4631916582584381,0.5409687161445618,0.3857477307319641,0.3670269250869751,0.6100510358810425
3.115532875061035,-0.18951983749866486,-0.46878480911254883,0.5394487977027893,0.3879358768463135,0.37387704849243164,0.6115323305130005
3.1355955600738525,-0.19322341680526733,-0.48565784096717834,0.5101415514945984,0.3943958282470703,0.3507338762283325,0.617664098739624
3.1556780338287354,-0.19344688951969147,-0.4900493323802948,0.5120662450790405,0.39610522985458374,0.35487377643585205,0.6183953881263733
3.175748825073242,-0.19425009191036224,-0.5068538784980774,0.4946615695953369,0.39819687604904175,0.3464754819869995,0.6218414306640625
3.1958532333374023,-0.19448459148406982,-0.46342676877975464,0.5619962215423584,0.38813480734825134,0.3769497871398926,0.609416663646698
3.2159957885742188,-0.19392187893390656,-0.4674431383609772,0.5684629082679749,0.3901468515396118,0.37994974851608276,0.6112372875213623
3.2359862327575684,-0.19322967529296875,-0.47130635380744934,0.5699236392974854,0.3916700482368469,0.3814142346382141,0.6124260425567627
3.256117582321167,-0.19520092010498047,-0.4996356666088104,0.5264922380447388,0.40115469694137573,0.3617892861366272,0.622612476348877
3.276160955429077,-0.19650891423225403,-0.5035366415977478,0.528204619884491,0.40273743867874146,0.3600066900253296,0.6235611438751221
3.296250104904175,-0.1971578299999237,-0.5110918879508972,0.5158775448799133,0.4018230140209198,0.35345298051834106,0.6241000890731812
3.3162968158721924,-0.198823481798172,-0.5108703970909119,0.5268774032592773,0.4048303961753845,0.3560231924057007,0.624282956123352
3.3364005088806152,-0.19719530642032623,-0.484861820936203,0.5674075484275818,0.3954921364784241,0.3751278519630432,0.6157089471817017
3.3564486503601074,-0.19484852254390717,-0.4862557351589203,0.5713697671890259,0.3947474956512451,0.3893193006515503,0.6159802675247192
3.376521587371826,-0.19475187361240387,-0.4918276071548462,0.5724570751190186,0.3967021107673645,0.3879067897796631,0.6168060302734375
3.396604299545288,-0.19624388217926025,-0.48955366015434265,0.5829712748527527,0.3985426127910614,0.38675403594970703,0.6170483827590942
3.4167189598083496,-0.20175746083259583,-0.5095743536949158,0.5498941540718079,0.40834084153175354,0.35335075855255127,0.6242663860321045
3.4368107318878174,-0.20219844579696655,-0.5146607756614685,0.5454270839691162,0.4081498682498932,0.350088894367218,0.6257049441337585
3.456857442855835,-0.20364874601364136,-0.5080543160438538,0.5652080774307251,0.41009652614593506,0.35461437702178955,0.6236871480941772
3.4771766662597656,-0.20121946930885315,-0.504634439945221,0.5724843740463257,0.40572553873062134,0.36892974376678467,0.622413694858551
3.4972641468048096,-0.19664765894412994,-0.5186776518821716,0.5582588911056519,0.4036971926689148,0.3811732530593872,0.62447589635849
3.5173394680023193,-0.19559574127197266,-0.5205141305923462,0.557864248752594,0.40229666233062744,0.39123082160949707,0.6250317096710205
3.537383556365967,-0.19573277235031128,-0.5256276726722717,0.551640510559082,0.40161871910095215,0.38611024618148804,0.6251844167709351
3.5575056076049805,-0.2037348449230194,-0.5243584513664246,0.5417980551719666,0.40335172414779663,0.35437971353530884,0.6239513754844666
3.577594041824341,-0.20516753196716309,-0.5235033631324768,0.5454734563827515,0.40393900871276855,0.3540228605270386,0.623753547668457
3.5976808071136475,-0.20417320728302002,-0.5293636322021484,0.5407154560089111,0.4031424820423126,0.3614048361778259,0.6240181922912598
3.6177587509155273,-0.20402830839157104,-0.5402215123176575,0.5351784229278564,0.40643247961997986,0.35738879442214966,0.626642107963562
3.637815237045288,-0.2026893049478531,-0.5192320346832275,0.5767136216163635,0.4045327305793762,0.3777194619178772,0.6230422854423523
3.657944679260254,-0.20294611155986786,-0.5197225213050842,0.5868730545043945,0.4061410427093506,0.3813525438308716,0.6229349374771118
3.6779704093933105,-0.19984465837478638,-0.5196890234947205,0.5961953401565552,0.40457966923713684,0.39840787649154663,0.6235072016716003
3.6980977058410645,-0.20861278474330902,-0.5406913161277771,0.5624720454216003,0.4171348810195923,0.3541761636734009,0.6313785314559937
3.718132734298706,-0.20893537998199463,-0.5445588231086731,0.5656175017356873,0.41915470361709595,0.35218238830566406,0.6320908665657043
3.7382044792175293,-0.2091003656387329,-0.5408474802970886,0.573395311832428,0.4182649552822113,0.35699033737182617,0.6300560235977173
3.7582645416259766,-0.20810920000076294,-0.5419741272926331,0.5766183733940125,0.4163079857826233,0.36556220054626465,0.6312216520309448
3.778351306915283,-0.1984724998474121,-0.5370206832885742,0.5994576215744019,0.4093104302883148,0.4129357933998108,0.6288365125656128
3.7984278202056885,-0.20254828035831451,-0.5454487800598145,0.5913700461387634,0.4126656651496887,0.3972933292388916,0.6301267147064209
3.8184947967529297,-0.2020873725414276,-0.5529819130897522,0.5804574489593506,0.4111522436141968,0.4011295437812805,0.6308652758598328
3.8385748863220215,-0.20262522995471954,-0.5557141304016113,0.5821442008018494,0.4118652939796448,0.40457868576049805,0.6325016021728516
3.8586649894714355,-0.209959477186203,-0.55122971534729,0.5809676647186279,0.4155227839946747,0.3740185499191284,0.6318000555038452
3.8788087368011475,-0.21062231063842773,-0.5560161471366882,0.5818387269973755,0.4171731472015381,0.3759486675262451,0.632211446762085
3.8988635540008545,-0.2089139223098755,-0.562131404876709,0.5822100639343262,0.417764276266098,0.38255196809768677,0.6345134377479553
3.918931007385254,-0.2091597616672516,-0.5652098059654236,0.5819286704063416,0.4184969365596771,0.38055479526519775,0.6351475119590759
3.939027786254883,-0.2081969976425171,-0.5601749420166016,0.5854053497314453,0.41507652401924133,0.3856358528137207,0.6337048411369324
3.9590985774993896,-0.21177291870117188,-0.5693118572235107,0.5762034058570862,0.419605016708374,0.36428213119506836,0.6359837055206299
3.9791524410247803,-0.21272030472755432,-0.5656302571296692,0.588433563709259,0.4223913550376892,0.36979174613952637,0.6371436715126038
3.99927020072937,-0.2116600126028061,-0.56361985206604,0.5933535695075989,0.4205362796783447,0.37434613704681396,0.6345838308334351
4.019321441650391,-0.20850354433059692,-0.5704929828643799,0.588692307472229,0.4199391007423401,0.3850374221801758,0.6372483968734741
4.03937292098999,-0.20880524814128876,-0.568060576915741,0.5976222157478333,0.42117607593536377,0.38742393255233765,0.6379569172859192
4.059424877166748,-0.2098587453365326,-0.5744365453720093,0.5933212637901306,0.423412024974823,0.38591277599334717,0.6400094032287598
4.079567193984985,-0.21218398213386536,-0.5654151439666748,0.6079379916191101,0.423694908618927,0.3823632001876831,0.6382639408111572
4.0996129512786865,-0.21214324235916138,-0.5698465704917908,0.599317193031311,0.4219059944152832,0.3806331753730774,0.6389187574386597
4.119698762893677,-0.2161923348903656,-0.5728085041046143,0.5952733755111694,0.42442119121551514,0.37206321954727173,0.6384451389312744
4.139798879623413,-0.21608516573905945,-0.5719525814056396,0.6032397150993347,0.4248495101928711,0.37922024726867676,0.639184296131134
4.159904956817627,-0.20946583151817322,-0.5897024273872375,0.5903318524360657,0.42391258478164673,0.4122171998023987,0.6433051824569702
4.1800620555877686,-0.20960722863674164,-0.588441014289856,0.5970547199249268,0.42275843024253845,0.41716694831848145,0.6431231498718262
4.200105428695679,-0.209367573261261,-0.5903840065002441,0.5997481346130371,0.42259159684181213,0.4247890114784241,0.6430137157440186
4.2203369140625,-0.22051486372947693,-0.5725420713424683,0.6174330711364746,0.42873549461364746,0.3838377594947815,0.639920711517334
4.240485668182373,-0.21927300095558167,-0.5738623738288879,0.6223829388618469,0.42684364318847656,0.39393800497055054,0.6394146680831909
4.260512590408325,-0.22074025869369507,-0.5781762003898621,0.6220996379852295,0.42878109216690063,0.39019685983657837,0.6405978202819824
4.280550003051758,-0.22020071744918823,-0.5857076644897461,0.6200905442237854,0.4305993616580963,0.39196306467056274,0.6439825296401978
4.300638675689697,-0.21869724988937378,-0.5943405032157898,0.6123295426368713,0.43203026056289673,0.39794307947158813,0.6457247138023376
4.320702314376831,-0.2183382362127304,-0.6019293665885925,0.6040545105934143,0.4309532642364502,0.40211939811706543,0.6472280025482178
4.340772867202759,-0.2176167368888855,-0.6071411967277527,0.6043344736099243,0.4326743483543396,0.40687793493270874,0.6481434106826782
4.360934495925903,-0.21864786744117737,-0.6063020825386047,0.6100770831108093,0.4345201253890991,0.4054889678955078,0.6482215523719788
4.381125450134277,-0.22342801094055176,-0.5971067547798157,0.6228460073471069,0.4360186755657196,0.3933923840522766,0.6450634598731995
4.401153802871704,-0.2185991406440735,-0.6068797707557678,0.6129911541938782,0.4318288564682007,0.41173267364501953,0.6468611359596252
4.42125391960144,-0.2195935696363449,-0.6119234561920166,0.6126147508621216,0.4342365562915802,0.4098582863807678,0.6492457389831543
4.441288232803345,-0.2230997085571289,-0.6053274273872375,0.6189535856246948,0.4367963969707489,0.3940368890762329,0.6480464339256287
4.461377143859863,-0.22204986214637756,-0.6052709817886353,0.6225187182426453,0.43522608280181885,0.4062756896018982,0.6483001708984375
4.481458425521851,-0.2242426723241806,-0.6066110730171204,0.6223400235176086,0.4358106255531311,0.39978688955307007,0.6487694382667542
4.501544713973999,-0.2254309356212616,-0.6061533689498901,0.6300020217895508,0.4375675320625305,0.4029054641723633,0.6498977541923523
4.521751165390015,-0.2245827615261078,-0.6184470057487488,0.6218999028205872,0.4413454532623291,0.4062475562095642,0.6546786427497864
4.541740894317627,-0.2230120748281479,-0.6240384578704834,0.6104403138160706,0.43662509322166443,0.41382014751434326,0.6543188095092773
4.561843633651733,-0.22624453902244568,-0.6202066540718079,0.6269351243972778,0.4425361156463623,0.4049570560455322,0.656511127948761
4.581966400146484,-0.22765128314495087,-0.6207156777381897,0.6175613403320312,0.4400479197502136,0.40173959732055664,0.6534387469291687
4.6021833419799805,-0.22608472406864166,-0.6272002458572388,0.6151025295257568,0.43974047899246216,0.40839099884033203,0.655660092830658
4.6222052574157715,-0.2252057045698166,-0.6292054057121277,0.6191444396972656,0.4410492777824402,0.41105836629867554,0.6579070091247559
4.6422340869903564,-0.22422459721565247,-0.6298479437828064,0.6239631772041321,0.44225671887397766,0.42243725061416626,0.6579753160476685
4.662416219711304,-0.23156879842281342,-0.6239379048347473,0.6249401569366455,0.44567254185676575,0.3923839330673218,0.6564232110977173
4.682486534118652,-0.22959735989570618,-0.622446596622467,0.6309511661529541,0.4441647231578827,0.4078683853149414,0.6564703583717346
4.702499866485596,-0.22988536953926086,-0.626577615737915,0.6292670369148254,0.4444772005081177,0.4091668128967285,0.6580429077148438
4.722654342651367,-0.22747008502483368,-0.6383907794952393,0.6218753457069397,0.44575443863868713,0.4215187430381775,0.6622377634048462
4.742730379104614,-0.22614014148712158,-0.643027126789093,0.6226186752319336,0.445795476436615,0.43367284536361694,0.6634566783905029
4.7628655433654785,-0.22720442712306976,-0.6460413336753845,0.6237775087356567,0.4469408690929413,0.4336538314819336,0.6651044487953186
4.782957077026367,-0.2324884980916977,-0.6534297466278076,0.6110292673110962,0.4508761763572693,0.4144725799560547,0.665769100189209
4.803030490875244,-0.23102587461471558,-0.633346438407898,0.6405724883079529,0.44650518894195557,0.4247506260871887,0.6614689826965332
4.823086500167847,-0.23401114344596863,-0.6425309777259827,0.631341278553009,0.4497562348842621,0.41612422466278076,0.6640119552612305
4.8432457447052,-0.23427028954029083,-0.645150363445282,0.6324166059494019,0.45207834243774414,0.41726696491241455,0.6653177738189697
4.863245010375977,-0.23644627630710602,-0.6468689441680908,0.6329160332679749,0.4544064998626709,0.4073679447174072,0.6665612459182739
4.883407354354858,-0.2371634840965271,-0.6487491130828857,0.6271775960922241,0.45376190543174744,0.40286868810653687,0.6648318767547607
4.903409957885742,-0.23775139451026917,-0.6456537246704102,0.6362489461898804,0.45567935705184937,0.4051400423049927,0.6654161214828491
4.923848628997803,-0.23898878693580627,-0.6452283263206482,0.6457831263542175,0.45809420943260193,0.40474361181259155,0.6678953766822815
4.9440484046936035,-0.23795726895332336,-0.6563766598701477,0.6376965641975403,0.4614191949367523,0.40669482946395874,0.6719032526016235
4.964056968688965,-0.23598213493824005,-0.6505380272865295,0.6457253694534302,0.4590553939342499,0.41925060749053955,0.6703770160675049
4.984127044677734,-0.23663948476314545,-0.6541659235954285,0.6453965306282043,0.45923712849617004,0.42006129026412964,0.6719850301742554
5.004400730133057,-0.23572374880313873,-0.6600087285041809,0.6376512050628662,0.458842396736145,0.41950082778930664,0.674541175365448
5.024414539337158,-0.23466847836971283,-0.6599026322364807,0.6429818272590637,0.45876237750053406,0.43275296688079834,0.6750830411911011
5.044472694396973,-0.23380666971206665,-0.6639147400856018,0.6427653431892395,0.4576271176338196,0.4447519779205322,0.6757435202598572
5.064556360244751,-0.23213085532188416,-0.6713793873786926,0.6370658874511719,0.4549326002597809,0.45403414964675903,0.6775599718093872
5.084643840789795,-0.2424570918083191,-0.6492285132408142,0.6676467657089233,0.4672339856624603,0.41939032077789307,0.6763914227485657
5.104824542999268,-0.2427484095096588,-0.656242311000824,0.6600959300994873,0.4649745523929596,0.4232296347618103,0.6773531436920166
5.124804973602295,-0.2390706092119217,-0.6569090485572815,0.6721199154853821,0.4631688892841339,0.44940662384033203,0.6794594526290894
5.144908905029297,-0.2426028847694397,-0.6717254519462585,0.6531968116760254,0.46693411469459534,0.44342344999313354,0.6822342872619629
5.165012359619141,-0.2401077002286911,-0.6772815585136414,0.650309681892395,0.46273988485336304,0.46041280031204224,0.6821682453155518
5.185156345367432,-0.24400591850280762,-0.681367814540863,0.6518040299415588,0.4685225784778595,0.4445607662200928,0.6848948001861572
5.2051451206207275,-0.24477621912956238,-0.6743309497833252,0.6668046116828918,0.47086137533187866,0.4464455246925354,0.6849331855773926
5.225236177444458,-0.2480386197566986,-0.6754124760627747,0.6637958288192749,0.47172656655311584,0.42823851108551025,0.6835840344429016
5.24530816078186,-0.24966025352478027,-0.6776125431060791,0.6657551527023315,0.4738951027393341,0.4265591502189636,0.6857799291610718
5.265414237976074,-0.25058045983314514,-0.6841345429420471,0.660690426826477,0.47527968883514404,0.4276827573776245,0.6869151592254639
5.285740852355957,-0.25318220257759094,-0.6835078001022339,0.6690213084220886,0.4802907109260559,0.42194247245788574,0.6870526075363159
5.305830955505371,-0.24990633130073547,-0.6855599880218506,0.670116126537323,0.4765613377094269,0.43103593587875366,0.6865089535713196
5.3259804248809814,-0.25001975893974304,-0.6900434494018555,0.666480541229248,0.47848832607269287,0.4286644458770752,0.6889364719390869
5.346060276031494,-0.24974852800369263,-0.6907017230987549,0.6703083515167236,0.4791918992996216,0.4313173294067383,0.6891963481903076
5.366171360015869,-0.251074880361557,-0.6856321692466736,0.6849150657653809,0.48195984959602356,0.4310877323150635,0.6892833709716797
5.386291265487671,-0.2520769238471985,-0.7004888653755188,0.6653012037277222,0.4835208058357239,0.42599719762802124,0.6925454139709473
5.406395673751831,-0.25043153762817383,-0.700998842716217,0.6692937016487122,0.4829638600349426,0.43732160329818726,0.6929263472557068
5.426411390304565,-0.24938717484474182,-0.7047144770622253,0.6682630777359009,0.48141738772392273,0.44593673944473267,0.6944509744644165
5.446493864059448,-0.25149187445640564,-0.699526846408844,0.6798003911972046,0.48659688234329224,0.4314700961112976,0.6949230432510376
5.466628551483154,-0.2518611550331116,-0.7038224339485168,0.6802631616592407,0.4876561760902405,0.4341275095939636,0.695634126663208
5.48665976524353,-0.2526876628398895,-0.7086960077285767,0.6756565570831299,0.487326443195343,0.4376947283744812,0.6963933110237122
5.506758213043213,-0.2530316114425659,-0.7152167558670044,0.6761156916618347,0.4902799725532532,0.43879127502441406,0.7005459070205688
5.526870012283325,-0.25434285402297974,-0.7139521837234497,0.6811560988426208,0.4919007420539856,0.4370303750038147,0.7001380920410156
5.546903610229492,-0.25455471873283386,-0.7229600548744202,0.6762996315956116,0.49413836002349854,0.44729942083358765,0.703251838684082
5.567005157470703,-0.25404492020606995,-0.7264046669006348,0.6802957057952881,0.49466651678085327,0.45504748821258545,0.7048172950744629
5.587056636810303,-0.2604209780693054,-0.7139703631401062,0.7022411823272705,0.503843367099762,0.42328786849975586,0.7046846151351929
5.607086658477783,-0.2592412531375885,-0.7177312970161438,0.6967941522598267,0.5008682608604431,0.4312136173248291,0.7059714794158936
5.627149343490601,-0.2590760588645935,-0.7231820821762085,0.6945019960403442,0.5016719698905945,0.435546875,0.7075347304344177
5.647193908691406,-0.2622693181037903,-0.7257108092308044,0.6961621642112732,0.5063925385475159,0.43179214000701904,0.7101750373840332
5.667303800582886,-0.256449431180954,-0.7359710335731506,0.6862583160400391,0.5000266432762146,0.46033960580825806,0.711577832698822
5.687374830245972,-0.25840994715690613,-0.7376965880393982,0.6894245147705078,0.503107488155365,0.45916444063186646,0.7131055593490601
5.707449436187744,-0.26062867045402527,-0.7346025705337524,0.6986256241798401,0.506037712097168,0.4528852105140686,0.7145333886146545
5.7275309562683105,-0.25802722573280334,-0.7288251519203186,0.7150576114654541,0.5073150992393494,0.46760642528533936,0.7140383124351501
5.7476184368133545,-0.26488345861434937,-0.7300196886062622,0.7156871557235718,0.5163286328315735,0.4395882487297058,0.7169870138168335
5.767730951309204,-0.26375749707221985,-0.7321965098381042,0.7154476642608643,0.5156948566436768,0.4436846375465393,0.7170696258544922
5.787793159484863,-0.26383426785469055,-0.7353008389472961,0.7148010730743408,0.5162678956985474,0.45058369636535645,0.7185627222061157
5.807920932769775,-0.26223859190940857,-0.7413156628608704,0.7114188075065613,0.5153951644897461,0.4623129963874817,0.721281886100769
5.8279924392700195,-0.26402586698532104,-0.7515706419944763,0.7001729011535645,0.5184137225151062,0.4511905312538147,0.7241595387458801
5.848041296005249,-0.265571266412735,-0.7480856776237488,0.710046648979187,0.5239512324333191,0.44438737630844116,0.7254976630210876
5.868127822875977,-0.26715224981307983,-0.7500819563865662,0.7101516127586365,0.5262216925621033,0.438332736492157,0.726089596748352
5.888209104537964,-0.26581281423568726,-0.7589468359947205,0.6961579918861389,0.5248437523841858,0.44102489948272705,0.7284691333770752
5.908244848251343,-0.26758497953414917,-0.7550724148750305,0.7133982181549072,0.5342215895652771,0.43951189517974854,0.7309277057647705
5.92830228805542,-0.2677074372768402,-0.7517110109329224,0.7260890007019043,0.5386022925376892,0.44226086139678955,0.7321250438690186
5.9483888149261475,-0.2664796710014343,-0.7549595236778259,0.7175110578536987,0.535879909992218,0.44571036100387573,0.7322074174880981
5.968467712402344,-0.26670944690704346,-0.7590330243110657,0.7165968418121338,0.5388975143432617,0.44925886392593384,0.735587477684021
5.988515853881836,-0.2657151222229004,-0.7623154520988464,0.7154957056045532,0.539414644241333,0.44967812299728394,0.7383770942687988
6.008959770202637,-0.26695817708969116,-0.7615295648574829,0.7299004793167114,0.5479617714881897,0.45102930068969727,0.7441352605819702
6.029052257537842,-0.2651844620704651,-0.7679448127746582,0.713965892791748,0.5424452424049377,0.4579281806945801,0.7434754967689514
6.049120187759399,-0.26791930198669434,-0.7622826099395752,0.7352226972579956,0.553027868270874,0.45168304443359375,0.7453339099884033
6.06916618347168,-0.2684808373451233,-0.7669700384140015,0.7289649248123169,0.5549598336219788,0.4514162540435791,0.7465386986732483
6.089270830154419,-0.2660367488861084,-0.7761620879173279,0.7166777849197388,0.5520740747451782,0.45672738552093506,0.7508857846260071
6.109382152557373,-0.267171174287796,-0.7685841917991638,0.7389600276947021,0.5601157546043396,0.45614945888519287,0.7520477771759033
6.129439115524292,-0.2656003534793854,-0.7794443964958191,0.7235589623451233,0.5592167377471924,0.4592474102973938,0.754759669303894
6.149466276168823,-0.2681579291820526,-0.7706990242004395,0.7449050545692444,0.5674145817756653,0.4608713984489441,0.7555652260780334
6.169576406478882,-0.27041736245155334,-0.7721247673034668,0.7519282102584839,0.5740404725074768,0.4506285786628723,0.7565785646438599
6.189624547958374,-0.26770085096359253,-0.7886477708816528,0.7208786010742188,0.5665687918663025,0.4551903009414673,0.7626241445541382
6.209705591201782,-0.27127528190612793,-0.780831515789032,0.7379817962646484,0.5752065181732178,0.44658684730529785,0.7610808610916138
6.230020046234131,-0.26577359437942505,-0.783107340335846,0.7389278411865234,0.5724045634269714,0.46732819080352783,0.7617921233177185
6.250146865844727,-0.2679649293422699,-0.7846754193305969,0.745857834815979,0.5781276822090149,0.4652949571609497,0.7677223682403564
6.270256042480469,-0.26378417015075684,-0.7857757210731506,0.7453927993774414,0.5742425322532654,0.47961997985839844,0.7694405317306519
6.290314435958862,-0.26687106490135193,-0.7886454463005066,0.7391235828399658,0.5762322545051575,0.47001969814300537,0.7700197696685791
6.310554504394531,-0.2668294608592987,-0.787433922290802,0.7433114647865295,0.5770631432533264,0.46854299306869507,0.7697932720184326
6.330758571624756,-0.26649564504623413,-0.7885866165161133,0.7432010173797607,0.5780717134475708,0.4722091555595398,0.7702834606170654
6.350761890411377,-0.2688778340816498,-0.7900877594947815,0.7510560750961304,0.5864235162734985,0.4613340497016907,0.7733815908432007
6.3708436489105225,-0.2650221884250641,-0.7890666723251343,0.7520098686218262,0.581922709941864,0.4725855588912964,0.7734284400939941
6.390925884246826,-0.2703346610069275,-0.7883138656616211,0.7548887729644775,0.5897826552391052,0.46080487966537476,0.7728843688964844
6.410994052886963,-0.2662918269634247,-0.7931228280067444,0.7534917593002319,0.5867587924003601,0.46906834840774536,0.7765071988105774
6.431069374084473,-0.2644035518169403,-0.7933056950569153,0.7560990452766418,0.5872208476066589,0.4747646450996399,0.7782047986984253
6.451131105422974,-0.266109436750412,-0.7916136384010315,0.7613459825515747,0.5896968245506287,0.47336679697036743,0.7793116569519043
6.47123908996582,-0.26548054814338684,-0.7972668409347534,0.7574503421783447,0.5907430648803711,0.4717358946800232,0.7824671864509583
6.491393089294434,-0.26608607172966003,-0.7999426126480103,0.7475631833076477,0.5890059471130371,0.4729180335998535,0.781715989112854
6.511418342590332,-0.26959511637687683,-0.7974502444267273,0.7558161616325378,0.5952491164207458,0.4618656039237976,0.7823060750961304
6.5315563678741455,-0.26470649242401123,-0.7997193932533264,0.7510236501693726,0.5899212956428528,0.4720070958137512,0.7806161642074585
6.551595211029053,-0.2672267556190491,-0.8020452260971069,0.7550323009490967,0.5967795848846436,0.46555453538894653,0.782418966293335
6.571679592132568,-0.2658579647541046,-0.799454927444458,0.7648484110832214,0.5980837345123291,0.4701334834098816,0.7853183746337891
6.591829061508179,-0.2607593834400177,-0.7946462035179138,0.7676191926002502,0.5916723608970642,0.4841921329498291,0.7839230298995972
6.612091064453125,-0.2662641704082489,-0.7973096966743469,0.7652724385261536,0.5974122881889343,0.46973949670791626,0.7856782674789429
6.632150411605835,-0.2660335898399353,-0.8052486181259155,0.7553994655609131,0.5981374979019165,0.46021705865859985,0.7876448631286621
6.65240478515625,-0.2651282548904419,-0.8012245297431946,0.7650729417800903,0.5988488793373108,0.4655412435531616,0.7881367802619934
6.672578573226929,-0.26616188883781433,-0.8048355579376221,0.7600333094596863,0.6007534861564636,0.45904314517974854,0.7882205247879028
6.69264030456543,-0.26610806584358215,-0.8074449896812439,0.7543466687202454,0.6007478833198547,0.458168625831604,0.7885584235191345
6.713050127029419,-0.2626285254955292,-0.8036664128303528,0.7623897194862366,0.5976129174232483,0.46978598833084106,0.7881478071212769
6.733156442642212,-0.26345041394233704,-0.8058739900588989,0.7555617094039917,0.5985268354415894,0.47076278924942017,0.7874488830566406
6.753226280212402,-0.26537081599235535,-0.8012022376060486,0.7694188356399536,0.6030732989311218,0.4693288207054138,0.7915135622024536
6.773291349411011,-0.2587943971157074,-0.8062780499458313,0.7595279812812805,0.593701183795929,0.4815672039985657,0.7914825677871704
6.800268173217773,-0.26097652316093445,-0.7982184290885925,0.7761951684951782,0.5980141758918762,0.4791543483734131,0.7911453247070312
6.820357799530029,-0.26488032937049866,-0.8026955723762512,0.77467942237854,0.6076056361198425,0.45947569608688354,0.7943460941314697
6.840423345565796,-0.26212793588638306,-0.8046169877052307,0.7689114809036255,0.6016495823860168,0.47016650438308716,0.7939070463180542
6.860518455505371,-0.2618468105792999,-0.8019526600837708,0.7724601030349731,0.6022364497184753,0.46935927867889404,0.7929375171661377
6.880688428878784,-0.26450487971305847,-0.8077465891838074,0.7638419270515442,0.6047902703285217,0.4599952697753906,0.7944583892822266
6.9007368087768555,-0.26101577281951904,-0.803437352180481,0.772007167339325,0.6014819741249084,0.46782392263412476,0.7943204045295715
6.920836687088013,-0.2615715563297272,-0.8083823919296265,0.7618796825408936,0.6021820306777954,0.4604761600494385,0.7935369610786438
6.9414496421813965,-0.2593925893306732,-0.8068656325340271,0.7631047964096069,0.5997684597969055,0.4706880450248718,0.7938442230224609
6.961566686630249,-0.26013821363449097,-0.8040973544120789,0.7683497667312622,0.601298451423645,0.47000616788864136,0.7932752370834351
6.981661796569824,-0.25940462946891785,-0.804630696773529,0.7673265337944031,0.6008095145225525,0.47361963987350464,0.7926465272903442
7.001716136932373,-0.2595599889755249,-0.8048095107078552,0.7703156471252441,0.6019687056541443,0.4741225838661194,0.7948410511016846
7.021785259246826,-0.25988200306892395,-0.8054293990135193,0.769900918006897,0.6026812195777893,0.4717177152633667,0.7951724529266357
7.0418925285339355,-0.25897812843322754,-0.8040074706077576,0.7704477906227112,0.600882351398468,0.4750978946685791,0.7951761484146118
7.061935663223267,-0.2601310908794403,-0.8068127632141113,0.766966700553894,0.6020651459693909,0.4706963896751404,0.7954893112182617
7.08211350440979,-0.2592668831348419,-0.8078175187110901,0.7634228467941284,0.5998762249946594,0.47214096784591675,0.7955347299575806
7.102122783660889,-0.26003628969192505,-0.8056524395942688,0.7704864740371704,0.6023678779602051,0.4708699584007263,0.7955943942070007
7.122170686721802,-0.2610880732536316,-0.8046790957450867,0.7726027965545654,0.6045756340026855,0.4671173095703125,0.7955167293548584
7.1424524784088135,-0.2606520354747772,-0.8082002997398376,0.7647802233695984,0.6029494404792786,0.4674328565597534,0.7955653667449951
7.162444829940796,-0.2594631314277649,-0.8054260611534119,0.7713385820388794,0.6020134091377258,0.4730122685432434,0.7955976128578186
7.182504177093506,-0.25986313819885254,-0.8047580718994141,0.7754878401756287,0.6041034460067749,0.47079986333847046,0.796367347240448
7.202582836151123,-0.2600003480911255,-0.8047328591346741,0.7746013402938843,0.6041683554649353,0.4705469608306885,0.7963034510612488
7.222639083862305,-0.2596012353897095,-0.8066717982292175,0.7718662023544312,0.6031822562217712,0.4714011549949646,0.7965371608734131
7.242756128311157,-0.25985977053642273,-0.8084357380867004,0.769516110420227,0.6031426191329956,0.46912693977355957,0.7971422076225281
7.262892723083496,-0.2602360248565674,-0.8069427609443665,0.7702457904815674,0.6027554869651794,0.4692530035972595,0.7957181930541992
7.2830376625061035,-0.26002737879753113,-0.8082998991012573,0.7700177431106567,0.6031067371368408,0.4697275757789612,0.7966669201850891
7.303062915802002,-0.26040104031562805,-0.8110714554786682,0.7635347247123718,0.6022953391075134,0.46648913621902466,0.7968283891677856
7.323293447494507,-0.26016128063201904,-0.8049445152282715,0.7748165130615234,0.6041937470436096,0.4705005884170532,0.7959456443786621
7.34338641166687,-0.2597901523113251,-0.8068904876708984,0.7717381715774536,0.6036587953567505,0.46962231397628784,0.7958956956863403
7.363469839096069,-0.25924304127693176,-0.8079599142074585,0.7705429792404175,0.6026749610900879,0.47187215089797974,0.7962803244590759
7.383531332015991,-0.25978779792785645,-0.8076076507568359,0.7715570330619812,0.6032727360725403,0.4703814387321472,0.7966623902320862
7.403618574142456,-0.2590828239917755,-0.8076572418212891,0.7716419100761414,0.6024473309516907,0.4718776345252991,0.7967932224273682
7.423707485198975,-0.25939396023750305,-0.8077295422554016,0.7711519002914429,0.6031351685523987,0.47015637159347534,0.7966786026954651
7.443765640258789,-0.26104211807250977,-0.8061959743499756,0.7765875458717346,0.6068572402000427,0.4593566060066223,0.7975975275039673
7.464048862457275,-0.26024338603019714,-0.8101028800010681,0.7671618461608887,0.6042857766151428,0.4567839503288269,0.7981297373771667
7.484147548675537,-0.2590310275554657,-0.811151921749115,0.7645134925842285,0.602735698223114,0.46394139528274536,0.7983906865119934
7.50433611869812,-0.2596898376941681,-0.8107135891914368,0.7661644816398621,0.604578971862793,0.4623093008995056,0.798480212688446
7.524339437484741,-0.25868114829063416,-0.8077734708786011,0.7721164226531982,0.6038902997970581,0.4665824770927429,0.7980974912643433
7.544436693191528,-0.25867417454719543,-0.8084677457809448,0.7710041403770447,0.6043911576271057,0.4660271406173706,0.7984373569488525
7.56451153755188,-0.26048582792282104,-0.8060505390167236,0.7791085839271545,0.6083316802978516,0.45530515909194946,0.7988865375518799
7.584563255310059,-0.25362518429756165,-0.8061075806617737,0.7745826244354248,0.5991602540016174,0.4798849821090698,0.7981917858123779
7.604609727859497,-0.2596297562122345,-0.8057244420051575,0.7751991748809814,0.6062555909156799,0.46500736474990845,0.798484742641449
7.62473464012146,-0.25825291872024536,-0.8072522282600403,0.772990345954895,0.6043874025344849,0.4656549096107483,0.7981297969818115
7.6448376178741455,-0.25688520073890686,-0.8077482581138611,0.7714030146598816,0.6027106046676636,0.4685731530189514,0.7983875274658203
7.665160179138184,-0.25712355971336365,-0.8088546395301819,0.770946204662323,0.6030440926551819,0.4689297080039978,0.7989068031311035
7.685322523117065,-0.25887200236320496,-0.8086814284324646,0.770729124546051,0.6046628952026367,0.4651613235473633,0.7988002300262451
7.7053985595703125,-0.2572630047798157,-0.8071603178977966,0.7716429829597473,0.6030358672142029,0.4686397910118103,0.7981820106506348
7.725449085235596,-0.2589534819126129,-0.8095728754997253,0.7683089971542358,0.6042895913124084,0.46425753831863403,0.7985581159591675
7.745526313781738,-0.25748202204704285,-0.807694673538208,0.7713220715522766,0.603469729423523,0.4683932662010193,0.7985527515411377
7.765615463256836,-0.2573452591896057,-0.8078824877738953,0.7711573839187622,0.6034803986549377,0.46818655729293823,0.7988922595977783
7.785680294036865,-0.25739142298698425,-0.8082852363586426,0.7702913284301758,0.6034451723098755,0.46710842847824097,0.7987852692604065
7.805807113647461,-0.2576581835746765,-0.8087647557258606,0.7691043019294739,0.6033338904380798,0.4672693610191345,0.7988042235374451
7.8260276317596436,-0.2582249343395233,-0.807873010635376,0.7718895077705383,0.6046634316444397,0.4655800461769104,0.7990148067474365
7.846124172210693,-0.257355272769928,-0.8079148530960083,0.7707363367080688,0.6033497452735901,0.4672248363494873,0.7988983988761902
7.866214752197266,-0.2575896680355072,-0.808255136013031,0.7705090641975403,0.6036370396614075,0.46711432933807373,0.7989702224731445
7.886256217956543,-0.2576112449169159,-0.8078355193138123,0.7711663246154785,0.6036646962165833,0.46706944704055786,0.7990298271179199
7.906352519989014,-0.25730112195014954,-0.8080630898475647,0.7706913948059082,0.6032769083976746,0.4680470824241638,0.7989753484725952
7.926406145095825,-0.25823113322257996,-0.8072202205657959,0.7733467221260071,0.6053051352500916,0.46138811111450195,0.7995052337646484
7.94648003578186,-0.2574525475502014,-0.8079007863998413,0.7716004848480225,0.6044158339500427,0.46526038646698,0.7993483543395996
7.96656608581543,-0.25726404786109924,-0.8072722554206848,0.7717238068580627,0.6039214134216309,0.46650344133377075,0.7990320920944214
7.986661911010742,-0.25780823826789856,-0.8091248869895935,0.7702822685241699,0.6049434542655945,0.4639597535133362,0.799875020980835
8.006826162338257,-0.2568933963775635,-0.8076409101486206,0.7710514664649963,0.6035173535346985,0.4674296975135803,0.7993582487106323
8.026824474334717,-0.25696900486946106,-0.808361828327179,0.7704481482505798,0.6037150025367737,0.46622198820114136,0.7995339632034302
8.046880722045898,-0.25690776109695435,-0.8076162338256836,0.7710078358650208,0.603232204914093,0.46759384870529175,0.799401581287384
8.066969633102417,-0.2573000490665436,-0.8075324892997742,0.7710503339767456,0.6037618517875671,0.4661197066307068,0.7994696497917175
8.087044477462769,-0.2568293511867523,-0.8080090880393982,0.7706562280654907,0.6031785607337952,0.46756166219711304,0.8001073598861694
8.107125282287598,-0.25803834199905396,-0.8098151087760925,0.7690683603286743,0.6047497987747192,0.46325379610061646,0.8008131980895996
8.127188444137573,-0.2572914958000183,-0.8109350800514221,0.7657231688499451,0.6028643250465393,0.4654257893562317,0.80063796043396
8.14725637435913,-0.25819990038871765,-0.8082278966903687,0.7703069448471069,0.6049198508262634,0.46495795249938965,0.8008006811141968
8.16734528541565,-0.2572096884250641,-0.8079387545585632,0.7705776691436768,0.6038039922714233,0.4666624069213867,0.7998661398887634
8.187401533126831,-0.25724828243255615,-0.8081452250480652,0.7712627649307251,0.6039639711380005,0.46650928258895874,0.800466775894165
8.207515478134155,-0.25719594955444336,-0.8079394698143005,0.7704997658729553,0.6035357713699341,0.46652400493621826,0.8001493215560913
8.227569341659546,-0.25691983103752136,-0.8076920509338379,0.7705944776535034,0.6029636859893799,0.4679117798805237,0.800064206123352
8.247623682022095,-0.2571278512477875,-0.8078420758247375,0.7712511420249939,0.6036638617515564,0.46665990352630615,0.8003579378128052
8.26768445968628,-0.25714150071144104,-0.8080247044563293,0.7706154584884644,0.6035632491111755,0.46663910150527954,0.8001580238342285
8.287774085998535,-0.257633239030838,-0.8082389235496521,0.7708878517150879,0.6043577790260315,0.46537452936172485,0.8001736402511597
8.3078453540802,-0.25686678290367126,-0.8077905774116516,0.7706014513969421,0.6032264828681946,0.4678773880004883,0.8000431060791016
8.327953100204468,-0.2573726773262024,-0.8080918788909912,0.7709040641784668,0.6040061116218567,0.46629899740219116,0.800342321395874
8.348154067993164,-0.25746646523475647,-0.8080282807350159,0.770878791809082,0.6040909290313721,0.4653211236000061,0.8001605272293091
8.368274450302124,-0.2573148012161255,-0.8081682324409485,0.7710496783256531,0.6040992736816406,0.46630990505218506,0.8006053566932678
8.388355493545532,-0.2572537958621979,-0.807823657989502,0.7704903483390808,0.6036280989646912,0.4664902091026306,0.7999739050865173
8.408405065536499,-0.2572406232357025,-0.8082419037818909,0.7709336876869202,0.6039198040962219,0.4663892388343811,0.8005290031433105
8.428513765335083,-0.25716131925582886,-0.8079355359077454,0.7708156108856201,0.6035080552101135,0.4666343927383423,0.8001103401184082
8.448570966720581,-0.25733357667922974,-0.8079714179039001,0.7702579498291016,0.6035245060920715,0.46642738580703735,0.7999392151832581
8.468684673309326,-0.2569867670536041,-0.8065774440765381,0.774799644947052,0.6047291159629822,0.466453492641449,0.8004250526428223
8.48940658569336,-0.2574615180492401,-0.8080304861068726,0.7703685760498047,0.6040406823158264,0.4658716917037964,0.8003538846969604
8.509494066238403,-0.2566637098789215,-0.8081024289131165,0.7707392573356628,0.6029685139656067,0.4679722189903259,0.8000609874725342
8.52956485748291,-0.25714224576950073,-0.8080931305885315,0.7709305286407471,0.603534460067749,0.46660739183425903,0.8002352118492126
8.549616575241089,-0.2571541965007782,-0.8077793717384338,0.7703921794891357,0.603352963924408,0.46676623821258545,0.7995977401733398
8.569700002670288,-0.25677260756492615,-0.8078481554985046,0.7716875076293945,0.604073703289032,0.4664279818534851,0.8003278970718384
8.589805364608765,-0.2570818066596985,-0.8092966675758362,0.768517792224884,0.603653609752655,0.4649205207824707,0.8003394603729248
8.60995101928711,-0.25684893131256104,-0.8078691363334656,0.7715731859207153,0.603870689868927,0.46612977981567383,0.8004733324050903
8.629943132400513,-0.25736016035079956,-0.807518482208252,0.7723922729492188,0.6043599247932434,0.46473145484924316,0.8002893924713135
8.650036096572876,-0.2567724883556366,-0.8078528046607971,0.771173357963562,0.6035212874412537,0.46610116958618164,0.8002382516860962
8.67011570930481,-0.25762811303138733,-0.8073583841323853,0.7738047242164612,0.6054903864860535,0.4619749188423157,0.8005192279815674
8.690173149108887,-0.2576116919517517,-0.8079255819320679,0.7721776366233826,0.6048646569252014,0.4632243514060974,0.8002883791923523
8.71022629737854,-0.25657373666763306,-0.8075721859931946,0.7712469100952148,0.6036409139633179,0.46539849042892456,0.8000088930130005
8.730399370193481,-0.2571136951446533,-0.8078572750091553,0.7718324661254883,0.6045045852661133,0.4644606113433838,0.8003652095794678
8.750510215759277,-0.256398469209671,-0.8076363205909729,0.7715924382209778,0.6039107441902161,0.4654698371887207,0.8003690242767334
8.770503759384155,-0.25644418597221375,-0.808210015296936,0.7704839706420898,0.603221595287323,0.4668291211128235,0.8003110885620117
8.790647983551025,-0.25656479597091675,-0.8085814118385315,0.7700257301330566,0.6035868525505066,0.46568572521209717,0.8005282282829285
8.810749292373657,-0.25641417503356934,-0.8075998425483704,0.7716647982597351,0.6037312746047974,0.46560806035995483,0.8002816438674927
8.830856323242188,-0.25661635398864746,-0.8084005117416382,0.7704106569290161,0.6037115454673767,0.4656251072883606,0.8001432418823242
8.850863695144653,-0.2567256987094879,-0.8077088594436646,0.7710813283920288,0.6038330793380737,0.46586501598358154,0.8001986742019653
8.870971202850342,-0.25669899582862854,-0.8080108761787415,0.7711259126663208,0.6039651036262512,0.46584606170654297,0.800227701663971
8.891185283660889,-0.25671151280403137,-0.8081159591674805,0.7712922692298889,0.6039591431617737,0.4658429026603699,0.8004390001296997
8.911235332489014,-0.2566262483596802,-0.8077440857887268,0.771180272102356,0.6036795973777771,0.4658476710319519,0.8002253770828247
8.931237936019897,-0.2568901479244232,-0.8095372319221497,0.7676445245742798,0.6033824682235718,0.4652816653251648,0.8004540801048279
8.951505184173584,-0.25695890188217163,-0.808836817741394,0.7694316506385803,0.6034659743309021,0.46507734060287476,0.8002359867095947
8.971601724624634,-0.25665077567100525,-0.8076782822608948,0.7713049054145813,0.6042847037315369,0.46428054571151733,0.8004022240638733
8.991671085357666,-0.25643301010131836,-0.8076080083847046,0.770667314529419,0.6034095287322998,0.4670012593269348,0.800002932548523
9.011717796325684,-0.2569689452648163,-0.8078727126121521,0.7710589170455933,0.6038545370101929,0.4656471610069275,0.8001508116722107
9.031795501708984,-0.25664591789245605,-0.8081885576248169,0.770841121673584,0.6039977669715881,0.4657016396522522,0.8005497455596924
9.051902294158936,-0.25693750381469727,-0.807560920715332,0.771418035030365,0.6039636731147766,0.4657706022262573,0.8002310991287231
9.07203483581543,-0.256732314825058,-0.8076069951057434,0.7712599039077759,0.604036271572113,0.4653635025024414,0.800052285194397
9.092076539993286,-0.25645163655281067,-0.8080344796180725,0.7697135806083679,0.6027494668960571,0.467149555683136,0.7997229695320129
9.112157821655273,-0.2571420967578888,-0.8077684640884399,0.7717592120170593,0.6047674417495728,0.464519739151001,0.8003640174865723
