liuyurong129/humanoid-gym/humanoid/data/target_q_20250521-001014.csv
timestamp,joint_1,joint_2,joint_3,joint_4,joint_5,joint_6
3.266334533691406e-05,0.0,0.0,0.0,0.0,0.0,0.0
0.02011251449584961,0.0,0.0,0.0,0.0,0.0,0.0
0.04022049903869629,0.0,0.0,0.0,0.0,0.0,0.0
0.060272216796875,0.5600030422210693,-0.5211743712425232,0.441815048456192,-0.10218948870897293,0.2373305708169937,-0.41314008831977844
0.08033919334411621,0.5633867979049683,-0.6853991746902466,0.5982859134674072,-0.01943475753068924,0.28014853596687317,-0.48444923758506775
0.10048389434814453,0.543038547039032,-0.6975062489509583,0.6104369163513184,-0.024071581661701202,0.28147435188293457,-0.4842695891857147
0.12053155899047852,0.5295746326446533,-0.7035687565803528,0.6163143515586853,-0.029858000576496124,0.282439649105072,-0.48381656408309937
0.1406099796295166,0.5260369777679443,-0.702446699142456,0.6154496073722839,-0.03158939629793167,0.2817862033843994,-0.48396390676498413
0.16069293022155762,0.5233283042907715,-0.6990261077880859,0.613998293876648,-0.03241264820098877,0.27990788221359253,-0.484081506729126
0.1807708740234375,0.5250027179718018,-0.6980317234992981,0.6126909852027893,-0.03216862678527832,0.28033214807510376,-0.4842051565647125
0.20083832740783691,0.5231620073318481,-0.6943948268890381,0.6105157136917114,-0.032863080501556396,0.27862608432769775,-0.4843389689922333
0.220916748046875,0.5220392942428589,-0.6908414363861084,0.6091637015342712,-0.03327243775129318,0.2776612341403961,-0.48442748188972473
0.24095845222473145,0.5214329957962036,-0.6871665716171265,0.6069568395614624,-0.03352802246809006,0.27604541182518005,-0.48457083106040955
0.2610588073730469,0.5211019515991211,-0.6844018697738647,0.6084549427032471,-0.03285928815603256,0.27596279978752136,-0.48441755771636963
0.2811462879180908,0.5200052261352539,-0.6808823347091675,0.6057748794555664,-0.03365686535835266,0.2745482623577118,-0.48471927642822266
0.3012349605560303,0.5190337896347046,-0.677143931388855,0.6045678853988647,-0.033727310597896576,0.2738507091999054,-0.48491549491882324
0.32129716873168945,0.5173702239990234,-0.6727062463760376,0.6038457155227661,-0.034245431423187256,0.27277687191963196,-0.4849696755409241
0.3413729667663574,0.5154902935028076,-0.6679918169975281,0.6025055050849915,-0.03456699848175049,0.2716924250125885,-0.4850154519081116
0.36145782470703125,0.5163509845733643,-0.666949450969696,0.5992096066474915,-0.03506285697221756,0.27151966094970703,-0.48501887917518616
0.38153624534606934,0.5146205425262451,-0.6622890830039978,0.597525417804718,-0.03546132892370224,0.27023908495903015,-0.4850318431854248
0.4016296863555908,0.5141435861587524,-0.6577078700065613,0.5963501334190369,-0.03545067459344864,0.26931503415107727,-0.4850647449493408
0.4216604232788086,0.5132606029510498,-0.6534271240234375,0.5939367413520813,-0.035915590822696686,0.26794949173927307,-0.48522067070007324
0.44182538986206055,0.5123147368431091,-0.649200439453125,0.5929462909698486,-0.03579891473054886,0.26682034134864807,-0.4851958155632019
0.4619150161743164,0.5094320774078369,-0.6458803415298462,0.5941662192344666,-0.035921089351177216,0.2655276954174042,-0.48521652817726135
0.4819779396057129,0.507246732711792,-0.6414311528205872,0.592329204082489,-0.03673926740884781,0.26403477787971497,-0.4854101240634918
0.5020854473114014,0.5058579444885254,-0.6366473436355591,0.5914167761802673,-0.03706895560026169,0.26320722699165344,-0.48556748032569885
0.5221359729766846,0.5052991509437561,-0.6315839886665344,0.5910691022872925,-0.03697516769170761,0.2628198564052582,-0.48555007576942444
0.5422580242156982,0.5044255256652832,-0.6308459043502808,0.5856610536575317,-0.03869170695543289,0.2606285810470581,-0.48565664887428284
0.562333345413208,0.5018806457519531,-0.6258391737937927,0.583757758140564,-0.03928420692682266,0.25862109661102295,-0.4856700599193573
0.582385778427124,0.5012223720550537,-0.6216355562210083,0.5817345380783081,-0.039393581449985504,0.2568432688713074,-0.48579996824264526
0.6024260520935059,0.49989062547683716,-0.6183121800422668,0.5788974761962891,-0.04058099538087845,0.2549459934234619,-0.48614993691444397
0.6226394176483154,0.4986390471458435,-0.6147972941398621,0.5774500370025635,-0.040915347635746,0.2535083591938019,-0.4863298833370209
0.6427252292633057,0.49800539016723633,-0.6121915578842163,0.5793619155883789,-0.0402553454041481,0.25352898240089417,-0.48645225167274475
0.6627945899963379,0.49638235569000244,-0.6080099940299988,0.5781054496765137,-0.04063188284635544,0.2521806061267853,-0.48659390211105347
0.6828606128692627,0.49355942010879517,-0.602847158908844,0.576459527015686,-0.04157987982034683,0.2504909038543701,-0.4866890609264374
0.7029595375061035,0.49251270294189453,-0.5985075831413269,0.5750024914741516,-0.04188113659620285,0.24914148449897766,-0.48682260513305664
0.7230985164642334,0.4926457405090332,-0.5976454019546509,0.5702959299087524,-0.04294662922620773,0.2479408085346222,-0.4869288206100464
0.7431716918945312,0.4912260174751282,-0.5931962132453918,0.5690896511077881,-0.04324818402528763,0.2467004656791687,-0.4869270622730255
0.7632434368133545,0.4894397258758545,-0.5887556672096252,0.5678980946540833,-0.04365552216768265,0.24535927176475525,-0.48693424463272095
0.7832815647125244,0.48723065853118896,-0.5843934416770935,0.5658071041107178,-0.044161535799503326,0.24318227171897888,-0.48693642020225525
0.803363561630249,0.48446738719940186,-0.5802124738693237,0.5695529580116272,-0.04369471222162247,0.24283555150032043,-0.4870196282863617
0.8234302997589111,0.48205864429473877,-0.5750330686569214,0.5679290294647217,-0.044345952570438385,0.24126914143562317,-0.4870888292789459
0.843498945236206,0.4806095361709595,-0.5698350071907043,0.5670396089553833,-0.044611357152462006,0.24024474620819092,-0.4871668815612793
0.863579511642456,0.4776817560195923,-0.565086841583252,0.5633739829063416,-0.045766569674015045,0.23766493797302246,-0.4873366951942444
0.8836591243743896,0.47631970047950745,-0.563828706741333,0.5586986541748047,-0.047483719885349274,0.23548802733421326,-0.4874219000339508
0.9037411212921143,0.4750654101371765,-0.5586711168289185,0.5564035177230835,-0.047926150262355804,0.23380416631698608,-0.4875812232494354
0.9237918853759766,0.4733991026878357,-0.5532007813453674,0.555241584777832,-0.048376090824604034,0.2325083315372467,-0.4877116084098816
0.9438514709472656,0.4722505211830139,-0.5481936931610107,0.5539805889129639,-0.04870022088289261,0.23146265745162964,-0.4878678023815155
0.9640123844146729,0.4674373269081116,-0.5439255237579346,0.5552997589111328,-0.04922807961702347,0.22905810177326202,-0.4879648685455322
0.984095573425293,0.46301010251045227,-0.537642240524292,0.5534368753433228,-0.05055869370698929,0.22652262449264526,-0.48814770579338074
1.004164218902588,0.4598052501678467,-0.5317770838737488,0.5510061383247375,-0.05174783617258072,0.22419801354408264,-0.48831531405448914
1.0242350101470947,0.4587213099002838,-0.526409924030304,0.5486282110214233,-0.05255579203367233,0.22184593975543976,-0.4885188937187195
1.0444905757904053,0.4569094777107239,-0.5216076374053955,0.5461952686309814,-0.05353022366762161,0.2200048863887787,-0.48883429169654846
1.064579963684082,0.45549851655960083,-0.5203297734260559,0.5414643287658691,-0.054832421243190765,0.21690762042999268,-0.48865875601768494
1.0846610069274902,0.45400381088256836,-0.5154350399971008,0.5404787063598633,-0.055462546646595,0.21543484926223755,-0.48878541588783264
1.104722499847412,0.45048150420188904,-0.511284589767456,0.537258505821228,-0.05671573430299759,0.21225425601005554,-0.4889097511768341
1.1248233318328857,0.44786760210990906,-0.5068936944007874,0.5356075763702393,-0.05758494883775711,0.21016176044940948,-0.4889751672744751
1.1449153423309326,0.44506707787513733,-0.5036427974700928,0.5371333360671997,-0.057749129831790924,0.2086879312992096,-0.4891234338283539
1.1650028228759766,0.44116276502609253,-0.499387264251709,0.5342000126838684,-0.0591852143406868,0.20517578721046448,-0.4892547130584717
1.1851541996002197,0.43806976079940796,-0.4954257309436798,0.5304665565490723,-0.060784660279750824,0.20218198001384735,-0.48957112431526184
1.2057063579559326,0.43416687846183777,-0.4906189739704132,0.527213454246521,-0.062177740037441254,0.1990375816822052,-0.489903062582016
1.225790023803711,0.4330950975418091,-0.48914048075675964,0.5226585865020752,-0.06354454904794693,0.1968831717967987,-0.4898364245891571
1.245868444442749,0.42859649658203125,-0.48488444089889526,0.5173740386962891,-0.06584960967302322,0.19253189861774445,-0.49030593037605286
1.265998363494873,0.4247308075428009,-0.48086974024772644,0.5124908089637756,-0.06764809042215347,0.18731936812400818,-0.4905567467212677
1.2860467433929443,0.42485105991363525,-0.477533221244812,0.5146338939666748,-0.06727690249681473,0.18876990675926208,-0.4910745918750763
1.3061461448669434,0.42016154527664185,-0.47388574481010437,0.5071605443954468,-0.07010888308286667,0.18383260071277618,-0.4917128384113312
1.3262276649475098,0.4156114161014557,-0.4701065421104431,0.5005018711090088,-0.07248692959547043,0.17833863198757172,-0.49225297570228577
1.3462765216827393,0.41182029247283936,-0.46654513478279114,0.49456313252449036,-0.07454497367143631,0.17362338304519653,-0.49275532364845276
1.366325855255127,0.4075295329093933,-0.46267080307006836,0.4869822859764099,-0.0767778530716896,0.16841521859169006,-0.4933730959892273
1.3864080905914307,0.40166592597961426,-0.4620049297809601,0.4772185981273651,-0.08085919171571732,0.16169914603233337,-0.4934980273246765
1.406527042388916,0.394960880279541,-0.4569355547428131,0.47018367052078247,-0.08366020768880844,0.15591983497142792,-0.49405232071876526
1.4265620708465576,0.38870707154273987,-0.45051324367523193,0.4636480212211609,-0.0861656442284584,0.15047410130500793,-0.49453839659690857
1.4466125965118408,0.3857455253601074,-0.4444043040275574,0.4669353663921356,-0.08582264930009842,0.1506219506263733,-0.49530327320098877
1.4667301177978516,0.3773186504840851,-0.4362170398235321,0.4593457281589508,-0.08883719891309738,0.14444687962532043,-0.49579763412475586
1.4868929386138916,0.3682307302951813,-0.4265579283237457,0.45369449257850647,-0.09178707748651505,0.13806375861167908,-0.49619153141975403
1.5069000720977783,0.3597349524497986,-0.41515472531318665,0.4497244954109192,-0.09385422617197037,0.13234752416610718,-0.49633318185806274
1.527425765991211,0.35142308473587036,-0.40446722507476807,0.4435042440891266,-0.09721074253320694,0.12658634781837463,-0.4965628385543823
1.5475208759307861,0.34704962372779846,-0.40066802501678467,0.433503121137619,-0.10071752220392227,0.12087380141019821,-0.49589353799819946
1.5676295757293701,0.3407753109931946,-0.38823699951171875,0.43031010031700134,-0.10247660428285599,0.11694151908159256,-0.4960768520832062
1.5876548290252686,0.3335686922073364,-0.37497639656066895,0.42694664001464844,-0.1044696494936943,0.11126462370157242,-0.49599629640579224
1.6077244281768799,0.32624706625938416,-0.36302265524864197,0.42247647047042847,-0.10706547647714615,0.10624859482049942,-0.49614331126213074
1.6278798580169678,0.32617703080177307,-0.3538854122161865,0.43092119693756104,-0.10428629070520401,0.1093454658985138,-0.49699410796165466
1.6479182243347168,0.3208652138710022,-0.34297120571136475,0.42579588294029236,-0.10623752325773239,0.10518036782741547,-0.49732449650764465
1.6680004596710205,0.31581348180770874,-0.3323737382888794,0.4212339222431183,-0.10789567977190018,0.10091600567102432,-0.49734073877334595
1.688033103942871,0.31149306893348694,-0.3251846134662628,0.4112202823162079,-0.11041565984487534,0.09474622458219528,-0.49775171279907227
1.7081329822540283,0.304611474275589,-0.3253452777862549,0.396536260843277,-0.11570978909730911,0.08513765037059784,-0.4969622790813446
1.728222131729126,0.2997737526893616,-0.3212221562862396,0.3860414922237396,-0.1188250407576561,0.07847562432289124,-0.4975995123386383
1.7483758926391602,0.2955648899078369,-0.3200547695159912,0.37352824211120605,-0.12184221297502518,0.07073089480400085,-0.49828624725341797
1.7683897018432617,0.2927325367927551,-0.32330840826034546,0.3577769994735718,-0.12454443424940109,0.060892753303050995,-0.4989564120769501
1.7885355949401855,0.2896674573421478,-0.3310103714466095,0.3384456932544708,-0.1279943287372589,0.04876605421304703,-0.4996119737625122
1.808661937713623,0.29307839274406433,-0.33487293124198914,0.3335965871810913,-0.12748944759368896,0.04806653410196304,-0.5006583333015442
1.8287484645843506,0.2922974228858948,-0.3482474684715271,0.3155633211135864,-0.13006415963172913,0.03670211508870125,-0.501524806022644
1.8488047122955322,0.29073482751846313,-0.36434006690979004,0.2956293225288391,-0.13355335593223572,0.023940958082675934,-0.502170741558075
1.8689725399017334,0.2875652313232422,-0.38061195611953735,0.2796388268470764,-0.13677352666854858,0.012083121575415134,-0.5025172829627991
1.889148235321045,0.2880459725856781,-0.390855610370636,0.2672717571258545,-0.1382972002029419,0.0045822495594620705,-0.5020692944526672
1.9092445373535156,0.28859397768974304,-0.4038859009742737,0.26117807626724243,-0.13866233825683594,-0.002382497303187847,-0.501838743686676
1.9292418956756592,0.2883578836917877,-0.41755127906799316,0.25661468505859375,-0.13857561349868774,-0.008140495978295803,-0.5014391541481018
1.9492967128753662,0.2878466844558716,-0.43025559186935425,0.2568711042404175,-0.1368829309940338,-0.011014441959559917,-0.5006036162376404
1.9694173336029053,0.28766733407974243,-0.43332281708717346,0.2666991651058197,-0.13306772708892822,-0.009267742745578289,-0.500359833240509
1.989495038986206,0.2853519022464752,-0.44354838132858276,0.2733954191207886,-0.13062793016433716,-0.009797896258533001,-0.49898236989974976
2.0095725059509277,0.2823095917701721,-0.4527921676635742,0.2791973054409027,-0.12922129034996033,-0.009223963133990765,-0.49819517135620117
2.029629707336426,0.2792421579360962,-0.4602353870868683,0.28681984543800354,-0.1269998848438263,-0.00904517900198698,-0.49694088101387024
2.0497121810913086,0.2781274914741516,-0.4656519293785095,0.28177034854888916,-0.12743979692459106,-0.011437512002885342,-0.49554550647735596
2.0698134899139404,0.2747211158275604,-0.4650208353996277,0.29735225439071655,-0.1223299577832222,-0.007691401056945324,-0.49328869581222534
2.0899271965026855,0.2719973027706146,-0.4602568745613098,0.3132671117782593,-0.11687315255403519,-0.001760127954185009,-0.49046435952186584
2.109959840774536,0.2697950303554535,-0.44837814569473267,0.3326696753501892,-0.10954863578081131,0.005671699531376362,-0.4875433146953583
2.130047082901001,0.27029114961624146,-0.4375399649143219,0.35072508454322815,-0.1030375137925148,0.01421662513166666,-0.4867519736289978
2.1501383781433105,0.2716715633869171,-0.4158707857131958,0.3710388243198395,-0.09261947125196457,0.023163393139839172,-0.4831100404262543
2.170197010040283,0.2777356207370758,-0.3959686756134033,0.38607412576675415,-0.08313225954771042,0.031527288258075714,-0.4801652133464813
2.190251350402832,0.2885265350341797,-0.3813217580318451,0.39399391412734985,-0.07290773838758469,0.03652818128466606,-0.47780993580818176
2.210362672805786,0.2933387756347656,-0.37756669521331787,0.38923174142837524,-0.07017964869737625,0.03459114953875542,-0.4763145446777344
2.2304108142852783,0.30546391010284424,-0.3719872236251831,0.3807915449142456,-0.06525204330682755,0.03412158787250519,-0.4764435589313507
2.250516414642334,0.31723538041114807,-0.37072300910949707,0.365496426820755,-0.06307489424943924,0.030875295400619507,-0.47814324498176575
2.270571708679199,0.3228933811187744,-0.37204959988594055,0.35120946168899536,-0.0615621879696846,0.024316348135471344,-0.4796893894672394
2.2908108234405518,0.3209189176559448,-0.3756437301635742,0.34047436714172363,-0.06098378449678421,0.01742107793688774,-0.47994956374168396
2.310934066772461,0.31674256920814514,-0.3776686191558838,0.3368711471557617,-0.060639284551143646,0.015467711724340916,-0.47994464635849
2.330981969833374,0.3129945695400238,-0.3812854290008545,0.3349161148071289,-0.058026693761348724,0.011514094658195972,-0.4791944921016693
2.351048707962036,0.31197071075439453,-0.3831721544265747,0.3388369381427765,-0.05267936736345291,0.007245649583637714,-0.4776313304901123
2.371096134185791,0.3078719973564148,-0.38296639919281006,0.34378254413604736,-0.0485026016831398,0.0009369561448693275,-0.47562843561172485
2.391158103942871,0.30327722430229187,-0.38157981634140015,0.3466358482837677,-0.047576941549777985,2.3146159946918488e-05,-0.4748411476612091
2.4112634658813477,0.3005043864250183,-0.38003695011138916,0.3482291102409363,-0.04530242830514908,-0.00023057963699102402,-0.47375941276550293
2.431309700012207,0.3038354516029358,-0.3817453682422638,0.3463120460510254,-0.04383637756109238,0.0017746435478329659,-0.47405949234962463
2.4514319896698,0.3075132369995117,-0.3852297067642212,0.34193161129951477,-0.042847760021686554,0.0034391330555081367,-0.4750065803527832
2.4717133045196533,0.3089856505393982,-0.3865932822227478,0.34061044454574585,-0.042711444199085236,0.004481927491724491,-0.4756962060928345
2.4918034076690674,0.31252777576446533,-0.3885374069213867,0.33976447582244873,-0.04053095728158951,0.008863051421940327,-0.4766249656677246
2.5118703842163086,0.31318631768226624,-0.389055073261261,0.34110963344573975,-0.038493432104587555,0.010919076390564442,-0.47696807980537415
2.5319347381591797,0.31346267461776733,-0.38888120651245117,0.3450602889060974,-0.03637736290693283,0.012578182853758335,-0.47686323523521423
2.5519819259643555,0.30929213762283325,-0.3883579969406128,0.3453335762023926,-0.03587735444307327,0.01091266144067049,-0.47653627395629883
2.572089433670044,0.3087835907936096,-0.3874959349632263,0.34607094526290894,-0.0353580042719841,0.010813583619892597,-0.4764048457145691
2.59214448928833,0.30835485458374023,-0.387063592672348,0.3459050953388214,-0.033746592700481415,0.008824986405670643,-0.47597822546958923
2.6122424602508545,0.30710598826408386,-0.38763606548309326,0.3454580307006836,-0.03446212410926819,0.005555146373808384,-0.4760358929634094
2.6323049068450928,0.30651211738586426,-0.38859719038009644,0.3443560004234314,-0.03496525436639786,0.0038818800821900368,-0.4760974645614624
2.6524806022644043,0.3064943552017212,-0.3889075815677643,0.34464073181152344,-0.03476477414369583,0.0037468010559678078,-0.4762570858001709
2.6725013256073,0.3062969446182251,-0.3892107307910919,0.34474003314971924,-0.03486918658018112,0.004461192525923252,-0.47641289234161377
2.6925430297851562,0.306893527507782,-0.38925838470458984,0.34506645798683167,-0.03446843475103378,0.005990267731249332,-0.4766967296600342
2.7126052379608154,0.3076760768890381,-0.3892982602119446,0.3452480733394623,-0.033632613718509674,0.0067714909091591835,-0.4768904447555542
2.732684850692749,0.3079834580421448,-0.38962188363075256,0.34499815106391907,-0.03379702568054199,0.00804289523512125,-0.4771636128425598
2.7527685165405273,0.30866503715515137,-0.3897377848625183,0.34508800506591797,-0.03264239430427551,0.007968188263475895,-0.4771965742111206
2.772829294204712,0.30794453620910645,-0.38992220163345337,0.3440803587436676,-0.033272527158260345,0.007514857687056065,-0.47738802433013916
2.792884111404419,0.3069416284561157,-0.3897482752799988,0.3442152738571167,-0.03327026218175888,0.00703349057585001,-0.4774317443370819
2.8129749298095703,0.3065897822380066,-0.3897739052772522,0.34414055943489075,-0.033375389873981476,0.0070149535313248634,-0.4775397777557373
2.8331069946289062,0.30649852752685547,-0.3899536430835724,0.3441857397556305,-0.0331265851855278,0.006595202721655369,-0.4775750935077667
2.8531675338745117,0.3058711886405945,-0.39005371928215027,0.34397947788238525,-0.033225588500499725,0.004964315332472324,-0.4774891138076782
2.8731911182403564,0.3055395781993866,-0.3901421129703522,0.34398573637008667,-0.033385299146175385,0.004412506707012653,-0.47745373845100403
2.893336296081543,0.3055810332298279,-0.39019668102264404,0.34411221742630005,-0.03328227251768112,0.004551713354885578,-0.4774942398071289
2.913383960723877,0.3060249984264374,-0.3897212743759155,0.34503960609436035,-0.032322682440280914,0.00497771892696619,-0.4773348569869995
2.933464765548706,0.30597227811813354,-0.3897532820701599,0.3450905680656433,-0.03257107734680176,0.005657409317791462,-0.47750169038772583
2.953571081161499,0.305963397026062,-0.3898482322692871,0.34512588381767273,-0.03275376558303833,0.006172199733555317,-0.4776958227157593
2.9736292362213135,0.30608466267585754,-0.3898734450340271,0.3451385498046875,-0.03279919922351837,0.006793287582695484,-0.4778253734111786
2.993734836578369,0.3062441349029541,-0.39000773429870605,0.34480199217796326,-0.032737597823143005,0.006788765080273151,-0.4779817461967468
3.0137903690338135,0.3061332702636719,-0.38995325565338135,0.3450362980365753,-0.032613903284072876,0.006676525808870792,-0.4779432713985443
3.033834934234619,0.30607685446739197,-0.38997364044189453,0.3449644446372986,-0.03264731168746948,0.006329529918730259,-0.4779338836669922
3.0539402961730957,0.30605825781822205,-0.39007657766342163,0.34473973512649536,-0.03264153003692627,0.005984672345221043,-0.4779394268989563
3.074007272720337,0.3060128688812256,-0.39008569717407227,0.34472668170928955,-0.03267509490251541,0.006008573807775974,-0.4779317378997803
3.0940873622894287,0.3060838580131531,-0.3900812268257141,0.3447374701499939,-0.032500699162483215,0.005946607328951359,-0.47790205478668213
3.1141514778137207,0.3067752718925476,-0.39019545912742615,0.34483420848846436,-0.03243117034435272,0.006310661323368549,-0.47799885272979736
3.134281635284424,0.30694741010665894,-0.3901183605194092,0.3452261984348297,-0.03218147158622742,0.006672331131994724,-0.4779627025127411
3.154383420944214,0.3069060742855072,-0.39015859365463257,0.3454090356826782,-0.03205528110265732,0.006506183184683323,-0.4779139757156372
3.174448251724243,0.3068789839744568,-0.3902741074562073,0.3451327681541443,-0.03204379975795746,0.006232433952391148,-0.47793006896972656
3.1945338249206543,0.30687615275382996,-0.3903328776359558,0.34501129388809204,-0.032200075685977936,0.006313749589025974,-0.4780104458332062
3.2146127223968506,0.30689215660095215,-0.3903418481349945,0.3450044095516205,-0.03219243884086609,0.006321639753878117,-0.4780206084251404
3.234680414199829,0.3068976104259491,-0.390341579914093,0.344987154006958,-0.03215014934539795,0.006306719966232777,-0.47801557183265686
3.254748582839966,0.3069019913673401,-0.39034324884414673,0.34499025344848633,-0.0321449339389801,0.006308642216026783,-0.4780152440071106
3.2748208045959473,0.30691975355148315,-0.39033859968185425,0.344984769821167,-0.032112181186676025,0.006340448744595051,-0.4780150055885315
3.2948660850524902,0.30689746141433716,-0.3903387784957886,0.34497910737991333,-0.03214553743600845,0.006299794651567936,-0.47801440954208374
3.3149654865264893,0.30689865350723267,-0.3903469443321228,0.34501713514328003,-0.03220590949058533,0.006371890194714069,-0.4780241847038269
3.3350346088409424,0.30690455436706543,-0.39038771390914917,0.34500181674957275,-0.032123059034347534,0.0063450271263718605,-0.47807127237319946
3.3551013469696045,0.30680984258651733,-0.3903971016407013,0.34498777985572815,-0.03229329735040665,0.00638186652213335,-0.47809600830078125
3.3754308223724365,0.30671563744544983,-0.39039647579193115,0.3449162244796753,-0.03223869949579239,0.006077521480619907,-0.47805821895599365
3.395535945892334,0.3067757189273834,-0.3904076814651489,0.3449992835521698,-0.032218560576438904,0.006104336120188236,-0.47804975509643555
3.4156317710876465,0.3067132234573364,-0.3904116749763489,0.34499412775039673,-0.03235234320163727,0.0061819711700081825,-0.47807586193084717
3.4356677532196045,0.30745458602905273,-0.3905448317527771,0.3451719880104065,-0.032168909907341,0.006579370237886906,-0.47817134857177734
3.4558253288269043,0.3090473711490631,-0.39070576429367065,0.34559229016304016,-0.031621091067790985,0.006922480650246143,-0.4781881272792816
3.4759156703948975,0.30897724628448486,-0.3907507359981537,0.34559446573257446,-0.031577207148075104,0.006921839900314808,-0.47817495465278625
3.4959843158721924,0.30880793929100037,-0.39078396558761597,0.3456782102584839,-0.0316876620054245,0.006997973658144474,-0.4781689941883087
3.5160629749298096,0.3088873028755188,-0.3907759487628937,0.34569090604782104,-0.03160668909549713,0.007125497795641422,-0.4781833589076996
3.5361404418945312,0.3088606595993042,-0.39090457558631897,0.34535324573516846,-0.031838707625865936,0.007144001312553883,-0.4783163070678711
3.5562527179718018,0.3089635968208313,-0.3909175395965576,0.34523454308509827,-0.03182324022054672,0.007123214192688465,-0.47833678126335144
3.576345920562744,0.30792754888534546,-0.39089062809944153,0.3449552059173584,-0.03223410248756409,0.006457035429775715,-0.47834640741348267
3.5963797569274902,0.30795788764953613,-0.39084866642951965,0.34491676092147827,-0.03219375014305115,0.006486040540039539,-0.4783533215522766
3.616445779800415,0.30792877078056335,-0.3908427357673645,0.344902366399765,-0.0321878120303154,0.006434799171984196,-0.4783470630645752
3.636536121368408,0.30722206830978394,-0.39078783988952637,0.3447253704071045,-0.03243438899517059,0.006220714189112186,-0.478335440158844
3.656604290008545,0.3064526915550232,-0.39070218801498413,0.3445422053337097,-0.032640859484672546,0.006089416332542896,-0.47832199931144714
3.6766512393951416,0.3066040277481079,-0.390669047832489,0.34448492527008057,-0.03256133943796158,0.005891156382858753,-0.4783158004283905
3.6967430114746094,0.30673784017562866,-0.39065027236938477,0.3444906771183014,-0.032479219138622284,0.006124635227024555,-0.47832155227661133
3.716817617416382,0.3065505921840668,-0.39067694544792175,0.3444565534591675,-0.03252933919429779,0.005562462843954563,-0.47827014327049255
3.736872911453247,0.3066059648990631,-0.3906479477882385,0.34443798661231995,-0.03263818472623825,0.005915229208767414,-0.47832340002059937
3.756967782974243,0.30662691593170166,-0.39066240191459656,0.3444700241088867,-0.032609693706035614,0.005893108434975147,-0.47832465171813965
3.7770912647247314,0.306753009557724,-0.3906469941139221,0.3444836437702179,-0.03248044103384018,0.006126311607658863,-0.47832387685775757
3.7971200942993164,0.30672937631607056,-0.39064568281173706,0.34445562958717346,-0.032525159418582916,0.006150946952402592,-0.47834187746047974
3.8171706199645996,0.30661898851394653,-0.39020591974258423,0.34512174129486084,-0.03233502060174942,0.006382637657225132,-0.4782344400882721
3.8372554779052734,0.306568443775177,-0.39021778106689453,0.34533047676086426,-0.032335855066776276,0.006429550237953663,-0.4782675504684448
3.857327461242676,0.30641108751296997,-0.3890857696533203,0.3467051386833191,-0.0318707600235939,0.007026770152151585,-0.47812819480895996
3.877448081970215,0.30632200837135315,-0.3883715867996216,0.34734541177749634,-0.03179366886615753,0.007161685265600681,-0.47806328535079956
3.897475242614746,0.30637723207473755,-0.3879128396511078,0.34772685170173645,-0.03165580332279205,0.007569433189928532,-0.47804245352745056
3.9175868034362793,0.3064005374908447,-0.3878820836544037,0.3476894497871399,-0.03163325786590576,0.0075095901265740395,-0.47803500294685364
3.937747001647949,0.3065033555030823,-0.3877752125263214,0.3474467694759369,-0.031586311757564545,0.007370130158960819,-0.47792935371398926
3.957848072052002,0.30652302503585815,-0.3880921006202698,0.3472021818161011,-0.031663745641708374,0.0072988467290997505,-0.4779895544052124
3.977841854095459,0.30667996406555176,-0.3884950876235962,0.3460283875465393,-0.03195788711309433,0.00687743816524744,-0.47808605432510376
3.998004913330078,0.3067849278450012,-0.3888256549835205,0.3459855914115906,-0.031920112669467926,0.006745108403265476,-0.4780876636505127
4.01809287071228,0.3069230914115906,-0.3889760971069336,0.3456885814666748,-0.03183285892009735,0.006606803275644779,-0.47813183069229126
4.038161039352417,0.3068709969520569,-0.3890410363674164,0.3455718159675598,-0.03191593289375305,0.0063208723440766335,-0.47811686992645264
4.058251619338989,0.30704647302627563,-0.3891929090023041,0.34514591097831726,-0.031959690153598785,0.006422062404453754,-0.4781254529953003
4.078310966491699,0.30705252289772034,-0.3896334171295166,0.3450489640235901,-0.032070092856884,0.00630613137036562,-0.47820842266082764
4.098571062088013,0.30702316761016846,-0.38967353105545044,0.34505265951156616,-0.03203665465116501,0.006294378079473972,-0.4782038927078247
4.1187169551849365,0.30701398849487305,-0.38967767357826233,0.3449983596801758,-0.03206499665975571,0.006311890669167042,-0.4781935214996338
4.13882303237915,0.30695194005966187,-0.3899537920951843,0.3448578119277954,-0.03213001787662506,0.005955931730568409,-0.47821471095085144
4.158847808837891,0.30689963698387146,-0.390027791261673,0.3446942865848541,-0.03212934732437134,0.0058487290516495705,-0.4781973958015442
4.178955316543579,0.3069591522216797,-0.3900047838687897,0.344663143157959,-0.03213348239660263,0.006033019162714481,-0.4782169759273529
4.199033737182617,0.3070378303527832,-0.39001724123954773,0.3447161912918091,-0.03209468722343445,0.006159828044474125,-0.4782278537750244
4.2191033363342285,0.30702999234199524,-0.39002588391304016,0.3447423577308655,-0.03213609755039215,0.006177139468491077,-0.47823333740234375
4.239139556884766,0.30701300501823425,-0.390019953250885,0.344654381275177,-0.03212893009185791,0.006058857776224613,-0.4782133996486664
4.259269714355469,0.30701586604118347,-0.39014118909835815,0.34459659457206726,-0.032133691012859344,0.00605905894190073,-0.47816604375839233
4.2794318199157715,0.30696582794189453,-0.39053571224212646,0.3445972800254822,-0.032216593623161316,0.006043196655809879,-0.47821497917175293
4.299564838409424,0.30688589811325073,-0.3906097710132599,0.3445773720741272,-0.032195329666137695,0.005941920913755894,-0.4782148003578186
4.319587707519531,0.30689379572868347,-0.3906000554561615,0.3446555435657501,-0.03220048546791077,0.006000705994665623,-0.47821712493896484
4.339715003967285,0.30677294731140137,-0.390497624874115,0.344956636428833,-0.032221682369709015,0.00615279097110033,-0.47818177938461304
4.359757423400879,0.30675187706947327,-0.39052367210388184,0.3450583815574646,-0.03211504966020584,0.00615838635712862,-0.47815078496932983
4.379830837249756,0.3066985011100769,-0.39053434133529663,0.34503522515296936,-0.03225012123584747,0.0062423693016171455,-0.4781755805015564
4.39991307258606,0.3067580461502075,-0.3905507028102875,0.345051646232605,-0.03207600116729736,0.0061605991795659065,-0.47814321517944336
4.4202659130096436,0.30667048692703247,-0.39054572582244873,0.34501659870147705,-0.03224413841962814,0.006189287640154362,-0.47816765308380127
4.440312623977661,0.3067539632320404,-0.3905397057533264,0.34505340456962585,-0.032119348645210266,0.006164190359413624,-0.47814881801605225
4.460409641265869,0.3067353069782257,-0.39053794741630554,0.3450525104999542,-0.03216204047203064,0.006134034134447575,-0.47815200686454773
4.480476140975952,0.30675777792930603,-0.39054012298583984,0.3450576066970825,-0.032130129635334015,0.00620762724429369,-0.47815072536468506
4.50055193901062,0.3067602515220642,-0.39052852988243103,0.3450186252593994,-0.03205448389053345,0.006092553026974201,-0.4781396687030792
4.52068018913269,0.3066866993904114,-0.3905274271965027,0.3450031876564026,-0.03224937617778778,0.0061934152618050575,-0.4781721532344818
4.5407562255859375,0.30762773752212524,-0.3906240463256836,0.34525078535079956,-0.03203213959932327,0.006643087603151798,-0.47822001576423645
4.560794115066528,0.30923426151275635,-0.3907979726791382,0.3456849455833435,-0.0315413698554039,0.007397615350782871,-0.4782807230949402
4.580878019332886,0.30907726287841797,-0.3908114433288574,0.34571194648742676,-0.03155452758073807,0.007537529803812504,-0.4782795310020447
4.600938558578491,0.30904069542884827,-0.3908085227012634,0.3457280397415161,-0.03159308433532715,0.007844624109566212,-0.47829505801200867
4.621026277542114,0.30935418605804443,-0.3907979130744934,0.3458347022533417,-0.0313836932182312,0.008262627758085728,-0.47834423184394836
4.641100645065308,0.3093208074569702,-0.3907756805419922,0.34578388929367065,-0.031411103904247284,0.008177855052053928,-0.4783434569835663
4.661242485046387,0.30940771102905273,-0.39077067375183105,0.3458084166049957,-0.031260229647159576,0.008180716075003147,-0.47832170128822327
4.68135142326355,0.3085234761238098,-0.3907631039619446,0.3456335663795471,-0.03163474053144455,0.007563800550997257,-0.478300005197525
4.701440095901489,0.3082820177078247,-0.3907095491886139,0.34557557106018066,-0.03174923360347748,0.007367135025560856,-0.4782659411430359
4.7214930057525635,0.30821406841278076,-0.39069902896881104,0.34552597999572754,-0.03177186846733093,0.007289008237421513,-0.4782547354698181
4.741539716720581,0.3075799345970154,-0.390758216381073,0.3450433015823364,-0.03203722834587097,0.006861028261482716,-0.4782949686050415
4.761622667312622,0.30667829513549805,-0.3904745578765869,0.3450598120689392,-0.03207920491695404,0.00677602831274271,-0.47818446159362793
4.781690359115601,0.30689018964767456,-0.3905036449432373,0.34505245089530945,-0.0321548730134964,0.006710574962198734,-0.47822171449661255
4.801762580871582,0.3061709403991699,-0.39050593972206116,0.3448869287967682,-0.03235567361116409,0.005779431201517582,-0.4781702160835266
4.822022438049316,0.30661407113075256,-0.3904998004436493,0.34494245052337646,-0.032283030450344086,0.006149892695248127,-0.47816282510757446
4.84211277961731,0.30662310123443604,-0.39053550362586975,0.34501540660858154,-0.03227672725915909,0.005970464088022709,-0.47815218567848206
4.86218523979187,0.3064509630203247,-0.39050501585006714,0.3449525237083435,-0.03234250098466873,0.005915933288633823,-0.47813794016838074
4.8822925090789795,0.30656757950782776,-0.3904736638069153,0.3449520766735077,-0.03228989243507385,0.006166902370750904,-0.4781613349914551
4.902458429336548,0.30667418241500854,-0.39051175117492676,0.3450026214122772,-0.03225670009851456,0.006202132441103458,-0.47817009687423706
4.9224865436553955,0.3067425489425659,-0.39062559604644775,0.3446905016899109,-0.0323060005903244,0.006074217148125172,-0.47822800278663635
4.942582845687866,0.3067128658294678,-0.390521377325058,0.34495478868484497,-0.032230883836746216,0.006135390140116215,-0.4781705439090729
4.962607145309448,0.3065791130065918,-0.3904692530632019,0.3449345827102661,-0.03229549527168274,0.006193355657160282,-0.47816458344459534
4.9826905727386475,0.3066842555999756,-0.3905090093612671,0.34502270817756653,-0.03229568153619766,0.006220714189112186,-0.47817784547805786
5.0027806758880615,0.30610722303390503,-0.39050227403640747,0.34484001994132996,-0.03241521865129471,0.005902701057493687,-0.47816503047943115
5.02284574508667,0.3066697120666504,-0.3904368281364441,0.3450613021850586,-0.032242268323898315,0.006225396879017353,-0.47817128896713257
5.042996644973755,0.306674599647522,-0.39024293422698975,0.3452175259590149,-0.03216027468442917,0.006254826672375202,-0.47813835740089417
5.063079357147217,0.3065307140350342,-0.39016687870025635,0.3454480469226837,-0.03214288502931595,0.006328065879642963,-0.47816362977027893
5.0831849575042725,0.3063444495201111,-0.3887796998023987,0.3469294309616089,-0.03181544691324234,0.007058271206915379,-0.4781237840652466
5.103224754333496,0.30624955892562866,-0.3865770101547241,0.34983548521995544,-0.031006038188934326,0.008407221175730228,-0.47802484035491943
5.123297452926636,0.3062257766723633,-0.3858996629714966,0.3496982753276825,-0.031020648777484894,0.008367964066565037,-0.47786471247673035
5.143362045288086,0.30647337436676025,-0.385276734828949,0.349330335855484,-0.031116701662540436,0.008426033891737461,-0.47783100605010986
5.1634321212768555,0.30685046315193176,-0.3860102891921997,0.34784239530563354,-0.031373530626297,0.008132115937769413,-0.47789138555526733
5.183488607406616,0.30750638246536255,-0.3879450559616089,0.34404420852661133,-0.0321599543094635,0.006651264615356922,-0.4781723916530609
5.203568458557129,0.30772894620895386,-0.38829922676086426,0.3442090153694153,-0.032029084861278534,0.006483589299023151,-0.4782906472682953
5.223703622817993,0.3076282739639282,-0.3890592157840729,0.34391599893569946,-0.032253362238407135,0.006017652340233326,-0.4783618450164795
5.24376106262207,0.3073703646659851,-0.38905423879623413,0.344645619392395,-0.032114796340465546,0.0062016891315579414,-0.4783221483230591
5.263844728469849,0.3070789873600006,-0.38882771134376526,0.34591129422187805,-0.03191927820444107,0.006637250073254108,-0.478204607963562
5.283928632736206,0.30691954493522644,-0.38890373706817627,0.3458251655101776,-0.0319499745965004,0.00670295674353838,-0.47817274928092957
5.303981065750122,0.3070482611656189,-0.38949114084243774,0.34490227699279785,-0.032159626483917236,0.006546732969582081,-0.47821685671806335
5.32404351234436,0.30710569024086,-0.3898852467536926,0.34472402930259705,-0.03219843655824661,0.006457199342548847,-0.47827303409576416
5.34408974647522,0.3071156442165375,-0.38995838165283203,0.3446052074432373,-0.03220520168542862,0.0063830772414803505,-0.478270560503006
5.364178895950317,0.3070495128631592,-0.3899778723716736,0.3446033000946045,-0.0322159007191658,0.00610493216663599,-0.47824719548225403
5.384246826171875,0.30691784620285034,-0.38986605405807495,0.34521666169166565,-0.032115302979946136,0.006318480707705021,-0.47821083664894104
5.404316425323486,0.30680400133132935,-0.38989612460136414,0.3451375365257263,-0.032096050679683685,0.006257911212742329,-0.478179395198822
5.424388885498047,0.3068576753139496,-0.3901594281196594,0.34488219022750854,-0.032252296805381775,0.006259546615183353,-0.47821012139320374
5.444485425949097,0.3069111108779907,-0.39043349027633667,0.3442475497722626,-0.032364360988140106,0.005996984429657459,-0.4781801104545593
5.464578628540039,0.3070303201675415,-0.39056071639060974,0.34449678659439087,-0.03229070454835892,0.0063191065564751625,-0.47827184200286865
5.484619379043579,0.3069648742675781,-0.3906075954437256,0.34460508823394775,-0.03225459158420563,0.006262660957872868,-0.4782780408859253
5.504672527313232,0.3067742586135864,-0.39047348499298096,0.3450555205345154,-0.03221573680639267,0.006176390685141087,-0.4781894087791443
5.524757385253906,0.3067088723182678,-0.3904953598976135,0.34512144327163696,-0.03224768489599228,0.00626866240054369,-0.47818464040756226
5.544835090637207,0.30667656660079956,-0.39053240418434143,0.34501588344573975,-0.0322529599070549,0.00619999784976244,-0.4781729578971863
5.564905881881714,0.30668482184410095,-0.3905390501022339,0.34504592418670654,-0.03229843080043793,0.006226436235010624,-0.4781809449195862
5.584986686706543,0.30680516362190247,-0.3905178904533386,0.34501218795776367,-0.03217395395040512,0.006486331112682819,-0.4781947731971741
5.605215072631836,0.3068163990974426,-0.3905065655708313,0.3450021743774414,-0.03216423839330673,0.006473922170698643,-0.4781966507434845
5.625298976898193,0.30675700306892395,-0.39052632451057434,0.34504514932632446,-0.0322100892663002,0.006226853467524052,-0.4781814217567444
5.645382642745972,0.3066883981227875,-0.39052850008010864,0.3450087308883667,-0.03225187212228775,0.00619619432836771,-0.47817468643188477
5.665449142456055,0.3067052364349365,-0.3905342221260071,0.345056414604187,-0.03230147063732147,0.006273561157286167,-0.47818559408187866
5.685973167419434,0.30770406126976013,-0.39060091972351074,0.3452126979827881,-0.03198152780532837,0.006904170848429203,-0.47823846340179443
5.706057786941528,0.30931946635246277,-0.3907157778739929,0.3455559015274048,-0.0314793661236763,0.0073909396305680275,-0.47827696800231934
5.726125717163086,0.309011846780777,-0.3907889127731323,0.34562039375305176,-0.03158196061849594,0.007462264038622379,-0.47827035188674927
5.746197938919067,0.30896222591400146,-0.39080947637557983,0.3457150161266327,-0.03163180500268936,0.0075225988402962685,-0.47827255725860596
5.7666425704956055,0.309037446975708,-0.3908245265483856,0.3457600772380829,-0.031500332057476044,0.007440053857862949,-0.4782671630382538
5.786781549453735,0.3090006113052368,-0.39082300662994385,0.34574443101882935,-0.03154812753200531,0.007497959770262241,-0.47826942801475525
5.806896924972534,0.3089892864227295,-0.39082229137420654,0.34573304653167725,-0.03153858333826065,0.007451583631336689,-0.4782644808292389
5.826999187469482,0.3089824914932251,-0.39080899953842163,0.3457077741622925,-0.03152668476104736,0.007391222752630711,-0.47826141119003296
5.847116947174072,0.3089904189109802,-0.39081424474716187,0.3457146883010864,-0.031536996364593506,0.0074452245607972145,-0.4782625734806061
5.867173194885254,0.3089946508407593,-0.3908144235610962,0.3457221984863281,-0.03153718262910843,0.007447545416653156,-0.4782642722129822
5.8872315883636475,0.3089955449104309,-0.3908243775367737,0.345765084028244,-0.03159674257040024,0.007521116174757481,-0.4782746732234955
5.907293319702148,0.3089894652366638,-0.39082106947898865,0.34570541977882385,-0.03149285167455673,0.007430569268763065,-0.4782566726207733
5.92739725112915,0.30897828936576843,-0.39080896973609924,0.3457041084766388,-0.031527481973171234,0.007385467179119587,-0.47825050354003906
5.947483062744141,0.3090505599975586,-0.39076870679855347,0.3457014560699463,-0.03138047456741333,0.007310965098440647,-0.47818344831466675
5.9675843715667725,0.30906444787979126,-0.39076149463653564,0.34570929408073425,-0.031392887234687805,0.007355102337896824,-0.4781787395477295
5.987652778625488,0.3090693950653076,-0.3907700777053833,0.34572961926460266,-0.0314074382185936,0.007409081794321537,-0.478182315826416
6.008097171783447,0.309054434299469,-0.3907703757286072,0.34571826457977295,-0.031400032341480255,0.007357829250395298,-0.47817879915237427
6.02827787399292,0.3090567886829376,-0.39076656103134155,0.34573298692703247,-0.03143424540758133,0.007369012571871281,-0.4781838655471802
6.048327445983887,0.3091309070587158,-0.39075967669487,0.345744252204895,-0.03142830729484558,0.007660762406885624,-0.47820836305618286
6.0683581829071045,0.3084411025047302,-0.39069923758506775,0.3456128239631653,-0.031520403921604156,0.006964609958231449,-0.4780920743942261
6.0884175300598145,0.30828189849853516,-0.3906397223472595,0.3455201983451843,-0.03152958303689957,0.006898173131048679,-0.47806811332702637
6.108494281768799,0.30824121832847595,-0.3902892470359802,0.3458039164543152,-0.031502820551395416,0.007050883956253529,-0.4780370891094208
6.128565549850464,0.3074073791503906,-0.38935184478759766,0.3474147319793701,-0.031217649579048157,0.007416204549372196,-0.4780423939228058
6.1486287117004395,0.3055368959903717,-0.38753044605255127,0.3487708568572998,-0.031254202127456665,0.007772260345518589,-0.4778841435909271
6.19079065322876,0.3055132031440735,-0.3857210874557495,0.35064348578453064,-0.030761972069740295,0.008615531958639622,-0.4777439534664154
6.21086311340332,0.30528321862220764,-0.3822147250175476,0.3534291386604309,-0.029919862747192383,0.009655122645199299,-0.47727423906326294
6.2309417724609375,0.30540716648101807,-0.3814307749271393,0.3528708815574646,-0.03020738810300827,0.009659909643232822,-0.4772472679615021
6.251028299331665,0.30628281831741333,-0.3836488723754883,0.3490040898323059,-0.031120918691158295,0.008793824352324009,-0.4774746894836426
6.27122163772583,0.30685704946517944,-0.3848315477371216,0.3473641574382782,-0.031255967915058136,0.008566160686314106,-0.4777010381221771
6.291304111480713,0.3076968193054199,-0.3874405026435852,0.34297531843185425,-0.03220430016517639,0.006820161826908588,-0.47826865315437317
6.311474323272705,0.30766087770462036,-0.38788673281669617,0.3437379002571106,-0.03205682337284088,0.006648865528404713,-0.47836464643478394
6.331501483917236,0.3073693513870239,-0.38853615522384644,0.3439326882362366,-0.03205500543117523,0.006576907820999622,-0.4782254099845886
6.3515706062316895,0.3072320818901062,-0.38869303464889526,0.3444988429546356,-0.03192896395921707,0.006514669395983219,-0.47822457551956177
6.371623277664185,0.3065464496612549,-0.38856643438339233,0.3457959294319153,-0.03178541362285614,0.006380901671946049,-0.4780419170856476
6.391709804534912,0.3061688542366028,-0.38846689462661743,0.3466120958328247,-0.03179328888654709,0.006828677840530872,-0.47789424657821655
6.411767959594727,0.3060741424560547,-0.388590544462204,0.3464556336402893,-0.03186992555856705,0.0067859673872590065,-0.47790801525115967
6.4320068359375,0.305969774723053,-0.38860273361206055,0.34636250138282776,-0.03184034675359726,0.006394651718437672,-0.4778687357902527
6.452180624008179,0.3060069680213928,-0.38858938217163086,0.34647589921951294,-0.03178340196609497,0.0065036313608288765,-0.47785118222236633
6.4722230434417725,0.30565211176872253,-0.38856270909309387,0.3471072316169739,-0.03174499422311783,0.006151129491627216,-0.47776228189468384
6.492286205291748,0.30557501316070557,-0.3885778784751892,0.3469245433807373,-0.03184831887483597,0.006180447526276112,-0.47773218154907227
6.512419939041138,0.3056061863899231,-0.3885917067527771,0.34690365195274353,-0.03189707547426224,0.006196864880621433,-0.4777343273162842
6.532502174377441,0.30560314655303955,-0.38859158754348755,0.34689101576805115,-0.03185424953699112,0.006178614683449268,-0.477730393409729
6.5525712966918945,0.3056136965751648,-0.38858044147491455,0.34689071774482727,-0.03185907006263733,0.006216381676495075,-0.47773414850234985
6.572643518447876,0.30559468269348145,-0.3885703682899475,0.3468494117259979,-0.03181725740432739,0.006062985397875309,-0.4777228534221649
6.592704772949219,0.30568408966064453,-0.3885132074356079,0.34684351086616516,-0.031689584255218506,0.006062780506908894,-0.4776539206504822
6.61279821395874,0.30619311332702637,-0.3885859251022339,0.34697556495666504,-0.03173255920410156,0.006442607380449772,-0.4777204692363739
6.632863521575928,0.30640071630477905,-0.3889042139053345,0.34669774770736694,-0.03170735388994217,0.006344233639538288,-0.4777720868587494
6.653017282485962,0.30649182200431824,-0.3892088830471039,0.3463505804538727,-0.03181766718626022,0.00645452830940485,-0.47780510783195496
6.673095703125,0.3066222071647644,-0.3892625570297241,0.3463822603225708,-0.03165356069803238,0.006339722312986851,-0.47774508595466614
6.693299770355225,0.30643606185913086,-0.38934868574142456,0.34649041295051575,-0.03180582821369171,0.006172251887619495,-0.4778097867965698
6.713382959365845,0.3064665198326111,-0.3893201947212219,0.34650135040283203,-0.03170841932296753,0.006175377406179905,-0.47774645686149597
6.733485221862793,0.30727601051330566,-0.38969504833221436,0.34592705965042114,-0.03157524764537811,0.006119844503700733,-0.4778389036655426
6.753544807434082,0.3091874122619629,-0.38990694284439087,0.3461988568305969,-0.03117239475250244,0.0069570401683449745,-0.4779399633407593
6.773608207702637,0.3090686798095703,-0.3899814188480377,0.3462933897972107,-0.031113602221012115,0.007301823236048222,-0.4779447615146637
6.793819189071655,0.30899208784103394,-0.39001011848449707,0.3463471233844757,-0.03106040507555008,0.006942887790501118,-0.47791171073913574
6.8139142990112305,0.30901020765304565,-0.3900536298751831,0.3463722765445709,-0.031226180493831635,0.00741452444344759,-0.47802576422691345
6.833985805511475,0.3090519309043884,-0.39000773429870605,0.34640634059906006,-0.031103402376174927,0.007294186390936375,-0.4779570996761322
6.854068994522095,0.30896446108818054,-0.3900439739227295,0.3463902473449707,-0.031245119869709015,0.0073191942647099495,-0.47801673412323
6.874109983444214,0.30883288383483887,-0.39005011320114136,0.3463178873062134,-0.031240232288837433,0.006977164186537266,-0.47798022627830505
6.894198179244995,0.3089151084423065,-0.39000391960144043,0.3463198244571686,-0.031105495989322662,0.006949336268007755,-0.47791624069213867
6.91425633430481,0.3089544177055359,-0.3900318741798401,0.34627974033355713,-0.031150206923484802,0.007089228369295597,-0.4779180586338043
6.934330463409424,0.30906233191490173,-0.3901721239089966,0.3458212912082672,-0.031362384557724,0.0072059789672493935,-0.4780844449996948
6.954499006271362,0.3091508150100708,-0.39014875888824463,0.3457617163658142,-0.03131069988012314,0.0071492912247776985,-0.47808992862701416
6.974589109420776,0.309237539768219,-0.3900875747203827,0.3458685278892517,-0.03116094321012497,0.007138335146009922,-0.478021502494812
6.994703531265259,0.3091939687728882,-0.3900900185108185,0.3459338843822479,-0.031245499849319458,0.007129632867872715,-0.47801998257637024
7.014771461486816,0.3091929852962494,-0.3900877833366394,0.34591567516326904,-0.031202100217342377,0.00711172167211771,-0.47801363468170166
7.035037279129028,0.3092079162597656,-0.3900911808013916,0.3459373116493225,-0.03121287375688553,0.007169716991484165,-0.47801855206489563
7.055125951766968,0.3090854287147522,-0.3900911211967468,0.34592247009277344,-0.03120669722557068,0.007026256062090397,-0.4779994785785675
7.075162887573242,0.3085702061653137,-0.390015184879303,0.3457338809967041,-0.03136803209781647,0.007140406407415867,-0.4780265688896179
7.095312833786011,0.308455228805542,-0.3899883031845093,0.34574729204177856,-0.031406983733177185,0.007056661881506443,-0.47801753878593445
7.115302562713623,0.3068384826183319,-0.3899621069431305,0.3450471758842468,-0.031952954828739166,0.0061133550480008125,-0.4780113399028778
7.135388135910034,0.3069615960121155,-0.38986438512802124,0.3448159098625183,-0.031922273337841034,0.006361064501106739,-0.4780244529247284
7.1554131507873535,0.3064376711845398,-0.389909565448761,0.344399094581604,-0.03209522366523743,0.005505838431417942,-0.47793638706207275
7.175506353378296,0.3064122200012207,-0.39031627774238586,0.34404653310775757,-0.03230167180299759,0.005367406643927097,-0.4780416786670685
7.195541858673096,0.3063011169433594,-0.3903921842575073,0.3442879319190979,-0.03234371542930603,0.0055416421964764595,-0.47806522250175476
7.21562933921814,0.3063373863697052,-0.390377938747406,0.3443017601966858,-0.03236524760723114,0.005775720812380314,-0.47808998823165894
7.235718011856079,0.3063717484474182,-0.3903753161430359,0.34443366527557373,-0.03230536729097366,0.005861726589500904,-0.4780932664871216
7.255908012390137,0.30663982033729553,-0.39033472537994385,0.34459903836250305,-0.032161645591259,0.006380976177752018,-0.4780856966972351
7.275821208953857,0.30647993087768555,-0.3902481198310852,0.3448924720287323,-0.03208927810192108,0.006475155241787434,-0.47807472944259644
7.295925140380859,0.306443452835083,-0.39027076959609985,0.3448452353477478,-0.03209253400564194,0.006433279253542423,-0.47807034850120544
7.3160154819488525,0.3065776824951172,-0.3903100788593292,0.34486067295074463,-0.03202265501022339,0.0064844125881791115,-0.4780770540237427
7.33608865737915,0.30703383684158325,-0.3903035521507263,0.34498947858810425,-0.03191501647233963,0.006716986186802387,-0.47807493805885315
7.356143951416016,0.30639445781707764,-0.3903203010559082,0.34486836194992065,-0.032113753259181976,0.006210454739630222,-0.4780524671077728
7.376256942749023,0.30633193254470825,-0.39030730724334717,0.3448377251625061,-0.032157473266124725,0.00622264388948679,-0.47804751992225647
7.396307468414307,0.30704522132873535,-0.3903094232082367,0.3450084924697876,-0.03190623223781586,0.006813411600887775,-0.47807595133781433
7.4163901805877686,0.30642199516296387,-0.3902973532676697,0.34482964873313904,-0.03212348371744156,0.0064532095566391945,-0.47807085514068604
7.436438322067261,0.3063318133354187,-0.39030879735946655,0.34487184882164,-0.03220045566558838,0.006248545832931995,-0.47805413603782654
7.456538438796997,0.3063293993473053,-0.39031562209129333,0.3448891341686249,-0.03222482651472092,0.006307532079517841,-0.47805753350257874
7.47659969329834,0.3069124221801758,-0.39032137393951416,0.34496623277664185,-0.03192438930273056,0.006449178792536259,-0.47804224491119385
7.496670484542847,0.3063533902168274,-0.3903074264526367,0.3448342978954315,-0.032150737941265106,0.00622058380395174,-0.47804945707321167
7.516735315322876,0.3063310384750366,-0.390297532081604,0.34480440616607666,-0.03211478888988495,0.00620411429554224,-0.4780380427837372
7.536929368972778,0.3069230914115906,-0.3903166651725769,0.34498918056488037,-0.03197913616895676,0.006511134095489979,-0.47805213928222656
7.556974649429321,0.30706197023391724,-0.39038538932800293,0.3450400233268738,-0.031900666654109955,0.006538462825119495,-0.478061705827713
7.577033042907715,0.30705320835113525,-0.39039912819862366,0.3450618386268616,-0.0319318026304245,0.0065142447128891945,-0.47806504368782043
7.59728217124939,0.30704715847969055,-0.39040642976760864,0.3450689911842346,-0.03195219486951828,0.00656235683709383,-0.47806698083877563
7.6174256801605225,0.3070566654205322,-0.39041274785995483,0.34511125087738037,-0.03200364112854004,0.00663337204605341,-0.4780772626399994
7.63749098777771,0.3068666458129883,-0.3903801441192627,0.34504130482673645,-0.032002419233322144,0.006300830282270908,-0.4780367314815521
7.657530784606934,0.3069406747817993,-0.3904123604297638,0.34505680203437805,-0.03199378401041031,0.006306656636297703,-0.47804147005081177
7.67770528793335,0.3069363236427307,-0.39041757583618164,0.3450707495212555,-0.032035984098911285,0.006319352425634861,-0.4780464172363281
7.697856664657593,0.30694258213043213,-0.39041897654533386,0.3450610637664795,-0.031997717916965485,0.006310676224529743,-0.4780425727367401
7.717933893203735,0.3069412410259247,-0.3904111981391907,0.34506672620773315,-0.03203200548887253,0.006313853897154331,-0.4780471622943878
7.737999439239502,0.30694031715393066,-0.39040857553482056,0.34504109621047974,-0.031994111835956573,0.0062960246577858925,-0.47804123163223267
7.758072376251221,0.3069556951522827,-0.39039939641952515,0.3450193703174591,-0.03194284439086914,0.006276418454945087,-0.4780363142490387
7.778180837631226,0.30692872405052185,-0.3904249966144562,0.3450767993927002,-0.032048746943473816,0.006327890790998936,-0.47804707288742065
7.798323631286621,0.3069424331188202,-0.3904165029525757,0.3450561761856079,-0.0319937989115715,0.00630586314946413,-0.47804194688796997
7.818329334259033,0.30687040090560913,-0.3904561996459961,0.3450275957584381,-0.03209954500198364,0.006365382112562656,-0.47810935974121094
7.838387966156006,0.3069450557231903,-0.3904276490211487,0.3450678586959839,-0.03199075907468796,0.006319367326796055,-0.4780522882938385
7.858506917953491,0.30687564611434937,-0.390453964471817,0.34500759840011597,-0.03205142915248871,0.006346260197460651,-0.47810494899749756
7.878579378128052,0.30687737464904785,-0.3904615640640259,0.34503453969955444,-0.03209453076124191,0.0063768113031983376,-0.478120356798172
7.898663759231567,0.3068845570087433,-0.3904595673084259,0.3450206220149994,-0.032051317393779755,0.006363497115671635,-0.47811633348464966
7.918704509735107,0.3068770170211792,-0.3904547393321991,0.34502947330474854,-0.032095424830913544,0.006369852460920811,-0.4781217575073242
7.93879771232605,0.3068731725215912,-0.3904672861099243,0.34503957629203796,-0.03209817409515381,0.006382890976965427,-0.478120356798172
7.958954811096191,0.3068752586841583,-0.39046522974967957,0.345039963722229,-0.03209495544433594,0.006378949619829655,-0.4781207740306854
7.978987216949463,0.30679982900619507,-0.39050135016441345,0.3450968265533447,-0.03216976672410965,0.006185472942888737,-0.47810715436935425
7.999023199081421,0.3067452311515808,-0.3905009925365448,0.3450715243816376,-0.03219939023256302,0.006156419403851032,-0.47810178995132446
8.019116401672363,0.3067575693130493,-0.39048436284065247,0.34503790736198425,-0.03214874863624573,0.006128349341452122,-0.4780963957309723
8.039150476455688,0.3076528012752533,-0.39055919647216797,0.3452686369419098,-0.031883835792541504,0.006537021137773991,-0.4781327247619629
8.059206485748291,0.3090553283691406,-0.3907150626182556,0.345612108707428,-0.03145652264356613,0.006740064360201359,-0.47815075516700745
8.079854965209961,0.3088131248950958,-0.39083966612815857,0.3456916809082031,-0.03166109323501587,0.006913655437529087,-0.47821107506752014
8.099939107894897,0.3087824285030365,-0.3908466100692749,0.34569746255874634,-0.03165671229362488,0.006987013854086399,-0.4782172739505768
8.120018482208252,0.3088792562484741,-0.39082926511764526,0.34570586681365967,-0.0315760001540184,0.007155456580221653,-0.4782354235649109
8.140108585357666,0.3087713122367859,-0.39083391427993774,0.34574562311172485,-0.03165583312511444,0.0071722352877259254,-0.4782350957393646
8.160284519195557,0.3080953359603882,-0.3906009793281555,0.345501184463501,-0.03182859718799591,0.006651413626968861,-0.4782193899154663
8.180380582809448,0.30798861384391785,-0.39053624868392944,0.34540143609046936,-0.03181940317153931,0.0065064625814557076,-0.47821712493896484
8.200442790985107,0.3078184425830841,-0.3894103169441223,0.3468392491340637,-0.031570591032505035,0.007268906570971012,-0.4781658351421356
8.220519304275513,0.30790388584136963,-0.3883286714553833,0.3479487895965576,-0.031211361289024353,0.007582695223391056,-0.4781700372695923
8.240561723709106,0.3072381913661957,-0.3873368501663208,0.34797459840774536,-0.03131500631570816,0.007622894831001759,-0.47800326347351074
8.260623455047607,0.3070787191390991,-0.3871460556983948,0.3479372262954712,-0.031345680356025696,0.007562731392681599,-0.47798028588294983
8.280718088150024,0.30612415075302124,-0.38714706897735596,0.34709882736206055,-0.03177705407142639,0.007373892702162266,-0.4780009388923645
8.300808906555176,0.30609333515167236,-0.38716477155685425,0.3469081223011017,-0.03180306404829025,0.007038560695946217,-0.4779837429523468
8.32086992263794,0.30612272024154663,-0.3880383372306824,0.3457767963409424,-0.03224647045135498,0.0064039165154099464,-0.47810572385787964
8.340956926345825,0.30627700686454773,-0.3890368938446045,0.3450230062007904,-0.03233066201210022,0.005994946695864201,-0.4781522750854492
8.361055612564087,0.3061876893043518,-0.3891729712486267,0.34493860602378845,-0.03240831196308136,0.006155588664114475,-0.4782358407974243
8.381114959716797,0.30614984035491943,-0.38922572135925293,0.3449445962905884,-0.032449595630168915,0.00623637530952692,-0.4782472848892212
8.40119457244873,0.306236207485199,-0.38955557346343994,0.34465229511260986,-0.03250173479318619,0.006085899658501148,-0.4782751500606537
8.421489715576172,0.30629804730415344,-0.3899127244949341,0.34450381994247437,-0.032555997371673584,0.006199494935572147,-0.47834908962249756
8.44157338142395,0.30621641874313354,-0.38996195793151855,0.34448617696762085,-0.032533079385757446,0.005903386510908604,-0.47831857204437256
8.461641311645508,0.3062437176704407,-0.38987332582473755,0.3444519340991974,-0.03247334808111191,0.005812757648527622,-0.47822248935699463
8.481709241867065,0.3062411844730377,-0.3899019956588745,0.3444463610649109,-0.03246802091598511,0.00582746509462595,-0.4782337546348572
8.501758575439453,0.30620601773262024,-0.3897804617881775,0.3447979688644409,-0.03240039944648743,0.0060298750177025795,-0.47817134857177734
8.521855115890503,0.30607688426971436,-0.3898284137248993,0.3449108302593231,-0.03249981254339218,0.006112390197813511,-0.4782295823097229
8.541924476623535,0.30614593625068665,-0.39033663272857666,0.344312846660614,-0.032570481300354004,0.005716280080378056,-0.47819507122039795
8.56205153465271,0.3061627149581909,-0.3903394043445587,0.34467434883117676,-0.03234660625457764,0.006063931621611118,-0.4781745374202728
8.582056760787964,0.30682504177093506,-0.39048680663108826,0.34502846002578735,-0.032212741672992706,0.0065215276554226875,-0.4782123267650604
8.602185249328613,0.3061145544052124,-0.39052850008010864,0.34483733773231506,-0.03244242072105408,0.005981047637760639,-0.47823992371559143
8.622293949127197,0.3061656951904297,-0.3904590904712677,0.3447975814342499,-0.0323692187666893,0.006154441274702549,-0.4781821668148041
8.642354726791382,0.3065585494041443,-0.39047110080718994,0.3449569642543793,-0.03227488696575165,0.006132130511105061,-0.47816842794418335
8.662415742874146,0.3067708909511566,-0.3905070722103119,0.34500929713249207,-0.03223726153373718,0.006487780250608921,-0.47820746898651123
8.682579517364502,0.30681824684143066,-0.3905133605003357,0.34503740072250366,-0.032190464437007904,0.006458465941250324,-0.4782017469406128
8.70273733139038,0.306809663772583,-0.39051353931427,0.34502822160720825,-0.03219476342201233,0.0064537981525063515,-0.4782004952430725
8.722797393798828,0.3068065643310547,-0.39051589369773865,0.34502744674682617,-0.03219664841890335,0.00645365659147501,-0.47819972038269043
8.742868900299072,0.30681413412094116,-0.3905119299888611,0.34500935673713684,-0.032153621315956116,0.006438520736992359,-0.4781951308250427
8.762901782989502,0.30680984258651733,-0.3905109763145447,0.34502196311950684,-0.03219512104988098,0.006451164372265339,-0.47819986939430237
8.782984972000122,0.3067532181739807,-0.39053845405578613,0.34506481885910034,-0.032233186066150665,0.006283433176577091,-0.4781849980354309
8.803052186965942,0.3068036735057831,-0.3905121982097626,0.34502723813056946,-0.032201044261455536,0.006452583707869053,-0.47820019721984863
8.82310175895691,0.3067402243614197,-0.3905409276485443,0.34505268931388855,-0.03220618516206741,0.006191291846334934,-0.47817784547805786
8.843134880065918,0.306723415851593,-0.3905399739742279,0.34503960609436035,-0.03221989423036575,0.006188289262354374,-0.4781756103038788
8.863230466842651,0.3066961169242859,-0.39052531123161316,0.34500840306282043,-0.03224194049835205,0.006190010346472263,-0.47817519307136536
8.883305549621582,0.306804358959198,-0.39050471782684326,0.3450097143650055,-0.03219980746507645,0.006446869112551212,-0.4781981110572815
8.903364181518555,0.3075218200683594,-0.3905838131904602,0.34523817896842957,-0.03198039531707764,0.006781869567930698,-0.47821661829948425
8.923478364944458,0.3074672222137451,-0.39063188433647156,0.34529179334640503,-0.03203099966049194,0.006533478386700153,-0.4782055914402008
8.943524837493896,0.3074883222579956,-0.39059770107269287,0.34520554542541504,-0.03198547661304474,0.006695986725389957,-0.4782140552997589
8.96358609199524,0.3075423836708069,-0.39060458540916443,0.34524399042129517,-0.0319596603512764,0.006738283671438694,-0.47821885347366333
8.983652591705322,0.30749431252479553,-0.39060813188552856,0.34522396326065063,-0.03199831396341324,0.006753397174179554,-0.4782165586948395
9.003700494766235,0.30746543407440186,-0.3906341791152954,0.34526944160461426,-0.03198835998773575,0.0065133096650242805,-0.4781982898712158
9.023785829544067,0.3074169158935547,-0.39063775539398193,0.34524768590927124,-0.03202931582927704,0.006531604565680027,-0.4781957268714905
9.043868064880371,0.30740809440612793,-0.39062902331352234,0.3452228605747223,-0.0320151224732399,0.006476906128227711,-0.47818952798843384
9.063936710357666,0.30753278732299805,-0.3906038999557495,0.3452388644218445,-0.03198107331991196,0.006777358241379261,-0.4782193601131439
9.084012985229492,0.3074814975261688,-0.39063987135887146,0.3452949523925781,-0.031998611986637115,0.006573093123733997,-0.47820383310317993
9.104082822799683,0.30742818117141724,-0.39063721895217896,0.3452593982219696,-0.03202299773693085,0.006536622531712055,-0.4781978726387024
9.124147653579712,0.3074255585670471,-0.3906228244304657,0.34523916244506836,-0.03202418237924576,0.006524541415274143,-0.47819632291793823
9.144202470779419,0.30742502212524414,-0.39063161611557007,0.34527087211608887,-0.03208315372467041,0.006594904698431492,-0.4782044291496277
9.164407014846802,0.3074139654636383,-0.3906291723251343,0.3452342748641968,-0.032014697790145874,0.006481402553617954,-0.47819215059280396
9.184504747390747,0.3074153661727905,-0.3906252384185791,0.3452317416667938,-0.03202979266643524,0.006521427072584629,-0.47819459438323975
9.204567193984985,0.307420015335083,-0.39063137769699097,0.3452424108982086,-0.03203095495700836,0.006533884443342686,-0.4781951308250427
9.224637269973755,0.3074185252189636,-0.39063146710395813,0.34526515007019043,-0.032073281705379486,0.006549966521561146,-0.4782019257545471
9.244717359542847,0.30741310119628906,-0.3906278610229492,0.3452557623386383,-0.032074905931949615,0.006542467512190342,-0.4782012701034546
9.264820337295532,0.3074232339859009,-0.39062976837158203,0.34524741768836975,-0.03203188627958298,0.0065352777019143105,-0.47819674015045166
9.284913063049316,0.3074483275413513,-0.3907300531864166,0.3449503183364868,-0.03218246251344681,0.006430395878851414,-0.478259801864624
9.30514669418335,0.30753928422927856,-0.39074546098709106,0.344833105802536,-0.032174430787563324,0.006402173079550266,-0.47826895117759705
9.32510256767273,0.3075510263442993,-0.3904705047607422,0.345036119222641,-0.032035090029239655,0.006476023234426975,-0.47824230790138245
9.345210313796997,0.30740299820899963,-0.38950011134147644,0.34683188796043396,-0.031609296798706055,0.007217676378786564,-0.47826018929481506
9.365329504013062,0.30731523036956787,-0.38922208547592163,0.3465936779975891,-0.03161710500717163,0.007178020663559437,-0.4781605005264282
9.385364294052124,0.307137131690979,-0.38697803020477295,0.34936821460723877,-0.03091326355934143,0.00851896870881319,-0.4780488908290863
9.405437231063843,0.30708134174346924,-0.3852846920490265,0.3504316210746765,-0.030685819685459137,0.009062510915100574,-0.4779199957847595
9.425581693649292,0.3066115081310272,-0.3846443295478821,0.3498026132583618,-0.03096795827150345,0.008709547109901905,-0.47777479887008667
9.445676803588867,0.3066759407520294,-0.38478320837020874,0.34933462738990784,-0.031015269458293915,0.008457452990114689,-0.47777506709098816
9.465693712234497,0.30691853165626526,-0.38592275977134705,0.3481586277484894,-0.031304024159908295,0.008231204934418201,-0.47793442010879517
9.485772371292114,0.3074641823768616,-0.3874019980430603,0.3453180193901062,-0.03176654130220413,0.0070869820192456245,-0.47817832231521606
9.505906820297241,0.3082124888896942,-0.38812345266342163,0.3447210490703583,-0.031839802861213684,0.006639488972723484,-0.47832801938056946
9.525989532470703,0.30823734402656555,-0.38840097188949585,0.3448410630226135,-0.03185345232486725,0.006688752211630344,-0.4783207178115845
9.546093702316284,0.30756035447120667,-0.3890785574913025,0.3440616726875305,-0.03216269612312317,0.0060208635404706,-0.47835347056388855
9.566195964813232,0.3072974681854248,-0.3890717029571533,0.344637006521225,-0.032152630388736725,0.006254107691347599,-0.4783053398132324
9.586211204528809,0.30805256962776184,-0.38940829038619995,0.34449848532676697,-0.032020412385463715,0.006679323501884937,-0.4783562123775482
9.606348037719727,0.30815961956977844,-0.38973307609558105,0.3441753089427948,-0.03209923207759857,0.00659030769020319,-0.47838687896728516
9.626388549804688,0.3080860376358032,-0.38994044065475464,0.3447820544242859,-0.032010652124881744,0.006646123714745045,-0.4783848822116852
9.646459579467773,0.3076997697353363,-0.3899903893470764,0.344957560300827,-0.03193976730108261,0.006671504117548466,-0.4782923460006714
9.666619062423706,0.3068980574607849,-0.38964781165122986,0.34531527757644653,-0.0320475697517395,0.006344527937471867,-0.47816622257232666
9.686784744262695,0.3068358302116394,-0.3898279070854187,0.3453141152858734,-0.03214848041534424,0.0064254263415932655,-0.4781971275806427
9.706788778305054,0.30679723620414734,-0.3899235427379608,0.34521839022636414,-0.03215589374303818,0.006355703808367252,-0.4781889021396637
9.726853370666504,0.3068102300167084,-0.3899184465408325,0.34510546922683716,-0.03217724710702896,0.0063143642619252205,-0.4781748354434967
9.746915817260742,0.30697542428970337,-0.39010506868362427,0.34469476342201233,-0.03216644376516342,0.006339200772345066,-0.4782000482082367
9.767011642456055,0.3070140480995178,-0.3904266357421875,0.3444597125053406,-0.0322858989238739,0.006272514350712299,-0.4782477617263794
9.787126064300537,0.30685943365097046,-0.3905852735042572,0.34466248750686646,-0.0323096364736557,0.006091964431107044,-0.4782436490058899
9.807199239730835,0.3068298399448395,-0.3906134068965912,0.34451115131378174,-0.03229784965515137,0.006005295552313328,-0.4782349169254303
9.82722544670105,0.3068467974662781,-0.39060789346694946,0.34452247619628906,-0.032336145639419556,0.006021467037498951,-0.4782423675060272
9.847286701202393,0.3068696856498718,-0.3904898762702942,0.3448272943496704,-0.032250918447971344,0.006375380791723728,-0.4782086908817291
9.867378950119019,0.3068521022796631,-0.39049583673477173,0.3449842631816864,-0.03215596079826355,0.006473996676504612,-0.47819945216178894
9.887449741363525,0.3067449927330017,-0.39053404331207275,0.3450426459312439,-0.032207973301410675,0.00618667621165514,-0.478179007768631
9.907518863677979,0.30668774247169495,-0.3905230164527893,0.34499624371528625,-0.032248370349407196,0.006187860853970051,-0.4781731367111206
9.927754402160645,0.3067002296447754,-0.3905250132083893,0.3449912965297699,-0.03220480680465698,0.006182999350130558,-0.4781690835952759
9.94789171218872,0.3066990375518799,-0.3905171751976013,0.3449970781803131,-0.03223908692598343,0.006186251528561115,-0.47817373275756836
9.967927932739258,0.30668944120407104,-0.3905169367790222,0.3449818193912506,-0.03222860395908356,0.006138213910162449,-0.4781690239906311
9.988119125366211,0.3068091571331024,-0.3905021846294403,0.3450111746788025,-0.032202497124671936,0.006450884975492954,-0.4781995415687561
10.00814175605774,0.306807279586792,-0.39050549268722534,0.345010370016098,-0.032196059823036194,0.0064432332292199135,-0.478199303150177
10.02821660041809,0.3068119287490845,-0.3905085027217865,0.3450191020965576,-0.03219498693943024,0.006450542248785496,-0.4782000184059143
10.048355102539062,0.3067646324634552,-0.39050984382629395,0.34499454498291016,-0.03221780061721802,0.006422747857868671,-0.4781949818134308
10.068379878997803,0.30668962001800537,-0.3905312120914459,0.3450280427932739,-0.03227446973323822,0.006170724518597126,-0.4781781733036041
10.088426113128662,0.30669498443603516,-0.39053577184677124,0.34502363204956055,-0.032247498631477356,0.006207701750099659,-0.4781745672225952
10.108511924743652,0.30668938159942627,-0.39052096009254456,0.3449953496456146,-0.032230012118816376,0.006142579950392246,-0.47817087173461914
10.128577470779419,0.306811660528183,-0.3904896378517151,0.3449907600879669,-0.03219123184680939,0.006432444788515568,-0.47819754481315613
10.148664236068726,0.3068138659000397,-0.39049670100212097,0.3450005054473877,-0.03217592090368271,0.00639417115598917,-0.4781973659992218
10.168715715408325,0.3068239986896515,-0.3905077576637268,0.34500908851623535,-0.03216274827718735,0.006481450982391834,-0.4781976342201233
10.188812494277954,0.3067641854286194,-0.39052343368530273,0.34500110149383545,-0.03212133049964905,0.006191336549818516,-0.478168785572052
10.208872556686401,0.30675289034843445,-0.3905092775821686,0.34500789642333984,-0.03228359669446945,0.006479714997112751,-0.4782015085220337
10.228962659835815,0.3067452311515808,-0.39054763317108154,0.345091849565506,-0.032265208661556244,0.006264501251280308,-0.4781881868839264
10.249002695083618,0.3067963719367981,-0.39051228761672974,0.3450124263763428,-0.03219990432262421,0.0064477743580937386,-0.4781968295574188
10.2691068649292,0.30681395530700684,-0.390505850315094,0.34499576687812805,-0.03215014189481735,0.006430202163755894,-0.4781932234764099
10.28916597366333,0.3068295121192932,-0.3905121386051178,0.34502124786376953,-0.032160572707653046,0.006489855237305164,-0.4781986474990845
10.309215784072876,0.3067326843738556,-0.3905393183231354,0.3450642228126526,-0.03225193917751312,0.006202434189617634,-0.478183388710022
10.329280853271484,0.3066858649253845,-0.3905329406261444,0.3450067937374115,-0.032247789204120636,0.006196943111717701,-0.4781721830368042
10.349370241165161,0.30674922466278076,-0.39051321148872375,0.3449861705303192,-0.032228022813797,0.006422893144190311,-0.4781915247440338
10.369452714920044,0.30677157640457153,-0.3905040919780731,0.34497493505477905,-0.03217385709285736,0.006403633393347263,-0.4781898856163025
10.38954758644104,0.3068114221096039,-0.39050793647766113,0.34501802921295166,-0.03219515085220337,0.0064501212909817696,-0.47819966077804565
10.409604549407959,0.3068107068538666,-0.3905097246170044,0.34504443407058716,-0.03223703056573868,0.006467790342867374,-0.4782070517539978
10.429741144180298,0.3068183660507202,-0.39050745964050293,0.34500566124916077,-0.032151959836483,0.006437231786549091,-0.4781956672668457
10.449757099151611,0.30681556463241577,-0.3905184864997864,0.3450172543525696,-0.032167501747608185,0.00648790318518877,-0.4781966209411621
10.46980333328247,0.30680909752845764,-0.3905094861984253,0.3450160324573517,-0.032191142439842224,0.006445539183914661,-0.47819870710372925
10.489858627319336,0.3067036271095276,-0.39052504301071167,0.34500831365585327,-0.032236844301223755,0.00619406346231699,-0.4781751036643982
10.509940385818481,0.30668994784355164,-0.390533447265625,0.3450116813182831,-0.03224995732307434,0.006201957352459431,-0.47817346453666687
10.530054807662964,0.306695818901062,-0.3905126750469208,0.344989538192749,-0.0322435200214386,0.006181885488331318,-0.47817397117614746
10.55013632774353,0.3068069517612457,-0.39050692319869995,0.3450172543525696,-0.03220318257808685,0.006453503854572773,-0.4781995415687561
10.570186376571655,0.3067554235458374,-0.3904980421066284,0.34496527910232544,-0.032204486429691315,0.006361369974911213,-0.47819048166275024
10.590279340744019,0.30673083662986755,-0.3902711868286133,0.3452393114566803,-0.032169461250305176,0.006364074535667896,-0.4781489074230194
10.61035418510437,0.3066759407520294,-0.3902619481086731,0.34523797035217285,-0.03217294067144394,0.006307744421064854,-0.4781413674354553
10.630426406860352,0.3066632151603699,-0.39025139808654785,0.34521788358688354,-0.03216300159692764,0.006249480880796909,-0.47813767194747925
10.650466442108154,0.3066682815551758,-0.3901905119419098,0.3453102707862854,-0.032153092324733734,0.0063028642907738686,-0.47814133763313293
10.67063045501709,0.30675703287124634,-0.3899482488632202,0.3457486033439636,-0.0320027694106102,0.006779358722269535,-0.47817060351371765
10.690721035003662,0.30660736560821533,-0.3889932930469513,0.347454696893692,-0.03154754638671875,0.007469509728252888,-0.47817137837409973
10.710781335830688,0.3065876364707947,-0.38870084285736084,0.3468044102191925,-0.03179175406694412,0.007081896997988224,-0.47809943556785583
10.730945587158203,0.3066791296005249,-0.3885729908943176,0.3464025557041168,-0.03179728984832764,0.006921091116964817,-0.47805193066596985
10.751238346099854,0.30680257081985474,-0.3888862133026123,0.34621766209602356,-0.03191903978586197,0.006875821389257908,-0.4781144857406616
10.771340370178223,0.30676978826522827,-0.38890790939331055,0.3459855914115906,-0.0319034680724144,0.006727089174091816,-0.478088915348053
10.79141902923584,0.3069579601287842,-0.3891138732433319,0.3456036448478699,-0.03202773630619049,0.006887824274599552,-0.47814512252807617
10.8114755153656,0.3070262372493744,-0.3895348012447357,0.34498023986816406,-0.03215473145246506,0.006568399257957935,-0.4782274067401886
10.831519842147827,0.30710551142692566,-0.38966482877731323,0.3452131450176239,-0.03201743960380554,0.0063436562195420265,-0.47816818952560425
10.85167384147644,0.3070349395275116,-0.38952863216400146,0.34537452459335327,-0.03194118291139603,0.0066475095227360725,-0.4781162738800049
10.871702194213867,0.30703121423721313,-0.38972610235214233,0.3451032340526581,-0.03213384747505188,0.006366782821714878,-0.47823530435562134
10.891768217086792,0.3071136474609375,-0.38984817266464233,0.3447207808494568,-0.03212825953960419,0.006395035423338413,-0.47820091247558594
10.911817789077759,0.3069915771484375,-0.38988059759140015,0.3451148271560669,-0.03209572285413742,0.006568790413439274,-0.4782148599624634
10.93192458152771,0.3069639801979065,-0.3898698687553406,0.3451687693595886,-0.031960733234882355,0.006228388287127018,-0.4781176447868347
10.952015399932861,0.30698928236961365,-0.3899756073951721,0.34473955631256104,-0.032111331820487976,0.00609681848436594,-0.4781772792339325
10.972244501113892,0.30685898661613464,-0.389895498752594,0.34508824348449707,-0.03215304762125015,0.006297324784100056,-0.4781777560710907
10.992231845855713,0.30686306953430176,-0.39014071226119995,0.34472742676734924,-0.032273389399051666,0.006161150522530079,-0.4781838655471802
11.012267827987671,0.3071095943450928,-0.3904670476913452,0.344555139541626,-0.0322149395942688,0.006305803544819355,-0.47818559408187866
11.03235411643982,0.3070041537284851,-0.390566349029541,0.34453868865966797,-0.03227963298559189,0.006283544935286045,-0.47826087474823
11.052428007125854,0.30702120065689087,-0.39064860343933105,0.3445904850959778,-0.03225432336330414,0.00603118259459734,-0.4782572090625763
11.07248568534851,0.3067801296710968,-0.3905088007450104,0.34499120712280273,-0.03227633237838745,0.00619115773588419,-0.47819411754608154
11.092540264129639,0.30669015645980835,-0.39052361249923706,0.3450319170951843,-0.0322457030415535,0.006206453777849674,-0.478176474571228
11.112629413604736,0.30669593811035156,-0.39052173495292664,0.3449910879135132,-0.032200805842876434,0.006179393269121647,-0.47816842794418335
11.132711410522461,0.30680781602859497,-0.3904944658279419,0.3450004756450653,-0.03219524025917053,0.006435048766434193,-0.4781883955001831
11.152814626693726,0.30680781602859497,-0.3905026316642761,0.34502941370010376,-0.03223821520805359,0.006458171643316746,-0.47820591926574707
11.172839164733887,0.3072907328605652,-0.3905484974384308,0.34517449140548706,-0.032064929604530334,0.00648601446300745,-0.4781832993030548
11.193089723587036,0.3068873882293701,-0.3905434012413025,0.3450309932231903,-0.03218081593513489,0.006450352258980274,-0.47820496559143066
11.21316909790039,0.30728405714035034,-0.3905707597732544,0.3452133536338806,-0.03211449831724167,0.006519113667309284,-0.4781892001628876
11.23324728012085,0.3073527216911316,-0.3905777633190155,0.34522873163223267,-0.03203967213630676,0.0065312134101986885,-0.47819116711616516
11.253320932388306,0.30680960416793823,-0.39053910970687866,0.3450530171394348,-0.032241709530353546,0.006472093053162098,-0.47820717096328735
11.273393154144287,0.30673718452453613,-0.39053893089294434,0.345048189163208,-0.03221077471971512,0.006188289262354374,-0.4781787395477295
11.293487787246704,0.3067619800567627,-0.3905014991760254,0.34498268365859985,-0.032216012477874756,0.0064100706949830055,-0.4781948924064636
11.313559293746948,0.30732661485671997,-0.3905535638332367,0.34521347284317017,-0.0320727601647377,0.0064895013347268105,-0.4781893491744995
11.333662748336792,0.3067048192024231,-0.3905312716960907,0.3449878990650177,-0.03222430497407913,0.006133628077805042,-0.47817352414131165
11.353728771209717,0.30676206946372986,-0.3904797434806824,0.3450164496898651,-0.032142676413059235,0.006125369109213352,-0.47810497879981995
11.374225854873657,0.306690514087677,-0.3905130624771118,0.34498536586761475,-0.03224685788154602,0.00617648009210825,-0.47816163301467896
11.394310474395752,0.3067598342895508,-0.3904980421066284,0.34497177600860596,-0.03222416341304779,0.006413743831217289,-0.4781910181045532
11.414372682571411,0.3074049949645996,-0.39053553342819214,0.3451896607875824,-0.03204624354839325,0.006804582662880421,-0.4782121479511261
11.434444189071655,0.3067726492881775,-0.39049696922302246,0.34501898288726807,-0.03211648017168045,0.00606702733784914,-0.47809603810310364
11.45449948310852,0.3067595362663269,-0.390495240688324,0.344989538192749,-0.032266296446323395,0.006427557207643986,-0.47819796204566956
11.47458815574646,0.30666452646255493,-0.3905330300331116,0.3450280725955963,-0.032399922609329224,0.006282222457230091,-0.47820746898651123
11.4946928024292,0.30674874782562256,-0.39051392674446106,0.3450082540512085,-0.03217563033103943,0.00619309488683939,-0.47816553711891174
11.514752626419067,-0.890924334526062,-0.07124867290258408,0.1117553785443306,0.9583320617675781,-0.2721913158893585,0.20394116640090942
11.53479528427124,-1.2386012077331543,0.15915772318840027,-0.04761989414691925,0.9249016642570496,-0.11331954598426819,0.3968302011489868
11.554876565933228,-1.2379237413406372,0.17,-0.03494349122047424,0.9280081391334534,-0.10511509329080582,0.3969641923904419
11.574949264526367,-1.237847089767456,0.17,-0.024144411087036133,0.9307736158370972,-0.10038938373327255,0.39619165658950806
11.595017194747925,-1.2357220649719238,0.17,-0.022241517901420593,0.9309991598129272,-0.09859805554151535,0.39604276418685913
11.615070104598999,-1.2347904443740845,0.17,-0.02151864767074585,0.9310827851295471,-0.09792281687259674,0.39583688974380493
11.63518500328064,-1.2328226566314697,0.17,-0.02035084366798401,0.9313668012619019,-0.09682197868824005,0.395623117685318
11.655271291732788,-1.2311838865280151,0.17,-0.0198708176612854,0.9318206310272217,-0.09606034308671951,0.39556118845939636
11.675350189208984,-1.231218695640564,0.17,-0.019123494625091553,0.9318315982818604,-0.09507786482572556,0.3952547609806061
11.695513486862183,-1.2295725345611572,0.17,-0.016731590032577515,0.9325454831123352,-0.09343276172876358,0.3947407007217407
11.715646982192993,-1.229223608970642,0.17,-0.01579660177230835,0.932326078414917,-0.0926910862326622,0.3946836590766907
11.735728979110718,-1.2291723489761353,0.17,-0.015450149774551392,0.9324106574058533,-0.0921921357512474,0.394514262676239
11.75579309463501,-1.2276540994644165,0.17,-0.014498785138130188,0.9326094388961792,-0.09162795543670654,0.39428961277008057
11.77584958076477,-1.2270456552505493,0.17,-0.013869091868400574,0.9323328137397766,-0.09164749085903168,0.39404958486557007
11.795909643173218,-1.2252713441848755,0.17,-0.013215616345405579,0.9323681592941284,-0.09089412540197372,0.3937423527240753
11.816004514694214,-1.2235814332962036,0.17,-0.013070225715637207,0.9326797723770142,-0.09001785516738892,0.3935733437538147
11.836018562316895,-1.2222739458084106,0.17,-0.012541115283966064,0.9328914880752563,-0.08924152702093124,0.3932287395000458
11.856087446212769,-1.2221800088882446,0.17,-0.01226121187210083,0.9327888488769531,-0.08909866958856583,0.3931144177913666
11.87618088722229,-1.2201210260391235,0.17,-0.010850667953491211,0.9330929517745972,-0.08824610710144043,0.3926987648010254
11.896316051483154,-1.2204734086990356,0.17,-0.010443836450576782,0.9330896139144897,-0.08807460218667984,0.39259809255599976
11.916407346725464,-1.2193280458450317,0.17,-0.010288596153259277,0.9330888986587524,-0.08762012422084808,0.3925696015357971
11.936511993408203,-1.2168381214141846,0.17,-0.009445920586585999,0.9335388541221619,-0.08650079369544983,0.3923306167125702
11.956557512283325,-1.2155932188034058,0.17,-0.009058713912963867,0.9336944222450256,-0.0861828550696373,0.39214837551116943
11.976624250411987,-1.2142479419708252,0.17,-0.008378177881240845,0.9338387250900269,-0.08565610647201538,0.39196717739105225
11.99670958518982,-1.2131670713424683,0.17,-0.00806427001953125,0.9339365363121033,-0.08503127843141556,0.3918241858482361
12.016790866851807,-1.2115250825881958,0.17,-0.007694244384765625,0.9338806867599487,-0.08415345847606659,0.3914338946342468
12.036879301071167,-1.2102240324020386,0.17,-0.006867393851280212,0.9342576265335083,-0.08335348963737488,0.3910682499408722
12.056915521621704,-1.21063232421875,0.17,-0.006268635392189026,0.9338564872741699,-0.08346491307020187,0.3907923996448517
12.077015161514282,-1.2100456953048706,0.17,-0.006460249423980713,0.93375563621521,-0.0834796279668808,0.39070749282836914
12.097084283828735,-1.207628846168518,0.17,-0.00569133460521698,0.9341633319854736,-0.08260463923215866,0.39046403765678406
12.117144107818604,-1.2060872316360474,0.17,-0.0045590996742248535,0.9342929124832153,-0.08190818130970001,0.3901938796043396
12.137189388275146,-1.2044175863265991,0.17,-0.0036362111568450928,0.9346176385879517,-0.0810854360461235,0.3899996876716614
12.157273530960083,-1.204559326171875,0.17,-0.003553062677383423,0.9342700242996216,-0.0814504325389862,0.38998791575431824
12.177368402481079,-1.2025984525680542,0.17,-0.0029726624488830566,0.9343884587287903,-0.08034728467464447,0.38968661427497864
12.197492837905884,-1.2013224363327026,0.17,-0.002168819308280945,0.9345698356628418,-0.07882577180862427,0.3891986012458801
12.217506170272827,-1.2001498937606812,0.17,-0.0019288063049316406,0.9348042011260986,-0.07835711538791656,0.38916048407554626
12.237634420394897,-1.1995611190795898,0.17,-0.001236945390701294,0.9348140358924866,-0.07817186415195465,0.38892149925231934
12.257691383361816,-1.197365403175354,0.17,-0.0006636977195739746,0.9350913763046265,-0.07702066749334335,0.38873666524887085
12.277776956558228,-1.1948601007461548,0.17,-0.00021579861640930176,0.9355124235153198,-0.07623198628425598,0.3886685371398926
12.297837495803833,-1.1942423582077026,0.17,8.746981620788574e-05,0.935454249382019,-0.07621727883815765,0.38845694065093994
12.317959070205688,-1.19296133518219,0.17,0.0011296272277832031,0.9358628988265991,-0.07556802034378052,0.3881514072418213
12.338021755218506,-1.1913021802902222,0.17,0.001997537910938263,0.9356895685195923,-0.074345164000988,0.3877684772014618
12.358076810836792,-1.1903492212295532,0.17,0.0027288421988487244,0.9355177283287048,-0.073943592607975,0.3872980773448944
12.37813925743103,-1.1886839866638184,0.1696377694606781,0.003585241734981537,0.935541570186615,-0.07300145924091339,0.386784166097641
12.398289442062378,-1.1887816190719604,0.16944456100463867,0.003722086548805237,0.9353461861610413,-0.07320365309715271,0.3866947889328003
12.418423414230347,-1.1867045164108276,0.16907015442848206,0.003746896982192993,0.9353775978088379,-0.07255640625953674,0.3865278363227844
12.438452243804932,-1.185365080833435,0.16895002126693726,0.004152625799179077,0.9358677864074707,-0.07175242900848389,0.38641732931137085
12.45856523513794,-1.1841424703598022,0.1687011420726776,0.005342297255992889,0.9362262487411499,-0.0708950012922287,0.3860471248626709
12.478657960891724,-1.1837056875228882,0.16842490434646606,0.005825169384479523,0.9359973669052124,-0.07061269879341125,0.3857875466346741
12.498714923858643,-1.1831837892532349,0.16824054718017578,0.00547163188457489,0.9357106685638428,-0.07055448740720749,0.38577646017074585
12.518803834915161,-1.182015299797058,0.16796401143074036,0.006127148866653442,0.9359827637672424,-0.07003384828567505,0.38546818494796753
12.538863182067871,-1.1799860000610352,0.16745251417160034,0.006397634744644165,0.936009407043457,-0.06979991495609283,0.38523077964782715
12.558966875076294,-1.178359866142273,0.1673526167869568,0.007913529872894287,0.9366839528083801,-0.06842867285013199,0.38472676277160645
12.579085350036621,-1.1781772375106812,0.16706669330596924,0.008570298552513123,0.9364012479782104,-0.06837991625070572,0.38448968529701233
12.59915041923523,-1.1756573915481567,0.1664872169494629,0.00964125245809555,0.9367284774780273,-0.06709235906600952,0.38422393798828125
12.619179964065552,-1.1743205785751343,0.16619199514389038,0.010434061288833618,0.9368606209754944,-0.06616474688053131,0.3839762210845947
12.639448404312134,-1.1736525297164917,0.1659412980079651,0.010484680533409119,0.9365596175193787,-0.06555556505918503,0.3837791383266449
12.659525156021118,-1.173089623451233,0.16590756177902222,0.010718144476413727,0.9366550445556641,-0.06549126654863358,0.38363778591156006
12.679591178894043,-1.1718660593032837,0.16554251313209534,0.011282525956630707,0.9367718696594238,-0.06503187119960785,0.3834279179573059
12.69965386390686,-1.170474886894226,0.1651729941368103,0.012636154890060425,0.9368996620178223,-0.0640420988202095,0.3830914795398712
12.719983339309692,-1.1676965951919556,0.16464290022850037,0.013726465404033661,0.9370983242988586,-0.0632643923163414,0.38282310962677
12.740093469619751,-1.166760802268982,0.16446611285209656,0.013820849359035492,0.9373137950897217,-0.06294327229261398,0.3828321397304535
12.760155439376831,-1.1660575866699219,0.16440463066101074,0.014901503920555115,0.9375761151313782,-0.06211251765489578,0.3826225996017456
12.780259132385254,-1.1638059616088867,0.16391679644584656,0.015083953738212585,0.9375631809234619,-0.06133177876472473,0.38243916630744934
12.800406694412231,-1.1638063192367554,0.1636955440044403,0.015511490404605865,0.9375619888305664,-0.06098444014787674,0.3822609484195709
12.82051134109497,-1.1626476049423218,0.1635604202747345,0.016327962279319763,0.937615156173706,-0.06039576977491379,0.3819705843925476
12.840600728988647,-1.1610139608383179,0.16315698623657227,0.01728888601064682,0.9377323985099792,-0.05963088572025299,0.3817148208618164
12.860686779022217,-1.1590458154678345,0.1627216339111328,0.01732797920703888,0.9376620054244995,-0.05912584811449051,0.3813580274581909
12.880937337875366,-1.1572219133377075,0.16221493482589722,0.018163271248340607,0.9376367330551147,-0.05838237702846527,0.38078346848487854
12.901044845581055,-1.1568193435668945,0.16201689839363098,0.01805054396390915,0.9375931620597839,-0.058335982263088226,0.38079988956451416
12.921095848083496,-1.1543511152267456,0.16168946027755737,0.019168294966220856,0.9378286600112915,-0.05711297690868378,0.38041219115257263
12.941150188446045,-1.1541911363601685,0.16144874691963196,0.019246377050876617,0.937808632850647,-0.056924909353256226,0.3803183138370514
12.961239337921143,-1.1536785364151,0.1612626016139984,0.01979917287826538,0.9378368854522705,-0.05674523115158081,0.3800698518753052
12.981322288513184,-1.1513739824295044,0.16085222363471985,0.021163299679756165,0.9382525682449341,-0.05541710555553436,0.37985289096832275
13.001412391662598,-1.150282382965088,0.16052675247192383,0.021496497094631195,0.9381486773490906,-0.05486886948347092,0.37961697578430176
13.021483421325684,-1.1480908393859863,0.16013023257255554,0.022971101105213165,0.9383983016014099,-0.053633250296115875,0.3791755139827728
13.041560649871826,-1.1459251642227173,0.15977665781974792,0.02358512580394745,0.9389386177062988,-0.05300888419151306,0.37908798456192017
13.061670064926147,-1.1450084447860718,0.15955638885498047,0.02354416251182556,0.9387578368186951,-0.0525335893034935,0.37878745794296265
13.081718683242798,-1.1446893215179443,0.15929806232452393,0.023757867515087128,0.9384133815765381,-0.052524276077747345,0.37825289368629456
13.101755857467651,-1.1432615518569946,0.15884029865264893,0.024068668484687805,0.938541054725647,-0.052288345992565155,0.3779861330986023
13.12185287475586,-1.142875075340271,0.15869447588920593,0.024254105985164642,0.9385824203491211,-0.05202223360538483,0.37789174914360046
13.141951560974121,-1.141710638999939,0.15840783715248108,0.025302082300186157,0.9386649131774902,-0.051503635942935944,0.37769508361816406
13.162019729614258,-1.140067458152771,0.15811356902122498,0.025536514818668365,0.9387904405593872,-0.050685688853263855,0.3774735629558563
13.182092189788818,-1.1378419399261475,0.15770772099494934,0.025934241712093353,0.9388044476509094,-0.05014132708311081,0.3772367835044861
13.202202558517456,-1.1375561952590942,0.15768975019454956,0.02643352746963501,0.9389147758483887,-0.04941610246896744,0.37705162167549133
13.222320318222046,-1.1346319913864136,0.1569804549217224,0.026952028274536133,0.9390538930892944,-0.048836469650268555,0.3768298625946045
13.242340087890625,-1.1339854001998901,0.15685856342315674,0.028921745717525482,0.9394616484642029,-0.047867923974990845,0.3764227330684662
13.262389421463013,-1.1318880319595337,0.15641742944717407,0.029824189841747284,0.9393755197525024,-0.04674423485994339,0.37615835666656494
13.282469034194946,-1.1313585042953491,0.15619277954101562,0.0303042009472847,0.9393590688705444,-0.0463482066988945,0.3759050965309143
13.30253267288208,-1.129004716873169,0.1556185483932495,0.03083738684654236,0.9394936561584473,-0.04553351551294327,0.375509649515152
13.322600603103638,-1.127282738685608,0.1551496982574463,0.031089849770069122,0.9394646883010864,-0.04503024369478226,0.3751015067100525
13.342657089233398,-1.1253198385238647,0.15480291843414307,0.03122825175523758,0.9394024014472961,-0.04434949904680252,0.37488484382629395
13.362743377685547,-1.1256376504898071,0.15472811460494995,0.031657591462135315,0.9394691586494446,-0.04437011480331421,0.3747527599334717
13.382809400558472,-1.1243298053741455,0.15438759326934814,0.03231459856033325,0.9397118091583252,-0.04378703236579895,0.3745118975639343
13.4028959274292,-1.1222506761550903,0.15406012535095215,0.03411261737346649,0.9401360750198364,-0.04244031012058258,0.3742012679576874
13.423031091690063,-1.1203758716583252,0.15354478359222412,0.034774042665958405,0.9399729371070862,-0.041606225073337555,0.3738861083984375
13.443144083023071,-1.1198440790176392,0.1533908247947693,0.03503885865211487,0.9398856163024902,-0.041546598076820374,0.3738170862197876
13.463151931762695,-1.1186074018478394,0.15298104286193848,0.03537778556346893,0.9395043849945068,-0.041048139333724976,0.3735129237174988
13.483210325241089,-1.1162186861038208,0.1526401937007904,0.036290064454078674,0.9399247169494629,-0.04001554846763611,0.37298575043678284
13.50388503074646,-1.1155043840408325,0.15211078524589539,0.03626450151205063,0.9394692778587341,-0.039907075464725494,0.37268126010894775
13.524047136306763,-1.1146605014801025,0.15191486477851868,0.03631776571273804,0.9396088123321533,-0.039741046726703644,0.3725278675556183
13.544124603271484,-1.1117998361587524,0.15148764848709106,0.03768309950828552,0.9402014017105103,-0.03834476321935654,0.372117280960083
13.564171075820923,-1.1106704473495483,0.15116041898727417,0.03897684067487717,0.9403064250946045,-0.037411972880363464,0.3718211054801941
13.58420443534851,-1.1097831726074219,0.15090957283973694,0.03958004713058472,0.9403712749481201,-0.03697670251131058,0.37159138917922974
13.60434341430664,-1.1091609001159668,0.1505742371082306,0.04032306373119354,0.9403138160705566,-0.03623735159635544,0.3714069128036499
13.62438154220581,-1.106908917427063,0.15029370784759521,0.04110726714134216,0.9404244422912598,-0.0352974571287632,0.3711148500442505
13.644423961639404,-1.1054562330245972,0.14993250370025635,0.04109913110733032,0.9403722286224365,-0.03487475961446762,0.3709939122200012
13.664506912231445,-1.1050688028335571,0.14973509311676025,0.04127991199493408,0.9404149055480957,-0.034758277237415314,0.37086278200149536
13.684592962265015,-1.1035407781600952,0.14937418699264526,0.04138413071632385,0.9403778314590454,-0.03429291397333145,0.3706490993499756
13.70466661453247,-1.1025577783584595,0.1490636169910431,0.04126957058906555,0.9400439858436584,-0.03416527435183525,0.37046337127685547
13.724745035171509,-1.1001993417739868,0.1485578715801239,0.042780518531799316,0.9406576156616211,-0.033078208565711975,0.3698381781578064
13.744791269302368,-1.0984644889831543,0.14834830164909363,0.043732091784477234,0.9412026405334473,-0.03195731341838837,0.3696937561035156
13.764898300170898,-1.097291350364685,0.147844135761261,0.04443629831075668,0.940735936164856,-0.031326163560152054,0.3692130446434021
13.784941673278809,-1.0965338945388794,0.14757058024406433,0.04555210471153259,0.9407122135162354,-0.03050222620368004,0.3688391447067261
13.805010318756104,-1.0950909852981567,0.1472461223602295,0.04625886678695679,0.9406372308731079,-0.029702655971050262,0.3684627115726471
13.825080394744873,-1.0933916568756104,0.14698344469070435,0.04641399532556534,0.940973162651062,-0.02916400507092476,0.3684370815753937
13.845158338546753,-1.0920788049697876,0.14672750234603882,0.04739512503147125,0.9411956071853638,-0.02832924574613571,0.3681713938713074
13.865222692489624,-1.090003252029419,0.14608067274093628,0.047706201672554016,0.9409517049789429,-0.027553163468837738,0.3679097294807434
13.885302066802979,-1.0877262353897095,0.14569813013076782,0.048339344561100006,0.941156268119812,-0.026635129004716873,0.3675771951675415
13.905426025390625,-1.0868256092071533,0.14547187089920044,0.048983246088027954,0.9413012266159058,-0.02609200030565262,0.3674355149269104
13.925623416900635,-1.0875498056411743,0.1452530026435852,0.049541786313056946,0.9409304261207581,-0.02578800544142723,0.3669731020927429
13.94562554359436,-1.0849415063858032,0.14470341801643372,0.04988635331392288,0.9409332275390625,-0.025119490921497345,0.3665199279785156
13.965723991394043,-1.0833549499511719,0.1444087028503418,0.05113217234611511,0.9413015842437744,-0.024259380996227264,0.3661331236362457
13.985832452774048,-1.0814166069030762,0.14386650919914246,0.05245959758758545,0.941171407699585,-0.023208528757095337,0.3657206594944
14.005936622619629,-1.081046462059021,0.1436694860458374,0.05281035602092743,0.9407911896705627,-0.02309826761484146,0.36550307273864746
14.025990962982178,-1.0801583528518677,0.1433856189250946,0.05298826843500137,0.9407997131347656,-0.022816769778728485,0.3653959035873413
14.046038150787354,-1.0779316425323486,0.14292705059051514,0.05398690700531006,0.940833568572998,-0.02158527821302414,0.36498796939849854
14.06612777709961,-1.0777705907821655,0.14276978373527527,0.053618043661117554,0.9407508969306946,-0.02175169438123703,0.36508476734161377
14.08622407913208,-1.0769749879837036,0.1425524353981018,0.0543171688914299,0.9409528970718384,-0.021333500742912292,0.3648558259010315
14.10629391670227,-1.075221061706543,0.14217272400856018,0.05475611984729767,0.9409980773925781,-0.020645588636398315,0.3646584451198578
14.12645149230957,-1.072981357574463,0.1417948305606842,0.055564336478710175,0.9412539005279541,-0.01969342678785324,0.36429864168167114
14.146874189376831,-1.0710952281951904,0.14133450388908386,0.05634617060422897,0.9412354826927185,-0.01884748786687851,0.363825261592865
14.166963338851929,-1.0699280500411987,0.1412004828453064,0.05723340064287186,0.9415019750595093,-0.01815681904554367,0.3636484742164612
14.187034130096436,-1.0679713487625122,0.1406586468219757,0.05827154964208603,0.9412325024604797,-0.01742590218782425,0.36299917101860046
14.207165479660034,-1.0673562288284302,0.1401979625225067,0.05850673466920853,0.9411728978157043,-0.017253868281841278,0.3628524839878082
14.227141618728638,-1.067280888557434,0.1401241421699524,0.058739326894283295,0.9412187337875366,-0.016927309334278107,0.3627476096153259
14.247238159179688,-1.0650147199630737,0.13970282673835754,0.05936563014984131,0.941193699836731,-0.016130901873111725,0.36240890622138977
14.26730227470398,-1.0640379190444946,0.139383465051651,0.05995473265647888,0.9410869479179382,-0.01558013167232275,0.3620881736278534
14.287375688552856,-1.0623794794082642,0.13901138305664062,0.06023859232664108,0.9410739541053772,-0.01516497042030096,0.36196407675743103
14.307457208633423,-1.0602219104766846,0.13857799768447876,0.06257234513759613,0.9415238499641418,-0.013262785039842129,0.3613831698894501
14.327545404434204,-1.0588816404342651,0.13828545808792114,0.06317014992237091,0.9417142868041992,-0.012641794048249722,0.36129459738731384
14.347702264785767,-1.0571552515029907,0.13784363865852356,0.0646088495850563,0.9418079853057861,-0.011664128862321377,0.3608812093734741
14.367722511291504,-1.0567958354949951,0.13764184713363647,0.06465701758861542,0.941521167755127,-0.011110513471066952,0.3605627417564392
14.387784719467163,-1.0550791025161743,0.13724789023399353,0.06563098728656769,0.9414578676223755,-0.010361201129853725,0.36004266142845154
14.407882690429688,-1.054990291595459,0.13697147369384766,0.0653785765171051,0.9411130547523499,-0.010734974406659603,0.35996994376182556
