liuyurong129/humanoid-gym/humanoid/data/target_q_20250522-223327.csv
timestamp,joint_1,joint_2,joint_3,joint_4,joint_5,joint_6
4.6253204345703125e-05,0.0,0.0,0.0,0.0,0.0,0.0
0.020114660263061523,0.0,0.0,0.0,0.0,0.0,0.0
0.04019880294799805,0.0,0.0,0.0,0.0,0.0,0.0
0.06024456024169922,0.2766678035259247,-0.6505333781242371,0.6557506322860718,0.7658163905143738,-0.13510265946388245,-0.041313983500003815
0.08033323287963867,0.24566970765590668,-0.9227461814880371,0.9535390734672546,0.9265804290771484,-0.14800314605236053,-0.0769711434841156
0.100433349609375,0.09294458478689194,-1.0439319610595703,0.8670236468315125,0.8953904509544373,-0.1507590413093567,-0.0773138701915741
0.1204671859741211,0.06808013468980789,-1.0723246335983276,0.8547202944755554,0.8926520347595215,-0.1368962824344635,-0.07563087344169617
0.14055609703063965,0.07637567073106766,-1.077720046043396,0.8886074423789978,0.9013790488243103,-0.12463319301605225,-0.07391346991062164
0.16069841384887695,0.08585170656442642,-1.0791364908218384,0.9105430841445923,0.9019781351089478,-0.11727329343557358,-0.07369917631149292
0.18071866035461426,0.10213721543550491,-1.0747337341308594,0.9430766105651855,0.9029133319854736,-0.11145049333572388,-0.07360467314720154
0.2008051872253418,0.10035765916109085,-1.0697970390319824,0.9267670512199402,0.8958866596221924,-0.11633487790822983,-0.07486248761415482
0.220872163772583,0.10413158684968948,-1.0723108053207397,0.9456804990768433,0.9051279425621033,-0.11471685022115707,-0.07484003901481628
0.24094486236572266,0.09801266342401505,-1.0715969800949097,0.9251581430435181,0.8964522480964661,-0.12116892635822296,-0.07627518475055695
0.2609853744506836,0.09257904440164566,-1.0672569274902344,0.8990287780761719,0.8864507675170898,-0.12384892255067825,-0.07728864252567291
0.2811579704284668,0.09705159813165665,-1.066273808479309,0.9101109504699707,0.8884963989257812,-0.12012211233377457,-0.0786704272031784
0.3012869358062744,0.10044201463460922,-1.0723755359649658,0.9416312575340271,0.911166787147522,-0.11984474956989288,-0.07677872478961945
0.32144951820373535,0.104839988052845,-1.0657002925872803,0.9454874396324158,0.9043281078338623,-0.11974126100540161,-0.07788844406604767
0.3419189453125,0.10346517711877823,-1.0598341226577759,0.9238260984420776,0.894275963306427,-0.12297960370779037,-0.07925592362880707
0.3620290756225586,0.10532134026288986,-1.0646530389785767,0.9454908967018127,0.9045151472091675,-0.12222155928611755,-0.07966607809066772
0.38221311569213867,0.10105220228433609,-1.0680954456329346,0.952970027923584,0.91023850440979,-0.1243230551481247,-0.08058491349220276
0.4022531509399414,0.09338203817605972,-1.0663976669311523,0.9332932233810425,0.9028924703598022,-0.12685605883598328,-0.08171726763248444
0.4222738742828369,0.10322826355695724,-1.0599801540374756,0.9307482838630676,0.8962225317955017,-0.12336853891611099,-0.08261032402515411
0.44245076179504395,0.10150524228811264,-1.0585236549377441,0.9225069284439087,0.8964967727661133,-0.12576496601104736,-0.08287331461906433
0.46248340606689453,0.10196540504693985,-1.0600372552871704,0.9371051788330078,0.9027462005615234,-0.12868061661720276,-0.08359822630882263
0.4825477600097656,0.10170724242925644,-1.055770754814148,0.925296425819397,0.8937881588935852,-0.12956613302230835,-0.08550767600536346
0.5026164054870605,0.09985452145338058,-1.0584834814071655,0.9295468330383301,0.8997259140014648,-0.13156776130199432,-0.08495651185512543
0.5226788520812988,0.10403525084257126,-1.0527284145355225,0.9318439960479736,0.8972835540771484,-0.1287042796611786,-0.08507503569126129
0.5427610874176025,0.10668658465147018,-1.0451639890670776,0.9192270040512085,0.8863674402236938,-0.12891989946365356,-0.08755692839622498
0.5636904239654541,0.10901381820440292,-1.0432898998260498,0.9240199327468872,0.8887234330177307,-0.13029465079307556,-0.08747740089893341
0.5837645530700684,0.1272561401128769,-1.0537282228469849,1.005541205406189,0.927761435508728,-0.12287751585245132,-0.0844971239566803
0.6039080619812012,0.13986451923847198,-1.0484402179718018,1.030539631843567,0.9271934032440186,-0.11718443036079407,-0.08487680554389954
0.6239967346191406,0.14140775799751282,-1.043656587600708,1.0129506587982178,0.9186673164367676,-0.11916179955005646,-0.08547206223011017
0.6444916725158691,0.13717101514339447,-1.0452171564102173,1.0090398788452148,0.9235191345214844,-0.12194393575191498,-0.08600825071334839
0.6646044254302979,0.11855064332485199,-1.029030203819275,0.9202734231948853,0.8797574043273926,-0.12999051809310913,-0.09015966951847076
0.68467116355896,0.11917469650506973,-1.0278937816619873,0.9207674860954285,0.878803014755249,-0.13128936290740967,-0.09122946858406067
0.7047808170318604,0.11736653000116348,-1.0306543111801147,0.9236021041870117,0.8816537857055664,-0.1345617175102234,-0.09186618030071259
0.7249932289123535,0.13356807827949524,-1.0187219381332397,0.9334046840667725,0.8799662590026855,-0.1186794638633728,-0.09177833795547485
0.7450799942016602,0.13789992034435272,-1.0456738471984863,1.021461844444275,0.9234102368354797,-0.12821230292320251,-0.09140253067016602
0.7651457786560059,0.12394290417432785,-1.0463438034057617,1.0052696466445923,0.9210003018379211,-0.1332869827747345,-0.09193409979343414
0.7852869033813477,0.14291571080684662,-1.0384775400161743,1.0262937545776367,0.9269505739212036,-0.12391466647386551,-0.09059950709342957
0.8053483963012695,0.12450987845659256,-1.0151493549346924,0.9197711944580078,0.8694684505462646,-0.12995722889900208,-0.09617862105369568
0.8254702091217041,0.12360977381467819,-1.0192911624908447,0.9360355734825134,0.8778402805328369,-0.13550609350204468,-0.09547562897205353
0.845477819442749,0.12098909914493561,-1.0188934803009033,0.9328062534332275,0.8761937618255615,-0.1396181434392929,-0.09617306292057037
0.8656117916107178,0.1483481377363205,-1.0342401266098022,1.041408658027649,0.9302648305892944,-0.12922458350658417,-0.09160415828227997
0.8856461048126221,0.1569180190563202,-1.0309087038040161,1.0505242347717285,0.9307836294174194,-0.12635722756385803,-0.09258997440338135
0.9057629108428955,0.1507890671491623,-1.02806556224823,1.02528977394104,0.9220155477523804,-0.12869849801063538,-0.0946122258901596
0.9258472919464111,0.11964964121580124,-1.0180926322937012,0.9235672354698181,0.8798705339431763,-0.14422199130058289,-0.10041582584381104
0.945969820022583,0.1257544904947281,-1.0164960622787476,0.9368631839752197,0.8834360837936401,-0.1413867026567459,-0.10100451111793518
0.966130256652832,0.1292611062526703,-1.0093841552734375,0.9361371994018555,0.8783814907073975,-0.13819824159145355,-0.10137993097305298
0.9861173629760742,0.13218365609645844,-1.0005888938903809,0.9249129295349121,0.867287278175354,-0.13350917398929596,-0.10337114334106445
1.006303071975708,0.14638377726078033,-1.033285140991211,1.050777554512024,0.9325833916664124,-0.1368202418088913,-0.0990748405456543
1.0263257026672363,0.15355242788791656,-1.0232598781585693,1.0462247133255005,0.9303410053253174,-0.13008064031600952,-0.09897106885910034
1.046415090560913,0.16570881009101868,-1.0211509466171265,1.0649731159210205,0.935206949710846,-0.13123354315757751,-0.09859815239906311
1.0665793418884277,0.14127735793590546,-1.0058737993240356,0.9733806848526001,0.8913301825523376,-0.14155325293540955,-0.10227407515048981
1.0866100788116455,0.1405745893716812,-0.99785977602005,0.9592349529266357,0.8773883581161499,-0.13922840356826782,-0.10413168370723724
1.106637954711914,0.1457320600748062,-0.9981927275657654,0.967219352722168,0.879951000213623,-0.13838225603103638,-0.1050693690776825
1.1268036365509033,0.16696768999099731,-1.0167388916015625,1.0660978555679321,0.9299377202987671,-0.13614758849143982,-0.10028740763664246
1.1468849182128906,0.16824249923229218,-1.0145782232284546,1.0697263479232788,0.935346245765686,-0.13426730036735535,-0.10032707452774048
1.166923999786377,0.17358270287513733,-1.0110265016555786,1.0774937868118286,0.9275827407836914,-0.13327905535697937,-0.1018131822347641
1.1870484352111816,0.13688114285469055,-0.9931275844573975,0.9497769474983215,0.8728189468383789,-0.14504648745059967,-0.10732726752758026
1.2071034908294678,0.14398232102394104,-0.9899749755859375,0.9694558382034302,0.8778764009475708,-0.14122872054576874,-0.10646669566631317
1.2271721363067627,0.14011456072330475,-0.991150975227356,0.9483060836791992,0.8711122274398804,-0.14736607670783997,-0.10952866077423096
1.2472352981567383,0.17408005893230438,-1.0085562467575073,1.0792920589447021,0.9271854162216187,-0.13487641513347626,-0.10417741537094116
1.2673733234405518,0.16816134750843048,-1.0076580047607422,1.0752110481262207,0.9281617403030396,-0.13873587548732758,-0.10338827967643738
1.287454605102539,0.13295070827007294,-0.9909794330596924,0.9512127041816711,0.8738881349563599,-0.15214847028255463,-0.10980528593063354
1.3075733184814453,0.14418454468250275,-0.9827274084091187,0.9540727734565735,0.8672369718551636,-0.14456376433372498,-0.11169879138469696
1.3276469707489014,0.1370505541563034,-0.9878499507904053,0.9465804100036621,0.8678580522537231,-0.1503891944885254,-0.1130656749010086
1.3477835655212402,0.17409470677375793,-1.00151789188385,1.0729259252548218,0.9238671660423279,-0.1338016390800476,-0.10702376067638397
1.367910385131836,0.16491451859474182,-0.9993995428085327,1.041298747062683,0.9099637269973755,-0.1392730176448822,-0.10982775688171387
1.3879523277282715,0.1594068706035614,-1.0006998777389526,1.029025673866272,0.9039926528930664,-0.14385288953781128,-0.11229550838470459
1.4080026149749756,0.14984969794750214,-0.9872772097587585,0.9798917174339294,0.8796738982200623,-0.14326900243759155,-0.11410079896450043
1.4280831813812256,0.14586904644966125,-0.988402247428894,0.9727672338485718,0.8812493085861206,-0.14785239100456238,-0.11496336758136749
1.4481630325317383,0.14210109412670135,-0.98757004737854,0.9676198959350586,0.8768399357795715,-0.15127645432949066,-0.11731858551502228
1.4682362079620361,0.1709333062171936,-0.9991039037704468,1.0764453411102295,0.9232895374298096,-0.1385810673236847,-0.11197061836719513
1.488316535949707,0.1723528802394867,-0.9936248064041138,1.0671453475952148,0.919127345085144,-0.13655678927898407,-0.11323143541812897
1.5083677768707275,0.16318480670452118,-0.9978340268135071,1.0674301385879517,0.9154105186462402,-0.14214769005775452,-0.11644954979419708
1.5284450054168701,0.1439620554447174,-0.976427435874939,0.9712190628051758,0.8703727722167969,-0.14527076482772827,-0.12014104425907135
1.5485076904296875,0.1589803248643875,-0.9690019488334656,0.9840497970581055,0.8726201057434082,-0.13529884815216064,-0.11949612200260162
1.5685584545135498,0.15397539734840393,-0.9764450788497925,0.990189790725708,0.8773191571235657,-0.14336302876472473,-0.1207287460565567
1.588658332824707,0.1688687950372696,-0.9947378635406494,1.0686757564544678,0.9204404950141907,-0.1460283100605011,-0.11665879189968109
1.6087169647216797,0.1645810902118683,-0.9922095537185669,1.0524252653121948,0.9201663732528687,-0.14709563553333282,-0.11721363663673401
1.6288073062896729,0.16922636330127716,-0.9909195899963379,1.0559450387954712,0.9143401384353638,-0.14573414623737335,-0.12026815116405487
1.648836374282837,0.13989681005477905,-0.9766241908073425,0.9643800258636475,0.8725312948226929,-0.15351727604866028,-0.12476801872253418
1.6689445972442627,0.13853101432323456,-0.9755648374557495,0.9522194862365723,0.8690334558486938,-0.1541774570941925,-0.12710879743099213
1.688995122909546,0.15035776793956757,-0.9699317216873169,0.9717023372650146,0.8694329261779785,-0.14807456731796265,-0.12710866332054138
1.7091748714447021,0.14619366824626923,-0.9663395881652832,0.9583816528320312,0.8664861917495728,-0.149142324924469,-0.12772157788276672
1.7292625904083252,0.1826247125864029,-0.980999231338501,1.0749365091323853,0.9108441472053528,-0.1367565542459488,-0.12442010641098022
1.7493259906768799,0.1807204931974411,-0.9824854135513306,1.0854883193969727,0.9199122190475464,-0.13969796895980835,-0.12244510650634766
1.7694365978240967,0.18368767201900482,-0.9789352416992188,1.0803735256195068,0.9150618314743042,-0.1400662660598755,-0.12418895959854126
1.7894690036773682,0.18171219527721405,-0.9732409119606018,1.061547040939331,0.9075808525085449,-0.13960954546928406,-0.12453606724739075
1.8095452785491943,0.16835246980190277,-0.9642636775970459,1.012425184249878,0.886428713798523,-0.1440405249595642,-0.1260688155889511
1.8296105861663818,0.15569008886814117,-0.9648514986038208,0.9828400611877441,0.8716310858726501,-0.14962491393089294,-0.1311136931180954
1.849696397781372,0.14639855921268463,-0.9733946919441223,0.9888161420822144,0.8782665133476257,-0.15145254135131836,-0.13249576091766357
1.8697779178619385,0.16597115993499756,-0.9700558185577393,1.0236200094223022,0.8952218890190125,-0.1370525360107422,-0.12994034588336945
1.8900203704833984,0.1614123433828354,-0.9794460535049438,1.043522834777832,0.9053428173065186,-0.14820046722888947,-0.13032235205173492
1.9100439548492432,0.16698689758777618,-0.9723185896873474,1.0431479215621948,0.9037269949913025,-0.14736239612102509,-0.1295681893825531
1.930109977722168,0.15738512575626373,-0.9775762557983398,1.032315969467163,0.9025881886482239,-0.15785378217697144,-0.1307590752840042
1.9502065181732178,0.17341820895671844,-0.9691011905670166,1.0586459636688232,0.9062355756759644,-0.1449618935585022,-0.13016964495182037
1.970344066619873,0.17227451503276825,-0.9606902599334717,1.0362778902053833,0.8996228575706482,-0.14332231879234314,-0.13094085454940796
1.9904329776763916,0.17286492884159088,-0.9546842575073242,1.0255484580993652,0.882611095905304,-0.14140024781227112,-0.13477899134159088
2.010615110397339,0.16221199929714203,-0.9578299522399902,1.0057390928268433,0.8807389140129089,-0.14624500274658203,-0.13640914857387543
2.0305962562561035,0.1606014370918274,-0.9638382196426392,1.0094472169876099,0.8863997459411621,-0.14788678288459778,-0.13840371370315552
2.0507445335388184,0.1793474555015564,-0.9595456123352051,1.0469238758087158,0.8956584930419922,-0.13542182743549347,-0.13734695315361023
2.0708305835723877,0.166462704539299,-0.9700356721878052,1.0648995637893677,0.9093884825706482,-0.14824992418289185,-0.13598592579364777
2.090904712677002,0.16820022463798523,-0.9622690677642822,1.0367928743362427,0.8967832326889038,-0.15121939778327942,-0.138870969414711
2.1109554767608643,0.16378721594810486,-0.9592178463935852,1.0218651294708252,0.8930529356002808,-0.1507662832736969,-0.1392253339290619
2.131040096282959,0.16122357547283173,-0.9587596654891968,1.0170433521270752,0.8929988145828247,-0.1510726809501648,-0.14057394862174988
2.1511781215667725,0.1552838385105133,-0.9560750722885132,1.0005525350570679,0.8814314603805542,-0.1504630595445633,-0.14526744186878204
2.171330213546753,0.16641464829444885,-0.9575151205062866,1.0347440242767334,0.8971322774887085,-0.14423620700836182,-0.14342713356018066
2.191425085067749,0.1571902483701706,-0.9698147773742676,1.0328688621520996,0.9063958525657654,-0.16055715084075928,-0.1431860774755478
2.2115795612335205,0.15161360800266266,-0.9709238409996033,1.0236716270446777,0.9023075699806213,-0.16624745726585388,-0.1452878713607788
2.231882333755493,0.1676514595746994,-0.9561216831207275,1.034785270690918,0.898475170135498,-0.14589571952819824,-0.14705997705459595
2.252105951309204,0.14697997272014618,-0.9620194435119629,1.0249145030975342,0.8913288712501526,-0.15741488337516785,-0.1485958993434906
2.272146224975586,0.16156738996505737,-0.9502402544021606,1.0339957475662231,0.8946332335472107,-0.14776985347270966,-0.1487520933151245
2.2924344539642334,0.17543677985668182,-0.9497772455215454,1.047785758972168,0.9036147594451904,-0.14429408311843872,-0.1474246382713318
2.3125760555267334,0.1594725102186203,-0.9586794376373291,1.03615403175354,0.8981319665908813,-0.15723177790641785,-0.1511908620595932
2.3326528072357178,0.17595618963241577,-0.9510519504547119,1.049004077911377,0.9026221036911011,-0.14652231335639954,-0.15045355260372162
2.352696418762207,0.1623583287000656,-0.9485049843788147,1.032935380935669,0.8864054679870605,-0.14943474531173706,-0.15409527719020844
2.372724771499634,0.16815192997455597,-0.9478485584259033,1.047091007232666,0.8965646028518677,-0.14755010604858398,-0.15290550887584686
2.3928072452545166,0.14652009308338165,-0.9621270298957825,1.0448737144470215,0.9009308218955994,-0.16940408945083618,-0.1538551151752472
2.412975788116455,0.13935066759586334,-0.9465258717536926,1.016797661781311,0.8842735290527344,-0.1574234515428543,-0.1568959653377533
2.4330272674560547,0.16495703160762787,-0.9396398663520813,1.0331594944000244,0.8909595608711243,-0.1396285593509674,-0.15863211452960968
2.4530932903289795,0.17061807215213776,-0.9358539581298828,1.0342488288879395,0.8894155025482178,-0.13804230093955994,-0.15812534093856812
2.4731392860412598,0.16884781420230865,-0.9339138269424438,1.0291447639465332,0.890714168548584,-0.13580192625522614,-0.15869277715682983
2.493286371231079,0.1634424775838852,-0.9463584423065186,1.0303725004196167,0.8995983600616455,-0.148999884724617,-0.15910544991493225
2.513380765914917,0.16650937497615814,-0.94059157371521,1.0235447883605957,0.8978403806686401,-0.14520537853240967,-0.15996688604354858
2.5334131717681885,0.1598767340183258,-0.9382485151290894,1.0244029760360718,0.8855732083320618,-0.14741963148117065,-0.16369853913784027
2.553521156311035,0.15237973630428314,-0.9499028921127319,1.035764217376709,0.8983099460601807,-0.1560945361852646,-0.1632993519306183
2.57358980178833,0.14819882810115814,-0.951776385307312,1.0211257934570312,0.9003162384033203,-0.1587769240140915,-0.16530592739582062
2.59372878074646,0.14734581112861633,-0.9592989087104797,1.0300898551940918,0.9141336679458618,-0.1684769093990326,-0.16342958807945251
2.6137945652008057,0.14876696467399597,-0.9591611623764038,1.0366315841674805,0.9162952899932861,-0.16793519258499146,-0.1650586724281311
2.6339786052703857,0.13753308355808258,-0.9394749402999878,1.0134121179580688,0.8852788209915161,-0.1533220261335373,-0.16997282207012177
2.6540720462799072,0.13451716303825378,-0.9442098140716553,1.0137667655944824,0.8955474495887756,-0.16018818318843842,-0.1699688881635666
2.6741769313812256,0.12095851451158524,-0.9461641311645508,1.0219385623931885,0.894132137298584,-0.16873040795326233,-0.17153826355934143
2.694286346435547,0.15007202327251434,-0.9518800377845764,1.047633409500122,0.9412907361984253,-0.16673731803894043,-0.16299526393413544
2.714460849761963,0.15046872198581696,-0.9578837156295776,1.0462077856063843,0.9421707391738892,-0.17440596222877502,-0.16544204950332642
2.734485626220703,0.14497214555740356,-0.9634205102920532,1.0485132932662964,0.9441390037536621,-0.1816694438457489,-0.1674773395061493
2.754600763320923,0.15505124628543854,-0.9551994800567627,1.0573217868804932,0.9378862380981445,-0.1710982620716095,-0.17027640342712402
2.774688243865967,0.12640532851219177,-0.9433990716934204,1.0078667402267456,0.8970575928688049,-0.17360323667526245,-0.17633429169654846
2.794748306274414,0.1237732395529747,-0.9414405822753906,1.003960371017456,0.8999165296554565,-0.17466425895690918,-0.17629821598529816
2.8148183822631836,0.12296395748853683,-0.9400389194488525,0.9912520051002502,0.8962101936340332,-0.17031249403953552,-0.180414617061615
2.8348686695098877,0.12917454540729523,-0.9383383989334106,0.9947490692138672,0.9015703201293945,-0.1656109094619751,-0.18115778267383575
2.8550288677215576,0.1318076252937317,-0.954129695892334,1.0243940353393555,0.9316482543945312,-0.17842571437358856,-0.17700321972370148
2.8751089572906494,0.13290336728096008,-0.9465585947036743,1.0242844820022583,0.9249299764633179,-0.1749190390110016,-0.1797756850719452
2.895162582397461,0.13893744349479675,-0.9393129348754883,1.0281059741973877,0.925855815410614,-0.16839364171028137,-0.17891404032707214
2.9154417514801025,0.11524273455142975,-0.9508082270622253,1.0292956829071045,0.914519190788269,-0.19030168652534485,-0.1823413074016571
2.9355146884918213,0.1204216256737709,-0.946928083896637,1.0309621095657349,0.9179699420928955,-0.18633876740932465,-0.18365263938903809
2.9555819034576416,0.11930492520332336,-0.9446959495544434,1.023379921913147,0.9201810359954834,-0.1897086799144745,-0.18344469368457794
2.9756247997283936,0.13721247017383575,-0.93492192029953,1.0246896743774414,0.9300695657730103,-0.1717420220375061,-0.1831815242767334
2.9957118034362793,0.13123495876789093,-0.9361680746078491,1.0310909748077393,0.9153952598571777,-0.1744525134563446,-0.18774157762527466
3.015796422958374,0.11585324257612228,-0.9306259155273438,1.0114896297454834,0.9092667102813721,-0.18402379751205444,-0.18677127361297607
3.0358965396881104,0.11437449604272842,-0.9240473508834839,1.0098401308059692,0.9041383266448975,-0.17902973294258118,-0.18973027169704437
3.056077003479004,0.11293181777000427,-0.9302295446395874,1.020666241645813,0.9048680067062378,-0.18499460816383362,-0.19176551699638367
3.0761756896972656,0.1527586430311203,-0.9270302057266235,1.061185359954834,0.9425860643386841,-0.1650330126285553,-0.18611736595630646
3.096243143081665,0.1585913598537445,-0.9320769906044006,1.0850131511688232,0.9475293755531311,-0.16786518692970276,-0.18646207451820374
3.116288900375366,0.14502909779548645,-0.917005181312561,1.0557832717895508,0.9262288808822632,-0.15495190024375916,-0.19192707538604736
3.136352777481079,0.13158515095710754,-0.9160922765731812,1.04032301902771,0.909142255783081,-0.15578332543373108,-0.19595541059970856
3.156466007232666,0.11343861371278763,-0.9245488047599792,1.0205624103546143,0.9105468392372131,-0.1708182692527771,-0.19623783230781555
3.1765549182891846,0.10393208265304565,-0.9181366562843323,1.007474422454834,0.9055758714675903,-0.165912926197052,-0.20072942972183228
3.1966004371643066,0.120009645819664,-0.9018019437789917,1.0035974979400635,0.8901916742324829,-0.1305944323539734,-0.20977717638015747
3.2166826725006104,0.1442464143037796,-0.9291641116142273,1.0567877292633057,0.9434709548950195,-0.14818911254405975,-0.19975616037845612
3.2367730140686035,0.13033533096313477,-0.9348208904266357,1.05780827999115,0.9528261423110962,-0.16723057627677917,-0.19635331630706787
3.2568881511688232,0.1440853327512741,-0.9192370176315308,1.0622684955596924,0.9526146650314331,-0.14126622676849365,-0.2000383883714676
3.2771153450012207,0.1531640738248825,-0.9096860885620117,1.0678120851516724,0.9603228569030762,-0.12407073378562927,-0.20019203424453735
3.297271490097046,0.12424125522375107,-0.8926867842674255,1.0748590230941772,0.909243106842041,-0.11883290112018585,-0.20896191895008087
3.3173203468322754,0.08159909397363663,-0.9051460027694702,1.035354733467102,0.8935455083847046,-0.15355926752090454,-0.21163886785507202
3.337364912033081,0.06537118554115295,-0.9104313850402832,1.0122604370117188,0.8967651128768921,-0.13887637853622437,-0.22208262979984283
3.3574695587158203,0.09377919137477875,-0.8934673070907593,0.9846392869949341,0.907741904258728,-0.09362174570560455,-0.22730064392089844
3.37758207321167,0.08451226353645325,-0.9016985893249512,0.98143470287323,0.9020473957061768,-0.08202752470970154,-0.2382892370223999
3.3976612091064453,0.08123255521059036,-0.8957251906394958,0.9665184020996094,0.8972759246826172,-0.05136265605688095,-0.24844133853912354
3.4181275367736816,0.11134374886751175,-0.8834103941917419,0.9908844232559204,0.9066957235336304,0.020086437463760376,-0.25397321581840515
3.4382681846618652,0.1205080971121788,-0.8722977638244629,1.0243356227874756,0.8964532613754272,0.05613213777542114,-0.2589174211025238
3.458277463912964,0.14138469099998474,-0.8546673059463501,1.0690174102783203,0.9121216535568237,0.12599003314971924,-0.25895482301712036
3.4783689975738525,0.138540580868721,-0.8500546216964722,1.076035976409912,0.9142153263092041,0.13708841800689697,-0.2592793107032776
3.498471736907959,0.15001453459262848,-0.8402770161628723,1.0869728326797485,0.9270746111869812,0.1688576489686966,-0.2579860985279083
3.518501043319702,0.1345517784357071,-0.8668249845504761,1.075374960899353,0.9586312770843506,0.1452173888683319,-0.253298282623291
3.5385890007019043,0.1270291656255722,-0.8733661770820618,1.0608934164047241,0.9632269144058228,0.13308143615722656,-0.25450432300567627
3.5586533546447754,0.12725211679935455,-0.867376446723938,1.050058126449585,0.9538092017173767,0.14017456769943237,-0.26239344477653503
3.578721523284912,0.12422746419906616,-0.872882068157196,1.0510305166244507,0.9587059020996094,0.13736742734909058,-0.26325908303260803
3.598830223083496,0.1242046058177948,-0.8692854642868042,1.0522490739822388,0.9545539617538452,0.14251643419265747,-0.26644161343574524
3.6189165115356445,0.12634043395519257,-0.8675456047058105,1.0550503730773926,0.9558040499687195,0.14774355292320251,-0.26716920733451843
3.638986825942993,0.12476272881031036,-0.8703937530517578,1.0551527738571167,0.960603654384613,0.14802268147468567,-0.26784825325012207
3.6590328216552734,0.12195980548858643,-0.8724808692932129,1.054057240486145,0.963300347328186,0.14624007046222687,-0.2687114477157593
3.679128646850586,0.11808045953512192,-0.8752575516700745,1.0500699281692505,0.9622148275375366,0.140884131193161,-0.27007049322128296
3.6992056369781494,0.09939246624708176,-0.8864603638648987,1.031070590019226,0.9688283205032349,0.11825250089168549,-0.27090325951576233
3.7192671298980713,0.09772881865501404,-0.8864030838012695,1.0219146013259888,0.9608625173568726,0.11941823363304138,-0.2765952944755554
3.7393124103546143,0.09972219169139862,-0.8873380422592163,1.0204085111618042,0.9615254998207092,0.125312939286232,-0.28008705377578735
3.7594528198242188,0.10755294561386108,-0.8814072012901306,1.024480938911438,0.9617700576782227,0.13924305140972137,-0.2812890112400055
3.7794744968414307,0.10367701202630997,-0.8849515318870544,1.0220402479171753,0.9671105146408081,0.14254823327064514,-0.2823542058467865
3.7995591163635254,0.11037588864564896,-0.8830575942993164,1.0318100452423096,0.9704374074935913,0.1536252498626709,-0.284136027097702
3.819765090942383,0.10815779119729996,-0.8860510587692261,1.0359177589416504,0.9800428152084351,0.153102844953537,-0.28321573138237
3.839846611022949,0.10701239854097366,-0.8848310112953186,1.0328757762908936,0.9788227677345276,0.15396851301193237,-0.2845122814178467
3.8599648475646973,0.10610917210578918,-0.8850181102752686,1.0277093648910522,0.9827680587768555,0.15762963891029358,-0.2858763635158539
3.879990339279175,0.10058477520942688,-0.886446475982666,1.0289417505264282,0.982537031173706,0.15471085906028748,-0.28887587785720825
3.9000582695007324,0.09822007268667221,-0.8878614902496338,1.0211408138275146,0.9835990071296692,0.15524867177009583,-0.29029688239097595
3.9201369285583496,0.0972466692328453,-0.8914319276809692,1.0198750495910645,0.9877356290817261,0.1551293432712555,-0.2926478385925293
3.9402968883514404,0.09602523595094681,-0.8906084299087524,1.0219197273254395,0.9872192740440369,0.15859809517860413,-0.2953830659389496
3.960315227508545,0.09883350878953934,-0.8881258964538574,1.0235823392868042,0.9914454817771912,0.16836266219615936,-0.2966359853744507
3.9804651737213135,0.09560862928628922,-0.8881281614303589,1.0256283283233643,0.9991219639778137,0.16891653835773468,-0.29568490386009216
4.000516653060913,0.09222936630249023,-0.8946311473846436,1.0123391151428223,1.0064891576766968,0.16972219944000244,-0.2976210415363312
4.020624876022339,0.08855172991752625,-0.8991578817367554,1.0056228637695312,1.0062260627746582,0.16892901062965393,-0.30217424035072327
4.040639877319336,0.08706957846879959,-0.9010502099990845,1.0068753957748413,1.005684733390808,0.16789454221725464,-0.304550439119339
4.060758352279663,0.08746401220560074,-0.8988741636276245,1.0068854093551636,1.0008976459503174,0.17053845524787903,-0.3074503242969513
4.0807788372039795,0.09122693538665771,-0.89743572473526,1.0089435577392578,1.00352144241333,0.1793452799320221,-0.30990418791770935
4.100938081741333,0.09848964214324951,-0.8924920558929443,1.0159257650375366,1.010310173034668,0.19882744550704956,-0.3109678328037262
4.120919466018677,0.09620796889066696,-0.8977679014205933,1.0189003944396973,1.0184977054595947,0.1996210217475891,-0.3127714693546295
4.141218185424805,0.0967802107334137,-0.8996622562408447,1.0169172286987305,1.025439977645874,0.2003527581691742,-0.3126958906650543
4.161433935165405,0.08688585460186005,-0.9082793593406677,1.0106897354125977,1.0334113836288452,0.18584436178207397,-0.31310829520225525
4.181451797485352,0.08331194519996643,-0.9016077518463135,1.0032743215560913,1.0240790843963623,0.1930651068687439,-0.3187919557094574
4.201501369476318,0.0910710021853447,-0.8969385623931885,1.009932041168213,1.0260014533996582,0.21208637952804565,-0.3227480947971344
4.221668481826782,0.0927065759897232,-0.8983750939369202,1.0096620321273804,1.0340670347213745,0.21782848238945007,-0.32259899377822876
4.241690397262573,0.09411092102527618,-0.9091112613677979,1.0200029611587524,1.0482933521270752,0.2104015052318573,-0.32223743200302124
4.261747121810913,0.08081134408712387,-0.9103262424468994,1.0007320642471313,1.0428471565246582,0.20264053344726562,-0.3249717056751251
4.2818121910095215,0.08739395439624786,-0.9034827351570129,1.0007555484771729,1.0427162647247314,0.21551036834716797,-0.32802143692970276
4.301932096481323,0.09367995709180832,-0.901777982711792,1.0102189779281616,1.0468273162841797,0.2293621301651001,-0.3301056921482086
4.321990489959717,0.08300508558750153,-0.9136074781417847,1.0082446336746216,1.0546480417251587,0.21439048647880554,-0.3306470215320587
4.34204363822937,0.0899377092719078,-0.9140373468399048,1.0120729207992554,1.0659980773925781,0.21695175766944885,-0.3319966197013855
4.362236976623535,0.08321536332368851,-0.9094315767288208,1.003691554069519,1.0564024448394775,0.2212521731853485,-0.3347565233707428
4.382379531860352,0.07635729759931564,-0.9118766784667969,0.9951949119567871,1.0594980716705322,0.22124448418617249,-0.33867213129997253
4.402430772781372,0.08100342005491257,-0.9115644097328186,1.0037634372711182,1.064323902130127,0.2349250614643097,-0.34213921427726746
4.422515630722046,0.0831451341509819,-0.9180874824523926,1.010680079460144,1.0789856910705566,0.23508641123771667,-0.3433271050453186
4.443023920059204,0.08208759874105453,-0.9118154048919678,1.0040971040725708,1.0724701881408691,0.2423800230026245,-0.34598472714424133
4.463104486465454,0.06989698112010956,-0.9172042608261108,0.9940218329429626,1.0723485946655273,0.23563560843467712,-0.34843286871910095
4.483165979385376,0.06994026154279709,-0.9141920804977417,0.9861322641372681,1.0781211853027344,0.2483198344707489,-0.353622704744339
4.503245115280151,0.06412561982870102,-0.9309282302856445,0.9953800439834595,1.0938482284545898,0.23157060146331787,-0.35407140851020813
4.523352384567261,0.056740984320640564,-0.9280720949172974,0.9829270243644714,1.084481954574585,0.22907310724258423,-0.3573436439037323
4.543391466140747,0.0599539540708065,-0.9311818480491638,0.9982471466064453,1.0834683179855347,0.2230326533317566,-0.3631311357021332
4.563478708267212,0.07660247385501862,-0.9194120168685913,1.0152983665466309,1.0902584791183472,0.24755477905273438,-0.36575353145599365
4.583578586578369,0.06307074427604675,-0.9177111387252808,1.0018235445022583,1.094834804534912,0.2554800808429718,-0.37028253078460693
4.603717803955078,0.06965979933738708,-0.9156794548034668,1.0075061321258545,1.102050542831421,0.2698938846588135,-0.3721495270729065
4.6237475872039795,0.07470718026161194,-0.9069722890853882,1.0083941221237183,1.1117510795593262,0.3044372797012329,-0.37855780124664307
4.643880128860474,0.04831523075699806,-0.9242168068885803,0.9852969646453857,1.1277642250061035,0.2991507053375244,-0.381635457277298
4.663888692855835,0.03483507037162781,-0.9320734739303589,0.9543139934539795,1.1343896389007568,0.29864948987960815,-0.3883923590183258
4.684008598327637,0.026621725410223007,-0.9452310800552368,0.9564794301986694,1.1379494667053223,0.2832917273044586,-0.3895370662212372
4.70404839515686,0.05822199583053589,-0.9651855230331421,0.9894485473632812,1.164230465888977,0.28510645031929016,-0.3867093026638031
4.724146366119385,0.09025011956691742,-0.9559438824653625,1.0170773267745972,1.1823681592941284,0.305927574634552,-0.3860032260417938
4.744201183319092,0.1317363679409027,-0.943562388420105,1.0820544958114624,1.2199259996414185,0.33779770135879517,-0.38311058282852173
4.764272451400757,0.13863731920719147,-0.9396515488624573,1.1075077056884766,1.2329349517822266,0.34387826919555664,-0.37776848673820496
4.784350633621216,0.139489084482193,-0.9188597202301025,1.1021941900253296,1.2545342445373535,0.37372004985809326,-0.3722694516181946
4.804468870162964,0.13198281824588776,-0.9009020328521729,1.0895228385925293,1.2583718299865723,0.42139869928359985,-0.37494584918022156
4.824499130249023,0.10439329594373703,-0.9086697101593018,1.0549384355545044,1.2519320249557495,0.4129846692085266,-0.37791478633880615
4.844651460647583,0.0522504486143589,-0.928186297416687,0.9867638349533081,1.2346715927124023,0.38426274061203003,-0.3894355595111847
4.8647141456604,0.00020637642592191696,-0.9592972993850708,0.9387251734733582,1.2237759828567505,0.3253445029258728,-0.3968581259250641
4.885056495666504,0.04398515820503235,-0.9470186233520508,0.9220497608184814,1.2097177505493164,0.3556807041168213,-0.4037330448627472
4.905252933502197,0.053705256432294846,-0.9562575817108154,0.9425776600837708,1.213620901107788,0.3730097711086273,-0.40267708897590637
4.92533802986145,0.07591328769922256,-0.9473977088928223,1.0233657360076904,1.221055507659912,0.38300085067749023,-0.3981686532497406
4.945365905761719,0.1025591716170311,-0.9256185293197632,1.050301194190979,1.2583165168762207,0.42837101221084595,-0.39395347237586975
4.965444803237915,0.10929879546165466,-0.9182654023170471,1.0513794422149658,1.2705127000808716,0.449531614780426,-0.3934764564037323
4.985576391220093,0.09597694128751755,-0.9293418526649475,1.04536771774292,1.2892556190490723,0.4405037760734558,-0.3914555609226227
5.005724668502808,0.05556923523545265,-0.9340640306472778,0.9906249046325684,1.2705438137054443,0.4233890175819397,-0.3991580307483673
5.025718927383423,-0.00019129086285829544,-0.9579119682312012,0.9272758960723877,1.2493996620178223,0.36683470010757446,-0.4063095152378082
5.045809268951416,-0.018571536988019943,-0.9732749462127686,0.9185551404953003,1.2458879947662354,0.3328667879104614,-0.4074072539806366
5.065998554229736,0.05371581390500069,-0.9726772308349609,0.9512901902198792,1.261366605758667,0.37297624349594116,-0.4032899737358093
5.086093902587891,0.06530565768480301,-0.9578760862350464,1.003272294998169,1.2587473392486572,0.38238388299942017,-0.39898958802223206
5.106092929840088,0.06467077881097794,-0.9602645635604858,1.0163494348526,1.2749342918395996,0.3809187412261963,-0.3978439271450043
5.1262476444244385,0.10405893623828888,-0.9281145334243774,1.0419702529907227,1.3029029369354248,0.4488859176635742,-0.3961351811885834
5.1463539600372314,0.10436815768480301,-0.9333740472793579,1.0608851909637451,1.3218042850494385,0.45341187715530396,-0.3909916579723358
5.16639518737793,0.09039121121168137,-0.9188480973243713,1.0318629741668701,1.3061559200286865,0.4750511050224304,-0.3971492648124695
5.186566352844238,0.06645353138446808,-0.9319742918014526,1.0096540451049805,1.3039236068725586,0.45831602811813354,-0.39920932054519653
5.20656418800354,0.020222444087266922,-0.9525071978569031,0.9535278081893921,1.2903027534484863,0.4175322651863098,-0.4067928194999695
5.226655721664429,-0.011450198478996754,-0.9755004644393921,0.9299881458282471,1.2760429382324219,0.3609539270401001,-0.409875750541687
5.247055530548096,0.04298267886042595,-0.9734531044960022,0.9238699674606323,1.2879225015640259,0.39728662371635437,-0.4078109562397003
5.2671215534210205,0.06065986678004265,-0.9740102291107178,0.9695790410041809,1.3000092506408691,0.41296833753585815,-0.405031681060791
5.28728461265564,0.08710671961307526,-0.9440691471099854,1.0160350799560547,1.2998548746109009,0.45271068811416626,-0.4026351869106293
5.3073132038116455,0.10367163270711899,-0.9238451719284058,1.0383645296096802,1.318857192993164,0.4975919723510742,-0.4024691581726074
5.327526092529297,0.10857046395540237,-0.9219111204147339,1.0467426776885986,1.3388558626174927,0.5163935422897339,-0.3996475040912628
5.347621202468872,0.10034417361021042,-0.9258769750595093,1.0384272336959839,1.3407316207885742,0.5148654580116272,-0.3997947871685028
5.367687940597534,0.05550039932131767,-0.9477497935295105,0.9980431795120239,1.3286528587341309,0.4719427824020386,-0.4046270549297333
5.387758493423462,0.011928419582545757,-0.9646426439285278,0.9484915733337402,1.310279369354248,0.41722285747528076,-0.4110241234302521
5.407885313034058,-0.025436241179704666,-0.9863190650939941,0.9211053848266602,1.2967888116836548,0.3562057614326477,-0.4107154309749603
5.427961826324463,0.013693305663764477,-0.9708560705184937,0.904678225517273,1.297093152999878,0.39553260803222656,-0.41280433535575867
5.448037385940552,0.036203112453222275,-0.9824712872505188,1.0007331371307373,1.306187629699707,0.39262014627456665,-0.4045104384422302
5.468142509460449,0.03844171389937401,-0.9650231599807739,0.9773034453392029,1.3176058530807495,0.42420321702957153,-0.4070432484149933
5.488315105438232,0.07462214678525925,-0.9336625337600708,0.9886587858200073,1.3319191932678223,0.4813741445541382,-0.4101306200027466
5.508336782455444,0.06567099690437317,-0.957474946975708,1.0183656215667725,1.3512499332427979,0.47922104597091675,-0.40669840574264526
5.528424024581909,0.044744107872247696,-0.9479374885559082,0.9625038504600525,1.3313525915145874,0.4733409881591797,-0.4141514003276825
5.548459768295288,-0.007429343648254871,-0.9819141030311584,0.9325159192085266,1.3282387256622314,0.4190310537815094,-0.4156706631183624
5.568542003631592,-0.03077540174126625,-0.9865269064903259,0.9013401865959167,1.3083739280700684,0.3933565020561218,-0.419120192527771
5.588659286499023,0.014351028017699718,-0.9803582429885864,0.9090255498886108,1.323779582977295,0.4135023057460785,-0.41376879811286926
5.60870885848999,0.03052176907658577,-0.9815433621406555,0.9787331819534302,1.3329133987426758,0.43157529830932617,-0.4076562821865082
5.62879490852356,0.03564627096056938,-0.9616411924362183,0.982061505317688,1.3278988599777222,0.45118385553359985,-0.4106452763080597
5.648906469345093,0.07080278545618057,-0.9450949430465698,0.9957215189933777,1.3600223064422607,0.5030754804611206,-0.41107481718063354
5.668964385986328,0.0809481292963028,-0.9302436113357544,0.998238742351532,1.3657140731811523,0.5371037125587463,-0.4122680127620697
5.689080238342285,0.048081789165735245,-0.9492871761322021,0.972920835018158,1.3617103099822998,0.5162641406059265,-0.41450345516204834
5.709120035171509,-0.00746686477214098,-0.983264684677124,0.9251380562782288,1.3476016521453857,0.4496106505393982,-0.41844961047172546
5.729201555252075,-0.018704455345869064,-0.9904226064682007,0.9131607413291931,1.3449733257293701,0.4223465025424957,-0.41860705614089966
5.749263286590576,0.007697920314967632,-0.9837439656257629,0.9165570139884949,1.338437795639038,0.4017094671726227,-0.4123089611530304
5.769327163696289,0.01641346886754036,-0.9866253733634949,0.9553678631782532,1.3533498048782349,0.40930503606796265,-0.4049275815486908
5.789429187774658,0.0770377591252327,-0.9371532201766968,1.004143238067627,1.3623220920562744,0.5111086964607239,-0.4087602496147156
5.8095197677612305,0.0848909541964531,-0.9349859952926636,1.012978196144104,1.3740010261535645,0.5338909029960632,-0.4068538248538971
5.829594373703003,0.11872436851263046,-0.9034944772720337,1.037585735321045,1.3867390155792236,0.6066401600837708,-0.40604403614997864
5.849644660949707,0.06620761007070541,-0.9520780444145203,1.0085790157318115,1.3863120079040527,0.5379957556724548,-0.4064561426639557
5.869731664657593,0.048199351876974106,-0.9613387584686279,0.9836598634719849,1.3777196407318115,0.5115401744842529,-0.410690039396286
5.889896631240845,-0.012166802771389484,-0.9845535159111023,0.9268018007278442,1.356367826461792,0.4364577531814575,-0.415310800075531
5.90988826751709,-0.04696182534098625,-1.0104268789291382,0.8977741599082947,1.3417457342147827,0.3628177046775818,-0.4109398424625397
5.929979085922241,0.03503122553229332,-0.9694017767906189,0.9493411183357239,1.3579168319702148,0.44896966218948364,-0.40831124782562256
5.950061082839966,0.016875620931386948,-0.9789231419563293,0.9597675800323486,1.3567359447479248,0.436082124710083,-0.40606993436813354
5.970114707946777,0.05564718320965767,-0.941160261631012,0.9779779314994812,1.3646345138549805,0.5114981532096863,-0.4111121594905853
5.990225791931152,0.06296271085739136,-0.9499562978744507,0.9996711015701294,1.3828456401824951,0.5224656462669373,-0.4091329276561737
6.010233640670776,0.03642106428742409,-0.9581198692321777,0.9795226454734802,1.3812683820724487,0.5041061043739319,-0.4108888804912567
6.030407905578613,0.020607631653547287,-0.9699638485908508,0.9613301157951355,1.371164321899414,0.4796828627586365,-0.41326242685317993
6.050468683242798,-0.01776982471346855,-0.9750416874885559,0.9109517931938171,1.3505221605300903,0.4414326548576355,-0.4176914393901825
6.070585250854492,-0.010198046453297138,-0.9914741516113281,0.9094661474227905,1.3597753047943115,0.4189146161079407,-0.4116148054599762
6.091408729553223,0.03828578069806099,-0.9658181071281433,0.9593638181686401,1.3676323890686035,0.47757548093795776,-0.4074917733669281
6.111584901809692,0.028928909450769424,-0.9679633378982544,0.9738826155662537,1.3723734617233276,0.4731658697128296,-0.405563086271286
6.131728172302246,0.028791751712560654,-0.953824520111084,0.9348228573799133,1.3780826330184937,0.4867033362388611,-0.41254350543022156
6.151731252670288,0.05938917025923729,-0.9423515200614929,0.9685101509094238,1.382454514503479,0.5420100688934326,-0.4148862659931183
6.171846866607666,0.02919626608490944,-0.9643107652664185,0.9555209875106812,1.3815271854400635,0.5080133080482483,-0.41426095366477966
6.191930294036865,-0.007302378304302692,-0.9773779511451721,0.923397958278656,1.3669224977493286,0.4727613925933838,-0.41664260625839233
6.2120397090911865,-0.04639935865998268,-1.003900170326233,0.8938127756118774,1.3516225814819336,0.406732976436615,-0.41506800055503845
6.232081890106201,0.00804052036255598,-0.9777587056159973,0.9147040247917175,1.3658398389816284,0.42854541540145874,-0.4087889790534973
6.2527174949646,0.02908949926495552,-0.9762853980064392,0.9570428133010864,1.378211259841919,0.4602833390235901,-0.40445372462272644
6.2728047370910645,0.042202260345220566,-0.9543148875236511,0.9734862446784973,1.3811132907867432,0.4916306734085083,-0.4064159393310547
6.292968988418579,0.06081597879528999,-0.9374943375587463,1.0087369680404663,1.395294427871704,0.5346675515174866,-0.4056260883808136
6.313084125518799,0.049412231892347336,-0.9380767345428467,1.0115636587142944,1.3949288129806519,0.5272991061210632,-0.40622296929359436
6.3330793380737305,0.043891001492738724,-0.9368389844894409,0.9816462397575378,1.391289234161377,0.5304027199745178,-0.4083513021469116
6.3531904220581055,-0.02751888707280159,-0.9663931131362915,0.9159972071647644,1.36265230178833,0.444601833820343,-0.41396600008010864
6.373283386230469,-0.008773398585617542,-0.9796985387802124,0.8678264617919922,1.371018409729004,0.4641808867454529,-0.4171033203601837
6.393315076828003,0.03551853820681572,-0.9745442271232605,0.9731113314628601,1.372475028038025,0.48248785734176636,-0.4045095443725586
6.41342568397522,0.03994351252913475,-0.9492342472076416,0.9535069465637207,1.363964557647705,0.518107533454895,-0.40706875920295715
6.433599948883057,0.03320562466979027,-0.9581350088119507,0.9235667586326599,1.3933097124099731,0.5081061124801636,-0.41262340545654297
6.453595876693726,0.05527957156300545,-0.9670953750610352,1.0161871910095215,1.413201928138733,0.5131335854530334,-0.4027586281299591
6.473708868026733,0.05800505355000496,-0.9322229027748108,0.9903898239135742,1.3967633247375488,0.5529268383979797,-0.40863871574401855
6.4938061237335205,0.03848821297287941,-0.9546267986297607,0.9742735028266907,1.3987748622894287,0.5259742140769958,-0.4080776274204254
6.513869524002075,-0.017935525625944138,-0.9745880961418152,0.9254348278045654,1.3727304935455322,0.45196980237960815,-0.4136408567428589
6.5340049266815186,-0.04174387827515602,-0.999273955821991,0.8809764981269836,1.371553659439087,0.41189587116241455,-0.4140302240848541
6.554128646850586,0.005792046897113323,-0.9912961721420288,0.9284316301345825,1.3773913383483887,0.43360525369644165,-0.4043219983577728
6.574307203292847,-0.006321628578007221,-0.9904376268386841,0.9221878051757812,1.3666207790374756,0.42342567443847656,-0.40529265999794006
6.594321966171265,0.03952566906809807,-0.9715137481689453,0.951066792011261,1.3979709148406982,0.473782479763031,-0.4033394753932953
6.614394903182983,0.05963534489274025,-0.9502077102661133,0.9970448017120361,1.4003667831420898,0.5080693364143372,-0.4037074148654938
6.634483098983765,0.05496779456734657,-0.9487958550453186,1.0078102350234985,1.4093366861343384,0.5160702466964722,-0.4025774896144867
6.654717683792114,0.039158228784799576,-0.9456183910369873,0.9863088726997375,1.396390438079834,0.510171115398407,-0.4058198630809784
6.674766778945923,-0.017279352992773056,-0.9648460149765015,0.9342125058174133,1.3783081769943237,0.4591711759567261,-0.41163119673728943
6.694952487945557,-0.061475519090890884,-0.9924992322921753,0.8436984419822693,1.3588745594024658,0.4118023216724396,-0.41637828946113586
6.71508264541626,-0.028384562581777573,-0.9719343781471252,0.8539556264877319,1.359855055809021,0.4528887867927551,-0.41819027066230774
6.73518967628479,0.0248282290995121,-0.984549343585968,0.9235703945159912,1.3790318965911865,0.4692947268486023,-0.4064493477344513
6.75524640083313,0.03147448971867561,-0.9785717725753784,0.9752248525619507,1.3790628910064697,0.45507127046585083,-0.3977471888065338
6.775306701660156,0.05699935182929039,-0.9501499533653259,0.9629177451133728,1.4059090614318848,0.504194438457489,-0.40260836482048035
6.795400857925415,0.08911304175853729,-0.939394474029541,1.0151159763336182,1.4198908805847168,0.5332303047180176,-0.40212032198905945
6.815466642379761,0.07957712560892105,-0.9226100444793701,1.0200022459030151,1.4145947694778442,0.5439574122428894,-0.3988899886608124
6.835535049438477,0.053145814687013626,-0.9252243041992188,1.0048481225967407,1.4004887342453003,0.5371389985084534,-0.40115517377853394
6.855607986450195,0.0037835268303751945,-0.9507076740264893,0.9914897680282593,1.3847600221633911,0.4795761704444885,-0.4038254916667938
6.875715255737305,-0.06046171858906746,-0.9682909846305847,0.887155294418335,1.361404538154602,0.42785608768463135,-0.4132305085659027
6.895832300186157,-0.04044000431895256,-0.9749212861061096,0.8509436249732971,1.3674266338348389,0.4327388405799866,-0.4135715365409851
6.9159064292907715,0.019761931151151657,-0.9738156199455261,0.8934059143066406,1.3779442310333252,0.489118754863739,-0.40901654958724976
6.936032056808472,0.03545409068465233,-0.9767166376113892,0.9631080031394958,1.3848752975463867,0.4872884154319763,-0.40256306529045105
6.956053733825684,0.036956917494535446,-0.9626421928405762,0.9581719040870667,1.385355830192566,0.4843761920928955,-0.3983496427536011
6.976131916046143,0.05159861221909523,-0.9401780366897583,0.9732183814048767,1.402758002281189,0.5164677500724792,-0.4077511727809906
6.996175527572632,0.08785146474838257,-0.9069620370864868,1.0434041023254395,1.4090080261230469,0.5739027857780457,-0.40092363953590393
7.01628851890564,0.06074399873614311,-0.9242308139801025,1.0025320053100586,1.4106417894363403,0.5576880574226379,-0.39921650290489197
7.036349773406982,-0.012879465706646442,-0.9602218866348267,0.9231343269348145,1.3631761074066162,0.474510133266449,-0.4119448959827423
7.056545257568359,-0.06369765847921371,-0.9965456128120422,0.8550193905830383,1.366884469985962,0.4126231074333191,-0.41347527503967285
7.0766191482543945,-0.03616728261113167,-0.9852587580680847,0.8497970104217529,1.3628814220428467,0.42862510681152344,-0.4115707278251648
7.096714019775391,-0.03281787410378456,-0.9964573383331299,0.8768962621688843,1.3659660816192627,0.4111063480377197,-0.40666526556015015
7.116827487945557,0.04315714165568352,-0.982061505317688,0.9370917081832886,1.3927630186080933,0.47659188508987427,-0.3988625109195709
7.136858940124512,0.03986990079283714,-0.9501877427101135,0.9896442294120789,1.3800349235534668,0.48539358377456665,-0.39641985297203064
7.1569294929504395,0.05404629930853844,-0.9382227063179016,0.9747041463851929,1.4120738506317139,0.5100311636924744,-0.4010953903198242
7.176974296569824,0.06296772509813309,-0.9199289083480835,1.0168654918670654,1.402557134628296,0.5307827591896057,-0.40306469798088074
7.197063207626343,-0.008257721550762653,-0.9492142200469971,0.9892222881317139,1.3891558647155762,0.4688098430633545,-0.40109434723854065
7.217146635055542,-0.04750944301486015,-0.9549853801727295,0.8531951308250427,1.3509916067123413,0.465415894985199,-0.4184992015361786
7.2372050285339355,-0.03709528222680092,-0.9768263101577759,0.848109781742096,1.3585786819458008,0.4277326464653015,-0.41005685925483704
7.2572996616363525,-0.0658988282084465,-0.9886034727096558,0.8459656238555908,1.3410133123397827,0.40774455666542053,-0.41224589943885803
7.277364492416382,-0.015683230012655258,-0.9878807067871094,0.8985818028450012,1.3577349185943604,0.4209405183792114,-0.4016060531139374
7.29740834236145,0.05923442170023918,-0.9733743667602539,0.9660684466362,1.390627145767212,0.47718751430511475,-0.3903237581253052
7.317484617233276,0.04115898534655571,-0.9524737596511841,0.9688233733177185,1.3837730884552002,0.493777871131897,-0.3969179093837738
7.337563991546631,0.03324803337454796,-0.9470484256744385,0.9576457738876343,1.4054808616638184,0.4829406142234802,-0.4029128849506378
7.357694625854492,0.10783735662698746,-0.900306761264801,1.0253461599349976,1.4189119338989258,0.5844947099685669,-0.39984872937202454
7.377751588821411,0.02581096813082695,-0.9552502632141113,0.9569737315177917,1.3946244716644287,0.5088569521903992,-0.4045114815235138
7.397953748703003,-0.03745782747864723,-0.9748896956443787,0.9053714275360107,1.3669589757919312,0.45099204778671265,-0.41139110922813416
7.417965650558472,-0.04603809490799904,-0.9979293346405029,0.857391357421875,1.3684282302856445,0.40530380606651306,-0.40949323773384094
7.438109636306763,-0.051399264484643936,-0.9945123195648193,0.8280046582221985,1.3488101959228516,0.38477379083633423,-0.4071526527404785
7.458083391189575,0.015792395919561386,-0.9682844281196594,0.8630846738815308,1.3647325038909912,0.4729629158973694,-0.4083347022533417
7.478190660476685,0.04079388454556465,-0.9713584780693054,0.9218127727508545,1.385237455368042,0.5009084343910217,-0.40470972657203674
7.498283863067627,0.050794411450624466,-0.9666253328323364,1.026613712310791,1.393662691116333,0.5003486275672913,-0.3920392394065857
7.518334865570068,0.07926850765943527,-0.9236516952514648,1.0154165029525757,1.4006849527359009,0.541275143623352,-0.3970797061920166
7.538832187652588,0.07058306038379669,-0.925555944442749,1.0470141172409058,1.4246559143066406,0.5305978655815125,-0.3911629617214203
7.558918714523315,0.03256315365433693,-0.9371117353439331,1.0212007761001587,1.4094560146331787,0.4913879632949829,-0.3926697075366974
7.578992128372192,-0.042987894266843796,-0.959892749786377,0.9345725774765015,1.3756074905395508,0.4340198040008545,-0.40324974060058594
7.599076986312866,-0.038089510053396225,-0.977198600769043,0.8032720685005188,1.3707867860794067,0.4361754059791565,-0.41175970435142517
7.619141578674316,-0.02428564801812172,-0.9818975925445557,0.7863541841506958,1.3534475564956665,0.43980252742767334,-0.4147375822067261
7.639225244522095,-0.0651913434267044,-1.0157960653305054,0.843967080116272,1.3569684028625488,0.38095882534980774,-0.4086834490299225
7.659295558929443,0.005902889184653759,-0.9975931644439697,0.8946205377578735,1.380183458328247,0.4442124366760254,-0.4068916141986847
7.679363250732422,0.08688728511333466,-0.9765994548797607,0.9720309972763062,1.402120590209961,0.5466814637184143,-0.4030895531177521
7.699412107467651,0.09909165650606155,-0.9495154619216919,1.0410335063934326,1.4047622680664062,0.561323344707489,-0.3952632248401642
7.719500780105591,0.11860132217407227,-0.9304001331329346,1.0490937232971191,1.418094515800476,0.5821570754051208,-0.3925384283065796
7.739567041397095,0.11768759042024612,-0.9192831516265869,1.051255464553833,1.4246327877044678,0.5910130143165588,-0.38963940739631653
7.759636878967285,0.07600180059671402,-0.9353667497634888,1.0118789672851562,1.4032789468765259,0.5470786094665527,-0.39559611678123474
7.779680252075195,-0.027941066771745682,-0.9840914607048035,0.9394789934158325,1.3749628067016602,0.42619818449020386,-0.40131112933158875
7.79977011680603,-0.07701541483402252,-0.9979689121246338,0.8642992973327637,1.356372356414795,0.3737674057483673,-0.4055841863155365
7.819921016693115,-0.06813792139291763,-1.0006784200668335,0.8619458079338074,1.365599274635315,0.35936564207077026,-0.40250831842422485
7.839915752410889,-0.04398276284337044,-0.9948697090148926,0.8684525489807129,1.364029884338379,0.37244683504104614,-0.39976850152015686
7.860013246536255,0.00987278949469328,-0.9674357771873474,0.895617663860321,1.3778964281082153,0.4574941396713257,-0.4026713967323303
7.8800976276397705,0.043301600962877274,-0.9622375965118408,0.9425212740898132,1.3917531967163086,0.49250727891921997,-0.399329274892807
7.9001624584198,0.08256331831216812,-0.9322806000709534,1.003118634223938,1.400721549987793,0.5554271936416626,-0.3954826891422272
7.920218229293823,0.07451123744249344,-0.9448707699775696,1.0226060152053833,1.4136731624603271,0.5472568273544312,-0.394114226102829
7.940306663513184,0.07362817972898483,-0.942451000213623,1.0024833679199219,1.4066565036773682,0.5474017262458801,-0.3968977630138397
7.960375547409058,0.01846107468008995,-0.9629254341125488,0.9551855325698853,1.389784336090088,0.48538506031036377,-0.40175729990005493
7.980455160140991,-0.046701204031705856,-0.9864839315414429,0.8983616828918457,1.367199182510376,0.40331172943115234,-0.4063911736011505
8.000535488128662,-0.05861969664692879,-1.007106065750122,0.8774245381355286,1.366898775100708,0.37150105834007263,-0.40283629298210144
8.020676136016846,-0.020306702703237534,-0.9901553392410278,0.8346201777458191,1.36569082736969,0.4073184132575989,-0.40387681126594543
8.040701389312744,0.022558879107236862,-0.9650870561599731,0.8799602389335632,1.3698046207427979,0.47712242603302,-0.4065071940422058
8.06076169013977,0.05214274302124977,-0.9656169414520264,1.0024127960205078,1.3928439617156982,0.499939501285553,-0.39574000239372253
8.080832242965698,0.018919240683317184,-0.969389021396637,0.9679700136184692,1.3885447978973389,0.4583284854888916,-0.3940427303314209
8.100910425186157,0.05707903578877449,-0.9365478754043579,0.9505656957626343,1.4019248485565186,0.512082040309906,-0.40100154280662537
8.121027708053589,0.040603067725896835,-0.9439917206764221,0.9978829622268677,1.4127798080444336,0.5161744952201843,-0.3982056975364685
8.141135931015015,-0.035735923796892166,-0.9645168781280518,0.9010463953018188,1.3638633489608765,0.44992774724960327,-0.40945038199424744
8.161155462265015,-0.012671050615608692,-0.9805788993835449,0.8694204688072205,1.36482834815979,0.4427313208580017,-0.40893200039863586
8.181273698806763,-0.04549006000161171,-1.0012881755828857,0.8846428394317627,1.3566482067108154,0.3988552391529083,-0.40453991293907166
8.20139765739441,-0.02098868414759636,-0.9904773235321045,0.900734543800354,1.3532040119171143,0.40828150510787964,-0.4010626971721649
8.221466302871704,0.02651834860444069,-0.9823903441429138,0.9371839165687561,1.379106044769287,0.440299928188324,-0.3916148245334625
8.242176532745361,0.08559893816709518,-0.9367811679840088,1.0056849718093872,1.4097785949707031,0.5303055047988892,-0.3928956985473633
8.262332677841187,0.07680479437112808,-0.919939398765564,1.0389652252197266,1.4079413414001465,0.5355111956596375,-0.3918139934539795
8.282379150390625,0.04831267520785332,-0.934236466884613,1.0606352090835571,1.4115817546844482,0.49349886178970337,-0.3864831328392029
8.302464008331299,0.029468800872564316,-0.9226721525192261,1.0355969667434692,1.3964478969573975,0.5000845193862915,-0.39204585552215576
8.322547197341919,0.007651033811271191,-0.9398117661476135,0.9714856743812561,1.3772497177124023,0.48088836669921875,-0.3976159989833832
8.342649698257446,-0.06434047967195511,-0.9613066911697388,0.8710514903068542,1.3540678024291992,0.42253679037094116,-0.40948909521102905
8.362704992294312,-0.05060921981930733,-0.9913172125816345,0.8559274673461914,1.3666527271270752,0.41343918442726135,-0.40749743580818176
8.382896423339844,-0.013773408718407154,-0.9868662357330322,0.8313013315200806,1.3675185441970825,0.44326239824295044,-0.408615380525589
8.402965545654297,0.051617104560136795,-0.9647696018218994,0.892737865447998,1.3814371824264526,0.5104854106903076,-0.40569600462913513
8.423042297363281,0.015684042125940323,-0.9789403676986694,1.025107979774475,1.3843841552734375,0.46394622325897217,-0.39477047324180603
8.443079710006714,0.024012979120016098,-0.9582836627960205,0.9864964485168457,1.384320855140686,0.47548818588256836,-0.39411649107933044
8.46322751045227,0.08482776582241058,-0.9142767190933228,0.9620151519775391,1.4156345129013062,0.5584198832511902,-0.40191009640693665
8.483254671096802,0.03435812518000603,-0.9580912590026855,0.9674026370048523,1.4068572521209717,0.5014566779136658,-0.40360134840011597
8.503338813781738,-0.044538382440805435,-0.9679311513900757,0.8717964291572571,1.3566093444824219,0.4444049000740051,-0.4167344868183136
8.52344536781311,-0.0868099108338356,-1.0134711265563965,0.8415607213973999,1.349475383758545,0.3667088747024536,-0.4094680845737457
8.543496370315552,-0.07685760408639908,-0.9861174821853638,0.8220084309577942,1.3391711711883545,0.37702855467796326,-0.41073107719421387
8.56356430053711,-0.05506071820855141,-0.9847453236579895,0.8364150524139404,1.3396649360656738,0.3956001400947571,-0.40920719504356384
8.583621263504028,0.010134774260222912,-0.9666401147842407,0.890117883682251,1.3751778602600098,0.4568093419075012,-0.4049513339996338
8.603759050369263,0.057034675031900406,-0.9508950710296631,0.937576174736023,1.3949205875396729,0.5174083113670349,-0.4021502435207367
8.623886346817017,0.04017936810851097,-0.9610676765441895,1.0278584957122803,1.3994656801223755,0.48908424377441406,-0.39182737469673157
8.643906831741333,0.06924521923065186,-0.9261918663978577,1.0206894874572754,1.4011248350143433,0.541133463382721,-0.3980468809604645
8.664047241210938,0.07565343379974365,-0.9348692893981934,1.0275143384933472,1.4132624864578247,0.5396360754966736,-0.3954468071460724
8.684082746505737,0.0017910702154040337,-0.9540547728538513,0.9519890546798706,1.3832085132598877,0.473147451877594,-0.401096910238266
8.704143524169922,-0.063459612429142,-0.9871659874916077,0.8731539845466614,1.3639953136444092,0.40140777826309204,-0.4084254503250122
8.724410057067871,-0.04942445084452629,-0.9955009818077087,0.8660532236099243,1.361811637878418,0.39853426814079285,-0.4055732786655426
8.744523048400879,-0.027638886123895645,-0.9904502630233765,0.8384313583374023,1.359569787979126,0.4194406569004059,-0.40733298659324646
8.764575242996216,0.05073205754160881,-0.9618412256240845,0.9057888388633728,1.3862709999084473,0.51407390832901,-0.4046277105808258
8.784717798233032,0.02112473174929619,-0.986374020576477,0.9922968745231628,1.3891236782073975,0.4641806483268738,-0.3947615325450897
8.804823875427246,0.0010519055649638176,-0.9733136892318726,0.9775650501251221,1.3830561637878418,0.44082731008529663,-0.3964102864265442
8.824903964996338,0.08601956814527512,-0.9399257898330688,0.9848264455795288,1.4327199459075928,0.5451352596282959,-0.39852097630500793
8.84501338005066,0.034017499536275864,-0.955280065536499,0.9512767195701599,1.3960638046264648,0.5143936276435852,-0.4051888883113861
8.865064859390259,-0.008384902961552143,-0.9664430022239685,0.912693977355957,1.3804247379302979,0.4815855622291565,-0.4100746214389801
8.885149478912354,-0.08716610819101334,-1.015318512916565,0.8567360043525696,1.3509522676467896,0.3735959827899933,-0.4084305465221405
8.905257225036621,-0.07223516702651978,-0.9874910712242126,0.844467282295227,1.3434687852859497,0.3747764229774475,-0.4060312807559967
8.925466299057007,-0.07109565287828445,-0.9876388311386108,0.8484164476394653,1.3447614908218384,0.379835844039917,-0.40626201033592224
8.945554971694946,-0.003323403187096119,-0.9715063571929932,0.9089745283126831,1.3769721984863281,0.44278478622436523,-0.40143221616744995
8.965626955032349,0.06545871496200562,-0.9517006278038025,0.9830568432807922,1.404451847076416,0.522729218006134,-0.39496108889579773
8.985812425613403,0.0856420248746872,-0.9280071258544922,1.0137795209884644,1.40694260597229,0.5694286227226257,-0.39532971382141113
9.00597882270813,0.07309945672750473,-0.9420931339263916,1.0022618770599365,1.4144139289855957,0.5588645339012146,-0.3945305347442627
9.026005983352661,0.06297554820775986,-0.9394108653068542,0.9927934408187866,1.408718228340149,0.5507847666740417,-0.39868465065956116
9.04605507850647,-0.01055475790053606,-0.9735322594642639,0.9298694133758545,1.370386004447937,0.4665334224700928,-0.4060690104961395
9.066157579421997,-0.0387842021882534,-0.981347918510437,0.8827413320541382,1.3713657855987549,0.4416345953941345,-0.4088476598262787
9.086238384246826,-0.059781525284051895,-0.9957998991012573,0.8497233390808105,1.362065315246582,0.3801153898239136,-0.4052376449108124
9.106324434280396,-0.03640362247824669,-0.9818676114082336,0.8484542965888977,1.3561897277832031,0.4032871723175049,-0.40478259325027466
9.126398086547852,-0.017499540001153946,-0.9742297530174255,0.8888804316520691,1.365647315979004,0.4318081736564636,-0.40459755063056946
9.146456956863403,0.0627383142709732,-0.9648347496986389,0.9635453820228577,1.397010087966919,0.5241085290908813,-0.3987298607826233
9.166538953781128,0.048689041286706924,-0.9475724697113037,0.9865593314170837,1.3851845264434814,0.5150370001792908,-0.39732420444488525
9.186751127243042,0.05026274546980858,-0.9347715377807617,1.0040324926376343,1.4062108993530273,0.5249767303466797,-0.4005011022090912
9.206836223602295,0.030693013221025467,-0.9475277662277222,0.9813529253005981,1.4087796211242676,0.5016582608222961,-0.39846014976501465
9.226905107498169,-0.07563957571983337,-0.9851640462875366,0.8881686925888062,1.363363265991211,0.3866085112094879,-0.4061906635761261
9.24696135520935,-0.08777594566345215,-0.9972142577171326,0.8490108847618103,1.3517570495605469,0.37442976236343384,-0.40830498933792114
9.267138957977295,-0.05782507732510567,-0.9922690987586975,0.8113414645195007,1.353749394416809,0.39330488443374634,-0.4072181284427643
9.287219762802124,-0.02579011395573616,-0.976317286491394,0.8324238657951355,1.3540394306182861,0.43317776918411255,-0.4093349575996399
9.30725383758545,0.0635978952050209,-0.9567132592201233,0.9224811792373657,1.3962712287902832,0.5313301086425781,-0.4032488763332367
9.327433109283447,0.059156712144613266,-0.9740746021270752,0.9768396019935608,1.3970059156417847,0.520715594291687,-0.3980066478252411
9.347456693649292,0.04471919313073158,-0.9361352920532227,0.9872936010360718,1.389054536819458,0.5165248513221741,-0.4001786708831787
9.36763858795166,0.048377905040979385,-0.9421122074127197,0.9905500411987305,1.4250822067260742,0.5210428833961487,-0.40008124709129333
9.387887001037598,0.02237185463309288,-0.9430587291717529,0.9464521408081055,1.3958473205566406,0.5061160922050476,-0.408779501914978
9.40800952911377,-0.04331773892045021,-0.9742421507835388,0.8991815447807312,1.363635778427124,0.44776540994644165,-0.41261425614356995
9.42812442779541,-0.09239775687456131,-0.9905408620834351,0.8232588171958923,1.3347561359405518,0.3965890407562256,-0.4153662323951721
9.44812297821045,-0.11581600457429886,-0.9962592720985413,0.8125008344650269,1.3334486484527588,0.3503195643424988,-0.40974482893943787
9.4682936668396,-0.1116272360086441,-0.9834092259407043,0.792190432548523,1.3159198760986328,0.37009453773498535,-0.4140879511833191
9.48837661743164,-0.03599104657769203,-0.9694889783859253,0.865870475769043,1.3556640148162842,0.43983107805252075,-0.40868228673934937
9.508485078811646,0.06504783779382706,-0.9561464786529541,0.9654626846313477,1.4033598899841309,0.5352793335914612,-0.3996598422527313
9.52853798866272,0.07157358527183533,-0.9418520331382751,1.0136873722076416,1.4065659046173096,0.5519816279411316,-0.39555731415748596
9.548722982406616,0.08364299684762955,-0.9314559102058411,1.042675495147705,1.4228298664093018,0.5666119456291199,-0.3964920938014984
9.568835973739624,0.0828922763466835,-0.9316195249557495,1.022117257118225,1.414966344833374,0.5666908621788025,-0.39755144715309143
9.588899374008179,0.0014187796041369438,-0.9589120745658875,0.9564830660820007,1.3907170295715332,0.47510069608688354,-0.4017105996608734
9.608999729156494,-0.060039978474378586,-0.995592474937439,0.8830733299255371,1.3717888593673706,0.4012466073036194,-0.40731367468833923
9.62905740737915,-0.02514684572815895,-0.9849943518638611,0.88496994972229,1.3777062892913818,0.41007888317108154,-0.40180620551109314
9.649148941040039,-0.02643769606947899,-0.9804415702819824,0.849302351474762,1.3503466844558716,0.3720613121986389,-0.39677199721336365
9.669312238693237,0.05408892408013344,-0.9529064893722534,0.9149655103683472,1.3789461851119995,0.49850666522979736,-0.3977530598640442
9.68929934501648,0.02250124141573906,-0.9675122499465942,0.9946189522743225,1.392261028289795,0.4841042160987854,-0.39339104294776917
9.709373474121094,0.04467710480093956,-0.9457482099533081,0.9842337369918823,1.3921022415161133,0.5097234845161438,-0.39698663353919983
9.729443788528442,0.06508825719356537,-0.9252689480781555,0.9922772645950317,1.416297435760498,0.548987627029419,-0.40133264660835266
9.749515056610107,0.0020156754180788994,-0.9632536172866821,0.9473381638526917,1.3934195041656494,0.47576040029525757,-0.40400752425193787
9.769568920135498,-0.08528072386980057,-1.0140200853347778,0.8557199239730835,1.3634068965911865,0.36391785740852356,-0.4054596424102783
9.789651870727539,-0.0350235290825367,-0.9841799139976501,0.868614912033081,1.3517940044403076,0.39905527234077454,-0.4066012501716614
9.809722661972046,-0.05887293443083763,-0.9853225350379944,0.8497583270072937,1.3412067890167236,0.35660839080810547,-0.40039995312690735
9.829790592193604,0.01113367360085249,-0.9636663794517517,0.9080424308776855,1.3718318939208984,0.45458686351776123,-0.39959004521369934
9.849887371063232,0.049778301268815994,-0.960234522819519,0.968421995639801,1.3933742046356201,0.5133461952209473,-0.3955199122428894
9.869979619979858,0.07401525974273682,-0.9360105991363525,1.0074809789657593,1.401118278503418,0.5464323163032532,-0.39560192823410034
9.89014458656311,0.09067130088806152,-0.9207329750061035,1.0458201169967651,1.421791672706604,0.570992112159729,-0.3920120298862457
9.91013503074646,0.07014425843954086,-0.933003306388855,1.0318684577941895,1.4169998168945312,0.5410507321357727,-0.39254406094551086
9.930276870727539,0.03275598958134651,-0.9528171420097351,0.9867827892303467,1.398305058479309,0.5014512538909912,-0.3958025872707367
9.950331211090088,-0.048513393849134445,-0.9743149280548096,0.8915005326271057,1.3651714324951172,0.41504889726638794,-0.4056433141231537
9.970404148101807,-0.06671128422021866,-1.0113109350204468,0.8675936460494995,1.373636245727539,0.3620990514755249,-0.4013950824737549
9.990449905395508,-0.037499282509088516,-0.998694896697998,0.8636853694915771,1.3652175664901733,0.38856399059295654,-0.4033641517162323
10.010559797286987,0.027590524405241013,-0.9706039428710938,0.8607968688011169,1.3709533214569092,0.46864795684814453,-0.4068584740161896
10.030626058578491,0.06379125267267227,-0.9693178534507751,0.9901353716850281,1.3887544870376587,0.4985426068305969,-0.39786961674690247
10.050680875778198,0.04761232063174248,-0.9649356603622437,0.9905194044113159,1.3919627666473389,0.48227453231811523,-0.39147114753723145
10.07128119468689,0.06405242532491684,-0.9244916439056396,0.996211051940918,1.4088785648345947,0.5230990052223206,-0.39656758308410645
10.091449737548828,0.038394276052713394,-0.938451886177063,1.0248560905456543,1.4156913757324219,0.48441118001937866,-0.3932107985019684
10.11151909828186,-0.04593416675925255,-0.959506094455719,0.93813556432724,1.3789846897125244,0.41503626108169556,-0.4012924134731293
10.13159990310669,-0.042120639234781265,-0.9702942371368408,0.8082727789878845,1.362742304801941,0.440135657787323,-0.4128117859363556
10.15225863456726,-0.09371189028024673,-1.0019471645355225,0.8398065567016602,1.349114179611206,0.3782055079936981,-0.4111649692058563
10.172353029251099,-0.057732585817575455,-0.9957252144813538,0.8354349136352539,1.3413550853729248,0.4040541648864746,-0.4111957550048828
10.192411184310913,0.005380931310355663,-0.9836424589157104,0.8705499768257141,1.3619601726531982,0.4667949080467224,-0.40619581937789917
10.212589025497437,0.06758733838796616,-0.9806537628173828,0.9943966269493103,1.3913707733154297,0.5105916857719421,-0.3937952518463135
10.232742547988892,0.03359142318367958,-0.985072135925293,0.9994772672653198,1.3841084241867065,0.47092205286026,-0.39158037304878235
10.252799034118652,0.12325644493103027,-0.902164101600647,1.0108261108398438,1.4255340099334717,0.5801116824150085,-0.3951358497142792
10.273101091384888,0.051418956369161606,-0.9600715041160583,0.9991327524185181,1.4210269451141357,0.47283440828323364,-0.39012429118156433
10.293232202529907,0.011159445159137249,-0.9470428824424744,0.9629698395729065,1.3965973854064941,0.45652276277542114,-0.3981887102127075
10.313463926315308,-0.06059359386563301,-0.9678629636764526,0.8349977731704712,1.3494703769683838,0.43105626106262207,-0.414675772190094
10.333415031433105,-0.08908133953809738,-0.995323896408081,0.8230906128883362,1.3298664093017578,0.3978041708469391,-0.4138149321079254
10.353685140609741,-0.08207017928361893,-0.9849985837936401,0.809239387512207,1.320629596710205,0.39983847737312317,-0.4122260510921478
10.373817920684814,-0.03368604555726051,-0.9902507066726685,0.855396568775177,1.3516483306884766,0.41550904512405396,-0.40454593300819397
10.393902778625488,0.024052437394857407,-0.9698669910430908,0.9027677774429321,1.376309871673584,0.4781922698020935,-0.40073367953300476
10.413958311080933,0.059382107108831406,-0.9763027429580688,0.9978413581848145,1.4010173082351685,0.4994772672653198,-0.390462726354599
10.434040546417236,0.05432368442416191,-0.9572963118553162,1.0080560445785522,1.398221492767334,0.5002314448356628,-0.3909747898578644
10.454120874404907,0.06408467143774033,-0.9397534132003784,1.0414702892303467,1.4252341985702515,0.48679548501968384,-0.38537833094596863
10.474217891693115,0.06477805227041245,-0.9069040417671204,1.0443729162216187,1.4198644161224365,0.4975932240486145,-0.38690024614334106
10.494277954101562,-0.024352792650461197,-0.9431495666503906,0.9433128237724304,1.3806498050689697,0.4306138753890991,-0.39686673879623413
10.514357566833496,-0.08432407677173615,-0.9521984457969666,0.8695221543312073,1.3541033267974854,0.39940106868743896,-0.40708664059638977
10.534423351287842,-0.09671010076999664,-0.9946167469024658,0.8038058280944824,1.356115460395813,0.3949574828147888,-0.4121112823486328
10.554497718811035,-0.1244717612862587,-1.023092269897461,0.7790894508361816,1.332855224609375,0.33708739280700684,-0.4112767279148102
10.574882984161377,-0.053046274930238724,-0.9943894147872925,0.8213130235671997,1.3445765972137451,0.4082476794719696,-0.41312509775161743
10.595074892044067,0.01569431647658348,-0.9795056581497192,0.8328686356544495,1.3709430694580078,0.4780825972557068,-0.410907119512558
10.61511492729187,0.0796971395611763,-0.9677255153656006,0.9493651390075684,1.3947012424468994,0.5441045165061951,-0.40380871295928955
10.635195970535278,0.0691167414188385,-0.9666075110435486,1.0042749643325806,1.4026082754135132,0.5167531371116638,-0.3971177637577057
10.655315160751343,0.09186037629842758,-0.9216501712799072,1.0487805604934692,1.4349780082702637,0.5392724275588989,-0.3925420939922333
10.675418138504028,0.06698986142873764,-0.9315909743309021,1.0649645328521729,1.431847333908081,0.49831777811050415,-0.3889305889606476
10.695476770401001,-0.005146634764969349,-0.9380650520324707,1.0035796165466309,1.3961646556854248,0.4399675726890564,-0.39432772994041443
10.715633869171143,-0.08900842070579529,-0.9563426971435547,0.8599510192871094,1.3536655902862549,0.3941580653190613,-0.4116370975971222
10.735704183578491,-0.10153884440660477,-0.9814208745956421,0.8371223211288452,1.346622109413147,0.3703761100769043,-0.41214850544929504
10.75587511062622,-0.1280122995376587,-0.9916214942932129,0.8003129363059998,1.3240966796875,0.33445262908935547,-0.41068753600120544
10.775925636291504,-0.10568009316921234,-0.9762604236602783,0.8012938499450684,1.3254199028015137,0.37034499645233154,-0.41260385513305664
10.795968055725098,-0.04061782732605934,-0.9723885655403137,0.8701213002204895,1.3613669872283936,0.4364796280860901,-0.4079478681087494
10.816077709197998,0.01996340975165367,-0.9590198397636414,0.9101600050926208,1.3791699409484863,0.4967358708381653,-0.40608686208724976
10.836182594299316,0.08183089643716812,-0.9549974203109741,1.0187904834747314,1.412285327911377,0.562198281288147,-0.39572951197624207
10.856245756149292,0.13644731044769287,-0.9015964865684509,1.0345255136489868,1.4204225540161133,0.6608026623725891,-0.39523783326148987
10.876307249069214,0.125416100025177,-0.9384710788726807,1.0654593706130981,1.4453117847442627,0.6273471713066101,-0.3902042508125305
10.896406412124634,0.09927757829427719,-0.941589891910553,1.0327473878860474,1.430121898651123,0.5986565351486206,-0.3948672413825989
10.916463136672974,0.027867425233125687,-0.975088357925415,0.9483282566070557,1.3908698558807373,0.5172541737556458,-0.40726497769355774
10.936623096466064,-0.0628247931599617,-1.0149582624435425,0.8868381381034851,1.369142770767212,0.38874030113220215,-0.40761762857437134
10.956615924835205,-0.07460928708314896,-1.0039663314819336,0.8627294301986694,1.3542227745056152,0.3304431736469269,-0.3989776074886322
10.976703405380249,-0.07063876837491989,-0.9826123118400574,0.8522166609764099,1.3473035097122192,0.3543132543563843,-0.402569979429245
10.996766328811646,-0.013305102474987507,-0.9605036973953247,0.9061418771743774,1.3680413961410522,0.43136221170425415,-0.40227940678596497
11.016839981079102,0.04975227639079094,-0.9425368309020996,0.9434056878089905,1.3970277309417725,0.5239956378936768,-0.3982159197330475
11.036907196044922,0.06655903160572052,-0.9385387897491455,1.0063601732254028,1.403581142425537,0.563968300819397,-0.39726904034614563
11.05701494216919,0.05411198362708092,-0.9526888132095337,0.9767401814460754,1.4039134979248047,0.5486707091331482,-0.3981354534626007
11.07710075378418,0.03307807818055153,-0.9596462845802307,0.9582055807113647,1.3988217115402222,0.5149362087249756,-0.4032040536403656
11.097156524658203,-0.018687661737203598,-0.983680248260498,0.92063307762146,1.3782622814178467,0.4387219548225403,-0.40647685527801514
11.117289781570435,-0.03817993029952049,-1.006824016571045,0.8852930068969727,1.3736662864685059,0.3910143971443176,-0.4025527238845825
11.137408018112183,-0.01622479036450386,-0.9861329793930054,0.8673949241638184,1.368861436843872,0.42111441493034363,-0.4053124487400055
11.157440185546875,0.030981939285993576,-0.9692302942276001,0.9008315801620483,1.381820797920227,0.47721201181411743,-0.40366148948669434
11.177540063858032,0.037190768867731094,-0.9697480797767639,0.9907674193382263,1.3912155628204346,0.4914819598197937,-0.3970619738101959
11.197606801986694,0.05956657603383064,-0.925520658493042,0.9705613255500793,1.400473713874817,0.5434466004371643,-0.3985721170902252
11.2177414894104,0.02771519497036934,-0.9535685777664185,1.005750298500061,1.400832176208496,0.4918408989906311,-0.39698073267936707
11.237825155258179,-0.009012793190777302,-0.9592729210853577,0.949105978012085,1.3887405395507812,0.46254563331604004,-0.4009389281272888
11.257896423339844,-0.05079479143023491,-0.9924265146255493,0.8806952238082886,1.374320149421692,0.4095108211040497,-0.40508612990379333
11.277949571609497,-0.009702404029667377,-0.9729287624359131,0.8649255633354187,1.361107349395752,0.4498213529586792,-0.40741050243377686
11.298034191131592,-0.007843364961445332,-0.9851299524307251,0.9027257561683655,1.3560724258422852,0.4264206290245056,-0.4009794592857361
11.318110466003418,0.010400461964309216,-0.9865790009498596,0.9361822605133057,1.3641619682312012,0.4151706397533417,-0.39200136065483093
11.338179111480713,0.07870088517665863,-0.9352803826332092,0.957303524017334,1.3936777114868164,0.5471628308296204,-0.39362871646881104
11.358262538909912,0.030555065721273422,-0.9685475826263428,1.0118637084960938,1.401576042175293,0.4810643792152405,-0.3894360065460205
11.378339052200317,0.08360620588064194,-0.9153642654418945,1.0084317922592163,1.4206469058990479,0.563560426235199,-0.39247646927833557
11.398428916931152,0.028104159981012344,-0.9513238668441772,0.9977231025695801,1.4138511419296265,0.49511951208114624,-0.3920939564704895
11.418534278869629,-0.061544809490442276,-0.9840726852416992,0.8712655901908875,1.3640191555023193,0.4101545512676239,-0.4057055115699768
11.438616275787354,-0.07333461195230484,-0.9938087463378906,0.8534564971923828,1.3558440208435059,0.3843045234680176,-0.40919676423072815
11.458678245544434,-0.13053975999355316,-1.019702672958374,0.8356248736381531,1.334975004196167,0.2841852009296417,-0.398019939661026
11.478726863861084,-0.08624947816133499,-0.9742942452430725,0.8337681293487549,1.3276727199554443,0.35068845748901367,-0.4040634334087372
11.498817205429077,-0.05016056075692177,-0.9732530117034912,0.8599217534065247,1.3503543138504028,0.38707923889160156,-0.40112578868865967
11.518878698348999,0.031646404415369034,-0.9524111151695251,0.9341446757316589,1.3822543621063232,0.48908621072769165,-0.39909136295318604
11.538945198059082,0.0951714888215065,-0.9184070825576782,1.0079009532928467,1.408246636390686,0.5857071280479431,-0.3940821588039398
11.559035062789917,0.1080559715628624,-0.9171735048294067,1.0137362480163574,1.4170087575912476,0.613533079624176,-0.39359724521636963
11.579128980636597,0.10146386176347733,-0.9287517070770264,1.0267497301101685,1.4153755903244019,0.6024401783943176,-0.39506176114082336
11.59919810295105,0.04078979417681694,-0.9741021394729614,0.9817665815353394,1.408827304840088,0.5103164315223694,-0.39589694142341614
11.619252920150757,-0.04131735488772392,-0.9965629577636719,0.903504490852356,1.373985767364502,0.4101438522338867,-0.4034758508205414
11.63933253288269,-0.03733796253800392,-0.9865090250968933,0.8829964399337769,1.3664302825927734,0.4089091420173645,-0.4068952202796936
11.65942931175232,-0.06002388522028923,-0.9945747256278992,0.8726995587348938,1.3523240089416504,0.36371028423309326,-0.4012695252895355
11.67949628829956,-0.026438962668180466,-0.9738346338272095,0.8955548405647278,1.3622798919677734,0.4103096127510071,-0.4006415903568268
11.699543237686157,0.03929191455245018,-0.9544755220413208,0.9394967555999756,1.3840608596801758,0.49459874629974365,-0.39826148748397827
11.71963381767273,0.05879904702305794,-0.9481745958328247,0.9667121171951294,1.3956403732299805,0.5259319543838501,-0.39686477184295654
11.739798784255981,0.07121982425451279,-0.9425643682479858,1.0058574676513672,1.4062297344207764,0.552509605884552,-0.3947959244251251
11.759862422943115,-0.06180818751454353,-1.3696987628936768,0.8528788089752197,0.755218505859375,0.20861020684242249,-0.601773202419281
11.780150651931763,-0.11079774051904678,-1.4244886636734009,0.7954859137535095,0.7266807556152344,0.09817421436309814,-0.5716450214385986
11.800240278244019,-0.1210310086607933,-1.4226398468017578,0.7776904702186584,0.7128967046737671,0.07808400690555573,-0.5635408759117126
11.820319175720215,-0.13363492488861084,-1.4226101636886597,0.7702879905700684,0.7081011533737183,0.05051085352897644,-0.5529677867889404
11.840445518493652,-0.1241399273276329,-1.4155954122543335,0.771958589553833,0.7057332396507263,0.06055426597595215,-0.5528101921081543
11.86049199104309,-0.104256771504879,-1.410232663154602,0.7773971557617188,0.7033981084823608,0.0903296172618866,-0.5586817264556885
11.880553245544434,-0.08503491431474686,-1.4065091609954834,0.7925544381141663,0.7040289640426636,0.11796487867832184,-0.5643720626831055
11.900821924209595,-0.07870808243751526,-1.4066760540008545,0.7964667677879333,0.7078740000724792,0.1285008192062378,-0.5667630434036255
11.920979738235474,-0.08211353421211243,-1.4097956418991089,0.7997329235076904,0.7088348865509033,0.12398423254489899,-0.5677595138549805
11.94115424156189,-0.09933038055896759,-1.417894959449768,0.7902467250823975,0.7110786437988281,0.10270670056343079,-0.5654378533363342
11.961148023605347,-0.10906434804201126,-1.4187639951705933,0.7821968793869019,0.7079172730445862,0.08591295778751373,-0.5616459846496582
11.981252670288086,-0.1114591509103775,-1.4181467294692993,0.7798042893409729,0.7091079950332642,0.08087965846061707,-0.5596532821655273
12.001397132873535,-0.10625844448804855,-1.4138461351394653,0.7799955606460571,0.7046160101890564,0.08688056468963623,-0.5599619150161743
12.021434545516968,-0.09833056479692459,-1.4113296270370483,0.7861418724060059,0.706913948059082,0.0976296067237854,-0.5616001486778259
12.041682004928589,-0.09478940814733505,-1.411805510520935,0.7907636761665344,0.7041220664978027,0.10309942066669464,-0.5638185739517212
12.061861276626587,-0.08646432310342789,-1.4094446897506714,0.7994890213012695,0.703585147857666,0.11098968982696533,-0.5650553703308105
12.081928253173828,-0.09354645013809204,-1.4141727685928345,0.7946376800537109,0.7084945440292358,0.10304895043373108,-0.5645732879638672
12.10194993019104,-0.08882240206003189,-1.4101183414459229,0.7947556376457214,0.7073227167129517,0.11163604259490967,-0.5655301809310913
12.12203598022461,-0.09300792962312698,-1.4132590293884277,0.7981077432632446,0.7093941569328308,0.10539180040359497,-0.5654121041297913
12.142176389694214,-0.10006967186927795,-1.4142452478408813,0.7865051031112671,0.7091052532196045,0.09638461470603943,-0.5633505582809448
12.162271738052368,-0.1016249880194664,-1.41419517993927,0.7861841917037964,0.7091670036315918,0.09350228309631348,-0.5625400543212891
12.182451009750366,-0.09534911811351776,-1.411749005317688,0.7951763272285461,0.7060729265213013,0.09684780240058899,-0.5633339881896973
12.202590227127075,-0.09606277197599411,-1.4132193326950073,0.7946788668632507,0.7058849334716797,0.09503662586212158,-0.5631923675537109
12.22264552116394,-0.09278476238250732,-1.4112300872802734,0.790288507938385,0.7055478096008301,0.10653984546661377,-0.5649977922439575
12.242722511291504,-0.09067653864622116,-1.4121731519699097,0.8001642227172852,0.7092604637145996,0.10064469277858734,-0.5643270015716553
12.262772560119629,-0.08749455213546753,-1.4104970693588257,0.7997728586196899,0.709250807762146,0.10443942248821259,-0.5643928050994873
12.282922983169556,-0.0852578654885292,-1.4112828969955444,0.8028721213340759,0.7088433504104614,0.10806691646575928,-0.5655396580696106
12.302985191345215,-0.09074360877275467,-1.4121805429458618,0.795957088470459,0.7103875875473022,0.10717380046844482,-0.5655930638313293
12.323041200637817,-0.09423621743917465,-1.4129512310028076,0.7933542132377625,0.7092994451522827,0.1020650863647461,-0.5651040077209473
12.34312105178833,-0.09801220148801804,-1.4144846200942993,0.7929970622062683,0.7086426615715027,0.09652651846408844,-0.5644675493240356
12.36324167251587,-0.09735671430826187,-1.4126014709472656,0.7899272441864014,0.705743670463562,0.0960041880607605,-0.5636783838272095
12.383370637893677,-0.0918126031756401,-1.4112685918807983,0.7960555553436279,0.7081020474433899,0.1015138179063797,-0.5644024014472961
12.403408527374268,-0.08294183760881424,-1.4098598957061768,0.7988255620002747,0.7101380825042725,0.10749977827072144,-0.5651774406433105
12.42345905303955,-0.08671482652425766,-1.4118162393569946,0.7996000051498413,0.7104990482330322,0.10693773627281189,-0.5656189918518066
12.443679094314575,-0.08138027787208557,-1.4087176322937012,0.8081402778625488,0.7095447182655334,0.11412432789802551,-0.5673907995223999
12.463654518127441,-0.08820708841085434,-1.4117369651794434,0.8033168315887451,0.7115910053253174,0.10425253212451935,-0.5660246014595032
12.483724355697632,-0.08884096890687943,-1.411737322807312,0.8017809987068176,0.7088781595230103,0.10152953863143921,-0.5653908252716064
12.503798484802246,-0.08706328272819519,-1.409440279006958,0.7981319427490234,0.7088198661804199,0.10666432976722717,-0.5657766461372375
12.523882150650024,-0.08882134407758713,-1.4109691381454468,0.807131290435791,0.709028959274292,0.10088804364204407,-0.5655972361564636
12.543927192687988,-0.08931250125169754,-1.4104955196380615,0.8004893064498901,0.7083114385604858,0.10101789236068726,-0.565520167350769
12.564475059509277,-0.08572693914175034,-1.4092494249343872,0.8023907542228699,0.707245409488678,0.10710769891738892,-0.5665234923362732
12.584562063217163,-0.08495847880840302,-1.409908652305603,0.8088985085487366,0.7073795795440674,0.10609830915927887,-0.5670492649078369
12.604630470275879,-0.08826502412557602,-1.410831093788147,0.8035026788711548,0.7082758545875549,0.10182680189609528,-0.5662880539894104
12.624783515930176,-0.08765501528978348,-1.409960150718689,0.8000198602676392,0.7085146903991699,0.10530351102352142,-0.5665835738182068
12.6448814868927,-0.08848634362220764,-1.4107345342636108,0.8011414408683777,0.7105071544647217,0.10386809706687927,-0.5664777755737305
12.664923429489136,-0.09015782177448273,-1.4112104177474976,0.800920844078064,0.7125649452209473,0.09945949912071228,-0.5657646059989929
12.685008525848389,-0.08681265264749527,-1.411238670349121,0.8015211224555969,0.709170937538147,0.10144200921058655,-0.5665720701217651
12.705047845840454,-0.08268711715936661,-1.4096050262451172,0.8047306537628174,0.7094075679779053,0.1092073917388916,-0.5675886273384094
12.725220441818237,-0.08124984800815582,-1.4088894128799438,0.8053411245346069,0.7092649936676025,0.11185792088508606,-0.5682373642921448
12.745434761047363,-0.07261187583208084,-1.4087344408035278,0.81178218126297,0.7160900831222534,0.11942002177238464,-0.569427490234375
12.765413045883179,-0.08035802841186523,-1.4095425605773926,0.8095132112503052,0.7108629941940308,0.1125921905040741,-0.5695346593856812
12.785472393035889,-0.07913220673799515,-1.4089676141738892,0.8175421357154846,0.7106788754463196,0.10993592441082001,-0.5694438815116882
12.805647134780884,-0.08435209840536118,-1.4100698232650757,0.8063853979110718,0.7099916934967041,0.10489235818386078,-0.568491518497467
12.82566523551941,-0.07914460450410843,-1.4068020582199097,0.8064035177230835,0.709696888923645,0.1141437292098999,-0.5692342519760132
12.845841407775879,-0.08173666894435883,-1.4110009670257568,0.8191871643066406,0.7120720148086548,0.10175752639770508,-0.5682775378227234
12.865896940231323,-0.0817386582493782,-1.4084151983261108,0.8091146945953369,0.7118368744850159,0.10488530993461609,-0.5679171085357666
12.885978698730469,-0.0822208896279335,-1.4085259437561035,0.8091493844985962,0.7128304243087769,0.10481815040111542,-0.5678305625915527
12.906107902526855,-0.07816450297832489,-1.4065377712249756,0.8174087405204773,0.7120212316513062,0.1067645251750946,-0.568314790725708
12.92612910270691,-0.08292108029127121,-1.4096847772598267,0.8089083433151245,0.7092812061309814,0.10286688804626465,-0.568393349647522
12.946221351623535,-0.08055313676595688,-1.408033013343811,0.8110356330871582,0.7085020542144775,0.10596349835395813,-0.568448543548584
12.966286897659302,-0.07581018656492233,-1.4067374467849731,0.8085403442382812,0.7106271386146545,0.11505737900733948,-0.5697203278541565
12.986356973648071,-0.07766211032867432,-1.4103413820266724,0.8177026510238647,0.7141684293746948,0.1097184419631958,-0.5699493885040283
13.006459712982178,-0.08292070776224136,-1.4097126722335815,0.8075699806213379,0.711349368095398,0.10448367893695831,-0.5687875151634216
13.026573896408081,-0.08273840695619583,-1.4088869094848633,0.8058457970619202,0.7098193168640137,0.10606825351715088,-0.5690181851387024
13.04665493965149,-0.0830785483121872,-1.4096853733062744,0.806847095489502,0.7110787630081177,0.10572893917560577,-0.5690793991088867
13.066694021224976,-0.08421830832958221,-1.4105311632156372,0.8100153207778931,0.7122117280960083,0.1017225980758667,-0.5684952139854431
13.086740493774414,-0.08083853125572205,-1.4086109399795532,0.8150348663330078,0.7105594873428345,0.10000470280647278,-0.568211555480957
13.10685133934021,-0.08059852570295334,-1.4081286191940308,0.8106598854064941,0.7084853649139404,0.10288271307945251,-0.5685040354728699
13.126963376998901,-0.07341381162405014,-1.4060572385787964,0.8221839666366577,0.7105758190155029,0.1079849898815155,-0.5690985918045044
13.147059202194214,-0.07236211746931076,-1.4058879613876343,0.8142752647399902,0.7094025015830994,0.11250200867652893,-0.5697788000106812
13.167108058929443,-0.06977155059576035,-1.4078787565231323,0.8103388547897339,0.7144814133644104,0.11950427293777466,-0.570746660232544
13.187181949615479,-0.07688961923122406,-1.4105281829833984,0.8110220432281494,0.7145764827728271,0.114159494638443,-0.570696234703064
13.207252740859985,-0.08158577233552933,-1.4102568626403809,0.810504138469696,0.7099665403366089,0.10600976645946503,-0.5700376033782959
13.227331161499023,-0.07801245898008347,-1.407760739326477,0.8191569447517395,0.708606481552124,0.10395988821983337,-0.5695723295211792
13.247403860092163,-0.07791345566511154,-1.4074680805206299,0.8161309957504272,0.7116985321044922,0.10508012771606445,-0.5692269206047058
13.267491579055786,-0.073880635201931,-1.4053802490234375,0.8216241598129272,0.7124536633491516,0.10854367911815643,-0.5697031021118164
13.287561416625977,-0.07393544167280197,-1.4066702127456665,0.8199244737625122,0.7159672975540161,0.10799850523471832,-0.5695125460624695
13.30767822265625,-0.07172173261642456,-1.4043935537338257,0.8146184682846069,0.7091070413589478,0.11631739139556885,-0.5715343952178955
13.327723026275635,-0.0738741084933281,-1.4074941873550415,0.8176120519638062,0.7136820554733276,0.11447091400623322,-0.5718730688095093
13.347817420959473,-0.07254456728696823,-1.4077092409133911,0.8224493265151978,0.7143868803977966,0.1109618991613388,-0.5712280869483948
13.367889165878296,-0.07966212183237076,-1.4101591110229492,0.8161283731460571,0.7122494578361511,0.10166233777999878,-0.5699819922447205
13.387932300567627,-0.07464828342199326,-1.4056344032287598,0.8137400150299072,0.7087671756744385,0.1108866035938263,-0.5706241130828857
13.40818738937378,-0.06532254070043564,-1.404891014099121,0.8311482667922974,0.7112364768981934,0.11750034987926483,-0.5723713040351868
13.428271293640137,-0.06973645836114883,-1.4071890115737915,0.8271148800849915,0.71239173412323,0.11277802288532257,-0.5718730688095093
13.448376655578613,-0.07097239047288895,-1.4064362049102783,0.8219496011734009,0.7128502726554871,0.11545054614543915,-0.5724873542785645
13.468390941619873,-0.07400324940681458,-1.4076085090637207,0.8207851052284241,0.7117193341255188,0.11107346415519714,-0.5721670389175415
13.48851752281189,-0.07088333368301392,-1.4057198762893677,0.8276273608207703,0.7120730876922607,0.11079452931880951,-0.5717588663101196
13.508694648742676,-0.07391557097434998,-1.406670331954956,0.8202325105667114,0.7105080485343933,0.10749909281730652,-0.5714209079742432
13.528722763061523,-0.07314208894968033,-1.4062234163284302,0.8200276494026184,0.7102305889129639,0.11025306582450867,-0.5716845989227295
13.548803329467773,-0.07016810029745102,-1.4051040410995483,0.8283373713493347,0.7099781036376953,0.11131063103675842,-0.5719935297966003
13.56893515586853,-0.07287408411502838,-1.406650185585022,0.8223129510879517,0.7115170955657959,0.10831335186958313,-0.5715082287788391
13.588960409164429,-0.06663397699594498,-1.403953194618225,0.8324936628341675,0.7125924825668335,0.11335782706737518,-0.5720663070678711
13.609044551849365,-0.06954614073038101,-1.405916690826416,0.8301570415496826,0.7118695974349976,0.10923245549201965,-0.5721774101257324
13.629132747650146,-0.07130961865186691,-1.4058839082717896,0.823904812335968,0.7106500267982483,0.10960501432418823,-0.5718783736228943
13.649180889129639,-0.06714227050542831,-1.4041906595230103,0.826018750667572,0.7106059789657593,0.11669094860553741,-0.5729858875274658
13.669273853302002,-0.07139349728822708,-1.4069551229476929,0.8257564306259155,0.7112632393836975,0.1114427000284195,-0.5731015205383301
13.689343929290771,-0.06892099231481552,-1.4057402610778809,0.8237695693969727,0.7122333645820618,0.11105474829673767,-0.5723184943199158
13.70940089225769,-0.07007130235433578,-1.4060490131378174,0.8243942260742188,0.7115177512168884,0.11211417615413666,-0.5732780694961548
13.729707479476929,-0.06537575274705887,-1.4038535356521606,0.8316123485565186,0.7129958271980286,0.11473733186721802,-0.573898196220398
13.749796628952026,-0.06794092804193497,-1.4044828414916992,0.8270664215087891,0.7127265334129333,0.11425650119781494,-0.5740511417388916
13.769862651824951,-0.059218879789114,-1.401024580001831,0.8374398946762085,0.714206337928772,0.12157931923866272,-0.5746181011199951
13.790087223052979,-0.06294574588537216,-1.4028159379959106,0.8334430456161499,0.7180972099304199,0.11559754610061646,-0.5734903216362
13.81016755104065,-0.06095103546977043,-1.4031970500946045,0.8298579454421997,0.7205705642700195,0.11639586091041565,-0.5732894539833069
13.830230712890625,-0.06507818400859833,-1.4044266939163208,0.8341019153594971,0.7119891047477722,0.11351655423641205,-0.5746511220932007
13.85039734840393,-0.06816519796848297,-1.4046673774719238,0.8275519609451294,0.710820198059082,0.11178131401538849,-0.5741584300994873
13.870497226715088,-0.06723668426275253,-1.403872013092041,0.827483594417572,0.7107842564582825,0.11404326558113098,-0.5744180679321289
13.89054822921753,-0.06640055775642395,-1.4043042659759521,0.8306170701980591,0.712581992149353,0.11372685432434082,-0.5745623707771301
13.910618305206299,-0.06653375923633575,-1.4039479494094849,0.8290145397186279,0.7121484875679016,0.11446204781532288,-0.5745608806610107
13.930694341659546,-0.06493346393108368,-1.4040260314941406,0.8345928192138672,0.7157209515571594,0.11312919855117798,-0.5739127993583679
13.950764179229736,-0.06431228667497635,-1.4026015996932983,0.8358047008514404,0.7130284309387207,0.11034201085567474,-0.5736863017082214
13.970850229263306,-0.06359530240297318,-1.4030258655548096,0.8331578969955444,0.7113974690437317,0.11481228470802307,-0.5744715929031372
13.991081476211548,-0.06156947836279869,-1.4022434949874878,0.8359737992286682,0.7116722464561462,0.11715523898601532,-0.5748685598373413
14.01114273071289,-0.06460384279489517,-1.404025912284851,0.8332332968711853,0.7107950448989868,0.1150025725364685,-0.5752612948417664
14.031284093856812,-0.06237860396504402,-1.4026635885238647,0.8299411535263062,0.7103199362754822,0.11902648210525513,-0.5752321481704712
14.051346063613892,-0.06107525900006294,-1.404058814048767,0.8299583196640015,0.7146353721618652,0.1214587390422821,-0.5756605267524719
14.071593284606934,-0.0640244409441948,-1.4052132368087769,0.8307490348815918,0.7141234874725342,0.11853916943073273,-0.5757350921630859
14.091782093048096,-0.05935734882950783,-1.402829885482788,0.8422698974609375,0.713677167892456,0.11717256903648376,-0.5752984285354614
14.11180830001831,-0.05864343419671059,-1.4025561809539795,0.8432738780975342,0.7147245407104492,0.11355549097061157,-0.5745484828948975
14.131856679916382,-0.049646783620119095,-1.397318959236145,0.8400955200195312,0.7164422273635864,0.1312175691127777,-0.5763591527938843
14.151924133300781,-0.04550318792462349,-1.3964430093765259,0.8434178829193115,0.721580982208252,0.1387784779071808,-0.5773295760154724
14.172006368637085,-0.046012070029973984,-1.3992503881454468,0.8561944961547852,0.7199184894561768,0.13667701184749603,-0.5798193216323853
14.192098617553711,-0.06036045774817467,-1.4043151140213013,0.8406703472137451,0.7157790064811707,0.11916165053844452,-0.5778809785842896
14.212130069732666,-0.058534886687994,-1.4015220403671265,0.8386863470077515,0.712672233581543,0.11947882175445557,-0.5773453712463379
14.232217788696289,-0.05852973833680153,-1.4023102521896362,0.8426851630210876,0.7130646705627441,0.11705723404884338,-0.5772387981414795
14.25228762626648,-0.06071272864937782,-1.4021250009536743,0.8332945704460144,0.7119771838188171,0.11824797093868256,-0.5768753290176392
14.27237343788147,-0.05750925466418266,-1.400675892829895,0.8373556137084961,0.7154629230499268,0.12176834046840668,-0.5770875215530396
14.292482137680054,-0.058112096041440964,-1.4017325639724731,0.8499432802200317,0.7162936329841614,0.11318980157375336,-0.576756477355957
14.312602519989014,-0.05952657386660576,-1.401659607887268,0.8404017686843872,0.714086651802063,0.1124928891658783,-0.5764775276184082
14.332773685455322,-0.061008717864751816,-1.4020780324935913,0.8353439569473267,0.7122645378112793,0.1154496967792511,-0.5768240094184875
14.352851867675781,-0.05498824641108513,-1.400532841682434,0.8428594470024109,0.7133995294570923,0.12200821936130524,-0.5778301358222961
14.373475790023804,-0.05522804334759712,-1.4013134241104126,0.8438827395439148,0.7140659093856812,0.12108500301837921,-0.5779168605804443
14.39353609085083,-0.052843693643808365,-1.4006199836730957,0.8383091688156128,0.7149847745895386,0.125407874584198,-0.5780066847801208
14.413716316223145,-0.05346139147877693,-1.4016388654708862,0.8464211225509644,0.7153528928756714,0.12360334396362305,-0.5783919095993042
14.433809280395508,-0.05202356353402138,-1.4002416133880615,0.8521561622619629,0.7154736518859863,0.11951084434986115,-0.5775628089904785
14.453904390335083,-0.05282949283719063,-1.3997546434402466,0.8467004895210266,0.7162472009658813,0.1204758882522583,-0.57723468542099
14.47413969039917,-0.0529274083673954,-1.3991234302520752,0.8474770784378052,0.7143755555152893,0.12076607346534729,-0.5777640342712402
14.494098424911499,-0.05146617069840431,-1.399842619895935,0.8512171506881714,0.7133961319923401,0.12066558003425598,-0.5781495571136475
14.514174461364746,-0.05245884135365486,-1.4002481698989868,0.8484050035476685,0.7150884866714478,0.12014016509056091,-0.5776313543319702
14.534261465072632,-0.05392850562930107,-1.4005993604660034,0.8517071604728699,0.7177854776382446,0.1164897084236145,-0.5767990350723267
14.554344654083252,-0.05501614883542061,-1.4003221988677979,0.8448076844215393,0.7134722471237183,0.11469674110412598,-0.5769473910331726
14.574532508850098,-0.05430709198117256,-1.4002172946929932,0.8474938869476318,0.7110942602157593,0.11650758981704712,-0.5774853229522705
14.594688892364502,-0.04092811420559883,-1.397445797920227,0.8525206446647644,0.7192875742912292,0.1309453845024109,-0.5781798362731934
14.61505913734436,-0.04723865166306496,-1.3987350463867188,0.8489333987236023,0.7131621241569519,0.1310274302959442,-0.5799521803855896
14.635063886642456,-0.04411071911454201,-1.397215723991394,0.857875406742096,0.7147519588470459,0.1332826316356659,-0.5804293751716614
