liuyurong129/humanoid-gym/humanoid/data/target_q_20250522-034615.csv
timestamp,joint_1,joint_2,joint_3,joint_4,joint_5,joint_6
6.580352783203125e-05,0.0,0.0,0.0,0.0,0.0,0.0
0.020162582397460938,0.0,0.0,0.0,0.0,0.0,0.0
0.04024505615234375,0.0,0.0,0.0,0.0,0.0,0.0
0.06029152870178223,0.0,0.0,0.0,0.0,0.0,0.0
0.08037400245666504,0.0,0.0,0.0,0.0,0.0,0.0
0.1004488468170166,0.6277932524681091,-0.10241161286830902,0.6386356949806213,-0.06258130818605423,0.08162716031074524,0.3715021014213562
0.12051224708557129,0.6341462731361389,-0.10294909030199051,0.6171274781227112,-0.08878938108682632,0.09284094721078873,0.37428221106529236
0.14059853553771973,0.6346443891525269,-0.10346920788288116,0.6072418093681335,-0.09996816515922546,0.09798108041286469,0.3752196431159973
0.16066694259643555,0.6321988701820374,-0.10529447346925735,0.5917169451713562,-0.11975397914648056,0.1071237102150917,0.3767112195491791
0.18074584007263184,0.628340482711792,-0.10771387070417404,0.5806351900100708,-0.13613441586494446,0.11483504623174667,0.3779638409614563
0.20087122917175293,0.6264312267303467,-0.10893452167510986,0.5764455795288086,-0.14320248365402222,0.11815264075994492,0.3785408139228821
0.22091364860534668,0.6210401058197021,-0.11198011785745621,0.5699024200439453,-0.15549886226654053,0.12401095777750015,0.37955930829048157
0.24125051498413086,0.6128808259963989,-0.11646213382482529,0.5652537941932678,-0.1656702160835266,0.12913408875465393,0.38043004274368286
0.261364221572876,0.6088331937789917,-0.1186056062579155,0.5635547637939453,-0.17005661129951477,0.13129472732543945,0.38086938858032227
0.2814826965332031,0.6019890308380127,-0.12229733169078827,0.5605765581130981,-0.17752352356910706,0.13492533564567566,0.381767213344574
0.30156540870666504,0.5990122556686401,-0.12388944625854492,0.5593287348747253,-0.18072393536567688,0.13644997775554657,0.382229208946228
0.3216848373413086,0.5932856202125549,-0.1266978532075882,0.557056188583374,-0.1863279640674591,0.1389397829771042,0.3831595480442047
0.34251952171325684,0.5883592963218689,-0.12900057435035706,0.5550175905227661,-0.19087748229503632,0.1408306062221527,0.38409948348999023
0.3626735210418701,0.5861809253692627,-0.1298726499080658,0.5541670322418213,-0.19283618032932281,0.1414976567029953,0.3845672607421875
0.38275814056396484,0.582430899143219,-0.13125641644001007,0.5528926849365234,-0.19624772667884827,0.1424485146999359,0.3854990005493164
0.4027855396270752,0.5806114077568054,-0.13183152675628662,0.5522534847259521,-0.19772891700267792,0.14275147020816803,0.3859579861164093
0.42287135124206543,0.577009916305542,-0.13274063169956207,0.550910472869873,-0.20037519931793213,0.14301225543022156,0.3868563175201416
0.4429640769958496,0.5736027359962463,-0.13352926075458527,0.5493303537368774,-0.20258189737796783,0.14298544824123383,0.3877456784248352
0.46308088302612305,0.572121798992157,-0.13392138481140137,0.5485693216323853,-0.2035687416791916,0.14291708171367645,0.38818588852882385
0.4832613468170166,0.5694453120231628,-0.13466830551624298,0.5472614169120789,-0.2053297460079193,0.14265939593315125,0.3890514671802521
0.5035021305084229,0.5671157240867615,-0.1354628950357437,0.5461677312850952,-0.20681434869766235,0.1423109769821167,0.38991060853004456
0.5236818790435791,0.5660684704780579,-0.13583555817604065,0.5458184480667114,-0.20749010145664215,0.14208292961120605,0.3903414011001587
0.543769359588623,0.5641831755638123,-0.1363818496465683,0.5454829335212708,-0.2087024748325348,0.14145024120807648,0.39121100306510925
0.5638365745544434,0.5622847676277161,-0.1366947591304779,0.5452565550804138,-0.2097908854484558,0.1405787467956543,0.39208588004112244
0.5839288234710693,0.5613921284675598,-0.13677886128425598,0.5451174974441528,-0.2102523148059845,0.1400867998600006,0.39253032207489014
0.6040565967559814,0.5596978664398193,-0.13708685338497162,0.5447419881820679,-0.211037278175354,0.1391306221485138,0.39342331886291504
0.6241888999938965,0.5587247610092163,-0.1372089684009552,0.5443914532661438,-0.21137288212776184,0.13860559463500977,0.39386704564094543
0.6442198753356934,0.5566605925559998,-0.1373339146375656,0.5435456037521362,-0.21196089684963226,0.13744230568408966,0.3947564959526062
0.6642916202545166,0.5546618700027466,-0.13752946257591248,0.5424396991729736,-0.212335467338562,0.1363111436367035,0.3956543505191803
0.6844098567962646,0.5535916686058044,-0.13762280344963074,0.5418251752853394,-0.21250832080841064,0.1357116997241974,0.3961007595062256
0.7044808864593506,0.5514155030250549,-0.137754425406456,0.5406295657157898,-0.21297840774059296,0.13443006575107574,0.39700376987457275
0.7247159481048584,0.5491477251052856,-0.1376596838235855,0.5396515727043152,-0.21358893811702728,0.13295495510101318,0.3979496955871582
0.7448055744171143,0.548191487789154,-0.13764260709285736,0.5392388701438904,-0.21391046047210693,0.13224507868289948,0.3984408974647522
0.7648622989654541,0.546177864074707,-0.13755981624126434,0.5384140014648438,-0.2146432250738144,0.13073378801345825,0.3994419276714325
0.784965991973877,0.5451618432998657,-0.13751904666423798,0.5378856062889099,-0.21507808566093445,0.12996968626976013,0.39995276927948
0.8050410747528076,0.5430805683135986,-0.13734662532806396,0.5367466807365417,-0.21602734923362732,0.12832286953926086,0.4010056257247925
0.8251285552978516,0.5409361124038696,-0.13729417324066162,0.535371720790863,-0.2167891561985016,0.12671001255512238,0.40210822224617004
0.845167875289917,0.5398238897323608,-0.13730305433273315,0.5346423387527466,-0.21712248027324677,0.12591369450092316,0.4026692509651184
0.8652739524841309,0.5375359058380127,-0.13735929131507874,0.5329590439796448,-0.2177421748638153,0.12433265149593353,0.40380769968032837
0.8853263854980469,0.535340428352356,-0.13737240433692932,0.5312119722366333,-0.21837997436523438,0.12272682785987854,0.40496790409088135
0.905449628829956,0.5343499779701233,-0.13730554282665253,0.530465304851532,-0.2186809778213501,0.12187588214874268,0.40555086731910706
0.9255692958831787,0.5325433611869812,-0.13730120658874512,0.529104471206665,-0.21927547454833984,0.12030265480279922,0.40670374035835266
0.9456939697265625,0.5306154489517212,-0.13719433546066284,0.5280771255493164,-0.2200177013874054,0.1186426505446434,0.40782928466796875
0.965815544128418,0.5295671224594116,-0.13713665306568146,0.5275536179542542,-0.22039952874183655,0.11777722835540771,0.408379465341568
0.9858486652374268,0.527604341506958,-0.136942520737648,0.5268052220344543,-0.22121301293373108,0.11593586951494217,0.4094640016555786
1.0059354305267334,0.5265843272209167,-0.13682878017425537,0.526512861251831,-0.22160321474075317,0.11495574563741684,0.4099971652030945
1.0260875225067139,0.5241369605064392,-0.1366528421640396,0.5257239937782288,-0.22241097688674927,0.11286445707082748,0.4110497236251831
1.0462262630462646,0.5226455926895142,-0.1365830898284912,0.5252288579940796,-0.22277088463306427,0.11175403743982315,0.41158396005630493
1.066255807876587,0.5196385979652405,-0.13648608326911926,0.5242404341697693,-0.22342562675476074,0.10953233391046524,0.41269925236701965
1.0864546298980713,0.51814204454422,-0.13643349707126617,0.5236365795135498,-0.22373561561107635,0.10840445756912231,0.41327834129333496
1.106546401977539,0.5151347517967224,-0.13628529012203217,0.5223703980445862,-0.22443771362304688,0.10606317967176437,0.41447120904922485
1.1267411708831787,0.5118713974952698,-0.1362905502319336,0.5210499167442322,-0.2252219319343567,0.10372988134622574,0.4157286584377289
1.1468684673309326,0.5102698802947998,-0.13632361590862274,0.520507276058197,-0.22561654448509216,0.10257870703935623,0.4163840413093567
1.1669352054595947,0.5073696374893188,-0.13628053665161133,0.5199068188667297,-0.22640317678451538,0.10023368895053864,0.4177418053150177
1.1870167255401611,0.5062060952186584,-0.13629421591758728,0.5197975635528564,-0.22679248452186584,0.09911507368087769,0.41843271255493164
1.2071161270141602,0.5041377544403076,-0.13640135526657104,0.5194416046142578,-0.2274019420146942,0.09696734696626663,0.4198186993598938
1.2273199558258057,0.5020686388015747,-0.1364971101284027,0.519175112247467,-0.22798776626586914,0.09484287351369858,0.42120125889778137
1.2474114894866943,0.5009958148002625,-0.1365441530942917,0.5190355777740479,-0.22832366824150085,0.0938158705830574,0.42189574241638184
1.2674756050109863,0.4989430010318756,-0.1365973949432373,0.5184443593025208,-0.22912967205047607,0.09179962426424026,0.4232861399650574
1.2875595092773438,0.4979780614376068,-0.13673773407936096,0.51804518699646,-0.2295757234096527,0.09087880700826645,0.4239823818206787
1.3076293468475342,0.49581921100616455,-0.13707678020000458,0.5169115662574768,-0.23051755130290985,0.08901909738779068,0.42536139488220215
1.3288578987121582,0.4933074116706848,-0.13727496564388275,0.5157037973403931,-0.23166772723197937,0.0870286300778389,0.426743745803833
1.3489511013031006,0.4920503497123718,-0.13736304640769958,0.5150315761566162,-0.2322629690170288,0.08602949976921082,0.4274437129497528
1.3690333366394043,0.4891204833984375,-0.13752667605876923,0.5135252475738525,-0.23333656787872314,0.08390303701162338,0.4288664162158966
1.3892295360565186,0.48738160729408264,-0.1376270204782486,0.5126630067825317,-0.23388031125068665,0.08277694880962372,0.4295905530452728
1.4092953205108643,0.48371782898902893,-0.1376212239265442,0.5109169483184814,-0.2349628210067749,0.08037801086902618,0.43107375502586365
1.429335355758667,0.4797440767288208,-0.1372242569923401,0.5091055631637573,-0.23620110750198364,0.0776829943060875,0.43260711431503296
1.4494504928588867,0.47768133878707886,-0.13698461651802063,0.5082462430000305,-0.23687492311000824,0.07625063508749008,0.4333929121494293
1.4695539474487305,0.47336503863334656,-0.13658511638641357,0.5065726041793823,-0.2382802516222,0.07328855991363525,0.43499407172203064
1.4896039962768555,0.4709271192550659,-0.13632440567016602,0.5056074857711792,-0.23902587592601776,0.07169289886951447,0.43581101298332214
1.5097203254699707,0.466196745634079,-0.1354767084121704,0.5034065246582031,-0.24038992822170258,0.06837032735347748,0.4374947249889374
1.529878854751587,0.46381711959838867,-0.13497960567474365,0.5020577907562256,-0.2410246878862381,0.06666901707649231,0.4383648633956909
1.5499069690704346,0.4590126872062683,-0.13411444425582886,0.49931222200393677,-0.24230153858661652,0.06322269886732101,0.4401375949382782
1.5699608325958252,0.45375239849090576,-0.13339562714099884,0.49614715576171875,-0.24363504350185394,0.05964577570557594,0.4419560730457306
1.590055227279663,0.4509759247303009,-0.1330229640007019,0.49445104598999023,-0.2443491816520691,0.05780791491270065,0.4428916275501251
1.6102142333984375,0.44573095440864563,-0.1324484497308731,0.49124598503112793,-0.2458295077085495,0.05415370315313339,0.4448126256465912
1.6302204132080078,0.4408893883228302,-0.1320471167564392,0.4886127710342407,-0.24738013744354248,0.05047657713294029,0.44679540395736694
1.6503105163574219,0.4387873113155365,-0.13190382719039917,0.4876214265823364,-0.24812966585159302,0.04867665469646454,0.4478089213371277
1.670391321182251,0.43435078859329224,-0.1317286193370819,0.48528897762298584,-0.24964582920074463,0.04509973153471947,0.44986066222190857
1.6904683113098145,0.4299645721912384,-0.13154545426368713,0.48330360651016235,-0.2510959804058075,0.04148494079709053,0.4519292414188385
1.7105867862701416,0.42787283658981323,-0.13146916031837463,0.4822370707988739,-0.2518288195133209,0.03967598080635071,0.4529699683189392
1.7306408882141113,0.4230317771434784,-0.13115692138671875,0.47968152165412903,-0.25331398844718933,0.035880349576473236,0.4550659656524658
1.7508106231689453,0.4202629327774048,-0.13098280131816864,0.47811779379844666,-0.25407618284225464,0.03391498699784279,0.45611751079559326
1.7708353996276855,0.413978636264801,-0.1303526610136032,0.4743593633174896,-0.2555886507034302,0.029659166932106018,0.4582509696483612
1.7909152507781982,0.4060991406440735,-0.12922801077365875,0.469881147146225,-0.25724130868911743,0.024737849831581116,0.4604455530643463
1.8109996318817139,0.40169745683670044,-0.12853047251701355,0.46728017926216125,-0.2581122815608978,0.02210327796638012,0.46158528327941895
1.8310894966125488,0.39189696311950684,-0.12676912546157837,0.4614149332046509,-0.2599017918109894,0.01633889600634575,0.46396973729133606
1.8514504432678223,0.3813233971595764,-0.12471581250429153,0.45497605204582214,-0.2615121006965637,0.010157972574234009,0.46652668714523315
1.8715944290161133,0.37604421377182007,-0.12376184016466141,0.4517975151538849,-0.2623358368873596,0.007021603174507618,0.4678748548030853
1.8916079998016357,0.3653617203235626,-0.12198203057050705,0.4455386698246002,-0.2642052173614502,0.0005668019875884056,0.4706825017929077
1.9117286205291748,0.3601147532463074,-0.12119950354099274,0.4424833357334137,-0.2651229202747345,-0.0026748671662062407,0.4721517264842987
1.9318058490753174,0.3496265113353729,-0.11983301490545273,0.43651697039604187,-0.267010897397995,-0.009321752935647964,0.4751926064491272
1.9519522190093994,0.344096839427948,-0.11924709379673004,0.43340668082237244,-0.2679811716079712,-0.012737832963466644,0.47676390409469604
1.9720420837402344,0.332534521818161,-0.11810539662837982,0.426975280046463,-0.2699372470378876,-0.01989062875509262,0.480019748210907
1.9927616119384766,0.31978484988212585,-0.11661901324987411,0.4187191426753998,-0.27209246158599854,-0.027469905093312263,0.4835049510002136
2.0128700733184814,0.3125738501548767,-0.11567702889442444,0.41347599029541016,-0.2731861174106598,-0.03155206888914108,0.4853566884994507
2.032954454421997,0.2961583733558655,-0.11353147774934769,0.3999793231487274,-0.2756703197956085,-0.04028052091598511,0.48937466740608215
2.0530436038970947,0.2871458828449249,-0.11252032220363617,0.39156025648117065,-0.2768945097923279,-0.04487602412700653,0.49160391092300415
2.0731701850891113,0.26691460609436035,-0.11124063283205032,0.3708835244178772,-0.2790243625640869,-0.05475052073597908,0.4966963827610016
2.0932836532592773,0.2558029890060425,-0.11140419542789459,0.35872381925582886,-0.27977919578552246,-0.059931401163339615,0.4996667504310608
2.113485097885132,0.23232725262641907,-0.11459007859230042,0.3320994973182678,-0.2801590859889984,-0.07045360654592514,0.5067349672317505
2.1340370178222656,0.2093595266342163,-0.12169168889522552,0.3053666949272156,-0.27869564294815063,-0.08049921691417694,0.5154159069061279
2.1541526317596436,0.1993849128484726,-0.12610872089862823,0.29333510994911194,-0.277248352766037,-0.08509494364261627,0.5202706456184387
2.1744017601013184,0.18397684395313263,-0.135238915681839,0.27407798171043396,-0.2736336588859558,-0.0931938886642456,0.5307877659797668
2.1944937705993652,0.1794755458831787,-0.13945478200912476,0.2678922414779663,-0.27161139249801636,-0.09655739367008209,0.5364006757736206
2.214649200439453,0.17860479652881622,-0.1465710997581482,0.26635730266571045,-0.26755011081695557,-0.10230529308319092,0.5482062697410583
2.234743118286133,0.18262389302253723,-0.1503438651561737,0.2706735134124756,-0.2660582661628723,-0.10438692569732666,0.5544049739837646
2.2550747394561768,0.19837142527103424,-0.15924279391765594,0.2898881137371063,-0.264623761177063,-0.10702013969421387,0.5672838687896729
2.2751786708831787,0.20952755212783813,-0.16455915570259094,0.3040599226951599,-0.2646481990814209,-0.1072416752576828,0.5739102959632874
2.295285701751709,0.23505280911922455,-0.1764478236436844,0.3375522196292877,-0.2660352289676666,-0.10556267201900482,0.5873307585716248
2.315444231033325,0.24786630272865295,-0.18253836035728455,0.3549567759037018,-0.267503559589386,-0.1038050577044487,0.5940590500831604
2.335570812225342,0.2711685597896576,-0.19393429160118103,0.3879459500312805,-0.2717844545841217,-0.0988716185092926,0.6075189113616943
2.355684757232666,0.280586302280426,-0.19890698790550232,0.40158843994140625,-0.27448976039886475,-0.09577461332082748,0.614295244216919
2.375859260559082,0.2909345328807831,-0.20598596334457397,0.4213012158870697,-0.2807851731777191,-0.09053400903940201,0.6278062462806702
2.3959124088287354,0.2907963693141937,-0.20804844796657562,0.4266014099121094,-0.2843877375125885,-0.08887475728988647,0.634549617767334
2.415990114212036,0.278626948595047,-0.2096223533153534,0.42963796854019165,-0.2925196886062622,-0.0886654257774353,0.6480799913406372
2.4361917972564697,0.2538304626941681,-0.2089061737060547,0.4253395199775696,-0.30142852663993835,-0.09273757040500641,0.661764919757843
2.4562809467315674,0.23930367827415466,-0.20830915868282318,0.421565443277359,-0.30583763122558594,-0.09576001018285751,0.668754518032074
2.4763591289520264,0.21014195680618286,-0.20776867866516113,0.41339996457099915,-0.3142201006412506,-0.10264943540096283,0.6830475926399231
2.4964332580566406,0.1977120041847229,-0.20834410190582275,0.40958306193351746,-0.31818699836730957,-0.10557696968317032,0.6904114484786987
2.5165278911590576,0.18132463097572327,-0.21214361488819122,0.40495556592941284,-0.3255743086338043,-0.1090516746044159,0.705573558807373
2.5368776321411133,0.1791098713874817,-0.2204647958278656,0.4039411246776581,-0.3314979076385498,-0.10708044469356537,0.7212560176849365
2.5569674968719482,0.18294952809810638,-0.22625300288200378,0.40475159883499146,-0.3338927626609802,-0.1039746031165123,0.7291412949562073
2.577073574066162,0.197219118475914,-0.2397586703300476,0.40968361496925354,-0.3377285897731781,-0.09474466741085052,0.7446567416191101
2.5972025394439697,0.20613384246826172,-0.2466123402118683,0.4133908152580261,-0.3394477963447571,-0.08919940888881683,0.7521889805793762
2.617297887802124,0.22484643757343292,-0.259024441242218,0.42260831594467163,-0.3428371548652649,-0.0777197852730751,0.7666625380516052
2.6374857425689697,0.233584463596344,-0.2641112804412842,0.4278084635734558,-0.3445985019207001,-0.07242777943611145,0.7735605835914612
2.6574935913085938,0.24784298241138458,-0.27152565121650696,0.43860653042793274,-0.3483535051345825,-0.06391575187444687,0.7866211533546448
2.6776909828186035,0.2517170310020447,-0.27369338274002075,0.4437941312789917,-0.3505980670452118,-0.061536699533462524,0.7926878929138184
2.6976914405822754,0.25095808506011963,-0.2752143144607544,0.453209787607193,-0.3558869957923889,-0.06123550236225128,0.803907036781311
2.7177839279174805,0.24724681675434113,-0.2751513123512268,0.45707324147224426,-0.358588308095932,-0.06283285468816757,0.8091703653335571
2.7378554344177246,0.23525188863277435,-0.2743538022041321,0.4623487889766693,-0.36389362812042236,-0.06849560141563416,0.8192163705825806
2.758039712905884,0.22080513834953308,-0.2741027772426605,0.46496593952178955,-0.36881110072135925,-0.07518276572227478,0.8290419578552246
2.778120994567871,0.21343369781970978,-0.2745322585105896,0.4653955399990082,-0.3712219297885895,-0.07830409705638885,0.8339545726776123
2.7982237339019775,0.20103836059570312,-0.2767169177532196,0.46550452709198,-0.37597015500068665,-0.08303926140069962,0.8439580798149109
2.8184494972229004,0.19731296598911285,-0.2787555456161499,0.4651133418083191,-0.37819355726242065,-0.08401116728782654,0.8490945100784302
2.8385379314422607,0.1962883025407791,-0.2846681475639343,0.4640089273452759,-0.381901353597641,-0.08276437968015671,0.8596047759056091
2.8586556911468506,0.20149825513362885,-0.29222679138183594,0.4641079902648926,-0.38498589396476746,-0.07868067920207977,0.8700268864631653
2.8787412643432617,0.2053437978029251,-0.29617440700531006,0.4650495946407318,-0.38640889525413513,-0.07620014250278473,0.8750858306884766
2.8988187313079834,0.21375501155853271,-0.30376893281936646,0.46837636828422546,-0.3892208933830261,-0.0712270587682724,0.8847662210464478
2.9188973903656006,0.21830247342586517,-0.3073309063911438,0.47062376141548157,-0.39039015769958496,-0.06879264861345291,0.8894084692001343
2.9390337467193604,0.22652292251586914,-0.31343379616737366,0.47611820697784424,-0.39250731468200684,-0.06483441591262817,0.8982264399528503
2.959536075592041,0.23143279552459717,-0.3179069459438324,0.48285526037216187,-0.3948172628879547,-0.06297817081212997,0.9063107967376709
2.9796104431152344,0.2326020747423172,-0.3196927607059479,0.48635876178741455,-0.3960585594177246,-0.06275603175163269,0.9101086258888245
2.999704122543335,0.23191455006599426,-0.32241758704185486,0.4922579824924469,-0.3987756371498108,-0.06356024742126465,0.9173052310943604
3.0198006629943848,0.2308243215084076,-0.3235725164413452,0.49477505683898926,-0.4001157879829407,-0.06430727243423462,0.9207736253738403
3.0399346351623535,0.2274744063615799,-0.3258291780948639,0.4985322058200836,-0.40273576974868774,-0.0659380629658699,0.9275612235069275
3.060178518295288,0.2229921519756317,-0.3282850682735443,0.5007502436637878,-0.4055052697658539,-0.06765969097614288,0.934147298336029
3.0803098678588867,0.22059690952301025,-0.3296390473842621,0.5012308955192566,-0.4068964421749115,-0.0683964267373085,0.9374095797538757
3.1010453701019287,0.21576188504695892,-0.33261287212371826,0.5011669397354126,-0.40978434681892395,-0.06957388669252396,0.9438852667808533
3.1212141513824463,0.21382281184196472,-0.3342975676059723,0.5008642077445984,-0.41120293736457825,-0.06990925222635269,0.9471104145050049
3.1419692039489746,0.21128550171852112,-0.33799225091934204,0.5001510977745056,-0.41354602575302124,-0.06995594501495361,0.9535912871360779
3.162061929702759,0.21047227084636688,-0.3400103449821472,0.5000889897346497,-0.4146440327167511,-0.06981879472732544,0.9568018913269043
3.1821537017822266,0.21053968369960785,-0.3445221483707428,0.5014703273773193,-0.4168863892555237,-0.06919295340776443,0.963105320930481
3.202207088470459,0.21153733134269714,-0.34693196415901184,0.5028769373893738,-0.41795244812965393,-0.06869751960039139,0.9661904573440552
3.2223258018493652,0.21436432003974915,-0.3518211543560028,0.5066746473312378,-0.4199472665786743,-0.067550428211689,0.9721637964248657
3.2423620223999023,0.21811147034168243,-0.3563232421875,0.5116374492645264,-0.4216439425945282,-0.06634384393692017,0.9779074192047119
3.262453317642212,0.22014521062374115,-0.358450710773468,0.5142868161201477,-0.4224857687950134,-0.06572704762220383,0.9806622862815857
3.2825706005096436,0.2241811901330948,-0.3622662425041199,0.5190426707267761,-0.42422953248023987,-0.06466496735811234,0.985872745513916
3.3026657104492188,0.2259233295917511,-0.36388587951660156,0.5209373831748962,-0.4250682592391968,-0.06423665583133698,0.9883626103401184
3.322869062423706,0.22759124636650085,-0.3667173981666565,0.5234652161598206,-0.42659810185432434,-0.06363164633512497,0.9931573271751404
3.3429274559020996,0.2278062254190445,-0.3680126368999481,0.5244106650352478,-0.42737165093421936,-0.06343969702720642,0.9954728484153748
3.3630592823028564,0.2272627055644989,-0.37071692943573,0.5253652930259705,-0.4290822148323059,-0.06308580935001373,0.9999212622642517
3.3831496238708496,0.22524692118167877,-0.3734930753707886,0.5252126455307007,-0.4308333396911621,-0.06280788034200668,1.0042023658752441
3.403231382369995,0.2236437201499939,-0.3748399615287781,0.5250494480133057,-0.43164098262786865,-0.0628119558095932,1.006295084953308
3.4233767986297607,0.2198231816291809,-0.3774650990962982,0.5249874591827393,-0.432941198348999,-0.06298509240150452,1.0104249715805054
3.4434332847595215,0.21807566285133362,-0.37879252433776855,0.525432825088501,-0.43361756205558777,-0.06314659118652344,1.0124499797821045
3.4635963439941406,0.21477781236171722,-0.38138824701309204,0.5271432995796204,-0.4350087642669678,-0.06373262405395508,1.016371726989746
3.483609676361084,0.21227015554904938,-0.3837219178676605,0.5303395390510559,-0.43604809045791626,-0.06463024765253067,1.0201845169067383
3.503723382949829,0.21134933829307556,-0.3848448693752289,0.5324009656906128,-0.4364425241947174,-0.06512842327356339,1.0220422744750977
3.5238101482391357,0.21129721403121948,-0.38712817430496216,0.5375539064407349,-0.4371638298034668,-0.06592175364494324,1.0256624221801758
3.5439634323120117,0.21288257837295532,-0.38978487253189087,0.5426273941993713,-0.4379744529724121,-0.06612647324800491,1.0290734767913818
3.5641074180603027,0.21392783522605896,-0.39120039343833923,0.5447209477424622,-0.43834373354911804,-0.06599228829145432,1.0306906700134277
3.584210157394409,0.21626180410385132,-0.39400070905685425,0.5475854277610779,-0.4388856887817383,-0.06523390114307404,1.0338006019592285
3.604268789291382,0.21735504269599915,-0.3954630196094513,0.5481975078582764,-0.4390680491924286,-0.06453857570886612,1.0353116989135742
3.6243350505828857,0.21885466575622559,-0.39842602610588074,0.5477839708328247,-0.4393600821495056,-0.06276580691337585,1.0382168292999268
3.6444222927093506,0.2188783437013626,-0.40128734707832336,0.5463614463806152,-0.4397166669368744,-0.061077289283275604,1.0409291982650757
3.664599657058716,0.21873873472213745,-0.40265825390815735,0.5457673072814941,-0.43991127610206604,-0.06022680923342705,1.0422730445861816
3.6847617626190186,0.21784336864948273,-0.40489259362220764,0.5453085899353027,-0.44035544991493225,-0.05911415070295334,1.0448617935180664
3.7048511505126953,0.21715083718299866,-0.4067639708518982,0.5463100075721741,-0.44094523787498474,-0.05844617262482643,1.0473694801330566
3.7249441146850586,0.21703265607357025,-0.40751180052757263,0.547575831413269,-0.4413296580314636,-0.05841119587421417,1.0485564470291138
3.745032787322998,0.2175377607345581,-0.40866518020629883,0.551807165145874,-0.4421103596687317,-0.058864809572696686,1.0508060455322266
3.765211582183838,0.21816721558570862,-0.4091339111328125,0.5544029474258423,-0.4424991011619568,-0.05922861769795418,1.0518686771392822
3.7852511405944824,0.2191150188446045,-0.409972220659256,0.5593380331993103,-0.44326332211494446,-0.06020745262503624,1.0538018941879272
3.80534291267395,0.2192104607820511,-0.4108145833015442,0.5631601214408875,-0.44401028752326965,-0.06138967350125313,1.0555082559585571
3.825428009033203,0.21892200410366058,-0.41129571199417114,0.5643051862716675,-0.4443342387676239,-0.061873435974121094,1.0563273429870605
3.84552264213562,0.2176547348499298,-0.4125000536441803,0.5648912787437439,-0.44482991099357605,-0.06235939636826515,1.057987928390503
3.865757703781128,0.21533747017383575,-0.41397902369499207,0.5632129907608032,-0.4450691342353821,-0.06225673109292984,1.0596824884414673
3.885899543762207,0.2140197455883026,-0.41482779383659363,0.5619232058525085,-0.4451510012149811,-0.06198994815349579,1.060563087463379
3.906031370162964,0.21150945127010345,-0.41668185591697693,0.5593972206115723,-0.4452808201313019,-0.06114610657095909,1.0623878240585327
3.926215648651123,0.21035127341747284,-0.41762468218803406,0.5583406686782837,-0.44530585408210754,-0.06063313037157059,1.0633145570755005
3.9463789463043213,0.20867212116718292,-0.41936641931533813,0.5576392412185669,-0.44538208842277527,-0.05978640913963318,1.0651192665100098
3.966411590576172,0.20829030871391296,-0.4207594394683838,0.5594385862350464,-0.4455506503582001,-0.05945461243391037,1.0667893886566162
3.986487627029419,0.20853354036808014,-0.4213850498199463,0.560990571975708,-0.44572150707244873,-0.05940692499279976,1.0675665140151978
4.006600379943848,0.209321528673172,-0.42241695523262024,0.5647943615913391,-0.44598764181137085,-0.05976911634206772,1.0689009428024292
4.026935338973999,0.21070866286754608,-0.4234199523925781,0.5684409737586975,-0.44608819484710693,-0.06013748422265053,1.0700578689575195
4.047051668167114,0.21170367300510406,-0.42396578192710876,0.5699973106384277,-0.4460795521736145,-0.060163579881191254,1.0706031322479248
4.0671398639678955,0.21416926383972168,-0.4253298044204712,0.5716555118560791,-0.44591566920280457,-0.05951560661196709,1.0716785192489624
4.087258577346802,0.2153298258781433,-0.4261030852794647,0.5715386867523193,-0.4458007216453552,-0.058893702924251556,1.0722005367279053
4.107345342636108,0.216950923204422,-0.42767077684402466,0.5697422623634338,-0.4454711675643921,-0.05731004476547241,1.0732375383377075
4.127397537231445,0.21822614967823029,-0.4292321503162384,0.5677293539047241,-0.44518163800239563,-0.05539501830935478,1.0743706226348877
4.1474928855896,0.2186392843723297,-0.4298843741416931,0.5668749809265137,-0.44510146975517273,-0.05453714355826378,1.0749266147613525
4.167568683624268,0.2188418209552765,-0.4308215379714966,0.565689742565155,-0.4450526237487793,-0.05332092195749283,1.0759685039520264
4.18766713142395,0.2185772955417633,-0.4310101866722107,0.5657107830047607,-0.4451184868812561,-0.05314568802714348,1.076445460319519
4.20777153968811,0.21789729595184326,-0.4309101104736328,0.5676897764205933,-0.4453878104686737,-0.05367627739906311,1.0773298740386963
4.227843761444092,0.21713963150978088,-0.43034589290618896,0.5722501277923584,-0.445868581533432,-0.05528537929058075,1.0780937671661377
4.247969627380371,0.21662288904190063,-0.42996782064437866,0.5747915506362915,-0.44617119431495667,-0.056378837674856186,1.0784001350402832
4.268011569976807,0.21482554078102112,-0.4291297495365143,0.5793297290802002,-0.44674909114837646,-0.05902661755681038,1.0788295269012451
4.288205623626709,0.21218767762184143,-0.42850255966186523,0.5820225477218628,-0.44728076457977295,-0.061514537781476974,1.079211711883545
4.30829930305481,0.21083946526050568,-0.4284032881259918,0.5824723243713379,-0.4474850296974182,-0.06239331141114235,1.0794527530670166
4.328389644622803,0.2080017626285553,-0.4286535978317261,0.5811703205108643,-0.44777393341064453,-0.06325200945138931,1.080047369003296
4.348515748977661,0.2065567672252655,-0.428998202085495,0.5794074535369873,-0.44786325097084045,-0.06325044482946396,1.0803868770599365
4.36867618560791,0.20396113395690918,-0.42998427152633667,0.5744797587394714,-0.44794201850891113,-0.06247364729642868,1.0811827182769775
4.388696670532227,0.20256450772285461,-0.43124961853027344,0.5693690180778503,-0.4478978216648102,-0.06087183207273483,1.0821526050567627
4.408786773681641,0.2024991661310196,-0.4319497346878052,0.5674294829368591,-0.44784873723983765,-0.059881336987018585,1.0826925039291382
4.428934335708618,0.2034473866224289,-0.4333657920360565,0.5654281377792358,-0.44768956303596497,-0.05794024094939232,1.0837548971176147
4.449016094207764,0.20564956963062286,-0.4348061978816986,0.5663435459136963,-0.4473661482334137,-0.05634063482284546,1.084700107574463
4.469125747680664,0.20689265429973602,-0.43547871708869934,0.5676326751708984,-0.44714272022247314,-0.055730413645505905,1.0851099491119385
4.489154577255249,0.20936429500579834,-0.43661370873451233,0.5714675188064575,-0.44673216342926025,-0.055045973509550095,1.0857632160186768
4.509273052215576,0.21073564887046814,-0.4371004104614258,0.5737692713737488,-0.4465356767177582,-0.05483611300587654,1.0860315561294556
4.529313802719116,0.21339303255081177,-0.4378555119037628,0.5781431198120117,-0.4461481273174286,-0.05457402020692825,1.0864381790161133
4.549380302429199,0.21543100476264954,-0.43834757804870605,0.5816446542739868,-0.4458514153957367,-0.05447334796190262,1.0866938829421997
4.569469213485718,0.21593758463859558,-0.43844932317733765,0.5827720761299133,-0.44575774669647217,-0.05451161414384842,1.0867754220962524
4.589545249938965,0.21622997522354126,-0.4384128749370575,0.5837060809135437,-0.44576510787010193,-0.05466369539499283,1.086899757385254
4.609640598297119,0.21620631217956543,-0.4383476674556732,0.5836312770843506,-0.4457836449146271,-0.05469705909490585,1.0869710445404053
4.629724740982056,0.21542058885097504,-0.4381638765335083,0.5823553800582886,-0.44587284326553345,-0.05466650426387787,1.0871562957763672
4.649772882461548,0.21319465339183807,-0.43769076466560364,0.5801923871040344,-0.4461009204387665,-0.055049192160367966,1.0873427391052246
4.6698994636535645,0.21202212572097778,-0.43748125433921814,0.5790409445762634,-0.4462116062641144,-0.05523490160703659,1.0874804258346558
4.6899542808532715,0.20967070758342743,-0.43708670139312744,0.5770379900932312,-0.44640305638313293,-0.05576912313699722,1.0877861976623535
4.710118055343628,0.2084948569536209,-0.4369116723537445,0.576318621635437,-0.44647249579429626,-0.05614875257015228,1.0879443883895874
4.730183839797974,0.20643243193626404,-0.43669217824935913,0.5754702687263489,-0.4465564787387848,-0.05692575126886368,1.088295340538025
4.750437021255493,0.2048240303993225,-0.43664148449897766,0.5754769444465637,-0.44655293226242065,-0.057767003774642944,1.0886510610580444
4.770531415939331,0.20438677072525024,-0.4367358982563019,0.5757550597190857,-0.44649258255958557,-0.05809491127729416,1.088836908340454
4.7905848026275635,0.2037964165210724,-0.437004029750824,0.5765705108642578,-0.4463547468185425,-0.05865735188126564,1.0891923904418945
4.810654163360596,0.2035485953092575,-0.43713560700416565,0.5769891142845154,-0.44628390669822693,-0.05891651660203934,1.0893534421920776
4.830798625946045,0.20338289439678192,-0.43746286630630493,0.57780522108078,-0.4461759626865387,-0.059187233448028564,1.0896886587142944
4.850844621658325,0.20360209047794342,-0.43783894181251526,0.5785277485847473,-0.4460589289665222,-0.05921106040477753,1.0900046825408936
4.870927810668945,0.20390328764915466,-0.4380524158477783,0.578820526599884,-0.445975661277771,-0.05911405384540558,1.0901511907577515
4.891073703765869,0.2053629755973816,-0.43858784437179565,0.5793766379356384,-0.4457257390022278,-0.058573007583618164,1.0904427766799927
4.911121368408203,0.20823250710964203,-0.43925702571868896,0.5802148580551147,-0.44535407423973083,-0.057561106979846954,1.0907245874404907
4.931210279464722,0.2102924883365631,-0.4396243393421173,0.580901026725769,-0.4451465904712677,-0.05689084157347679,1.0908596515655518
4.951263904571533,0.21527963876724243,-0.440298855304718,0.582940936088562,-0.4446890950202942,-0.05538257211446762,1.0911067724227905
4.971381664276123,0.21814127266407013,-0.440597265958786,0.5842438340187073,-0.444454550743103,-0.05458569899201393,1.0911948680877686
4.991479873657227,0.223858043551445,-0.4410426914691925,0.5872020721435547,-0.4440980553627014,-0.05308574065566063,1.0912706851959229
5.01154351234436,0.22685283422470093,-0.44082632660865784,0.5898330211639404,-0.4440901279449463,-0.05263721942901611,1.0910868644714355
5.031620264053345,0.22693057358264923,-0.44047582149505615,0.5905417799949646,-0.444222629070282,-0.05280628055334091,1.0909252166748047
5.051699876785278,0.2237253040075302,-0.439133882522583,0.5900971293449402,-0.44476065039634705,-0.054058972746133804,1.0905214548110962
5.071848392486572,0.2205626219511032,-0.43829146027565,0.5889381766319275,-0.44515690207481384,-0.05508222430944443,1.0903035402297974
5.091883420944214,0.21135535836219788,-0.43635499477386475,0.5853138566017151,-0.4461292028427124,-0.05798674374818802,1.0898829698562622
5.111971378326416,0.20022648572921753,-0.4344366788864136,0.5806142687797546,-0.44713354110717773,-0.06150136515498161,1.089614987373352
5.132113933563232,0.19535866379737854,-0.4337635040283203,0.5782108306884766,-0.4475281536579132,-0.06301181763410568,1.0896058082580566
5.152169466018677,0.18918384611606598,-0.4334350526332855,0.574373185634613,-0.447957843542099,-0.06481080502271652,1.0898817777633667
5.172332286834717,0.18799297511577606,-0.4338166117668152,0.5732982754707336,-0.44794148206710815,-0.06508336961269379,1.0901355743408203
5.19240927696228,0.1894710659980774,-0.4356290102005005,0.573021650314331,-0.4474261403083801,-0.06425334513187408,1.0908023118972778
5.212510108947754,0.1922367364168167,-0.4369865655899048,0.5735304355621338,-0.44691410660743713,-0.06304647773504257,1.0912002325057983
5.2326414585113525,0.20089603960514069,-0.4403057396411896,0.5756335854530334,-0.4455048739910126,-0.05930642411112785,1.0920134782791138
5.252824306488037,0.2113819271326065,-0.4436839520931244,0.5787779688835144,-0.4438764750957489,-0.05465409532189369,1.0927025079727173
5.272910118103027,0.21637840569019318,-0.4451296329498291,0.5804440975189209,-0.4430913031101227,-0.05234665796160698,1.0929430723190308
5.292982816696167,0.22449184954166412,-0.4469691216945648,0.5835399627685547,-0.4418557584285736,-0.0485023595392704,1.0931727886199951
5.313058376312256,0.2272617071866989,-0.44729045033454895,0.584854245185852,-0.441463440656662,-0.04716365411877632,1.0931620597839355
5.333193063735962,0.22891537845134735,-0.44648993015289307,0.5869200825691223,-0.44129443168640137,-0.0463663786649704,1.0928518772125244
5.353644847869873,0.2253582626581192,-0.44412940740585327,0.5875986814498901,-0.4417596757411957,-0.04799489676952362,1.0922374725341797
5.373740196228027,0.22204245626926422,-0.4425654709339142,0.5874780416488647,-0.44219622015953064,-0.049549199640750885,1.0918817520141602
5.393810987472534,0.21278899908065796,-0.4388834238052368,0.586097240447998,-0.4433644711971283,-0.05405498296022415,1.0910921096801758
5.414302587509155,0.20311890542507172,-0.43561339378356934,0.5841703414916992,-0.4446336328983307,-0.05888514220714569,1.0905019044876099
5.43449592590332,0.19887545704841614,-0.43438223004341125,0.583161473274231,-0.44520559906959534,-0.06105058267712593,1.090318202972412
5.454546213150024,0.19281065464019775,-0.43313494324684143,0.5810545086860657,-0.44606488943099976,-0.0641188845038414,1.090247392654419
5.474717617034912,0.19134870171546936,-0.4330996870994568,0.580163300037384,-0.44634780287742615,-0.06492870301008224,1.0903500318527222
5.494758367538452,0.19190168380737305,-0.4342223107814789,0.5785331726074219,-0.44645822048187256,-0.06476569920778275,1.0907981395721436
5.515172958374023,0.19693578779697418,-0.4367304742336273,0.577705979347229,-0.4459749162197113,-0.062184009701013565,1.0915319919586182
5.5353169441223145,0.20070470869541168,-0.43831828236579895,0.5775882601737976,-0.4455287456512451,-0.06016383692622185,1.0919511318206787
5.555500268936157,0.20453771948814392,-0.43982985615730286,0.577609121799469,-0.4450267255306244,-0.05808675289154053,1.0923271179199219
5.57563042640686,0.21266120672225952,-0.4426049590110779,0.5780488848686218,-0.4439011812210083,-0.05376608669757843,1.0929378271102905
5.595704555511475,0.21658237278461456,-0.4437623620033264,0.5785984992980957,-0.4433153569698334,-0.0517212450504303,1.093165636062622
5.615864515304565,0.22249771654605865,-0.44518235325813293,0.5801897048950195,-0.44231289625167847,-0.048646241426467896,1.0933867692947388
5.635894775390625,0.2244184911251068,-0.44508233666419983,0.5819135904312134,-0.4418100118637085,-0.0476093590259552,1.0932725667953491
5.656076192855835,0.22409464418888092,-0.4445609152317047,0.5827555656433105,-0.4417370557785034,-0.04780922457575798,1.0931228399276733
5.67612361907959,0.22017136216163635,-0.4425266981124878,0.5839495062828064,-0.44196319580078125,-0.04998268932104111,1.0925946235656738
5.696168422698975,0.21711312234401703,-0.44127076864242554,0.5842940211296082,-0.4421843886375427,-0.05161420255899429,1.0922960042953491
5.7162604331970215,0.2095729559659958,-0.438587486743927,0.5843797326087952,-0.44281619787216187,-0.05553101375699043,1.0917242765426636
5.7363200187683105,0.20215803384780884,-0.4362694025039673,0.58340984582901,-0.4435269832611084,-0.05930480360984802,1.0913363695144653
5.756406784057617,0.1991514265537262,-0.43544068932533264,0.5828090906143188,-0.44385239481925964,-0.060853924602270126,1.091248631477356
5.776482105255127,0.19506438076496124,-0.4345729351043701,0.5812196731567383,-0.4443140923976898,-0.06297896802425385,1.0912646055221558
5.796619415283203,0.19429123401641846,-0.43459585309028625,0.5803747177124023,-0.4444139003753662,-0.063404381275177,1.0913810729980469
5.816711187362671,0.19596941769123077,-0.4356653690338135,0.5789085030555725,-0.4442771375179291,-0.06267338991165161,1.0918272733688354
5.836818695068359,0.20097555220127106,-0.4376910924911499,0.5777722001075745,-0.443721204996109,-0.060257818549871445,1.092404842376709
5.856889963150024,0.20451009273529053,-0.4389756917953491,0.5774869322776794,-0.4433179497718811,-0.05845246836543083,1.0927398204803467
5.876954078674316,0.21233606338500977,-0.4415700435638428,0.5775997638702393,-0.44243279099464417,-0.05442721024155617,1.0933363437652588
5.897028684616089,0.2161756306886673,-0.44275563955307007,0.5780863761901855,-0.44199296832084656,-0.05241704732179642,1.0935800075531006
5.917132377624512,0.22225244343280792,-0.44441890716552734,0.5796851515769958,-0.44131848216056824,-0.049195196479558945,1.093841791152954
5.937170505523682,0.22396619617938995,-0.44471436738967896,0.5806288719177246,-0.44115686416625977,-0.04824822023510933,1.0938478708267212
5.957255601882935,0.2243994027376175,-0.44416365027427673,0.5825759768486023,-0.44126537442207336,-0.047939274460077286,1.0936349630355835
5.9773335456848145,0.2204754501581192,-0.44221898913383484,0.5842163562774658,-0.44188928604125977,-0.04997792840003967,1.093130350112915
5.997403860092163,0.21714214980602264,-0.4409089982509613,0.5846916437149048,-0.442300021648407,-0.05176352709531784,1.0927869081497192
6.017464876174927,0.20935006439685822,-0.4381653964519501,0.5848163366317749,-0.4431953430175781,-0.05595875158905983,1.0921047925949097
6.037561416625977,0.2023950219154358,-0.43600934743881226,0.5839728116989136,-0.44400933384895325,-0.0597296766936779,1.0916430950164795
6.057624816894531,0.1996166855096817,-0.43528518080711365,0.5833429098129272,-0.4443713128566742,-0.06122944504022598,1.0915244817733765
6.07769513130188,0.19624531269073486,-0.43473386764526367,0.5816671252250671,-0.44490891695022583,-0.06297425180673599,1.0915429592132568
6.097782611846924,0.19585229456424713,-0.4349270761013031,0.5808300971984863,-0.44507643580436707,-0.06316053867340088,1.0916638374328613
6.117879629135132,0.198221817612648,-0.4363129734992981,0.5792787671089172,-0.4450051188468933,-0.061848416924476624,1.092117190361023
6.137929439544678,0.20302867889404297,-0.43836408853530884,0.5779913067817688,-0.444546639919281,-0.059194304049015045,1.0926414728164673
6.15802001953125,0.2058209478855133,-0.4394047260284424,0.5776336789131165,-0.44423437118530273,-0.05768789350986481,1.092881202697754
6.178091764450073,0.2114669233560562,-0.44131016731262207,0.577547550201416,-0.4435965120792389,-0.0545773021876812,1.0932996273040771
6.198168992996216,0.2141316831111908,-0.4421272575855255,0.5779016613960266,-0.4432688057422638,-0.05314283445477486,1.0934431552886963
6.218326807022095,0.21849246323108673,-0.4432794153690338,0.5791926980018616,-0.44266611337661743,-0.05082664266228676,1.0935717821121216
6.2383294105529785,0.22012749314308167,-0.44328463077545166,0.5808714032173157,-0.4424494504928589,-0.05001440644264221,1.0934388637542725
6.258421421051025,0.21976330876350403,-0.4427981674671173,0.5818677544593811,-0.44253402948379517,-0.05028770491480827,1.0932930707931519
6.278547763824463,0.21655772626399994,-0.4410957098007202,0.5835997462272644,-0.44304975867271423,-0.05207597091794014,1.0928642749786377
6.2986228466033936,0.21139031648635864,-0.4389926791191101,0.5845251679420471,-0.4437085688114166,-0.05498392879962921,1.092301845550537
6.318782806396484,0.20854653418064117,-0.437951922416687,0.584643542766571,-0.4440239667892456,-0.05657295510172844,1.092038631439209
6.338831186294556,0.20283697545528412,-0.4360707402229309,0.5842366218566895,-0.4446403980255127,-0.05973085016012192,1.0916049480438232
6.3589043617248535,0.20037871599197388,-0.4353491961956024,0.5838436484336853,-0.4449046850204468,-0.061089180409908295,1.091472864151001
6.379012584686279,0.1969536989927292,-0.4346276521682739,0.5826031565666199,-0.445229172706604,-0.06291769444942474,1.0913915634155273
6.399143695831299,0.19623613357543945,-0.43465256690979004,0.5819101929664612,-0.44525665044784546,-0.06329759955406189,1.0914462804794312
6.419234037399292,0.1973496973514557,-0.43561673164367676,0.5804550647735596,-0.44499415159225464,-0.06259173154830933,1.0917718410491943
6.439295530319214,0.20078130066394806,-0.43726325035095215,0.579155445098877,-0.4444304406642914,-0.06057970970869064,1.092230200767517
6.459385395050049,0.20318195223808289,-0.4382164776325226,0.5786848068237305,-0.4440819025039673,-0.05919146537780762,1.0924882888793945
6.4794745445251465,0.20868834853172302,-0.44015806913375854,0.5781654119491577,-0.4433225989341736,-0.056062258780002594,1.0929572582244873
6.499750852584839,0.21422079205513,-0.44185197353363037,0.578191339969635,-0.44254767894744873,-0.0529119148850441,1.093309760093689
6.519856929779053,0.21656768023967743,-0.44246530532836914,0.5783616900444031,-0.44222044944763184,-0.051572106778621674,1.0934069156646729
6.539917469024658,0.21986912190914154,-0.44301480054855347,0.5791739821434021,-0.4418264627456665,-0.049738965928554535,1.0934386253356934
6.560148239135742,0.22032783925533295,-0.4428369402885437,0.579744815826416,-0.4417946934700012,-0.04945112019777298,1.0933654308319092
6.580136299133301,0.21924422681331635,-0.44187405705451965,0.5808740258216858,-0.4419703185558319,-0.04992792755365372,1.0930925607681274
6.600223064422607,0.2177635133266449,-0.4411207437515259,0.5813369154930115,-0.4421401917934418,-0.05070694908499718,1.0928925275802612
6.620347738265991,0.21312479674816132,-0.43920034170150757,0.5821149349212646,-0.4426678717136383,-0.053282447159290314,1.0924113988876343
6.640425682067871,0.20751875638961792,-0.4372348189353943,0.5825937390327454,-0.4432818591594696,-0.05648105964064598,1.0919617414474487
6.6605224609375,0.2046092003583908,-0.4363369643688202,0.5827140808105469,-0.4435950517654419,-0.05812978371977806,1.0917847156524658
6.680744647979736,0.19954411685466766,-0.43499457836151123,0.5825641751289368,-0.44411227107048035,-0.061037298291921616,1.0915722846984863
6.700838804244995,0.19772112369537354,-0.43461909890174866,0.5823755264282227,-0.44432923197746277,-0.06214074790477753,1.0915497541427612
6.720909833908081,0.1951976865530014,-0.43439924716949463,0.58155357837677,-0.4446091651916504,-0.06364192813634872,1.091620922088623
6.740984916687012,0.1952899545431137,-0.4351290166378021,0.5804724097251892,-0.4445825517177582,-0.06362373381853104,1.0919088125228882
6.761101245880127,0.1963399052619934,-0.4358167052268982,0.5798556804656982,-0.44443148374557495,-0.06303500384092331,1.0921099185943604
6.781166315078735,0.20049509406089783,-0.43768060207366943,0.5787964463233948,-0.4438847303390503,-0.06082111597061157,1.0925835371017456
6.801312685012817,0.20662854611873627,-0.439863383769989,0.5782414674758911,-0.44310981035232544,-0.05758612975478172,1.093073844909668
6.821429014205933,0.2097102552652359,-0.44084441661834717,0.5781960487365723,-0.4426908791065216,-0.05591067299246788,1.0932804346084595
6.841552734375,0.21556144952774048,-0.4424634873867035,0.5785724520683289,-0.4418776333332062,-0.05269155278801918,1.0935859680175781
6.861591815948486,0.21810729801654816,-0.4430457055568695,0.5789835453033447,-0.4415554404258728,-0.051277197897434235,1.0936713218688965
6.881756067276001,0.22096338868141174,-0.4433217942714691,0.5801252722740173,-0.4412670135498047,-0.04964514076709747,1.0936198234558105
6.9018120765686035,0.220377579331398,-0.44241175055503845,0.5812534093856812,-0.4414035379886627,-0.049828872084617615,1.093294620513916
6.921921968460083,0.21889658272266388,-0.44159942865371704,0.5817821025848389,-0.4415959119796753,-0.05056532844901085,1.0930638313293457
6.942001581192017,0.21424613893032074,-0.4395095705986023,0.5826542377471924,-0.4422159492969513,-0.053171854466199875,1.0924794673919678
6.962104320526123,0.2112942934036255,-0.43838104605674744,0.5829488039016724,-0.4426104426383972,-0.054839570075273514,1.0921783447265625
6.982213497161865,0.20489247143268585,-0.43606874346733093,0.5835362672805786,-0.4434675872325897,-0.058626800775527954,1.0916328430175781
7.002322196960449,0.19927304983139038,-0.43424752354621887,0.5836369395256042,-0.44419777393341064,-0.06205672398209572,1.0912859439849854
7.022413730621338,0.1971154659986496,-0.43364623188972473,0.5835678577423096,-0.4444996118545532,-0.06343389302492142,1.091198444366455
7.042509078979492,0.19397227466106415,-0.43312546610832214,0.5830283761024475,-0.44492384791374207,-0.06533210724592209,1.091193675994873
7.062567472457886,0.19349083304405212,-0.4333451986312866,0.5824775695800781,-0.44499921798706055,-0.06558556854724884,1.0912983417510986
7.082673072814941,0.19521819055080414,-0.434670090675354,0.580855131149292,-0.4447740614414215,-0.0645454004406929,1.0916820764541626
7.102684497833252,0.19975504279136658,-0.43694987893104553,0.5789040327072144,-0.4441746771335602,-0.06168216094374657,1.092231273651123
7.122770071029663,0.20286217331886292,-0.4382981061935425,0.5781068801879883,-0.44377461075782776,-0.05970261991024017,1.092551589012146
7.142868518829346,0.20929747819900513,-0.4407956898212433,0.5770707726478577,-0.4429745078086853,-0.0556144118309021,1.093098759651184
7.163029193878174,0.2155872881412506,-0.4428122341632843,0.5770755410194397,-0.44225791096687317,-0.05168098956346512,1.0935078859329224
7.183155536651611,0.21815690398216248,-0.44346606731414795,0.577536940574646,-0.4419875144958496,-0.05009825900197029,1.0936217308044434
7.2032387256622314,0.2206176221370697,-0.4436896741390228,0.5791487693786621,-0.4417983889579773,-0.04848289117217064,1.0935823917388916
7.223309516906738,0.22049789130687714,-0.44326332211494446,0.5801186561584473,-0.4418792128562927,-0.04850161075592041,1.0934367179870605
7.243446350097656,0.21805261075496674,-0.44167986512184143,0.5818957686424255,-0.44220882654190063,-0.04990071430802345,1.0929605960845947
7.2635486125946045,0.21271759271621704,-0.43938666582107544,0.5831387042999268,-0.44276711344718933,-0.052907008677721024,1.0923221111297607
7.283587694168091,0.20935821533203125,-0.438152551651001,0.5834504961967468,-0.44309988617897034,-0.05476905778050423,1.091995120048523
7.3036768436431885,0.2022169679403305,-0.43581047654151917,0.5834300518035889,-0.44380006194114685,-0.05868222564458847,1.0914334058761597
7.323740482330322,0.19883020222187042,-0.4347973167896271,0.5831263065338135,-0.44411760568618774,-0.0605819933116436,1.0912140607833862
7.3438403606414795,0.19394761323928833,-0.4336155951023102,0.5822728872299194,-0.4446316659450531,-0.06333822757005692,1.0910496711730957
7.363935232162476,0.19119417667388916,-0.43330612778663635,0.5811087489128113,-0.44491344690322876,-0.06505600363016129,1.0910860300064087
7.384032487869263,0.19125643372535706,-0.43364718556404114,0.5804619193077087,-0.4448772966861725,-0.06517834961414337,1.0912176370620728
7.404183387756348,0.1943008303642273,-0.43519631028175354,0.5792330503463745,-0.4444466531276703,-0.06395380944013596,1.091644048690796
7.424198627471924,0.19707421958446503,-0.436317503452301,0.5787208080291748,-0.44405290484428406,-0.0626232698559761,1.0919371843338013
7.444282054901123,0.20379647612571716,-0.4387490451335907,0.5781272649765015,-0.4432286024093628,-0.05915379896759987,1.0925490856170654
7.464457035064697,0.2111499309539795,-0.4410627782344818,0.5779920816421509,-0.44230204820632935,-0.055181533098220825,1.0930564403533936
7.484579801559448,0.21462920308113098,-0.44205498695373535,0.578071117401123,-0.44182920455932617,-0.053238846361637115,1.0932387113571167
7.504668235778809,0.21976792812347412,-0.44323915243148804,0.5787224173545837,-0.4411693513393402,-0.05023821443319321,1.0933963060379028
7.524915933609009,0.22090613842010498,-0.4432913661003113,0.5791523456573486,-0.4410378634929657,-0.04945053160190582,1.09335458278656
7.545063495635986,0.2201121747493744,-0.4423726201057434,0.5799631476402283,-0.44117751717567444,-0.04954865574836731,1.0930345058441162
7.56523871421814,0.21654735505580902,-0.4405311048030853,0.5808038115501404,-0.44160425662994385,-0.051477160304784775,1.092513918876648
7.585271596908569,0.21403823792934418,-0.43944111466407776,0.5811434984207153,-0.4418749511241913,-0.052936628460884094,1.092219591140747
7.605361700057983,0.20854802429676056,-0.4372866749763489,0.581942081451416,-0.44254544377326965,-0.05621453747153282,1.09172785282135
7.625865459442139,0.20351973176002502,-0.4356376826763153,0.5823080539703369,-0.4431994557380676,-0.059247441589832306,1.0914124250411987
7.64596152305603,0.20166149735450745,-0.4351383447647095,0.5823574662208557,-0.4434891939163208,-0.060405582189559937,1.091347575187683
7.66603684425354,0.19952350854873657,-0.43479058146476746,0.5823138952255249,-0.4439485967159271,-0.061822857707738876,1.091394305229187
7.686156511306763,0.19907167553901672,-0.43493732810020447,0.5820620656013489,-0.4440973699092865,-0.06206730008125305,1.0914859771728516
7.706273555755615,0.1993705928325653,-0.43568524718284607,0.5812666416168213,-0.4442133605480194,-0.06177206709980965,1.0917550325393677
7.726405382156372,0.20161448419094086,-0.4370344281196594,0.5801451802253723,-0.44403302669525146,-0.06032340228557587,1.0920994281768799
7.746503114700317,0.20324325561523438,-0.4377728998661041,0.5796886682510376,-0.44387272000312805,-0.059326257556676865,1.0922852754592896
7.766627311706543,0.20676493644714355,-0.4391370415687561,0.5790513753890991,-0.44354352355003357,-0.05715207755565643,1.0926249027252197
7.78667688369751,0.20858898758888245,-0.4397364854812622,0.5788652300834656,-0.4433288872241974,-0.056015707552433014,1.092773675918579
7.806747913360596,0.2121417373418808,-0.44069355726242065,0.578822910785675,-0.44294047355651855,-0.05389490723609924,1.092979907989502
7.826802730560303,0.21493437886238098,-0.44121232628822327,0.5791388750076294,-0.44268274307250977,-0.05228599160909653,1.0930399894714355
7.84692120552063,0.21566882729530334,-0.4412071406841278,0.5794364213943481,-0.44263675808906555,-0.05186740309000015,1.0930014848709106
7.86699652671814,0.21579672396183014,-0.4407946467399597,0.5800554156303406,-0.44262489676475525,-0.05176251381635666,1.092807412147522
7.887082099914551,0.21475404500961304,-0.4400911331176758,0.5805197954177856,-0.44273123145103455,-0.05237436294555664,1.0925102233886719
7.907174587249756,0.2141401767730713,-0.4397030472755432,0.5807947516441345,-0.442821204662323,-0.05282703787088394,1.0923553705215454
7.927270889282227,0.21265347301959991,-0.4389241337776184,0.5813305974006653,-0.4430050253868103,-0.05386735126376152,1.0920827388763428
7.9473395347595215,0.21159738302230835,-0.438493937253952,0.5815461277961731,-0.44312751293182373,-0.05451829358935356,1.0919506549835205
7.967419624328613,0.20946669578552246,-0.4377501904964447,0.5818511247634888,-0.44338470697402954,-0.05578739941120148,1.0917385816574097
7.98775839805603,0.20722481608390808,-0.43709540367126465,0.5819684267044067,-0.44372934103012085,-0.05700458958745003,1.0916029214859009
8.007860898971558,0.2058555632829666,-0.43671539425849915,0.5819370746612549,-0.4439072012901306,-0.05769871920347214,1.0915461778640747
8.027936458587646,0.20332685112953186,-0.4361097514629364,0.5816162824630737,-0.44419053196907043,-0.058916397392749786,1.0914902687072754
8.048018217086792,0.20213128626346588,-0.43589386343955994,0.5812921524047852,-0.44430941343307495,-0.05943514034152031,1.0914859771728516
8.068129777908325,0.2005932629108429,-0.4357427954673767,0.5806846022605896,-0.4444901645183563,-0.06011384353041649,1.0915535688400269
8.088310241699219,0.2001255601644516,-0.4359334111213684,0.580218493938446,-0.44461560249328613,-0.06025311350822449,1.0917359590530396
8.108437061309814,0.2004033923149109,-0.4361691176891327,0.5800047516822815,-0.4446055293083191,-0.06008165702223778,1.0918580293655396
8.128489017486572,0.2025250345468521,-0.4370822012424469,0.579697847366333,-0.44445401430130005,-0.059000641107559204,1.092165470123291
8.149025917053223,0.20418071746826172,-0.43768569827079773,0.5796524882316589,-0.444325715303421,-0.05818132311105728,1.0923300981521606
8.169114589691162,0.20754587650299072,-0.438823938369751,0.5798051953315735,-0.44406259059906006,-0.0564873144030571,1.092610478401184
8.189394235610962,0.21066248416900635,-0.4397490918636322,0.580080509185791,-0.44380536675453186,-0.05485525727272034,1.0927963256835938
8.209514856338501,0.21198536455631256,-0.4400964677333832,0.5801738500595093,-0.44365090131759644,-0.05412476509809494,1.0928435325622559
8.22959303855896,0.21385449171066284,-0.4404659569263458,0.5803467035293579,-0.4433928430080414,-0.05303801968693733,1.0928386449813843
8.249720811843872,0.21441443264484406,-0.4403739273548126,0.5804741978645325,-0.4432387351989746,-0.052614543586969376,1.092719554901123
8.269810914993286,0.21417130529880524,-0.4401571750640869,0.58050537109375,-0.44319313764572144,-0.05269010737538338,1.0926216840744019
8.289870262145996,0.21330784261226654,-0.43959298729896545,0.580571174621582,-0.44313839077949524,-0.05316900834441185,1.0923908948898315
8.309979677200317,0.21274879574775696,-0.43929898738861084,0.5805786848068237,-0.4431148171424866,-0.053498540073633194,1.092278003692627
8.33004903793335,0.2110101878643036,-0.43858423829078674,0.5806052684783936,-0.44316989183425903,-0.054489634931087494,1.0920532941818237
8.35007643699646,0.20925083756446838,-0.4379825294017792,0.5806336998939514,-0.4432915151119232,-0.055513206869363785,1.091892123222351
8.370173215866089,0.2084653526544571,-0.43774721026420593,0.5806469917297363,-0.44335418939590454,-0.05598696693778038,1.0918384790420532
8.390362977981567,0.20689472556114197,-0.4373306334018707,0.5806009769439697,-0.4434696137905121,-0.056972477585077286,1.0917454957962036
8.41036057472229,0.20616497099399567,-0.4371867775917053,0.5805378556251526,-0.4435234069824219,-0.05741412192583084,1.0917234420776367
8.430647611618042,0.2049277424812317,-0.4370232820510864,0.5803813338279724,-0.44364219903945923,-0.05818096175789833,1.0917181968688965
8.450661897659302,0.20461834967136383,-0.4370565712451935,0.5802928805351257,-0.4436796009540558,-0.058421216905117035,1.091742753982544
8.470793008804321,0.20440047979354858,-0.4372985363006592,0.5800125002861023,-0.44367051124572754,-0.05862743780016899,1.0918328762054443
8.490936756134033,0.20435559749603271,-0.4376220405101776,0.5796573758125305,-0.4436345398426056,-0.05861523747444153,1.091956615447998
8.511098861694336,0.20446845889091492,-0.43781381845474243,0.579529345035553,-0.4436405599117279,-0.058505356311798096,1.0920379161834717
8.531198978424072,0.20493268966674805,-0.4382295608520508,0.5793739557266235,-0.44365206360816956,-0.0580604188144207,1.0922387838363647
8.551268339157104,0.20518909394741058,-0.4384203851222992,0.5793788433074951,-0.4436569809913635,-0.05780820548534393,1.092337727546692
8.571337223052979,0.20582441985607147,-0.4387776255607605,0.5794737339019775,-0.4437110424041748,-0.05725335329771042,1.0925137996673584
8.591423988342285,0.20622652769088745,-0.43893784284591675,0.5795372724533081,-0.4437151253223419,-0.05693846940994263,1.0925959348678589
8.611591577529907,0.20730054378509521,-0.4392208755016327,0.5797838568687439,-0.4436902105808258,-0.056279800832271576,1.0927331447601318
8.631624221801758,0.20827943086624146,-0.43939125537872314,0.5800500512123108,-0.4436439871788025,-0.05571509897708893,1.0928128957748413
8.651726961135864,0.20869329571723938,-0.43944141268730164,0.5801721215248108,-0.44362398982048035,-0.05547776818275452,1.0928311347961426
8.671773433685303,0.2093934267759323,-0.43948569893836975,0.5802962779998779,-0.4435851275920868,-0.055065054446458817,1.0928354263305664
8.691865921020508,0.20962028205394745,-0.43945980072021484,0.5802791714668274,-0.44354447722435,-0.05491797626018524,1.0928194522857666
8.711960554122925,0.20983991026878357,-0.4393300712108612,0.5802339911460876,-0.4434468746185303,-0.05475732684135437,1.0927642583847046
8.732112884521484,0.20973169803619385,-0.4391160011291504,0.5802202820777893,-0.4434266984462738,-0.05478588491678238,1.0926810503005981
8.752206087112427,0.20962637662887573,-0.4390068054199219,0.580208957195282,-0.4434235692024231,-0.05483435466885567,1.0926376581192017
8.772364139556885,0.20939843356609344,-0.4388082027435303,0.5801810026168823,-0.4434271454811096,-0.05497519671916962,1.092549443244934
8.79242992401123,0.20929482579231262,-0.43872809410095215,0.5801713466644287,-0.4434308707714081,-0.055052466690540314,1.0925109386444092
8.812542915344238,0.20906281471252441,-0.4385826289653778,0.5801147222518921,-0.4433872401714325,-0.055222488939762115,1.0924468040466309
8.832666635513306,0.20893439650535583,-0.4385104477405548,0.5800793766975403,-0.4433691203594208,-0.055348169058561325,1.0924088954925537
8.85275387763977,0.20887915790081024,-0.4384874999523163,0.5800648331642151,-0.44336143136024475,-0.05541336163878441,1.0923962593078613
8.87283205986023,0.20878462493419647,-0.43846073746681213,0.5800346732139587,-0.4433288872241974,-0.05553537607192993,1.092384934425354
8.893046617507935,0.20876289904117584,-0.43846291303634644,0.5800337195396423,-0.44331637024879456,-0.055582839995622635,1.0923879146575928
8.913142204284668,0.20869199931621552,-0.4384603500366211,0.5800037384033203,-0.44326919317245483,-0.05568668991327286,1.0923941135406494
8.933174848556519,0.20870617032051086,-0.4384937286376953,0.5800276398658752,-0.44326990842819214,-0.05575224384665489,1.0924098491668701
8.953322649002075,0.20871514081954956,-0.4385136365890503,0.5800530910491943,-0.4432879686355591,-0.05578690022230148,1.0924170017242432
8.973515748977661,0.2086678147315979,-0.4385349750518799,0.5800895690917969,-0.4433581233024597,-0.05591021850705147,1.0924128293991089
8.993535995483398,0.20856399834156036,-0.43853968381881714,0.5801168084144592,-0.4434400796890259,-0.05605120211839676,1.0924040079116821
9.013583660125732,0.20843897759914398,-0.43851688504219055,0.5801191329956055,-0.4434818625450134,-0.05615678057074547,1.092393159866333
9.033680438995361,0.2080616056919098,-0.4384310841560364,0.5801106691360474,-0.4435408115386963,-0.05640377476811409,1.0923782587051392
9.05379319190979,0.20778639614582062,-0.43836408853530884,0.580098032951355,-0.4435829520225525,-0.05656016990542412,1.0923694372177124
9.073914051055908,0.2072933465242386,-0.43825235962867737,0.5800682306289673,-0.44366881251335144,-0.05684135481715202,1.09236478805542
9.094013690948486,0.2069077044725418,-0.4381769001483917,0.5800239443778992,-0.4437161684036255,-0.0570368692278862,1.0923867225646973
9.114083290100098,0.20674166083335876,-0.4381496012210846,0.579993486404419,-0.44372451305389404,-0.05711257457733154,1.0924056768417358
9.134204626083374,0.2065465748310089,-0.4381444454193115,0.5799411535263062,-0.44373396039009094,-0.057197265326976776,1.092458963394165
9.15427279472351,0.20653556287288666,-0.43817514181137085,0.5799404978752136,-0.4437776803970337,-0.05721205100417137,1.09248685836792
9.174341678619385,0.20673123002052307,-0.43830281496047974,0.5799599289894104,-0.4438522458076477,-0.057135242968797684,1.0925558805465698
9.194409370422363,0.2069477140903473,-0.43842563033103943,0.5799693465232849,-0.44386711716651917,-0.057033464312553406,1.09262216091156
9.214481592178345,0.20704348385334015,-0.4384784400463104,0.5799738168716431,-0.44385841488838196,-0.05697786435484886,1.092655062675476
9.234586238861084,0.20720261335372925,-0.4385654926300049,0.5800125598907471,-0.44387662410736084,-0.05690210685133934,1.0927060842514038
9.254682302474976,0.20729394257068634,-0.4386191964149475,0.5800429582595825,-0.4439103603363037,-0.05687490105628967,1.0927362442016602
9.274775505065918,0.20732036232948303,-0.4386357367038727,0.5800460577011108,-0.4439171254634857,-0.0568658746778965,1.0927473306655884
9.294881343841553,0.2073601484298706,-0.43866050243377686,0.5800476670265198,-0.4439096748828888,-0.05684352293610573,1.0927691459655762
9.314995765686035,0.20737150311470032,-0.4386681020259857,0.5800417065620422,-0.44389867782592773,-0.056832995265722275,1.0927791595458984
9.335103273391724,0.20739880204200745,-0.43868517875671387,0.5800377130508423,-0.44388696551322937,-0.05681317299604416,1.0927979946136475
9.355144023895264,0.20743675529956818,-0.43870487809181213,0.5800264477729797,-0.4438755512237549,-0.0567777082324028,1.0928162336349487
9.375237464904785,0.207501620054245,-0.4387300908565521,0.5800395011901855,-0.44389569759368896,-0.05674925446510315,1.0928231477737427
9.395346641540527,0.20779716968536377,-0.4388265311717987,0.5800523161888123,-0.4438687860965729,-0.05657593533396721,1.0928558111190796
9.415467500686646,0.20819678902626038,-0.4389418065547943,0.5800701379776001,-0.44384515285491943,-0.056372594088315964,1.0928776264190674
9.435673236846924,0.20839761197566986,-0.43899285793304443,0.5800862312316895,-0.4438302516937256,-0.05626577511429787,1.0928864479064941
9.455744743347168,0.208827942609787,-0.4391002058982849,0.580146849155426,-0.4438537359237671,-0.056049857288599014,1.0928938388824463
9.475809812545776,0.20901606976985931,-0.4391402304172516,0.5801685452461243,-0.4438582956790924,-0.05595807358622551,1.0928913354873657
9.495962381362915,0.2093159556388855,-0.43918150663375854,0.580183744430542,-0.44381076097488403,-0.055791378021240234,1.092883586883545
9.515981674194336,0.20940639078617096,-0.4391809105873108,0.5801858305931091,-0.443774938583374,-0.05572989955544472,1.0928789377212524
9.536218404769897,0.2094123512506485,-0.43912187218666077,0.5801905989646912,-0.4437118470668793,-0.05568571761250496,1.0928630828857422
9.556246995925903,0.2093764990568161,-0.43908047676086426,0.5801839828491211,-0.44366464018821716,-0.05567578226327896,1.0928571224212646
9.5763578414917,0.20925797522068024,-0.4389858543872833,0.5801297426223755,-0.4435451030731201,-0.05568024888634682,1.0928444862365723
9.596405267715454,0.20915134251117706,-0.4389009475708008,0.5800720453262329,-0.44343650341033936,-0.05568523332476616,1.0928360223770142
9.616496086120605,0.20912349224090576,-0.438871830701828,0.5800532698631287,-0.44340354204177856,-0.05568022280931473,1.0928335189819336
9.636597871780396,0.2090761810541153,-0.43882715702056885,0.580031156539917,-0.4433826506137848,-0.05569472536444664,1.0928224325180054
9.656679630279541,0.20904496312141418,-0.438810259103775,0.5800219178199768,-0.4433840215206146,-0.05571408197283745,1.0928162336349487
9.67682671546936,0.20899564027786255,-0.4387919008731842,0.5800034999847412,-0.44340142607688904,-0.055751629173755646,1.09280526638031
9.697228193283081,0.20894670486450195,-0.438800573348999,0.5800281167030334,-0.4434914290904999,-0.0558096282184124,1.0927966833114624
9.717320919036865,0.20886248350143433,-0.43879061937332153,0.5800373554229736,-0.4435373544692993,-0.05586668848991394,1.0927914381027222
9.737404346466064,0.20854812860488892,-0.43872901797294617,0.5800514817237854,-0.44363728165626526,-0.05605092644691467,1.0927754640579224
9.757564544677734,0.20832420885562897,-0.4386802613735199,0.5800478458404541,-0.44367796182632446,-0.05616585537791252,1.092769742012024
9.777603149414062,0.2079252004623413,-0.43860042095184326,0.5800579190254211,-0.44379016757011414,-0.05638399347662926,1.092761754989624
9.797660112380981,0.20774267613887787,-0.43856826424598694,0.5800518989562988,-0.44383785128593445,-0.05647796019911766,1.0927627086639404
9.817753314971924,0.20734983682632446,-0.43848592042922974,0.5800047516822815,-0.4438948631286621,-0.056685857474803925,1.0927609205245972
9.837797403335571,0.2070755511522293,-0.4384317994117737,0.579962968826294,-0.4439447522163391,-0.05685022100806236,1.0927647352218628
9.857895374298096,0.206991046667099,-0.4384193420410156,0.5799397230148315,-0.44395774602890015,-0.05690612643957138,1.0927700996398926
9.877994298934937,0.2070010006427765,-0.438445121049881,0.5799200534820557,-0.4440011978149414,-0.05695362389087677,1.0927817821502686
9.898103475570679,0.2070423662662506,-0.4384687542915344,0.579919159412384,-0.44402632117271423,-0.056958943605422974,1.092788815498352
9.918191194534302,0.2070939540863037,-0.4384995102882385,0.5799216628074646,-0.44409042596817017,-0.056997545063495636,1.092789649963379
9.938483953475952,0.2071552574634552,-0.43852558732032776,0.5799391865730286,-0.4441399872303009,-0.05701141804456711,1.0927945375442505
9.958584070205688,0.20719493925571442,-0.4385417699813843,0.5799427032470703,-0.44413578510284424,-0.05699147284030914,1.0928058624267578
9.978642702102661,0.20725078880786896,-0.43856558203697205,0.579940140247345,-0.44410648941993713,-0.05695321410894394,1.0928294658660889
9.998761415481567,0.2072761505842209,-0.4385761320590973,0.5799404978752136,-0.4440963864326477,-0.0569348968565464,1.0928407907485962
10.01888918876648,0.20735804736614227,-0.4386117160320282,0.5799293518066406,-0.4440418779850006,-0.05684623122215271,1.092881441116333
10.039444923400879,0.20743364095687866,-0.4386419355869293,0.5799282193183899,-0.4439838230609894,-0.056753501296043396,1.0929232835769653
10.059597492218018,0.2074529230594635,-0.4386494755744934,0.5799233317375183,-0.4439586102962494,-0.05672040954232216,1.092940092086792
10.079700469970703,0.20748960971832275,-0.43866413831710815,0.5799193382263184,-0.44394004344940186,-0.05666786804795265,1.0929679870605469
10.099866151809692,0.20751884579658508,-0.4386753737926483,0.5799264311790466,-0.4439498782157898,-0.05664099007844925,1.0929791927337646
10.11992335319519,0.2075861394405365,-0.4386964738368988,0.5799381732940674,-0.44395145773887634,-0.05658402293920517,1.0930002927780151
10.139975786209106,0.20759417116641998,-0.43869516253471375,0.579940140247345,-0.4439566731452942,-0.056584496051073074,1.0930010080337524
10.160059928894043,0.2076556235551834,-0.43871015310287476,0.5799486637115479,-0.44394752383232117,-0.05655241385102272,1.0930125713348389
10.180124759674072,0.20789699256420135,-0.43878042697906494,0.5799732804298401,-0.44392070174217224,-0.05642455816268921,1.0930356979370117
10.200215101242065,0.20808501541614532,-0.438838928937912,0.5800046920776367,-0.4439195990562439,-0.05633191391825676,1.0930495262145996
10.220313549041748,0.20845118165016174,-0.4389438033103943,0.5800303816795349,-0.44384264945983887,-0.056133244186639786,1.0930768251419067
10.240424156188965,0.20863047242164612,-0.4389958083629608,0.5800474286079407,-0.443814754486084,-0.056036993861198425,1.093088150024414
10.260481357574463,0.2089749276638031,-0.4391045570373535,0.5801124572753906,-0.44379866123199463,-0.05584225803613663,1.0931116342544556
10.280717134475708,0.20914152264595032,-0.43915852904319763,0.5801379680633545,-0.44377702474594116,-0.05573636665940285,1.093125343322754
10.30082631111145,0.20932789146900177,-0.43921515345573425,0.5801699161529541,-0.4437166452407837,-0.05559069663286209,1.0931426286697388
10.32109785079956,0.20930834114551544,-0.4392041862010956,0.5801770091056824,-0.4436560571193695,-0.05554889142513275,1.0931450128555298
10.341146230697632,0.209249809384346,-0.43918246030807495,0.5801848769187927,-0.4436447322368622,-0.055558715015649796,1.0931410789489746
10.361276626586914,0.20908516645431519,-0.4391234219074249,0.5801829695701599,-0.443631112575531,-0.055617883801460266,1.093124508857727
10.381312608718872,0.20897214114665985,-0.4390718340873718,0.5801544785499573,-0.4435855448246002,-0.055659566074609756,1.093113660812378
10.401384353637695,0.20878203213214874,-0.4389753043651581,0.5801126956939697,-0.44351717829704285,-0.05574005842208862,1.0930925607681274
10.421480417251587,0.20859403908252716,-0.43886563181877136,0.5800676941871643,-0.4434809982776642,-0.055851925164461136,1.0930569171905518
10.441610097885132,0.2085331231355667,-0.43881329894065857,0.5800638198852539,-0.4434649348258972,-0.055903587490320206,1.0930415391921997
10.461647510528564,0.20858268439769745,-0.43872204422950745,0.5801743865013123,-0.44344308972358704,-0.05597885325551033,1.093022346496582
10.481742143630981,0.2086191028356552,-0.43868589401245117,0.5802364349365234,-0.4434337615966797,-0.056009385734796524,1.0930134057998657
10.50189995765686,0.20872220396995544,-0.43865275382995605,0.5803815126419067,-0.44345909357070923,-0.05605251342058182,1.0929973125457764
10.522050380706787,0.20875169336795807,-0.43863731622695923,0.5804360508918762,-0.44345271587371826,-0.056072674691677094,1.0929895639419556
10.542185306549072,0.20879733562469482,-0.43862199783325195,0.5805529952049255,-0.443461149930954,-0.056120194494724274,1.092972993850708
10.562302589416504,0.2088145613670349,-0.4386260509490967,0.5806499719619751,-0.4434854984283447,-0.05616956949234009,1.0929551124572754
10.582396030426025,0.20873841643333435,-0.4386257529258728,0.5806524157524109,-0.44351160526275635,-0.056208908557891846,1.0929399728775024
10.602494478225708,0.20836640894412994,-0.43857985734939575,0.5805997252464294,-0.44357720017433167,-0.05636099353432655,1.0929063558578491
10.622572898864746,0.20817118883132935,-0.4385511875152588,0.5805598497390747,-0.4435950219631195,-0.056437306106090546,1.092895269393921
10.64268159866333,0.20782099664211273,-0.43851348757743835,0.5804716944694519,-0.443642795085907,-0.05656798183917999,1.0928847789764404
10.662712097167969,0.20762842893600464,-0.4384969472885132,0.5803951025009155,-0.4436505436897278,-0.056626059114933014,1.0928840637207031
10.682819843292236,0.2071676105260849,-0.43848177790641785,0.5801138877868652,-0.44361183047294617,-0.05669638514518738,1.0928984880447388
10.702874422073364,0.20677265524864197,-0.4384653866291046,0.5798503160476685,-0.4435634911060333,-0.05675334110856056,1.092924952507019
10.72295069694519,0.20666949450969696,-0.43847572803497314,0.5797253847122192,-0.44352829456329346,-0.05674448981881142,1.0929447412490845
10.743035316467285,0.20651578903198242,-0.4384877681732178,0.5794963240623474,-0.4434683918952942,-0.056746792048215866,1.0929722785949707
10.763118743896484,0.20644445717334747,-0.4384858310222626,0.5793895721435547,-0.4434349238872528,-0.05675169453024864,1.0929845571517944
10.783236980438232,0.20639321208000183,-0.4384818971157074,0.5792554616928101,-0.44341614842414856,-0.05676296725869179,1.093005657196045
10.803272008895874,0.20648272335529327,-0.43846142292022705,0.5792597532272339,-0.44340625405311584,-0.056777339428663254,1.0930298566818237
10.823359251022339,0.20654934644699097,-0.43845582008361816,0.5792675018310547,-0.44338637590408325,-0.05676274001598358,1.09304678440094
10.843458890914917,0.2066047340631485,-0.43842190504074097,0.5792802572250366,-0.4433266818523407,-0.05677691102027893,1.0930665731430054
10.863552808761597,0.20663365721702576,-0.43841081857681274,0.5793205499649048,-0.4432913064956665,-0.05677931010723114,1.0930770635604858
10.883649587631226,0.20674678683280945,-0.4384215176105499,0.5794561505317688,-0.4432336091995239,-0.05675658956170082,1.0931023359298706
10.903899431228638,0.20712654292583466,-0.43851438164711,0.5795803070068359,-0.44315290451049805,-0.05660293251276016,1.0931358337402344
10.923988342285156,0.20738589763641357,-0.43857672810554504,0.5796411037445068,-0.44309523701667786,-0.05648690462112427,1.093153476715088
10.944072246551514,0.20793427526950836,-0.438713937997818,0.5798072814941406,-0.4430730938911438,-0.05625656247138977,1.0931727886199951
10.964149236679077,0.20821699500083923,-0.4387850761413574,0.5799081921577454,-0.4431024193763733,-0.05614451691508293,1.0931739807128906
10.984269618988037,0.20873424410820007,-0.4388974905014038,0.5800392031669617,-0.443147212266922,-0.05592232942581177,1.0931676626205444
11.005053043365479,0.20917749404907227,-0.4389711022377014,0.5800761580467224,-0.4431785047054291,-0.05570753663778305,1.0931488275527954
11.025182247161865,0.2093144655227661,-0.43898043036460876,0.5800868272781372,-0.4431854784488678,-0.055627692490816116,1.093135952949524
11.045262336730957,0.2093348652124405,-0.43892744183540344,0.5801010131835938,-0.44323042035102844,-0.05558598414063454,1.0930964946746826
11.065375566482544,0.20929618179798126,-0.43888843059539795,0.5800961256027222,-0.44324997067451477,-0.0555933341383934,1.093073844909668
11.085435152053833,0.20923438668251038,-0.4388224184513092,0.5800889134407043,-0.4432547688484192,-0.05558916926383972,1.093043565750122
11.105907201766968,0.20918932557106018,-0.438779354095459,0.5800646543502808,-0.44325539469718933,-0.05558136850595474,1.093019962310791
11.125979900360107,0.20916905999183655,-0.43876075744628906,0.5800563097000122,-0.443253755569458,-0.05557949095964432,1.0930103063583374
11.146034717559814,0.2091253250837326,-0.43872886896133423,0.5800426602363586,-0.4432732164859772,-0.05559798330068588,1.092987298965454
11.16612720489502,0.20909875631332397,-0.43871182203292847,0.5800380110740662,-0.4432942867279053,-0.0556192584335804,1.0929725170135498
11.186219930648804,0.20906314253807068,-0.4386846721172333,0.580040693283081,-0.4433343708515167,-0.05565179884433746,1.092947244644165
11.2063467502594,0.20896904170513153,-0.4386337101459503,0.5800086259841919,-0.4433404505252838,-0.05571781471371651,1.0929157733917236
11.226389169692993,0.20890381932258606,-0.438605934381485,0.5799781084060669,-0.4433151185512543,-0.05575057491660118,1.0929055213928223
11.246501207351685,0.20866788923740387,-0.43852499127388,0.5799309015274048,-0.4432976543903351,-0.05587761104106903,1.0928810834884644
11.266601085662842,0.20842191576957703,-0.4384493827819824,0.5798914432525635,-0.44330164790153503,-0.05601833015680313,1.0928593873977661
11.286700248718262,0.20827674865722656,-0.4384077787399292,0.579874575138092,-0.44330790638923645,-0.056097887456417084,1.0928508043289185
11.306766271591187,0.2078239917755127,-0.43828752636909485,0.5798373818397522,-0.44336143136024475,-0.0563398152589798,1.0928274393081665
11.326849699020386,0.20758958160877228,-0.4382288455963135,0.5798121690750122,-0.44338199496269226,-0.05646234750747681,1.0928198099136353
11.346931457519531,0.20717164874076843,-0.4381316006183624,0.5797884464263916,-0.4434884488582611,-0.05671054869890213,1.0928007364273071
11.366974592208862,0.20686781406402588,-0.4380599856376648,0.5797592401504517,-0.4435581564903259,-0.05690249800682068,1.0927925109863281
11.3870689868927,0.20674140751361847,-0.4380308985710144,0.5797362923622131,-0.4435743987560272,-0.05697960406541824,1.0927931070327759
11.407156705856323,0.20655015110969543,-0.4379945397377014,0.5796816349029541,-0.44357889890670776,-0.05708266422152519,1.0928070545196533
11.42738127708435,0.20653952658176422,-0.43800586462020874,0.5796257853507996,-0.4435531795024872,-0.057105518877506256,1.0928269624710083
11.4474778175354,0.20654772222042084,-0.4380113482475281,0.5796033143997192,-0.4435403347015381,-0.05711660161614418,1.0928351879119873
11.467534065246582,0.20657306909561157,-0.43802574276924133,0.5795558094978333,-0.44350993633270264,-0.05712427198886871,1.0928555727005005
11.48762035369873,0.20658746361732483,-0.43803390860557556,0.5795201659202576,-0.4434759020805359,-0.057112958282232285,1.0928702354431152
11.50770378112793,0.20664873719215393,-0.4380619525909424,0.5794770121574402,-0.4434581398963928,-0.05708371102809906,1.0928969383239746
11.52778172492981,0.20671263337135315,-0.43808797001838684,0.5794554352760315,-0.44348248839378357,-0.05706651881337166,1.0929158926010132
11.547904014587402,0.2067868858575821,-0.4381146728992462,0.5794483423233032,-0.4434909224510193,-0.057032667100429535,1.0929296016693115
11.567991256713867,0.20704668760299683,-0.43821167945861816,0.5794546604156494,-0.44350650906562805,-0.0568792000412941,1.0929746627807617
11.588057518005371,0.2072432041168213,-0.4382772147655487,0.5794489979743958,-0.4434932470321655,-0.056769032031297684,1.0929971933364868
11.608150243759155,0.20777086913585663,-0.4384365677833557,0.5794758200645447,-0.44347721338272095,-0.056497495621442795,1.0930371284484863
11.628204822540283,0.208228200674057,-0.43855559825897217,0.5795073509216309,-0.4434570074081421,-0.05626866966485977,1.0930548906326294
11.648291826248169,0.20846505463123322,-0.4386135935783386,0.5795305371284485,-0.4434363842010498,-0.05613824725151062,1.093065619468689
11.668384313583374,0.20884376764297485,-0.43868350982666016,0.5795734524726868,-0.4434073567390442,-0.055941324681043625,1.093063473701477
11.688451051712036,0.20897363126277924,-0.4386911988258362,0.5795884132385254,-0.4433966875076294,-0.05588492006063461,1.0930490493774414
11.708558082580566,0.20909863710403442,-0.4386592507362366,0.5796188712120056,-0.44338259100914,-0.05583130195736885,1.093011498451233
11.728609800338745,0.20903897285461426,-0.4385779798030853,0.5796509385108948,-0.44338858127593994,-0.05585227906703949,1.0929704904556274
11.748728513717651,0.20900307595729828,-0.4385388195514679,0.5796635746955872,-0.4433930516242981,-0.05586642026901245,1.0929503440856934
11.768812894821167,0.2089802473783493,-0.4384879767894745,0.5797030329704285,-0.44341692328453064,-0.055866606533527374,1.0929203033447266
11.788882970809937,0.20897172391414642,-0.43845927715301514,0.5797256827354431,-0.44343990087509155,-0.055860087275505066,1.0928959846496582
11.809061527252197,0.208967387676239,-0.4384477138519287,0.5797273516654968,-0.4434269368648529,-0.05584636703133583,1.0928903818130493
11.82909870147705,0.20896312594413757,-0.43843185901641846,0.5797150731086731,-0.4433649778366089,-0.05579881742596626,1.0928893089294434
11.849164247512817,0.2089419662952423,-0.43841755390167236,0.5796979069709778,-0.4433332681655884,-0.055789727717638016,1.092885136604309
11.869250059127808,0.2089162915945053,-0.43839776515960693,0.5796698927879333,-0.4432762563228607,-0.05576566234230995,1.0928821563720703
11.889568090438843,0.20889683067798615,-0.43838396668434143,0.5796324610710144,-0.443204402923584,-0.05573129653930664,1.0928857326507568
11.90966248512268,0.20888017117977142,-0.4383738934993744,0.5796129703521729,-0.44315746426582336,-0.05571635067462921,1.092889666557312
11.929715156555176,0.20881344377994537,-0.43835070729255676,0.5795921087265015,-0.4430912435054779,-0.05572041869163513,1.0928943157196045
11.94983434677124,0.208717942237854,-0.43832144141197205,0.5795761346817017,-0.4430745840072632,-0.05576232075691223,1.0928889513015747
11.969963550567627,0.20844675600528717,-0.43823933601379395,0.5795684456825256,-0.44307443499565125,-0.05588909611105919,1.0928764343261719
11.990026473999023,0.2080388367176056,-0.4381197690963745,0.5795401334762573,-0.4430716931819916,-0.056077636778354645,1.0928623676300049
12.010132551193237,0.2077796906232834,-0.43804731965065,0.5795233249664307,-0.44308844208717346,-0.05620836466550827,1.0928514003753662
12.030290603637695,0.2072388082742691,-0.43789923191070557,0.5794669985771179,-0.4431380331516266,-0.05650654435157776,1.0928212404251099
12.050484418869019,0.2070082277059555,-0.4378410875797272,0.5794371962547302,-0.4431588053703308,-0.056629423052072525,1.0928144454956055
12.070452690124512,0.2066575437784195,-0.4377630352973938,0.5794060826301575,-0.4432212710380554,-0.056828491389751434,1.0928115844726562
12.090547323226929,0.2065507471561432,-0.4377489686012268,0.5793912410736084,-0.44324541091918945,-0.05689430609345436,1.0928170680999756
12.110687255859375,0.20647063851356506,-0.437772661447525,0.5793774127960205,-0.4433097243309021,-0.0569700188934803,1.092835783958435
12.130884885787964,0.2064996212720871,-0.4378069043159485,0.5793856382369995,-0.4433459937572479,-0.056975871324539185,1.092849612236023
12.150949478149414,0.20660996437072754,-0.43788567185401917,0.5793964266777039,-0.44338035583496094,-0.05695173889398575,1.092881441116333
12.17104721069336,0.2066691517829895,-0.4379251003265381,0.5794106721878052,-0.4434031546115875,-0.056938815861940384,1.0928969383239746
12.191102743148804,0.20667031407356262,-0.4379902482032776,0.5793461203575134,-0.4434155523777008,-0.05692394822835922,1.0929206609725952
12.211320161819458,0.2065730094909668,-0.4380446970462799,0.5791921615600586,-0.44340774416923523,-0.056913360953330994,1.092940330505371
12.231418132781982,0.20654378831386566,-0.4380764067173004,0.5791208148002625,-0.4434092938899994,-0.05689579248428345,1.0929539203643799
12.251469850540161,0.20655208826065063,-0.4381464123725891,0.5789971947669983,-0.4434072971343994,-0.056827694177627563,1.092989444732666
12.271559953689575,0.20662984251976013,-0.43819358944892883,0.5789341926574707,-0.44339483976364136,-0.0567685030400753,1.0930073261260986
12.291715383529663,0.2070811539888382,-0.4383699893951416,0.5788995623588562,-0.44337981939315796,-0.056532301008701324,1.0930521488189697
12.3119215965271,0.2073543220758438,-0.4384610950946808,0.5789137482643127,-0.4433863162994385,-0.05639830604195595,1.0930736064910889
12.332011699676514,0.2079378068447113,-0.43860557675361633,0.5790095925331116,-0.4433811902999878,-0.05614558234810829,1.0931097269058228
12.352075099945068,0.20848113298416138,-0.4387013018131256,0.5791288614273071,-0.44335731863975525,-0.05593429505825043,1.0931252241134644
12.372255325317383,0.20871485769748688,-0.4387340843677521,0.5791828632354736,-0.44335678219795227,-0.05585697665810585,1.0931202173233032
12.39230489730835,0.2090301662683487,-0.4387516975402832,0.5792864561080933,-0.4433845579624176,-0.05577811598777771,1.093090534210205
12.412485599517822,0.20905150473117828,-0.4387114346027374,0.5793172717094421,-0.44339653849601746,-0.05579996109008789,1.0930685997009277
12.432628631591797,0.20900720357894897,-0.4385879635810852,0.5793819427490234,-0.4433864653110504,-0.05589247867465019,1.0930249691009521
12.452669620513916,0.20915046334266663,-0.4384705722332001,0.5796167850494385,-0.4433934986591339,-0.05597015097737312,1.0929945707321167
12.472808122634888,0.20920898020267487,-0.4384165406227112,0.5797305703163147,-0.44339877367019653,-0.0560128353536129,1.092976450920105
12.492894649505615,0.20931445062160492,-0.43832993507385254,0.5799432992935181,-0.44339993596076965,-0.05607910826802254,1.0929423570632935
12.512904644012451,0.2094114124774933,-0.4382722079753876,0.5801315307617188,-0.4433649480342865,-0.05610992759466171,1.0929179191589355
12.533008098602295,0.2094751000404358,-0.43826714158058167,0.5802227258682251,-0.44334906339645386,-0.056094132363796234,1.092913031578064
12.55315351486206,0.20954304933547974,-0.4382742941379547,0.5803623795509338,-0.44333434104919434,-0.056064948439598083,1.0928974151611328
12.5731680393219,0.20946572721004486,-0.43827328085899353,0.5803440809249878,-0.4433024227619171,-0.0560678094625473,1.0928840637207031
12.593265056610107,0.2092975378036499,-0.43828731775283813,0.5802868604660034,-0.4432787597179413,-0.05607904493808746,1.0928564071655273
12.61336374282837,0.20911076664924622,-0.43829870223999023,0.5802416801452637,-0.4432846009731293,-0.05611623451113701,1.0928330421447754
12.633433818817139,0.20897752046585083,-0.43828868865966797,0.5801940560340881,-0.4432952404022217,-0.05614840239286423,1.0928236246109009
12.653548002243042,0.20858046412467957,-0.4382231831550598,0.5801013112068176,-0.44333508610725403,-0.05628350377082825,1.0928007364273071
12.673771858215332,0.2360611855983734,-0.4726620614528656,0.575354814529419,-0.4207236170768738,-0.0542900487780571,1.0943692922592163
12.693857908248901,0.2636464536190033,-0.5073126554489136,0.571078896522522,-0.3980783224105835,-0.052105434238910675,1.0959575176239014
12.713919639587402,0.318550169467926,-0.5770258903503418,0.564369261264801,-0.35279151797294617,-0.04777957499027252,1.0991886854171753
12.734119415283203,0.3459410071372986,-0.6120710968971252,0.5622509717941284,-0.3302035629749298,-0.04574626311659813,1.100842833518982
12.754188776016235,0.40067678689956665,-0.6824790239334106,0.561374306678772,-0.285254567861557,-0.04223479703068733,1.1042721271514893
12.774440288543701,0.4551456868648529,-0.7533552050590515,0.5662956833839417,-0.24091917276382446,-0.04004313424229622,1.1078081130981445
12.79456615447998,0.4820774793624878,-0.7890032529830933,0.5714943408966064,-0.21915486454963684,-0.03973345085978508,1.1095658540725708
12.814684391021729,0.5345056653022766,-0.860875129699707,0.5880648493766785,-0.17684824764728546,-0.04126279056072235,1.1129460334777832
12.83482575416565,0.5595908164978027,-0.8970673084259033,0.5997657179832458,-0.15640762448310852,-0.04313893988728523,1.114562749862671
12.854867219924927,0.6062063574790955,-0.9696134924888611,0.628185510635376,-0.11713206022977829,-0.04840578883886337,1.1177352666854858
12.875117778778076,0.6422675251960754,-1.0332621335983276,0.6555955410003662,-0.08423435688018799,-0.05386121943593025,1.1206309795379639
12.89524531364441,0.6567527055740356,-1.0614194869995117,0.6672762036323547,-0.06993220001459122,-0.05593947693705559,1.122096300125122
12.91529631614685,0.6802687048912048,-1.1113859415054321,0.6858543753623962,-0.044752273708581924,-0.058482278138399124,1.125108242034912
12.935442209243774,0.6898407936096191,-1.1336054801940918,0.6928027868270874,-0.03350222483277321,-0.05873345956206322,1.1266921758651733
12.95549750328064,0.7047339677810669,-1.1726868152618408,0.7015802264213562,-0.013389451429247856,-0.057521626353263855,1.1298768520355225
12.975555181503296,0.714928150177002,-1.2052764892578125,0.7050001621246338,0.0037051457911729813,-0.05453687161207199,1.1329097747802734
12.99565315246582,0.7184704542160034,-1.219268560409546,0.7056066989898682,0.011278538964688778,-0.05288984254002571,1.1342853307724
13.015722751617432,0.7229172587394714,-1.2428995370864868,0.7051292061805725,0.024375732988119125,-0.04987940937280655,1.1366398334503174
13.035933017730713,0.7241233587265015,-1.2527480125427246,0.7047578692436218,0.029903091490268707,-0.04877549409866333,1.1376014947891235
13.055947303771973,0.7248305082321167,-1.2691339254379272,0.7037818431854248,0.03944755718111992,-0.04730913043022156,1.139190435409546
13.076001644134521,0.7240261435508728,-1.2820193767547607,0.7024011611938477,0.0473608635365963,-0.04648563265800476,1.1404637098312378
13.096099615097046,0.7232460975646973,-1.287408471107483,0.7015528082847595,0.050848305225372314,-0.04622175544500351,1.1410151720046997
13.116223096847534,0.7215430736541748,-1.296640396118164,0.7004197835922241,0.056835055351257324,-0.04592648148536682,1.1419851779937744
13.136685609817505,0.7200407385826111,-1.304417610168457,0.6997036933898926,0.061769306659698486,-0.04542141780257225,1.1428792476654053
13.15686321258545,0.719400942325592,-1.3079127073287964,0.6995510458946228,0.06402042508125305,-0.04505303502082825,1.1433182954788208
13.176916122436523,0.7183341979980469,-1.3140712976455688,0.6996211409568787,0.06786574423313141,-0.044276162981987,1.1441130638122559
13.196959972381592,0.7177440524101257,-1.316662311553955,0.6998258829116821,0.06948584318161011,-0.04400629177689552,1.144443154335022
13.217055559158325,0.716511607170105,-1.3209855556488037,0.700545608997345,0.07204753905534744,-0.043710388243198395,1.1449674367904663
13.237149000167847,0.7151353359222412,-1.3243199586868286,0.701161801815033,0.0740232989192009,-0.04367150738835335,1.1453551054000854
13.257304906845093,0.7144326567649841,-1.3257286548614502,0.7014760971069336,0.074920155107975,-0.043721526861190796,1.1455153226852417
13.27736520767212,0.7129955291748047,-1.3280565738677979,0.7019608020782471,0.0764743760228157,-0.04393666610121727,1.145770788192749
13.29744553565979,0.7114863395690918,-1.3298834562301636,0.7024598121643066,0.07777807861566544,-0.044246889650821686,1.1459708213806152
13.317537784576416,0.7107170224189758,-1.3306394815444946,0.7026820778846741,0.07833056896924973,-0.04441840574145317,1.1460567712783813
13.337678909301758,0.7093175649642944,-1.3320016860961914,0.702915608882904,0.0794183686375618,-0.04463021084666252,1.146244764328003
13.357701063156128,0.7086560130119324,-1.3326046466827393,0.7029510140419006,0.07997985184192657,-0.04469909518957138,1.1463408470153809
13.377776861190796,0.7071672081947327,-1.333451747894287,0.7030233144760132,0.08095363527536392,-0.04508350044488907,1.146475911140442
13.397841453552246,0.7063271999359131,-1.333734154701233,0.7030101418495178,0.08136535435914993,-0.04534221813082695,1.1465312242507935
13.417932271957397,0.7048289775848389,-1.3341495990753174,0.7029885649681091,0.08194684237241745,-0.045942582190036774,1.1466175317764282
13.438066959381104,0.7039788365364075,-1.334707498550415,0.7032749652862549,0.08224520832300186,-0.04632937163114548,1.1467233896255493
13.458220481872559,0.7037612795829773,-1.3350510597229004,0.7036541104316711,0.08234188705682755,-0.04649728536605835,1.1467738151550293
13.478252649307251,0.7034494876861572,-1.3357276916503906,0.7046189904212952,0.08245117217302322,-0.04682150483131409,1.1468569040298462
13.498889684677124,0.7033284902572632,-1.3364177942276,0.7059217691421509,0.0824144184589386,-0.04708481580018997,1.1469264030456543
13.518985033035278,0.7033765316009521,-1.3367736339569092,0.7065342664718628,0.08238869905471802,-0.04714229702949524,1.1469615697860718
13.539088249206543,0.7034538984298706,-1.3374663591384888,0.70790034532547,0.08238840103149414,-0.047228340059518814,1.1470201015472412
13.559154987335205,0.7032724022865295,-1.3376445770263672,0.708442747592926,0.0824335590004921,-0.04741198197007179,1.1470153331756592
13.579205989837646,0.7026807069778442,-1.3378194570541382,0.7091025114059448,0.08255995810031891,-0.04777360334992409,1.1469950675964355
13.59927225112915,0.7019259929656982,-1.3377838134765625,0.7096187472343445,0.08258504420518875,-0.04826834797859192,1.146941065788269
13.619364976882935,0.7016211748123169,-1.3377900123596191,0.7099049091339111,0.08254733681678772,-0.04847894236445427,1.1469197273254395
13.63942837715149,0.7010945677757263,-1.3377325534820557,0.7106736302375793,0.08224879205226898,-0.049025051295757294,1.1468340158462524
13.65951919555664,0.7007960677146912,-1.3376628160476685,0.7111204862594604,0.08208004385232925,-0.04937029257416725,1.1467773914337158
13.679593324661255,0.7004035115242004,-1.3376511335372925,0.7121946811676025,0.08177007734775543,-0.049998052418231964,1.146684169769287
13.70015811920166,0.7000868320465088,-1.3377180099487305,0.7133999466896057,0.08153153955936432,-0.0506320521235466,1.1466004848480225
13.720280647277832,0.6999056339263916,-1.3377727270126343,0.7140624523162842,0.08147531002759933,-0.05096762254834175,1.1465661525726318
13.74037504196167,0.6996591091156006,-1.3379682302474976,0.7153884172439575,0.08141709119081497,-0.05156242102384567,1.1465169191360474
13.76048469543457,0.6994864344596863,-1.3380844593048096,0.7161064147949219,0.08147149533033371,-0.051894377917051315,1.1464993953704834
13.78058671951294,0.6989704370498657,-1.3382395505905151,0.7171889543533325,0.08164121955633163,-0.05255727097392082,1.1464747190475464
13.800605773925781,0.6985123753547668,-1.3384277820587158,0.7182459831237793,0.08170877397060394,-0.05313243344426155,1.1464735269546509
13.820703744888306,0.6983847618103027,-1.3385676145553589,0.7189245820045471,0.08169034123420715,-0.0534096285700798,1.1464776992797852
13.840775966644287,0.6983742713928223,-1.3389651775360107,0.7204229235649109,0.08154045045375824,-0.053864218294620514,1.1464992761611938
13.861000776290894,0.6983286142349243,-1.339110016822815,0.7210531234741211,0.08141206204891205,-0.05409049987792969,1.146501064300537
13.881011247634888,0.6982364058494568,-1.339288592338562,0.7219914197921753,0.08103331923484802,-0.05448543652892113,1.1464837789535522
13.901165246963501,0.6982355117797852,-1.33938729763031,0.7226468324661255,0.08078639209270477,-0.05471763014793396,1.1464619636535645
13.92128872871399,0.6981499195098877,-1.339531660079956,0.7236924767494202,0.08035742491483688,-0.055138375610113144,1.1464130878448486
13.941433429718018,0.69804847240448,-1.339585304260254,0.7242134213447571,0.08018285036087036,-0.05538344010710716,1.1463830471038818
13.96153712272644,0.6977106332778931,-1.3396047353744507,0.7251594662666321,0.07987044006586075,-0.05598805844783783,1.1462998390197754
13.981627225875854,0.6972607374191284,-1.3395706415176392,0.7262675166130066,0.07956288754940033,-0.056761641055345535,1.1461894512176514
14.001750469207764,0.6969841718673706,-1.3395533561706543,0.7269408106803894,0.07938536256551743,-0.057230960577726364,1.1461254358291626
14.021845579147339,0.6966373920440674,-1.3396437168121338,0.7282911539077759,0.07896339893341064,-0.05804983526468277,1.1460282802581787
14.042302370071411,0.6966050267219543,-1.3399488925933838,0.7298038601875305,0.07858826220035553,-0.05871882662177086,1.1459680795669556
14.062433958053589,0.6966103911399841,-1.3401124477386475,0.7304913401603699,0.07841306179761887,-0.05901498347520828,1.1459412574768066
14.082490921020508,0.6963560581207275,-1.3403421640396118,0.7319780588150024,0.07801052927970886,-0.05970935896039009,1.1458712816238403
14.102612733840942,0.6962900757789612,-1.340505838394165,0.7328535914421082,0.07779412716627121,-0.06004102900624275,1.1458433866500854
14.12272834777832,0.6963581442832947,-1.3410005569458008,0.7346395254135132,0.07752697914838791,-0.06052868813276291,1.14583158493042
14.142816543579102,0.696297287940979,-1.3412115573883057,0.7354148626327515,0.07751528918743134,-0.060776811093091965,1.1458266973495483
14.162873268127441,0.695830762386322,-1.3414669036865234,0.7367767691612244,0.07765308022499084,-0.061429135501384735,1.1457985639572144
14.182945251464844,0.6952112317085266,-1.3416258096694946,0.7383689880371094,0.07769947499036789,-0.06227694824337959,1.1457432508468628
14.203101634979248,0.6949837803840637,-1.3417460918426514,0.7390638589859009,0.07773056626319885,-0.06261377036571503,1.145732045173645
14.223169326782227,0.6943913698196411,-1.341834306716919,0.7400850057601929,0.07782876491546631,-0.06334349513053894,1.1456855535507202
14.243248224258423,0.6936544179916382,-1.341726541519165,0.7408015727996826,0.07777904719114304,-0.06411208212375641,1.145609736442566
14.263357639312744,0.6933595538139343,-1.3416697978973389,0.7412387132644653,0.07763448357582092,-0.06449749320745468,1.1455625295639038
14.283426523208618,0.6928902864456177,-1.341597318649292,0.7423228025436401,0.07722874730825424,-0.06524631381034851,1.1454625129699707
14.303679466247559,0.6927195191383362,-1.341589093208313,0.7429154515266418,0.07700637727975845,-0.06559054553508759,1.1454150676727295
14.323792219161987,0.6923065781593323,-1.3415155410766602,0.7440682649612427,0.07657517492771149,-0.06635437905788422,1.1453006267547607
14.343873739242554,0.6921209096908569,-1.3415946960449219,0.7456148266792297,0.07612567394971848,-0.06710151582956314,1.145200252532959
14.363972187042236,0.6919736266136169,-1.3416310548782349,0.7464235424995422,0.07593828439712524,-0.06752694398164749,1.1451423168182373
14.384112119674683,0.6915860176086426,-1.3417590856552124,0.7479788064956665,0.07572437822818756,-0.06837034225463867,1.1450475454330444
14.404271841049194,0.6912431716918945,-1.3419511318206787,0.749478816986084,0.07560095191001892,-0.06919683516025543,1.1449730396270752
14.4244065284729,0.6911600828170776,-1.3420741558074951,0.7502151131629944,0.07546566426753998,-0.06956367194652557,1.1449365615844727
14.444475412368774,0.6909942626953125,-1.3422789573669434,0.7514365911483765,0.07520169764757156,-0.07025641947984695,1.1448545455932617
14.46461296081543,0.6909281015396118,-1.3424065113067627,0.7520649433135986,0.07508692890405655,-0.07058025896549225,1.1448142528533936
14.484677791595459,0.6908941268920898,-1.3427215814590454,0.7531399726867676,0.07488575577735901,-0.07105572521686554,1.14475417137146
14.504756212234497,0.6909427046775818,-1.3430780172348022,0.7541760206222534,0.0747174322605133,-0.07139434665441513,1.1447012424468994
14.524863481521606,0.6908727288246155,-1.3431940078735352,0.7545598149299622,0.07467404752969742,-0.07156722992658615,1.1446675062179565
14.544981241226196,0.6905084848403931,-1.3433184623718262,0.7551714777946472,0.07467751950025558,-0.07197786867618561,1.1445873975753784
14.565057754516602,0.6903776526451111,-1.3434290885925293,0.7556656002998352,0.07470057159662247,-0.07219147682189941,1.144556999206543
