liuyurong129/humanoid-gym/humanoid/data/target_q_20250523-001429.csv
timestamp,joint_1,joint_2,joint_3,joint_4,joint_5,joint_6
6.794929504394531e-05,0.0,0.0,0.0,0.0,0.0,0.0
0.02016282081604004,0.0,0.0,0.0,0.0,0.0,0.0
0.04025101661682129,0.0,0.0,0.0,0.0,0.0,0.0
0.060317039489746094,0.0,0.0,0.0,0.0,0.0,0.0
0.08039045333862305,0.0,0.0,0.0,0.0,0.0,0.0
0.10052251815795898,0.14105413854122162,-0.18762199580669403,0.4774472713470459,-0.2965169847011566,-0.0436442568898201,0.3205138146877289
0.12074708938598633,0.3567405343055725,-0.12499351799488068,0.6478434205055237,-0.41202014684677124,0.017029769718647003,0.24201646447181702
0.1408238410949707,0.3012879490852356,-0.15578629076480865,0.5990123748779297,-0.3938351571559906,0.018073439598083496,0.25909391045570374
0.16085004806518555,0.254817396402359,-0.14328087866306305,0.6172759532928467,-0.3499145805835724,-0.012103445827960968,0.29226812720298767
0.18101000785827637,0.2625780999660492,-0.15284302830696106,0.6097586154937744,-0.3614111542701721,-0.004132814705371857,0.2901313304901123
0.20106077194213867,0.26120826601982117,-0.15647821128368378,0.6062895059585571,-0.3658984303474426,-0.003183804452419281,0.2885063588619232
0.22111845016479492,0.27758580446243286,-0.15080060064792633,0.6089232563972473,-0.3746984601020813,-0.0034174099564552307,0.2760404646396637
0.24119353294372559,0.2727848291397095,-0.15830013155937195,0.6007277369499207,-0.37203249335289,0.0019806772470474243,0.2787518799304962
0.2612483501434326,0.272398442029953,-0.15384753048419952,0.6057743430137634,-0.3703635632991791,-0.002497836947441101,0.2785240113735199
0.2813403606414795,0.2681189179420471,-0.1551555097103119,0.6060863733291626,-0.3683992326259613,-0.003015659749507904,0.2815851867198944
0.3014554977416992,0.26978492736816406,-0.15217311680316925,0.607574999332428,-0.36814597249031067,-0.004693828523159027,0.2802201509475708
0.3216254711151123,0.2688918709754944,-0.15633229911327362,0.6056109070777893,-0.3694915175437927,-0.0027010366320610046,0.2817302942276001
0.34171628952026367,0.2706087827682495,-0.15411490201950073,0.607225239276886,-0.37057435512542725,-0.0037043020129203796,0.28013065457344055
0.361783504486084,0.27007830142974854,-0.15506891906261444,0.6065219044685364,-0.37020277976989746,-0.0034196749329566956,0.2803986966609955
0.38187146186828613,0.2683972120285034,-0.15914534032344818,0.6028431057929993,-0.36917975544929504,-0.0014420971274375916,0.28200221061706543
0.40193963050842285,0.2689599096775055,-0.15740534663200378,0.6075313091278076,-0.36988702416419983,-0.004290677607059479,0.2815520465373993
0.42198944091796875,0.26811110973358154,-0.15960247814655304,0.6063323020935059,-0.37015125155448914,-0.002944342792034149,0.28211796283721924
0.4420802593231201,0.2698180079460144,-0.15717032551765442,0.6038885116577148,-0.37034276127815247,-0.00201522558927536,0.2812160551548004
0.46218395233154297,0.2702173888683319,-0.15824756026268005,0.6067328453063965,-0.3706536591053009,-0.0026705190539360046,0.2811487913131714
0.48223447799682617,0.269827276468277,-0.15903177857398987,0.6066967844963074,-0.37114429473876953,-0.0029915347695350647,0.28129714727401733
0.5023181438446045,0.26853764057159424,-0.1583184003829956,0.6075770258903503,-0.3711671829223633,-0.004818908870220184,0.2819807529449463
0.5223853588104248,0.26786792278289795,-0.16094619035720825,0.6039977073669434,-0.37154868245124817,-0.0020976215600967407,0.282866895198822
0.5424444675445557,0.26879972219467163,-0.15732669830322266,0.6074907779693604,-0.37162232398986816,-0.0038646459579467773,0.2817136347293854
0.5625402927398682,0.2676141560077667,-0.157583087682724,0.6050670146942139,-0.37158727645874023,-0.0038163885474205017,0.2821422517299652
0.5826137065887451,0.26783543825149536,-0.159273162484169,0.605186939239502,-0.3719649016857147,-0.0041703879833221436,0.2826140522956848
0.6026904582977295,0.26784905791282654,-0.159950852394104,0.6049336194992065,-0.3727400600910187,-0.004703253507614136,0.2837536633014679
0.6227724552154541,0.2683257758617401,-0.15917597711086273,0.6072720289230347,-0.37344035506248474,-0.004509888589382172,0.28315532207489014
0.6428112983703613,0.2662935256958008,-0.1644497960805893,0.6063703298568726,-0.3739457428455353,-0.003314070403575897,0.28453129529953003
0.6629035472869873,0.2678724527359009,-0.16130299866199493,0.603840708732605,-0.37301352620124817,-0.002460673451423645,0.28395116329193115
0.6829822063446045,0.2676534354686737,-0.16555377840995789,0.6030607223510742,-0.37240344285964966,-0.0013120248913764954,0.28432175517082214
0.7030408382415771,0.2678031027317047,-0.1628035306930542,0.6066928505897522,-0.37354975938796997,-0.0031354501843452454,0.2839345335960388
0.7231218814849854,0.2651805877685547,-0.1682322770357132,0.5993993878364563,-0.3733845353126526,-8.910149335861206e-05,0.2855030298233032
0.7432155609130859,0.2648296058177948,-0.16395388543605804,0.6042187809944153,-0.37418174743652344,-0.0033648163080215454,0.2855199873447418
0.7632856369018555,0.2653311491012573,-0.1643916666507721,0.6049492359161377,-0.3743937313556671,-0.004014745354652405,0.2858009338378906
0.7833716869354248,0.26688510179519653,-0.16091521084308624,0.6065065264701843,-0.37428081035614014,-0.005277968943119049,0.2843586504459381
0.8034589290618896,0.2662340998649597,-0.16340409219264984,0.6040917038917542,-0.37482526898384094,-0.004386588931083679,0.2853059768676758
0.8235228061676025,0.2663944661617279,-0.1654830127954483,0.6055594086647034,-0.3761499226093292,-0.0045601800084114075,0.2869639992713928
0.8436038494110107,0.26460954546928406,-0.16934500634670258,0.6013494729995728,-0.37566033005714417,-0.001157708466053009,0.2874271869659424
0.8636744022369385,0.26362964510917664,-0.17123159766197205,0.6027350425720215,-0.3763279914855957,-0.0010741055011749268,0.2877857983112335
0.8837361335754395,0.2638280987739563,-0.16816183924674988,0.6046841144561768,-0.37645235657691956,-0.003366999328136444,0.287711501121521
0.9038233757019043,0.26593732833862305,-0.168178528547287,0.6034888625144958,-0.37716618180274963,-0.0023021548986434937,0.2874484062194824
0.9239013195037842,0.266332745552063,-0.16451546549797058,0.609074056148529,-0.3776112496852875,-0.006301485002040863,0.28672248125076294
0.9441523551940918,0.2633499801158905,-0.17180463671684265,0.6011691689491272,-0.37695351243019104,-0.0016750320792198181,0.28966060280799866
0.9642574787139893,0.2628244459629059,-0.16930070519447327,0.6049480438232422,-0.37677067518234253,-0.004268810153007507,0.2885943651199341
0.9843189716339111,0.2625657021999359,-0.17281650006771088,0.602386474609375,-0.37752458453178406,-0.002437971532344818,0.28946438431739807
1.004422664642334,0.2671990394592285,-0.16356393694877625,0.6092410087585449,-0.3788646459579468,-0.007285259664058685,0.2871919870376587
1.024536371231079,0.26643288135528564,-0.1684877574443817,0.6054397225379944,-0.3793557286262512,-0.002740912139415741,0.2883218228816986
1.0446171760559082,0.26559171080589294,-0.1691369116306305,0.6058239340782166,-0.37917080521583557,-0.003548450767993927,0.2880961298942566
1.0646743774414062,0.26331278681755066,-0.1702049821615219,0.6059753894805908,-0.3786083161830902,-0.004293918609619141,0.28956130146980286
1.0847644805908203,0.26281410455703735,-0.16912245750427246,0.6026005744934082,-0.37821295857429504,-0.0036114007234573364,0.2895306348800659
1.1048481464385986,0.263533353805542,-0.1728464514017105,0.6037522554397583,-0.3788120150566101,-0.0027214959263801575,0.2895374596118927
1.124929666519165,0.26330822706222534,-0.17318542301654816,0.6022642254829407,-0.37924304604530334,-0.0018431469798088074,0.28966569900512695
1.144998550415039,0.2624899446964264,-0.17479179799556732,0.6015785336494446,-0.3801588714122772,-0.0017829015851020813,0.29094231128692627
1.1651482582092285,0.26204127073287964,-0.1745724231004715,0.6015334725379944,-0.3809022307395935,-0.0024228915572166443,0.2916266620159149
1.1854054927825928,0.26350492238998413,-0.1706552952528,0.6061500906944275,-0.3811891973018646,-0.004597574472427368,0.29023540019989014
1.2053959369659424,0.2602529227733612,-0.1805015504360199,0.5945804119110107,-0.3811015784740448,0.0013347268104553223,0.2934437692165375
1.2255043983459473,0.2658884823322296,-0.16919191181659698,0.6069539785385132,-0.3816942870616913,-0.006174050271511078,0.2899805009365082
1.2455995082855225,0.26406997442245483,-0.1741693764925003,0.6028686165809631,-0.38218042254447937,-0.0017387047410011292,0.29118409752845764
1.2656631469726562,0.2643880546092987,-0.17432533204555511,0.6049821376800537,-0.3820236921310425,-0.002709619700908661,0.2901148498058319
1.285731554031372,0.25894808769226074,-0.18079008162021637,0.5990521311759949,-0.3809499442577362,-0.000543937087059021,0.2933381497859955
1.3058805465698242,0.2594763934612274,-0.18303416669368744,0.5999007821083069,-0.38054993748664856,-6.645917892456055e-06,0.29320985078811646
1.3259079456329346,0.2595326900482178,-0.17740759253501892,0.6042644381523132,-0.3824997842311859,-0.004284270107746124,0.2936657965183258
1.3460056781768799,0.2629045248031616,-0.1738201230764389,0.6051510572433472,-0.3840503394603729,-0.0057903677225112915,0.29246002435684204
1.3661181926727295,0.2628435790538788,-0.1759738028049469,0.6056624054908752,-0.3853262960910797,-0.0035124197602272034,0.29372167587280273
1.3862168788909912,0.262324720621109,-0.1744775027036667,0.6030725240707397,-0.3835868537425995,-0.0043676868081092834,0.29323774576187134
1.4063472747802734,0.25920307636260986,-0.17953917384147644,0.6046778559684753,-0.3847625255584717,-0.0052924081683158875,0.2950482964515686
1.4263975620269775,0.2590678930282593,-0.18507522344589233,0.6012017726898193,-0.38531795144081116,-0.0006995946168899536,0.2964441180229187
1.4464924335479736,0.2614920437335968,-0.17913244664669037,0.602480411529541,-0.38515451550483704,-0.002966471016407013,0.29458683729171753
1.4666249752044678,0.26027801632881165,-0.1799614578485489,0.6020495295524597,-0.3858020603656769,-0.0028602033853530884,0.29550257325172424
1.486652135848999,0.2581554353237152,-0.18152646720409393,0.6000646948814392,-0.3846207559108734,-0.003994591534137726,0.29647576808929443
1.5067517757415771,0.260625958442688,-0.17996029555797577,0.6052900552749634,-0.3867475986480713,-0.0042409226298332214,0.29515525698661804
1.526829719543457,0.2608392536640167,-0.18023808300495148,0.604422926902771,-0.3865630030632019,-0.004258804023265839,0.2953033447265625
1.5469324588775635,0.2592732012271881,-0.1807795912027359,0.6038637757301331,-0.388359010219574,-0.005586899816989899,0.296546995639801
1.5670177936553955,0.257706880569458,-0.18488909304141998,0.6011205315589905,-0.3874673545360565,-0.0028914064168930054,0.2987506687641144
1.5870938301086426,0.2589821517467499,-0.18042969703674316,0.6041054725646973,-0.38835862278938293,-0.004425376653671265,0.2977134883403778
1.6076359748840332,0.259332537651062,-0.17858339846134186,0.6052732467651367,-0.38975709676742554,-0.005217939615249634,0.2974339723587036
1.6277179718017578,0.2562863528728485,-0.18779796361923218,0.5986216068267822,-0.38903260231018066,-0.00224246084690094,0.3010452687740326
1.6479346752166748,0.2553355395793915,-0.19299286603927612,0.5954508185386658,-0.38860297203063965,0.0007577687501907349,0.302031934261322
1.6680285930633545,0.26195695996284485,-0.1807592362165451,0.6064749360084534,-0.3894479274749756,-0.004643231630325317,0.29719340801239014
1.6880855560302734,0.2581017315387726,-0.18911878764629364,0.59405118227005,-0.38918712735176086,0.00042345374822616577,0.2998238801956177
1.7083516120910645,0.2579404413700104,-0.1853334605693817,0.6035134196281433,-0.38991793990135193,-0.0063480958342552185,0.29982489347457886
1.7285919189453125,0.25548192858695984,-0.1910398155450821,0.5984183549880981,-0.3905602991580963,-0.0010204538702964783,0.3017432689666748
1.7485783100128174,0.25409984588623047,-0.19328735768795013,0.6019514203071594,-0.39057067036628723,-0.0024682357907295227,0.3017292022705078
1.7686457633972168,0.2583724558353424,-0.18604311347007751,0.6084453463554382,-0.3908630907535553,-0.004798196256160736,0.2990698218345642
1.7887122631072998,0.2527955174446106,-0.19857630133628845,0.5918635129928589,-0.38973766565322876,0.0018704608082771301,0.30296266078948975
1.808889627456665,0.2598282992839813,-0.18664906919002533,0.6025168299674988,-0.39033451676368713,-0.003927938640117645,0.29915279150009155
1.8289101123809814,0.2606280446052551,-0.1876221001148224,0.6007472276687622,-0.39195868372917175,-0.0026026740670204163,0.2986994981765747
1.8489959239959717,0.2556372880935669,-0.19624751806259155,0.6016682982444763,-0.3937699496746063,-0.0006915703415870667,0.30160602927207947
1.8691024780273438,0.2540692389011383,-0.19679392874240875,0.5973118543624878,-0.39085888862609863,0.00023365020751953125,0.3028005063533783
1.889158010482788,0.25322380661964417,-0.20142564177513123,0.5974851250648499,-0.39139553904533386,-0.00019083917140960693,0.30411723256111145
1.9092888832092285,0.2544228732585907,-0.19504912197589874,0.6061193943023682,-0.3920711278915405,-0.005559183657169342,0.3024502992630005
1.9293417930603027,0.2552460730075836,-0.19473248720169067,0.6028403639793396,-0.39375320076942444,-0.0041303932666778564,0.3021794259548187
1.9494128227233887,0.2543168365955353,-0.19804136455059052,0.5992576479911804,-0.3937002122402191,-0.001529008150100708,0.3030821979045868
1.9697959423065186,0.2543138265609741,-0.1982739418745041,0.601231038570404,-0.39503952860832214,-0.0024956688284873962,0.303411602973938
1.9898912906646729,0.2546676993370056,-0.1948547512292862,0.6034663915634155,-0.39471083879470825,-0.0058809444308280945,0.30449771881103516
2.009993076324463,0.25473353266716003,-0.19724220037460327,0.6013383865356445,-0.395404189825058,-0.0027397647500038147,0.3047296404838562
2.0300440788269043,0.25373122096061707,-0.1968229115009308,0.6047196984291077,-0.39576902985572815,-0.006278656423091888,0.3048970699310303
2.0502493381500244,0.25328922271728516,-0.1994982808828354,0.6001539826393127,-0.39560210704803467,-0.002642691135406494,0.30548304319381714
2.070253849029541,0.25485390424728394,-0.20121131837368011,0.601041316986084,-0.395150750875473,-0.001927800476551056,0.3048076629638672
2.0904204845428467,0.2530352473258972,-0.20095010101795197,0.6021621227264404,-0.3953123986721039,-0.0033897757530212402,0.3052836060523987
2.1104588508605957,0.25600188970565796,-0.1938067525625229,0.6056878566741943,-0.39519912004470825,-0.00708182156085968,0.30363476276397705
2.130510091781616,0.2569912374019623,-0.19584742188453674,0.6043345928192139,-0.39678770303726196,-0.006769143044948578,0.3045998513698578
2.150630235671997,0.24737878143787384,-0.20586633682250977,0.6005703210830688,-0.39791181683540344,-0.003546006977558136,0.3086903393268585
2.1707100868225098,0.24887146055698395,-0.20438550412654877,0.6036430597305298,-0.398527592420578,-0.004308827221393585,0.3082301914691925
2.1907896995544434,0.2517355680465698,-0.20338234305381775,0.6030420660972595,-0.3979337513446808,-0.0034448951482772827,0.30718767642974854
2.2109603881835938,0.25171905755996704,-0.20446740090847015,0.6006819605827332,-0.3984763026237488,-0.0029930248856544495,0.30767691135406494
2.2310941219329834,0.25475478172302246,-0.2029714733362198,0.6035151481628418,-0.39848336577415466,-0.004572376608848572,0.30679112672805786
2.2511513233184814,0.25555163621902466,-0.20277488231658936,0.6033974885940552,-0.39920446276664734,-0.003818213939666748,0.306726336479187
2.271214723587036,0.2486250400543213,-0.20885317027568817,0.600233793258667,-0.3986686170101166,-0.0036647170782089233,0.31013625860214233
2.291297197341919,0.2495509386062622,-0.20480555295944214,0.6011922359466553,-0.3989700675010681,-0.004325434565544128,0.3096426725387573
2.3113815784454346,0.2500397264957428,-0.207793727517128,0.600118100643158,-0.4007264971733093,-0.002129986882209778,0.31029364466667175
2.3314483165740967,0.2504156529903412,-0.2086133360862732,0.5999475121498108,-0.4010096490383148,-0.0029326677322387695,0.31025758385658264
2.3515591621398926,0.25108906626701355,-0.20941177010536194,0.6016037464141846,-0.40149393677711487,-0.0032230019569396973,0.310626357793808
2.3716132640838623,0.25145772099494934,-0.2102285921573639,0.6011890769004822,-0.4014945328235626,-0.002314537763595581,0.30980703234672546
2.391711711883545,0.24833154678344727,-0.2087794989347458,0.5993565320968628,-0.40088626742362976,-0.004203595221042633,0.311393678188324
2.4117825031280518,0.24982905387878418,-0.21058253943920135,0.598710834980011,-0.4008474349975586,-0.003985941410064697,0.3121313154697418
2.432175397872925,0.2528029978275299,-0.20560869574546814,0.60694819688797,-0.40210607647895813,-0.0078123584389686584,0.3100331425666809
2.4522337913513184,0.24339383840560913,-0.21943989396095276,0.5919925570487976,-0.40145185589790344,-4.75272536277771e-05,0.31464651226997375
2.4723124504089355,0.24651330709457397,-0.21331271529197693,0.6027698516845703,-0.40360599756240845,-0.004188239574432373,0.3127689063549042
2.4924609661102295,0.24806927144527435,-0.2203393131494522,0.592902421951294,-0.4043292701244354,0.001413971185684204,0.31399452686309814
2.5125434398651123,0.24732980132102966,-0.21759827435016632,0.5984358191490173,-0.40403512120246887,-0.0027098730206489563,0.313914954662323
2.53261661529541,0.24840909242630005,-0.21272152662277222,0.600861132144928,-0.4039973318576813,-0.005556546151638031,0.3134459853172302
2.552696943283081,0.24716541171073914,-0.2143353670835495,0.6044408679008484,-0.40514445304870605,-0.0053307488560676575,0.31297752261161804
2.5727672576904297,0.24706782400608063,-0.21840982139110565,0.5995150804519653,-0.4050164520740509,-0.002467341721057892,0.3141992688179016
2.5928280353546143,0.24652403593063354,-0.21425922214984894,0.6026338338851929,-0.4055555760860443,-0.00640096515417099,0.3143352270126343
2.612934112548828,0.24615789949893951,-0.21767182648181915,0.5996241569519043,-0.40650883316993713,-0.0034228190779685974,0.31504666805267334
2.633009433746338,0.24536816775798798,-0.22017715871334076,0.599521815776825,-0.40803465247154236,-0.0025717392563819885,0.3161197304725647
2.653275489807129,0.24509486556053162,-0.22038182616233826,0.6003050804138184,-0.4078209102153778,-0.0031161829829216003,0.31666651368141174
2.673365592956543,0.24794292449951172,-0.21973656117916107,0.5997599959373474,-0.4075993597507477,-0.00324905663728714,0.31634747982025146
2.6934311389923096,0.24500688910484314,-0.22351913154125214,0.5954562425613403,-0.4077867567539215,-0.001673966646194458,0.31862273812294006
2.7141172885894775,0.24432316422462463,-0.22463458776474,0.5967645645141602,-0.4070008099079132,-0.001726582646369934,0.3180202841758728
2.7342052459716797,0.24756905436515808,-0.21751441061496735,0.6012462973594666,-0.40828296542167664,-0.00544874370098114,0.3158639669418335
2.754380702972412,0.24468138813972473,-0.22511592507362366,0.592888355255127,-0.40788033604621887,-0.0011817440390586853,0.31849974393844604
2.774902105331421,0.2426203489303589,-0.225407212972641,0.5971251726150513,-0.41011759638786316,-0.0036494433879852295,0.31972241401672363
2.7950961589813232,0.2463853508234024,-0.22692981362342834,0.5968074202537537,-0.4102800190448761,-0.00034784525632858276,0.31933867931365967
2.8151614665985107,0.2443322241306305,-0.22998419404029846,0.5954247713088989,-0.4104945659637451,-0.00015885382890701294,0.31999337673187256
2.836047887802124,0.24301256239414215,-0.22457407414913177,0.5981634855270386,-0.41229382157325745,-0.002979375422000885,0.32008224725723267
2.8561856746673584,0.24592632055282593,-0.226948082447052,0.5997170805931091,-0.41192686557769775,-0.0026181116700172424,0.32139110565185547
2.8763270378112793,0.24545776844024658,-0.2256620228290558,0.6004025340080261,-0.4118853509426117,-0.003339439630508423,0.32079920172691345
2.897186517715454,0.2431158423423767,-0.23115132749080658,0.5966384410858154,-0.41233640909194946,-0.0014369562268257141,0.32258090376853943
2.9173359870910645,0.24498292803764343,-0.22740043699741364,0.5987222194671631,-0.4128975570201874,-0.0027450546622276306,0.3215354382991791
2.937354564666748,0.24513399600982666,-0.22522850334644318,0.6009878516197205,-0.4134731888771057,-0.006627663969993591,0.3223901689052582
2.957571029663086,0.24040620028972626,-0.23730531334877014,0.5946666598320007,-0.4140435755252838,0.00040212273597717285,0.32454195618629456
2.9777989387512207,0.23978778719902039,-0.2299572229385376,0.5992722511291504,-0.4129008650779724,-0.006937839090824127,0.3240010142326355
2.997812032699585,0.24273812770843506,-0.232142373919487,0.5985468029975891,-0.4144793450832367,-0.004774458706378937,0.3245285451412201
3.0179219245910645,0.24269452691078186,-0.23185889422893524,0.5988953709602356,-0.41610416769981384,-0.004896529018878937,0.3247615694999695
3.037973403930664,0.24459148943424225,-0.2278992384672165,0.6019916534423828,-0.4162392318248749,-0.008108973503112793,0.32416534423828125
3.0580391883850098,0.24543099105358124,-0.23127895593643188,0.5997013449668884,-0.4163258373737335,-0.004514448344707489,0.3244122564792633
3.0781679153442383,0.240267813205719,-0.2369469404220581,0.6011995673179626,-0.4163907468318939,-0.004627004265785217,0.32652315497398376
3.098252773284912,0.24006503820419312,-0.24081014096736908,0.597551703453064,-0.4171656668186188,-0.001619003713130951,0.3273284435272217
3.1183199882507324,0.23796388506889343,-0.24084487557411194,0.5938231348991394,-0.41605666279792786,-0.0017066150903701782,0.32748639583587646
3.1385815143585205,0.24332426488399506,-0.23915545642375946,0.5991716384887695,-0.4178707003593445,-0.0023192688822746277,0.3255084753036499
3.158625602722168,0.24078582227230072,-0.2425374537706375,0.5975071787834167,-0.41914981603622437,-0.0021482259035110474,0.32724523544311523
3.1788547039031982,0.2423359453678131,-0.2374177873134613,0.6077452301979065,-0.4199439287185669,-0.00812944769859314,0.3262598514556885
3.198965072631836,0.2377130091190338,-0.24434280395507812,0.5944386720657349,-0.41848495602607727,-0.0014292001724243164,0.3297467827796936
3.219026565551758,0.2372862994670868,-0.24198460578918457,0.5990868210792542,-0.42019426822662354,-0.005091585218906403,0.3299241364002228
3.2391445636749268,0.2422742247581482,-0.2382470816373825,0.6025403738021851,-0.42153647541999817,-0.005250625312328339,0.32793325185775757
3.2592005729675293,0.24388404190540314,-0.23488681018352509,0.6040706634521484,-0.4210112392902374,-0.007309749722480774,0.32684826850891113
3.279303789138794,0.24180519580841064,-0.24277888238430023,0.5968990921974182,-0.4215584695339203,-0.00232686847448349,0.32855409383773804
3.2993855476379395,0.23594547808170319,-0.24563075602054596,0.5935455560684204,-0.4202798902988434,-0.0042976513504981995,0.3321308195590973
3.319453239440918,0.2366706132888794,-0.24830424785614014,0.5977217555046082,-0.4222307503223419,-0.003659941256046295,0.33332955837249756
3.339503526687622,0.23747381567955017,-0.2465570718050003,0.6008292436599731,-0.4233036935329437,-0.0051817744970321655,0.33264198899269104
3.3595833778381348,0.23860327899456024,-0.2444869428873062,0.6011865139007568,-0.42514878511428833,-0.005516089498996735,0.3318995237350464
3.379667282104492,0.23846642673015594,-0.2483016848564148,0.5966630578041077,-0.4248885214328766,-0.004542127251625061,0.33338671922683716
3.3997550010681152,0.23789267241954803,-0.24904362857341766,0.593556821346283,-0.42447248101234436,-0.0029260441660881042,0.3337485194206238
3.4198265075683594,0.23681896924972534,-0.24680973589420319,0.5984123945236206,-0.4248092770576477,-0.006051957607269287,0.3342136740684509
3.439940929412842,0.23838385939598083,-0.2465762495994568,0.6000401973724365,-0.42608582973480225,-0.006127350032329559,0.3345310688018799
3.4602177143096924,0.23725301027297974,-0.25205302238464355,0.5934790968894958,-0.4248174726963043,-0.002180449664592743,0.33564674854278564
3.4803059101104736,0.23766998946666718,-0.24770410358905792,0.6057566404342651,-0.4279671609401703,-0.008802659809589386,0.3344351649284363
3.500393867492676,0.23869739472866058,-0.2505081295967102,0.6004810333251953,-0.42937982082366943,-0.005213014781475067,0.3357461392879486
3.520547866821289,0.23448580503463745,-0.2578032612800598,0.5946757197380066,-0.4299069344997406,-0.001604415476322174,0.33789175748825073
3.540637731552124,0.23967808485031128,-0.2461129128932953,0.6087092161178589,-0.4288242757320404,-0.010488167405128479,0.3355611264705658
3.560709238052368,0.24102115631103516,-0.25241076946258545,0.6007550954818726,-0.43022993206977844,-0.0036600157618522644,0.33584126830101013
3.580779552459717,0.2350778728723526,-0.2630091607570648,0.5917429327964783,-0.4305810034275055,0.0007672160863876343,0.3395000696182251
3.6008903980255127,0.23699918389320374,-0.25213587284088135,0.6018999218940735,-0.42917007207870483,-0.008464641869068146,0.33778107166290283
3.6209959983825684,0.23559165000915527,-0.2576903998851776,0.5953885316848755,-0.4308711588382721,-0.00399673730134964,0.3394799828529358
3.6413142681121826,0.23102118074893951,-0.2664482891559601,0.5888954997062683,-0.43093040585517883,-0.0001762285828590393,0.3429669141769409
3.661466360092163,0.23896032571792603,-0.25317084789276123,0.6055110096931458,-0.43222418427467346,-0.011080801486968994,0.33839666843414307
3.6816375255584717,0.23871925473213196,-0.25788235664367676,0.5955085754394531,-0.4315721094608307,-0.006197676062583923,0.34018439054489136
3.7017195224761963,0.22812719643115997,-0.2664213478565216,0.602139949798584,-0.43302127718925476,-0.006724320352077484,0.34305229783058167
3.7218050956726074,0.23055851459503174,-0.26931655406951904,0.6026584506034851,-0.43520256876945496,-0.005385056138038635,0.34272974729537964
3.7420904636383057,0.23081454634666443,-0.268865704536438,0.6012363433837891,-0.437537282705307,-0.0047286152839660645,0.3442210555076599
3.7621724605560303,0.23455317318439484,-0.2621039152145386,0.5960840582847595,-0.4346436858177185,-0.00981118530035019,0.34538236260414124
3.7822699546813965,0.23834997415542603,-0.2596319913864136,0.6051720976829529,-0.43630144000053406,-0.010444879531860352,0.34306541085243225
3.8024721145629883,0.22325843572616577,-0.2821272611618042,0.5909633040428162,-0.4361220896244049,-0.0008074343204498291,0.3494513928890228
3.8225884437561035,0.22166621685028076,-0.28527548909187317,0.5895784497261047,-0.4356594979763031,-0.0006549432873725891,0.35102593898773193
3.842634916305542,0.21922197937965393,-0.287401020526886,0.5877207517623901,-0.4356951415538788,-0.0016002058982849121,0.3522966206073761
3.8627116680145264,0.23959603905677795,-0.2632591128349304,0.602384090423584,-0.44044503569602966,-0.009237982332706451,0.34306687116622925
3.8827877044677734,0.23925772309303284,-0.2678384780883789,0.5994658470153809,-0.44052574038505554,-0.006621018052101135,0.344733864068985
3.9032185077667236,0.23749178647994995,-0.2724143862724304,0.5984684824943542,-0.4421390891075134,-0.0062898024916648865,0.34609341621398926
3.9233133792877197,0.2217850685119629,-0.28407782316207886,0.5992453098297119,-0.44073763489723206,-0.005411095917224884,0.3530653417110443
3.943441390991211,0.22049488127231598,-0.2958071231842041,0.5857295989990234,-0.4395712912082672,0.0008533820509910583,0.355934739112854
3.963472604751587,0.23739585280418396,-0.26834389567375183,0.6066818237304688,-0.4436071515083313,-0.011199988424777985,0.3461345434188843
3.9836390018463135,0.2333368957042694,-0.2710672616958618,0.6014056205749512,-0.4441531002521515,-0.011174038052558899,0.34861892461776733
4.003673076629639,0.22941051423549652,-0.2764316201210022,0.5971571803092957,-0.44513365626335144,-0.011009655892848969,0.35245808959007263
4.023763179779053,0.22134283185005188,-0.28819361329078674,0.598457932472229,-0.44607171416282654,-0.00782977044582367,0.3570762276649475
4.043873071670532,0.21720640361309052,-0.3006795048713684,0.5860446095466614,-0.44699427485466003,-0.0008700862526893616,0.3613615334033966
4.063924074172974,0.23624473810195923,-0.2787633240222931,0.6061842441558838,-0.4490378201007843,-0.012026436626911163,0.35354048013687134
4.084011077880859,0.23672381043434143,-0.27454519271850586,0.6080818772315979,-0.4504724144935608,-0.01601596176624298,0.3524104058742523
4.104073762893677,0.23979732394218445,-0.2733762562274933,0.6098577380180359,-0.4521354138851166,-0.014412634074687958,0.3516066074371338
4.124324083328247,0.2082251012325287,-0.30945783853530884,0.5881896018981934,-0.44767022132873535,-0.005726523697376251,0.3670506477355957
4.144497394561768,0.2147238850593567,-0.3012157678604126,0.5942020416259766,-0.4463292062282562,-0.011277683079242706,0.36473536491394043
4.164551019668579,0.22018682956695557,-0.2965618371963501,0.602252721786499,-0.44956836104393005,-0.012092068791389465,0.3636372685432434
4.184696912765503,0.22521108388900757,-0.3037039041519165,0.5983173847198486,-0.45452073216438293,-0.00709717720746994,0.36103928089141846
4.204814434051514,0.22248715162277222,-0.3030424118041992,0.602543830871582,-0.45513272285461426,-0.008815638720989227,0.3623013496398926
4.224918842315674,0.22195404767990112,-0.30390849709510803,0.6029530763626099,-0.4550066888332367,-0.012069612741470337,0.3640260398387909
4.245126724243164,0.2203579694032669,-0.30699586868286133,0.6022622585296631,-0.45607462525367737,-0.008412279188632965,0.36490967869758606
4.265309572219849,0.21405798196792603,-0.31312569975852966,0.596276581287384,-0.4580237567424774,-0.008066616952419281,0.3692575991153717
4.285303115844727,0.2124820351600647,-0.3130631446838379,0.6012282371520996,-0.4578860104084015,-0.013004831969738007,0.37042978405952454
4.305410623550415,0.22450026869773865,-0.30847373604774475,0.5997446179389954,-0.4598722755908966,-0.010026782751083374,0.3673384189605713
4.325507640838623,0.22026515007019043,-0.30832439661026,0.6037969589233398,-0.46062371134757996,-0.014603905379772186,0.36854860186576843
4.345607280731201,0.21510332822799683,-0.32327890396118164,0.5999704599380493,-0.4611978232860565,-0.008861847221851349,0.37286263704299927
4.365678548812866,0.21660032868385315,-0.3267248868942261,0.6024855971336365,-0.46178844571113586,-0.010110870003700256,0.37330737709999084
4.385766983032227,0.21836291253566742,-0.31782007217407227,0.6150471568107605,-0.4645686745643616,-0.01657222956418991,0.3711465001106262
4.405835151672363,0.217059925198555,-0.3184684216976166,0.607566773891449,-0.4647842347621918,-0.0175674706697464,0.3733196258544922
4.426018714904785,0.22350534796714783,-0.3131491243839264,0.6172646880149841,-0.4655885398387909,-0.020617835223674774,0.37024548649787903
4.446352005004883,0.2267778068780899,-0.31515514850616455,0.6150796413421631,-0.46708548069000244,-0.019982360303401947,0.37065595388412476
4.4665443897247314,0.2043754756450653,-0.3347523808479309,0.6052548885345459,-0.4644920527935028,-0.017909258604049683,0.3802703022956848
4.4865593910217285,0.203324556350708,-0.33997052907943726,0.5969556570053101,-0.4662076234817505,-0.015501171350479126,0.38375920057296753
4.506627798080444,0.22428908944129944,-0.3194507360458374,0.6291056871414185,-0.4746563136577606,-0.027080751955509186,0.3741154074668884
4.526735067367554,0.21833238005638123,-0.3483118414878845,0.6103619337081909,-0.47728022933006287,-0.00823897123336792,0.3793972134590149
4.547009229660034,0.19751831889152527,-0.3820004463195801,0.5983093976974487,-0.47807785868644714,-0.0006860047578811646,0.3901662528514862
4.567165851593018,0.23234668374061584,-0.30500954389572144,0.6321454048156738,-0.4724530875682831,-0.048515088856220245,0.3740319609642029
4.587230443954468,0.2548125684261322,-0.29647722840309143,0.6547034382820129,-0.4803837239742279,-0.04959804564714432,0.3651285469532013
4.6073713302612305,0.15431901812553406,-0.42245036363601685,0.5746680498123169,-0.4689021110534668,-0.0022643357515335083,0.4097135066986084
4.627472639083862,0.16100215911865234,-0.4008009433746338,0.5941086411476135,-0.46910545229911804,-0.02839614450931549,0.40783101320266724
4.647585868835449,0.18919777870178223,-0.36475545167922974,0.6143980622291565,-0.47087565064430237,-0.05256832391023636,0.39710941910743713
4.667912721633911,0.19106724858283997,-0.4275359511375427,0.5909022092819214,-0.49083927273750305,0.006576120853424072,0.3987358510494232
4.688051700592041,0.14181585609912872,-0.4981786012649536,0.5605149865150452,-0.4825568199157715,0.021228261291980743,0.41823458671569824
4.70812463760376,0.10971366614103317,-0.5121621489524841,0.5746956467628479,-0.47792354226112366,0.001607254147529602,0.43185368180274963
4.728238821029663,0.28399837017059326,-0.31535154581069946,0.6860866546630859,-0.5016420483589172,-0.06957783550024033,0.3612666428089142
4.748291730880737,0.2614094316959381,-0.38827085494995117,0.6544932126998901,-0.5106218457221985,-0.027153007686138153,0.3795965909957886
4.768556118011475,0.20180198550224304,-0.4810291528701782,0.6318292021751404,-0.514847457408905,-0.007057107985019684,0.40620237588882446
4.788650274276733,0.19871853291988373,-0.35651856660842896,0.6972405910491943,-0.4880383312702179,-0.11441483348608017,0.39473333954811096
4.808716297149658,0.2599571943283081,-0.30755752325057983,0.7768533229827881,-0.5058611631393433,-0.14576119184494019,0.36443793773651123
4.828839540481567,0.07167225331068039,-0.6483555436134338,0.576557457447052,-0.4881967604160309,0.01597629487514496,0.4543081521987915
4.8489296436309814,0.07033590972423553,-0.6126755475997925,0.6330684423446655,-0.4852249324321747,-0.025136560201644897,0.45884811878204346
4.869032859802246,0.09416498243808746,-0.556698203086853,0.6694654226303101,-0.48720014095306396,-0.06534676253795624,0.4508436918258667
4.889151573181152,0.24497023224830627,-0.4984549880027771,0.7075796127319336,-0.5379371643066406,-0.03393182158470154,0.39670953154563904
4.909219741821289,0.17637766897678375,-0.6100826859474182,0.6674758195877075,-0.532137930393219,-0.005984589457511902,0.42500320076942444
4.929329872131348,0.09626485407352448,-0.6824317574501038,0.6410394906997681,-0.5182246565818787,-0.006541460752487183,0.44838303327560425
4.949388265609741,0.2519593834877014,-0.42289072275161743,0.8013880848884583,-0.5307896733283997,-0.1305885761976242,0.38794615864753723
4.969484567642212,0.257953405380249,-0.5017078518867493,0.7794762849807739,-0.5466134548187256,-0.08839345723390579,0.39915230870246887
4.989525318145752,0.21660874783992767,-0.5902277827262878,0.7536546587944031,-0.5524766445159912,-0.05286075174808502,0.4239155054092407
5.009679317474365,0.13233597576618195,-0.528298020362854,0.7677090167999268,-0.5199578404426575,-0.1315263956785202,0.4382404088973999
5.02976131439209,0.19037753343582153,-0.46117788553237915,0.8522472381591797,-0.537764310836792,-0.17799127101898193,0.41577067971229553
5.05054783821106,0.23462362587451935,-0.4868248701095581,0.865246057510376,-0.5581857562065125,-0.1627436876296997,0.40772026777267456
5.070611000061035,0.061131976544857025,-0.749810516834259,0.7330135107040405,-0.5327637195587158,-0.05693814903497696,0.480631947517395
5.090723752975464,0.07237007468938828,-0.7204610705375671,0.7764891386032104,-0.5321571826934814,-0.0874326154589653,0.47992730140686035
5.11076021194458,0.09965916723012924,-0.6459851861000061,0.8380102515220642,-0.5391525030136108,-0.1359724998474121,0.4699890613555908
5.130890607833862,0.18004155158996582,-0.6678703427314758,0.8130658864974976,-0.5763553380966187,-0.09281806647777557,0.446460485458374
5.1509435176849365,0.10218159109354019,-0.7498674392700195,0.7784914970397949,-0.5696306824684143,-0.08277466148138046,0.47369956970214844
5.170956611633301,0.0832284614443779,-0.7273086905479431,0.8153807520866394,-0.5616605877876282,-0.11987080425024033,0.4847366213798523
5.191081762313843,0.1789555847644806,-0.6817986965179443,0.8806372284889221,-0.590904951095581,-0.1374567449092865,0.4588567912578583
5.211127281188965,0.12565520405769348,-0.7523101568222046,0.8578363656997681,-0.595804750919342,-0.12394034117460251,0.48259711265563965
5.231180191040039,0.11145030707120895,-0.7527087926864624,0.8853382468223572,-0.5948510766029358,-0.1389707773923874,0.49335598945617676
5.251274824142456,0.1449992060661316,-0.7275019288063049,0.9068809747695923,-0.6001459956169128,-0.1618807017803192,0.4870532155036926
5.271350383758545,0.1334053874015808,-0.7843396067619324,0.8972828388214111,-0.6081336140632629,-0.14297820627689362,0.499663770198822
5.29149866104126,0.12330339103937149,-0.7903742790222168,0.9269042015075684,-0.6154521703720093,-0.15650106966495514,0.5119773745536804
5.311524391174316,0.13503912091255188,-0.8053200840950012,0.952463686466217,-0.6234052777290344,-0.16929638385772705,0.5119541883468628
5.331590175628662,0.12857629358768463,-0.8298201560974121,0.9707947373390198,-0.6403942108154297,-0.17030200362205505,0.5365390777587891
5.3517677783966064,0.12278305739164352,-0.8153761625289917,1.004714846611023,-0.6536434292793274,-0.19847583770751953,0.5507808327674866
5.371916770935059,0.1312665045261383,-0.8612048029899597,1.002301573753357,-0.6682031750679016,-0.18739691376686096,0.5588228106498718
5.3919594287872314,0.1187252476811409,-0.867557168006897,1.0179507732391357,-0.6804525852203369,-0.1954759657382965,0.5820284485816956
5.412096738815308,0.113487608730793,-0.8730562925338745,1.0521245002746582,-0.6977048516273499,-0.21467995643615723,0.6043398380279541
5.432214736938477,0.13336437940597534,-0.8714560270309448,1.0558806657791138,-0.7184069752693176,-0.22410288453102112,0.6041457653045654
5.452295303344727,0.12030995637178421,-0.8973290920257568,1.0442899465560913,-0.7284858226776123,-0.21581614017486572,0.622006893157959
5.472426652908325,0.13450703024864197,-0.8933214545249939,1.0992616415023804,-0.7347665429115295,-0.2401106059551239,0.6264532208442688
5.4925408363342285,0.14112186431884766,-0.8953694701194763,1.1053147315979004,-0.7531806826591492,-0.2428598701953888,0.6386922597885132
5.51260781288147,0.1352623701095581,-0.9115185141563416,1.102570652961731,-0.7666158080101013,-0.24268794059753418,0.6520443558692932
5.532711982727051,0.11999157816171646,-0.9108906984329224,1.1082463264465332,-0.7646510601043701,-0.24807524681091309,0.6609832048416138
5.552774667739868,0.12408939749002457,-0.9167342185974121,1.1175857782363892,-0.778477132320404,-0.2540394365787506,0.6699896454811096
5.572856426239014,0.13012278079986572,-0.9262714385986328,1.1224281787872314,-0.7860022187232971,-0.2538900077342987,0.6753896474838257
5.592930316925049,0.11953414231538773,-0.9398811459541321,1.1146931648254395,-0.7878441214561462,-0.2486986517906189,0.6813479661941528
5.613022327423096,0.12489262968301773,-0.9441075921058655,1.1166517734527588,-0.7954944372177124,-0.2518342435359955,0.684398353099823
5.63312029838562,0.12505817413330078,-0.9721472859382629,1.0961323976516724,-0.8023217916488647,-0.23839116096496582,0.6920574307441711
5.653231620788574,0.12157917767763138,-0.9891362190246582,1.0848318338394165,-0.8067973256111145,-0.22579163312911987,0.699045717716217
5.673312664031982,0.1251572072505951,-0.9897764325141907,1.0856285095214844,-0.8180961608886719,-0.22712674736976624,0.7091244459152222
5.693398475646973,0.12493706494569778,-0.9898080229759216,1.0799418687820435,-0.8295711874961853,-0.2285889983177185,0.7161979079246521
5.713459014892578,0.1259298026561737,-0.9840821623802185,1.0807628631591797,-0.8501424789428711,-0.23216235637664795,0.7350853681564331
5.733508586883545,0.12434086948633194,-0.9829904437065125,1.0761703252792358,-0.8758952617645264,-0.23550507426261902,0.7603555917739868
5.753599643707275,0.1284441351890564,-0.9867876172065735,1.071417212486267,-0.8888832330703735,-0.2317919135093689,0.7725728750228882
5.773735523223877,0.12439829856157303,-0.981651246547699,1.0688823461532593,-0.9174250960350037,-0.2386302947998047,0.7984724640846252
5.793750047683716,0.1262195110321045,-0.9827753305435181,1.0595896244049072,-0.9464741349220276,-0.237192302942276,0.8249034881591797
5.813838958740234,0.12349341064691544,-0.9836820960044861,1.0542614459991455,-0.9634439945220947,-0.24077552556991577,0.8399641513824463
5.83396053314209,0.12041900306940079,-0.9860987067222595,1.0456267595291138,-0.9982994198799133,-0.24627253413200378,0.8701700568199158
5.8541259765625,0.12724456191062927,-0.9853156805038452,1.0371681451797485,-1.0328469276428223,-0.24546697735786438,0.9042921662330627
5.874237537384033,0.11874941736459732,-0.9758028388023376,1.029963731765747,-1.0477838516235352,-0.2541761100292206,0.9192891120910645
5.894304990768433,0.12457529455423355,-0.9697934985160828,1.0232714414596558,-1.0813665390014648,-0.2549889087677002,0.9483656883239746
5.914593696594238,0.1212606206536293,-0.9632149338722229,1.0151450634002686,-1.1139811277389526,-0.26729366183280945,0.9791336059570312
5.93468713760376,0.12537136673927307,-0.9665603041648865,1.0078269243240356,-1.1280933618545532,-0.26211708784103394,0.9938777089118958
5.954800367355347,0.12689080834388733,-0.9599277377128601,0.9981419444084167,-1.1601160764694214,-0.2665309011936188,1.0225516557693481
5.974944591522217,0.1278713345527649,-0.9569373726844788,0.9915696978569031,-1.1746524572372437,-0.26727432012557983,1.0368876457214355
5.99496603012085,0.12630099058151245,-0.9572401642799377,0.9797348976135254,-1.2000417709350586,-0.27100303769111633,1.062676191329956
6.016184568405151,0.12778615951538086,-0.9504700303077698,0.9715776443481445,-1.2260351181030273,-0.2741168439388275,1.0853379964828491
6.036232233047485,0.13098853826522827,-0.9527401328086853,0.9646222591400146,-1.2410914897918701,-0.27495336532592773,1.097120761871338
6.056308746337891,0.1290910542011261,-0.9419248104095459,0.9558486938476562,-1.264731526374817,-0.2823217213153839,1.1202279329299927
6.076592683792114,0.12796267867088318,-0.9376330971717834,0.9465649127960205,-1.2857401371002197,-0.286202996969223,1.1403862237930298
6.096688747406006,0.12648427486419678,-0.9330589175224304,0.9408596158027649,-1.296569585800171,-0.28955018520355225,1.149999737739563
6.116756916046143,0.12862378358840942,-0.9320308566093445,0.933451771736145,-1.318284273147583,-0.29005083441734314,1.1679081916809082
6.1372411251068115,0.12884953618049622,-0.9280211329460144,0.9236510396003723,-1.3373435735702515,-0.29283350706100464,1.1849881410598755
6.157379865646362,0.12727823853492737,-0.9267957210540771,0.9131330847740173,-1.3471072912216187,-0.29340335726737976,1.1938878297805786
6.177436828613281,0.13004043698310852,-0.9223000407218933,0.9054943323135376,-1.365946650505066,-0.2938178479671478,1.210218071937561
6.197888135910034,0.1282418668270111,-0.9099811911582947,0.9118796586990356,-1.3741117715835571,-0.3055568039417267,1.2168408632278442
6.218034982681274,0.12948641180992126,-0.9157307147979736,0.8879823684692383,-1.3892778158187866,-0.2988687753677368,1.2326611280441284
6.238056421279907,0.12744426727294922,-0.8981382250785828,0.8980634808540344,-1.405295968055725,-0.3156615197658539,1.2454787492752075
6.25814414024353,0.13002708554267883,-0.8986391425132751,0.8906757831573486,-1.4139355421066284,-0.3112935423851013,1.2506967782974243
6.278228998184204,0.12980350852012634,-0.8996537327766418,0.8735479116439819,-1.4274648427963257,-0.30729132890701294,1.2645994424819946
6.298377275466919,0.13013407588005066,-0.888500988483429,0.8785232901573181,-1.440667986869812,-0.3181452453136444,1.2755261659622192
6.318407773971558,0.13107097148895264,-0.8901011943817139,0.8666715621948242,-1.4460731744766235,-0.3158572316169739,1.2814273834228516
6.338490962982178,0.13152959942817688,-0.8863492012023926,0.8584404587745667,-1.456978678703308,-0.3148758113384247,1.2915805578231812
6.358693361282349,0.13303092122077942,-0.8786593675613403,0.8597760796546936,-1.4684776067733765,-0.3218560218811035,1.3014206886291504
6.378798484802246,0.13244986534118652,-0.8770803213119507,0.8464493751525879,-1.4731754064559937,-0.3197956085205078,1.3058358430862427
6.398900508880615,0.13210263848304749,-0.8746475577354431,0.8449921011924744,-1.4837058782577515,-0.32315921783447266,1.3149545192718506
6.419098615646362,0.13304051756858826,-0.867773711681366,0.8454324007034302,-1.4867782592773438,-0.32689031958580017,1.3192321062088013
6.439107418060303,0.13380715250968933,-0.8682279586791992,0.8322052359580994,-1.495430827140808,-0.3224307596683502,1.3263070583343506
6.459252595901489,0.13276880979537964,-0.8598218560218811,0.8339551091194153,-1.5039042234420776,-0.33097735047340393,1.33377206325531
6.479366779327393,0.13456138968467712,-0.8620849847793579,0.8253543972969055,-1.5088335275650024,-0.3265056610107422,1.336876392364502
6.499380588531494,0.13364821672439575,-0.8589180111885071,0.8209890127182007,-1.518615961074829,-0.3282749056816101,1.343993067741394
6.519604682922363,0.13406887650489807,-0.8480374217033386,0.8198063373565674,-1.5252407789230347,-0.3330279588699341,1.3501702547073364
6.539699554443359,0.13490143418312073,-0.8472885489463806,0.8167080283164978,-1.5292541980743408,-0.332724004983902,1.3532379865646362
6.559897184371948,0.1349456012248993,-0.8485749363899231,0.8099212646484375,-1.5352576971054077,-0.33201512694358826,1.358705997467041
6.57996678352356,0.13498243689537048,-0.8462833166122437,0.8050001859664917,-1.5377060174942017,-0.3328985273838043,1.3616043329238892
6.600083589553833,0.13546279072761536,-0.8359882235527039,0.8029587268829346,-1.5445913076400757,-0.3333100974559784,1.3669604063034058
6.620202302932739,0.13470998406410217,-0.8390833735466003,0.7950321435928345,-1.5491777658462524,-0.3336591124534607,1.3722020387649536
6.640422821044922,0.13481107354164124,-0.8351701498031616,0.7964949011802673,-1.5516456365585327,-0.33788207173347473,1.3742533922195435
6.660489082336426,0.13498488068580627,-0.828580379486084,0.7960618138313293,-1.5568712949752808,-0.3410030007362366,1.3774617910385132
6.680960416793823,0.13458725810050964,-0.8299051523208618,0.7909761071205139,-1.559149980545044,-0.3393552005290985,1.3792425394058228
6.700789213180542,0.1344451904296875,-0.8261573910713196,0.7921966910362244,-1.5655641555786133,-0.34159618616104126,1.38319993019104
6.720844268798828,0.13472118973731995,-0.8238847255706787,0.7861774563789368,-1.5690937042236328,-0.3394874036312103,1.3864377737045288
6.7409586906433105,0.13444849848747253,-0.8230285048484802,0.7799522280693054,-1.5727057456970215,-0.33631467819213867,1.3882567882537842
6.76103401184082,0.13440200686454773,-0.8199613690376282,0.7790384888648987,-1.575943112373352,-0.3386884927749634,1.3914846181869507
6.781092405319214,0.13479241728782654,-0.8153762221336365,0.7767332196235657,-1.578900933265686,-0.3403928279876709,1.3946152925491333
6.801180362701416,0.13502082228660583,-0.8166608214378357,0.775511622428894,-1.581093192100525,-0.3391832113265991,1.3962548971176147
6.821294546127319,0.13493603467941284,-0.8099001049995422,0.7737816572189331,-1.5832006931304932,-0.3417288064956665,1.3982352018356323
6.841712474822998,0.1344933807849884,-0.8088664412498474,0.7722043991088867,-1.585509181022644,-0.3438974618911743,1.3998750448226929
6.8618223667144775,0.13461455702781677,-0.8111948370933533,0.7672172784805298,-1.5883935689926147,-0.339598149061203,1.4012433290481567
6.882186651229858,0.13399043679237366,-0.8074267506599426,0.7680535912513733,-1.5914177894592285,-0.34246397018432617,1.403558611869812
6.9022533893585205,0.1347111165523529,-0.8022222518920898,0.7686213850975037,-1.5932060480117798,-0.3440295159816742,1.4045530557632446
6.922407627105713,0.13441374897956848,-0.80414217710495,0.7627617716789246,-1.595094084739685,-0.3418627083301544,1.4071444272994995
6.942446231842041,0.1344369649887085,-0.8039407134056091,0.7624078989028931,-1.5970923900604248,-0.341891884803772,1.4080383777618408
6.962527513504028,0.13445839285850525,-0.7981774210929871,0.7626386880874634,-1.5993273258209229,-0.34472566843032837,1.4098951816558838
6.982582092285156,0.13455995917320251,-0.7979924082756042,0.7541201114654541,-1.5998039245605469,-0.3406498432159424,1.4105168581008911
7.002681255340576,0.13394233584403992,-0.7955882549285889,0.7596902847290039,-1.6038668155670166,-0.3428765833377838,1.4122538566589355
7.02276086807251,0.13476291298866272,-0.7962946891784668,0.7548637986183167,-1.6036609411239624,-0.3440026640892029,1.4136474132537842
7.0429368019104,0.13465765118598938,-0.7935953736305237,0.7532879114151001,-1.6062047481536865,-0.3429962396621704,1.4153310060501099
7.063133478164673,0.13487043976783752,-0.7904887795448303,0.7520942091941833,-1.607125997543335,-0.34339842200279236,1.4153372049331665
7.083112001419067,0.1348346471786499,-0.7892932295799255,0.7517805099487305,-1.6102508306503296,-0.34329694509506226,1.417504906654358
7.103221893310547,0.13478726148605347,-0.7899312973022461,0.7504092454910278,-1.6089155673980713,-0.34500840306282043,1.418181300163269
7.12328839302063,0.13538798689842224,-0.7870658040046692,0.7480147480964661,-1.6116411685943604,-0.34386831521987915,1.419891357421875
7.143343687057495,0.1351330280303955,-0.7859912514686584,0.7454902529716492,-1.6123636960983276,-0.34401175379753113,1.4202821254730225
7.163437366485596,0.13552594184875488,-0.7835490107536316,0.7446495890617371,-1.6141468286514282,-0.343031644821167,1.421236276626587
7.183514595031738,0.135515034198761,-0.7801725268363953,0.7446127533912659,-1.6144689321517944,-0.34445497393608093,1.4213284254074097
7.20361852645874,0.13562169671058655,-0.7814802527427673,0.742347240447998,-1.6150344610214233,-0.3442651927471161,1.422349214553833
7.223690748214722,0.13503721356391907,-0.7825325727462769,0.7414417862892151,-1.6156985759735107,-0.3440054655075073,1.4228543043136597
7.2437663078308105,0.13506841659545898,-0.7815935015678406,0.7382424473762512,-1.615960717201233,-0.34351617097854614,1.424317479133606
7.263817071914673,0.13528552651405334,-0.7799473404884338,0.7394473552703857,-1.6184502840042114,-0.34461358189582825,1.42569100856781
7.283924102783203,0.13622501492500305,-0.7772491574287415,0.738853931427002,-1.6174288988113403,-0.3465462028980255,1.4260343313217163
7.303982496261597,0.13603666424751282,-0.7778646945953369,0.7355087995529175,-1.618554711341858,-0.3439592719078064,1.426002025604248
7.324099063873291,0.1360337734222412,-0.7769486308097839,0.7361946105957031,-1.6185600757598877,-0.34637802839279175,1.426393747329712
7.344192028045654,0.1355111002922058,-0.7743996977806091,0.7353371977806091,-1.6189693212509155,-0.3455440104007721,1.4261494874954224
7.3642566204071045,0.13562217354774475,-0.7725411057472229,0.7379963994026184,-1.62069833278656,-0.3474104106426239,1.4266372919082642
7.3852198123931885,0.13584253191947937,-0.7726103663444519,0.7351831793785095,-1.6201354265213013,-0.34643489122390747,1.4270414113998413
7.405344724655151,0.13511329889297485,-0.7743480205535889,0.7360350489616394,-1.6215496063232422,-0.34618711471557617,1.4273391962051392
7.425429344177246,0.13538745045661926,-0.7735371589660645,0.7333681583404541,-1.6218327283859253,-0.34479695558547974,1.4280813932418823
7.445494174957275,0.1355533003807068,-0.7731794714927673,0.7328087091445923,-1.6222740411758423,-0.34409400820732117,1.428189992904663
7.465638875961304,0.13553154468536377,-0.7752216458320618,0.730725109577179,-1.6230344772338867,-0.34321343898773193,1.429007887840271
7.48567008972168,0.13527777791023254,-0.7703627943992615,0.7350931167602539,-1.622989296913147,-0.3473643660545349,1.4289296865463257
7.505800485610962,0.13535022735595703,-0.7735803127288818,0.7312458157539368,-1.6233506202697754,-0.3445088565349579,1.4291070699691772
7.525837659835815,0.13512197136878967,-0.7733044028282166,0.7302528619766235,-1.6236369609832764,-0.34358251094818115,1.4294145107269287
7.546058893203735,0.13520294427871704,-0.7707736492156982,0.7323103547096252,-1.6236358880996704,-0.3457047641277313,1.429432988166809
7.566197872161865,0.1356409788131714,-0.7719061374664307,0.7293896079063416,-1.6235486268997192,-0.3437802195549011,1.4295223951339722
7.586329460144043,0.13543054461479187,-0.7695615887641907,0.7308604717254639,-1.6236759424209595,-0.3449564576148987,1.4294406175613403
7.606362342834473,0.13520818948745728,-0.7699872255325317,0.7309056520462036,-1.6241852045059204,-0.3448222279548645,1.4294489622116089
7.626789093017578,0.13515356183052063,-0.7701994180679321,0.7291056513786316,-1.6241086721420288,-0.3436547815799713,1.4295257329940796
7.646809101104736,0.13487446308135986,-0.7698714137077332,0.7302383184432983,-1.6249200105667114,-0.34490135312080383,1.4296311140060425
7.666888236999512,0.1350875198841095,-0.7700790166854858,0.7293462753295898,-1.6250673532485962,-0.3441854417324066,1.4296811819076538
7.687164783477783,0.13465121388435364,-0.7689952850341797,0.7304542064666748,-1.6252011060714722,-0.3444669842720032,1.4295626878738403
7.707123041152954,0.13500046730041504,-0.7689605951309204,0.7296015024185181,-1.6248184442520142,-0.34433072805404663,1.429719090461731
7.727243423461914,0.13451555371284485,-0.7698888182640076,0.730089008808136,-1.6254464387893677,-0.3444938659667969,1.4299145936965942
7.74729061126709,0.13471314311027527,-0.7685392498970032,0.7295302152633667,-1.625064730644226,-0.34431660175323486,1.429829478263855
7.767393589019775,0.13471820950508118,-0.7681698203086853,0.7292355895042419,-1.6253403425216675,-0.3439544141292572,1.4299613237380981
7.7874767780303955,0.13461780548095703,-0.7684330344200134,0.7293142676353455,-1.625393033027649,-0.34429627656936646,1.430071473121643
7.80754542350769,0.13446944952011108,-0.7692331671714783,0.7296727895736694,-1.626035451889038,-0.34470564126968384,1.4303733110427856
7.827781677246094,0.13459238409996033,-0.7688621878623962,0.7288127541542053,-1.6257569789886475,-0.34338077902793884,1.4301131963729858
7.847954511642456,0.13501301407814026,-0.7676779627799988,0.729293704032898,-1.6258773803710938,-0.34332844614982605,1.4300838708877563
7.868050813674927,0.13473036885261536,-0.7683550119400024,0.728081226348877,-1.6256767511367798,-0.34310945868492126,1.4303406476974487
7.888208866119385,0.13462436199188232,-0.7682464122772217,0.7274543046951294,-1.6258562803268433,-0.34293079376220703,1.4304767847061157
7.90826940536499,0.1347620189189911,-0.7675262689590454,0.7289855480194092,-1.6256153583526611,-0.34389328956604004,1.4305822849273682
7.928361415863037,0.13475343585014343,-0.7672019004821777,0.7288402318954468,-1.6256675720214844,-0.34387779235839844,1.4306122064590454
7.94879937171936,0.13468360900878906,-0.7666628956794739,0.728864312171936,-1.6256452798843384,-0.3442601263523102,1.430585503578186
7.968907594680786,0.13466498255729675,-0.7680575251579285,0.7279380559921265,-1.6258636713027954,-0.34327489137649536,1.43057119846344
7.989004135131836,0.13460904359817505,-0.768159806728363,0.7273938655853271,-1.6256822347640991,-0.3429485559463501,1.4305331707000732
8.009350538253784,0.13468360900878906,-0.7663271427154541,0.7289353609085083,-1.62582266330719,-0.3440876007080078,1.4305154085159302
8.029472589492798,0.13446149230003357,-0.7672053575515747,0.7278101444244385,-1.6260045766830444,-0.343377023935318,1.4305793046951294
8.049567461013794,0.13462337851524353,-0.7660208344459534,0.7284225821495056,-1.62628972530365,-0.3434443771839142,1.430547833442688
8.069603204727173,0.13467615842819214,-0.7675657868385315,0.7273811101913452,-1.626213550567627,-0.34283381700515747,1.430863618850708
8.089679956436157,0.13467159867286682,-0.7666990756988525,0.7281808257102966,-1.6258600950241089,-0.34391406178474426,1.4306820631027222
8.10976767539978,0.134531170129776,-0.766828179359436,0.727496862411499,-1.6259416341781616,-0.34323400259017944,1.4304546117782593
8.129842281341553,0.13445404171943665,-0.7666053175926208,0.7275567650794983,-1.6260770559310913,-0.34312719106674194,1.4304221868515015
8.150063753128052,0.13441202044487,-0.7666340470314026,0.7278321981430054,-1.6266130208969116,-0.3430415093898773,1.4305564165115356
8.170125722885132,0.13445773720741272,-0.7674800753593445,0.7271989583969116,-1.6267907619476318,-0.342470645904541,1.4307774305343628
8.19023847579956,0.1343894600868225,-0.7661424279212952,0.7272709608078003,-1.6263941526412964,-0.34309667348861694,1.430709958076477
8.210422992706299,0.13454681634902954,-0.7659162878990173,0.7275033593177795,-1.6265071630477905,-0.34322142601013184,1.4307087659835815
8.230412244796753,0.13429594039916992,-0.7663430571556091,0.7277340888977051,-1.6266597509384155,-0.34325629472732544,1.4306963682174683
8.250494718551636,0.1342509686946869,-0.7660345435142517,0.728108286857605,-1.6266967058181763,-0.3435204029083252,1.430526614189148
8.270578384399414,0.13443151116371155,-0.7664068341255188,0.727281928062439,-1.6265712976455688,-0.34300678968429565,1.4307736158370972
8.290673017501831,0.13425976037979126,-0.7664408683776855,0.7271714806556702,-1.6266605854034424,-0.3427828550338745,1.4306601285934448
8.3107328414917,0.13442417979240417,-0.7660495638847351,0.7280110120773315,-1.627036213874817,-0.34321799874305725,1.4306608438491821
8.330899477005005,0.13465780019760132,-0.7653993964195251,0.7287237644195557,-1.6274744272232056,-0.3420507311820984,1.43022882938385
8.3509521484375,0.1343655288219452,-0.7665031552314758,0.727148175239563,-1.6263021230697632,-0.34261202812194824,1.4307817220687866
8.371097803115845,0.13438120484352112,-0.7663658261299133,0.7273463010787964,-1.626509189605713,-0.3424210548400879,1.4307172298431396
8.391107559204102,0.13440045714378357,-0.7663890719413757,0.7273512482643127,-1.6265473365783691,-0.34244850277900696,1.430846095085144
8.411206007003784,0.13438978791236877,-0.7657607793807983,0.7280266880989075,-1.6270641088485718,-0.3426099419593811,1.4307043552398682
8.43130087852478,0.13454589247703552,-0.7654784917831421,0.7280244827270508,-1.626857876777649,-0.34281492233276367,1.4307485818862915
8.451359987258911,0.13439175486564636,-0.765769362449646,0.7274451851844788,-1.626810908317566,-0.34241461753845215,1.4307254552841187
8.47147011756897,0.13442382216453552,-0.7663891315460205,0.727317214012146,-1.6268166303634644,-0.342368483543396,1.4307341575622559
8.491521835327148,0.13446351885795593,-0.7658759355545044,0.7275838851928711,-1.6267563104629517,-0.3427138924598694,1.4306012392044067
8.511773824691772,0.13431808352470398,-0.7663319706916809,0.7273525595664978,-1.6270416975021362,-0.34232640266418457,1.4307674169540405
8.531888008117676,0.13399359583854675,-0.7676106095314026,0.7261700630187988,-1.6270451545715332,-0.3415469229221344,1.4307315349578857
8.551981925964355,0.13385418057441711,-0.7658407092094421,0.7279537916183472,-1.6274529695510864,-0.3425281345844269,1.4307315349578857
8.572235822677612,0.13408109545707703,-0.7658615112304688,0.7271624803543091,-1.6269052028656006,-0.3422824442386627,1.4307876825332642
8.592321872711182,0.13424715399742126,-0.7655977010726929,0.727149486541748,-1.6270134449005127,-0.3422011733055115,1.4307236671447754
8.612377882003784,0.1340913474559784,-0.7658432722091675,0.727041482925415,-1.6267650127410889,-0.342117041349411,1.4305404424667358
8.632624626159668,0.13413622975349426,-0.765742838382721,0.7272145748138428,-1.626977801322937,-0.34223508834838867,1.4307440519332886
8.652717113494873,0.13407760858535767,-0.7656997442245483,0.7272484302520752,-1.6270195245742798,-0.34217533469200134,1.4307116270065308
8.672786712646484,0.13409003615379333,-0.7653947472572327,0.7277840375900269,-1.6272045373916626,-0.3425513803958893,1.430646538734436
8.693028926849365,0.13406339287757874,-0.7658200860023499,0.7270271182060242,-1.626906156539917,-0.3420056998729706,1.4306102991104126
8.713148593902588,0.13405486941337585,-0.765616238117218,0.7274585962295532,-1.6270614862442017,-0.34240788221359253,1.4306937456130981
8.733189105987549,0.13403970003128052,-0.7656126022338867,0.7276108860969543,-1.6271275281906128,-0.3423525094985962,1.4307289123535156
8.753270149230957,0.13408949971199036,-0.7657143473625183,0.7270785570144653,-1.626966953277588,-0.342072993516922,1.4305890798568726
8.77333950996399,0.13401934504508972,-0.7654635310173035,0.7275508642196655,-1.6271859407424927,-0.34232401847839355,1.4307492971420288
8.793559551239014,0.13411453366279602,-0.7657729983329773,0.7271339893341064,-1.6269668340682983,-0.3420795202255249,1.4306063652038574
8.813557863235474,0.13403549790382385,-0.7655681371688843,0.7278531789779663,-1.62727689743042,-0.342827171087265,1.4307241439819336
8.833616733551025,0.13412782549858093,-0.7655119895935059,0.7273789644241333,-1.6270885467529297,-0.34220823645591736,1.4307068586349487
8.853713035583496,0.1340753138065338,-0.7656258940696716,0.7272974252700806,-1.6270664930343628,-0.3420298993587494,1.4307721853256226
8.873772859573364,0.1340305507183075,-0.7654125094413757,0.7275592088699341,-1.6272181272506714,-0.3421318531036377,1.4307299852371216
8.893857479095459,0.13419753313064575,-0.7661411166191101,0.7267691493034363,-1.6269097328186035,-0.34220221638679504,1.430831789970398
8.913925409317017,0.1340833604335785,-0.7658199667930603,0.7272999286651611,-1.6269891262054443,-0.34240227937698364,1.430626630783081
8.934006690979004,0.13415899872779846,-0.765779435634613,0.7272394895553589,-1.6270601749420166,-0.3423272371292114,1.4307492971420288
8.9540855884552,0.13411054015159607,-0.765881359577179,0.7269902229309082,-1.6268763542175293,-0.34237176179885864,1.4307552576065063
8.974337577819824,0.13399377465248108,-0.7657953500747681,0.7272124290466309,-1.6270537376403809,-0.3423230051994324,1.43070650100708
8.994432926177979,0.1340107023715973,-0.7656884789466858,0.7272698283195496,-1.627060055732727,-0.3423594832420349,1.4306179285049438
9.0146005153656,0.1341061294078827,-0.7655892968177795,0.7275600433349609,-1.6271013021469116,-0.34258514642715454,1.4306000471115112
9.034618139266968,0.1341024935245514,-0.7656674981117249,0.7272190451622009,-1.6270471811294556,-0.3424125909805298,1.4306520223617554
9.054904222488403,0.13399776816368103,-0.7656145095825195,0.7274056077003479,-1.6270772218704224,-0.34257227182388306,1.430608868598938
9.074995994567871,0.13420331478118896,-0.7659195065498352,0.7269654273986816,-1.6269776821136475,-0.3420752286911011,1.4307862520217896
9.095137357711792,0.1341480314731598,-0.7658434510231018,0.7270771861076355,-1.6269471645355225,-0.34226271510124207,1.4306691884994507
9.1152024269104,0.1341170370578766,-0.7658652663230896,0.7270634174346924,-1.6268776655197144,-0.3423960208892822,1.4307401180267334
9.135368585586548,0.1340244710445404,-0.7657627463340759,0.7271387577056885,-1.6270055770874023,-0.34226199984550476,1.4306195974349976
9.155385971069336,0.13398465514183044,-0.7658143043518066,0.7270788550376892,-1.626958966255188,-0.34231409430503845,1.430652379989624
9.175498723983765,0.1341366469860077,-0.7659611105918884,0.7269114851951599,-1.62676203250885,-0.3422771692276001,1.4306466579437256
9.195551872253418,0.1340017318725586,-0.7657405138015747,0.7273364067077637,-1.6269716024398804,-0.3425945043563843,1.4306575059890747
9.215704917907715,0.13407650589942932,-0.7658272385597229,0.7270766496658325,-1.6269575357437134,-0.3422327935695648,1.4306405782699585
9.235803127288818,0.1339333951473236,-0.7655689716339111,0.7277164459228516,-1.6271661520004272,-0.3426816463470459,1.4306312799453735
9.255927085876465,0.13403716683387756,-0.76554936170578,0.7276806831359863,-1.6272437572479248,-0.34258273243904114,1.4307637214660645
9.276031255722046,0.13412991166114807,-0.7659422755241394,0.7269366979598999,-1.6269506216049194,-0.34227555990219116,1.4308220148086548
9.29609751701355,0.13413211703300476,-0.7657637000083923,0.727269172668457,-1.626905083656311,-0.342531681060791,1.4305938482284546
9.316346406936646,0.13403156399726868,-0.7657912373542786,0.7272388935089111,-1.6271262168884277,-0.3423719108104706,1.430843472480774
9.336458921432495,0.13410237431526184,-0.7656304836273193,0.7272851467132568,-1.6271003484725952,-0.34234756231307983,1.4306241273880005
9.356503963470459,0.13400998711585999,-0.7657273411750793,0.7271473407745361,-1.6270192861557007,-0.3423305153846741,1.4306257963180542
9.376822471618652,0.13405901193618774,-0.7656547427177429,0.7273076176643372,-1.6270695924758911,-0.3423785865306854,1.4305927753448486
9.396934986114502,0.1341048777103424,-0.7657908201217651,0.7273813486099243,-1.6269994974136353,-0.34259092807769775,1.430785059928894
9.416999816894531,0.1341572105884552,-0.7655262351036072,0.7277728915214539,-1.6271790266036987,-0.3427572250366211,1.4307228326797485
9.437185287475586,0.13406577706336975,-0.7654374837875366,0.7276958227157593,-1.6271997690200806,-0.3426413834095001,1.4305731058120728
9.45734453201294,0.13404437899589539,-0.7658458948135376,0.7272222638130188,-1.6269317865371704,-0.342452734708786,1.4306628704071045
9.477428913116455,0.13395383954048157,-0.7658030390739441,0.7273035049438477,-1.627017617225647,-0.34253019094467163,1.430738091468811
9.49747610092163,0.1341072916984558,-0.7657832503318787,0.7270841598510742,-1.626983404159546,-0.34224778413772583,1.4306467771530151
9.51759672164917,0.13413047790527344,-0.7658513188362122,0.7270691394805908,-1.6269937753677368,-0.34228330850601196,1.4307681322097778
9.537689447402954,0.13416901230812073,-0.7657091617584229,0.7273789644241333,-1.6270091533660889,-0.3425399661064148,1.4306806325912476
9.55779242515564,0.1340368092060089,-0.7656338810920715,0.7274816632270813,-1.6271268129348755,-0.34258848428726196,1.4307225942611694
9.577892303466797,0.134059339761734,-0.7657619118690491,0.7272273302078247,-1.6269783973693848,-0.3423701524734497,1.430639386177063
9.597971677780151,0.13406044244766235,-0.7658155560493469,0.7271382808685303,-1.6269553899765015,-0.3423200249671936,1.4306423664093018
9.618127346038818,0.13403478264808655,-0.7659445405006409,0.7268291711807251,-1.626893401145935,-0.3420761227607727,1.430677056312561
9.638205766677856,0.1340414583683014,-0.7660934329032898,0.7265924215316772,-1.626692295074463,-0.34208518266677856,1.4306750297546387
9.658255338668823,0.13408353924751282,-0.7655346989631653,0.7276899218559265,-1.6272772550582886,-0.34252357482910156,1.4307361841201782
9.678336381912231,0.13410288095474243,-0.7656065821647644,0.727541446685791,-1.6271131038665771,-0.34259629249572754,1.4307383298873901
9.69839096069336,0.13403573632240295,-0.7657302021980286,0.7272657752037048,-1.6270722150802612,-0.34239956736564636,1.4307727813720703
9.718585729598999,0.13419470191001892,-0.7658368945121765,0.7268926501274109,-1.6269882917404175,-0.3421325087547302,1.4307430982589722
9.738637685775757,0.13407650589942932,-0.7658710479736328,0.7270132303237915,-1.6269348859786987,-0.3421618938446045,1.4306350946426392
9.758974313735962,0.13402217626571655,-0.7658717036247253,0.7269870638847351,-1.6268473863601685,-0.3422927260398865,1.4306014776229858
9.779140949249268,0.13408049941062927,-0.7660810351371765,0.7267850041389465,-1.626662015914917,-0.3422583341598511,1.4306672811508179
9.799250602722168,0.1340482532978058,-0.7658750414848328,0.7270553112030029,-1.6269232034683228,-0.34229040145874023,1.4306739568710327
9.819536685943604,0.13406196236610413,-0.7657648921012878,0.7272489070892334,-1.6270396709442139,-0.34245365858078003,1.430773377418518
9.839632034301758,0.13404816389083862,-0.7657931447029114,0.7271185517311096,-1.6269843578338623,-0.34229040145874023,1.4306503534317017
9.85970401763916,0.1341436505317688,-0.7660053372383118,0.7268068790435791,-1.6268126964569092,-0.34213629364967346,1.4307442903518677
9.879760026931763,0.13418200612068176,-0.7656947374343872,0.7272955179214478,-1.6270372867584229,-0.34250199794769287,1.4307111501693726
9.899816036224365,0.13403084874153137,-0.7658835053443909,0.7271029949188232,-1.626966118812561,-0.34233105182647705,1.430793285369873
9.91990613937378,0.134042888879776,-0.7657178044319153,0.7271938323974609,-1.626954436302185,-0.3422403931617737,1.4306623935699463
9.940211296081543,0.13402551412582397,-0.7657709717750549,0.7273472547531128,-1.627102017402649,-0.3428569734096527,1.43080472946167
9.960384845733643,0.1341027319431305,-0.7655643224716187,0.7273480296134949,-1.6270190477371216,-0.34239211678504944,1.4305707216262817
9.98047661781311,0.13416042923927307,-0.7658427357673645,0.726837158203125,-1.6269186735153198,-0.34214332699775696,1.4307390451431274
10.000574350357056,0.13401886820793152,-0.7659114003181458,0.7269155979156494,-1.6268857717514038,-0.3422527313232422,1.4306830167770386
10.020722389221191,0.13418754935264587,-0.7657697200775146,0.7270339727401733,-1.6269325017929077,-0.3421404957771301,1.4305716753005981
10.040786743164062,0.1341572105884552,-0.7657443881034851,0.7271475195884705,-1.627078652381897,-0.3423357307910919,1.4307678937911987
10.060867071151733,0.13397827744483948,-0.7659258842468262,0.7270194292068481,-1.626866340637207,-0.3423083424568176,1.4307032823562622
10.080980777740479,0.1339975893497467,-0.7658552527427673,0.7270151376724243,-1.626842975616455,-0.3422081470489502,1.4307012557983398
10.101054191589355,0.13404729962348938,-0.7655529379844666,0.7276989221572876,-1.627223014831543,-0.3426496386528015,1.4307737350463867
10.121130228042603,0.13408881425857544,-0.7660748958587646,0.7267611622810364,-1.6268506050109863,-0.34221887588500977,1.4308580160140991
10.141236782073975,0.1340913474559784,-0.7658067345619202,0.7272394299507141,-1.62696373462677,-0.3423958420753479,1.4306522607803345
10.161282539367676,0.13419994711875916,-0.7656394243240356,0.7274078130722046,-1.627050757408142,-0.34255552291870117,1.430672287940979
10.18138074874878,0.13402053713798523,-0.7659172415733337,0.7270557880401611,-1.6269450187683105,-0.3423137068748474,1.4307941198349
10.201449394226074,0.13393643498420715,-0.7656193375587463,0.7275497913360596,-1.6271522045135498,-0.34257954359054565,1.430669903755188
10.221541166305542,0.1339426338672638,-0.76584792137146,0.7270609140396118,-1.6269112825393677,-0.34234410524368286,1.4306734800338745
10.241607904434204,0.1341797411441803,-0.7658166289329529,0.7270702719688416,-1.6268867254257202,-0.3422984480857849,1.430594801902771
10.261691808700562,0.1341061294078827,-0.7658741474151611,0.727067768573761,-1.626979947090149,-0.3423352837562561,1.4307953119277954
10.281881093978882,0.13394293189048767,-0.7657995820045471,0.7271961569786072,-1.6269944906234741,-0.34232574701309204,1.4306422472000122
10.3020179271698,0.13421639800071716,-0.7657121419906616,0.7273077964782715,-1.6270886659622192,-0.3423950970172882,1.430747628211975
10.32208514213562,0.13420334458351135,-0.7659605145454407,0.7267747521400452,-1.6268633604049683,-0.34210366010665894,1.4307602643966675
10.342160940170288,0.1340426504611969,-0.7657908201217651,0.7273769378662109,-1.6271353960037231,-0.3427662253379822,1.4307844638824463
10.362256050109863,0.13407281041145325,-0.7653561234474182,0.7280568480491638,-1.6274303197860718,-0.3427884578704834,1.4306765794754028
10.382411003112793,0.13403117656707764,-0.7658429741859436,0.7271378040313721,-1.62697434425354,-0.3424029052257538,1.4308018684387207
10.402589082717896,0.13410910964012146,-0.7657636404037476,0.7270448207855225,-1.6269043684005737,-0.3422675132751465,1.4307608604431152
10.422685146331787,0.13410106301307678,-0.7659787535667419,0.726951003074646,-1.6269720792770386,-0.34217503666877747,1.4307854175567627
10.442755699157715,0.1341412365436554,-0.765785276889801,0.7270734906196594,-1.6270886659622192,-0.3421540856361389,1.4307479858398438
10.462839126586914,0.13412663340568542,-0.7659817337989807,0.727003812789917,-1.6270220279693604,-0.3424936532974243,1.4308462142944336
10.482985019683838,0.13416600227355957,-0.7655853629112244,0.7273223996162415,-1.627172589302063,-0.34231770038604736,1.4307485818862915
10.50308609008789,0.1340872347354889,-0.765621542930603,0.7272586226463318,-1.6270712614059448,-0.3423959016799927,1.4307886362075806
10.523176670074463,0.13412591814994812,-0.7660858035087585,0.7268370389938354,-1.6267906427383423,-0.34230443835258484,1.4307993650436401
10.543250560760498,0.13410910964012146,-0.7659857869148254,0.7269160747528076,-1.6269354820251465,-0.34212714433670044,1.4308007955551147
10.563520431518555,0.13402536511421204,-0.7659401297569275,0.726833701133728,-1.626861333847046,-0.34214407205581665,1.4306918382644653
10.583612442016602,0.1339571177959442,-0.7654727101325989,0.7278188467025757,-1.6273049116134644,-0.3427439332008362,1.4307359457015991
10.603712558746338,0.13399621844291687,-0.7655924558639526,0.7275766730308533,-1.6271491050720215,-0.34262821078300476,1.4307223558425903
10.623772382736206,0.13414549827575684,-0.7659316062927246,0.726978063583374,-1.6269588470458984,-0.3422565460205078,1.4308091402053833
10.64385461807251,0.13411006331443787,-0.7658463716506958,0.7271266579627991,-1.6270090341567993,-0.3423444628715515,1.4307903051376343
10.663933753967285,0.13413622975349426,-0.7658352851867676,0.7270938158035278,-1.6270095109939575,-0.3423439860343933,1.4308048486709595
10.684004306793213,0.1340828835964203,-0.765924870967865,0.7269189357757568,-1.6269549131393433,-0.34214574098587036,1.43080735206604
10.704085350036621,0.13405916094779968,-0.7658665776252747,0.7269573211669922,-1.626934289932251,-0.34214460849761963,1.4308291673660278
10.724139928817749,0.13405990600585938,-0.7657255530357361,0.7270689606666565,-1.6270089149475098,-0.3421708047389984,1.430794358253479
10.744233846664429,0.13418546319007874,-0.7660712003707886,0.7269805669784546,-1.6269906759262085,-0.34271371364593506,1.4309543371200562
10.764317274093628,0.13413655757904053,-0.7659410834312439,0.7273201942443848,-1.6270829439163208,-0.342878520488739,1.4308322668075562
10.784372568130493,0.13412651419639587,-0.7658442258834839,0.7271427512168884,-1.6271365880966187,-0.3424122929573059,1.4307897090911865
10.804440975189209,0.13407260179519653,-0.7657818794250488,0.7271652221679688,-1.6269797086715698,-0.3423492908477783,1.4308189153671265
10.824503421783447,0.13414809107780457,-0.7659093737602234,0.7269049882888794,-1.6268638372421265,-0.3422563076019287,1.4307645559310913
10.844600677490234,0.13401103019714355,-0.7660856246948242,0.7269905209541321,-1.6269280910491943,-0.34263449907302856,1.4308643341064453
10.864687204360962,0.13415193557739258,-0.7658731341362,0.727065920829773,-1.6270509958267212,-0.3422042727470398,1.4307719469070435
10.88474726676941,0.13409438729286194,-0.7659183740615845,0.7268354296684265,-1.6269232034683228,-0.3420008718967438,1.4308310747146606
10.904836416244507,0.13401928544044495,-0.7656009793281555,0.7277013063430786,-1.6272410154342651,-0.34275808930397034,1.430787205696106
10.92503046989441,0.1342008113861084,-0.7658495903015137,0.726987898349762,-1.6269193887710571,-0.34220924973487854,1.4307225942611694
10.946584224700928,0.13400748372077942,-0.7658901810646057,0.7272217273712158,-1.6270778179168701,-0.3426916003227234,1.4308115243911743
10.966710329055786,0.13411810994148254,-0.765511691570282,0.7275278568267822,-1.6271634101867676,-0.3425075113773346,1.4307461977005005
10.98674201965332,0.13408124446868896,-0.7658045887947083,0.7271457314491272,-1.6269949674606323,-0.34237223863601685,1.430798053741455
11.006907224655151,0.13406279683113098,-0.7659571170806885,0.7269967198371887,-1.6269203424453735,-0.34233081340789795,1.4308234453201294
11.027015924453735,0.13406911492347717,-0.7657471299171448,0.7271609306335449,-1.6270071268081665,-0.3422698974609375,1.4308032989501953
11.047128915786743,0.13402873277664185,-0.766100287437439,0.7267264127731323,-1.6268011331558228,-0.3420882225036621,1.4308552742004395
11.067357063293457,0.13404908776283264,-0.7660701870918274,0.7268816828727722,-1.6268266439437866,-0.34228286147117615,1.4308674335479736
11.087438344955444,0.13405939936637878,-0.7655242085456848,0.727534830570221,-1.627303957939148,-0.3424527645111084,1.4307456016540527
11.107497215270996,0.1339646577835083,-0.7658355236053467,0.7270983457565308,-1.6270174980163574,-0.342254638671875,1.4307748079299927
11.127781867980957,0.13417336344718933,-0.7658087015151978,0.7271850109100342,-1.6270288228988647,-0.3423897624015808,1.4307893514633179
11.147878646850586,0.13413676619529724,-0.7657275795936584,0.7271228432655334,-1.6270257234573364,-0.34224992990493774,1.430810570716858
11.168121576309204,0.1341257393360138,-0.7658081650733948,0.7268785834312439,-1.6269868612289429,-0.34194958209991455,1.4308050870895386
11.18825364112854,0.1340712010860443,-0.7656956911087036,0.7275686264038086,-1.6271096467971802,-0.34276098012924194,1.4307621717453003
11.2083740234375,0.13419243693351746,-0.7655232548713684,0.7275967001914978,-1.627120852470398,-0.34274664521217346,1.4306889772415161
11.228972673416138,0.13412094116210938,-0.7660402059555054,0.7269390225410461,-1.626973271369934,-0.34255072474479675,1.4308613538742065
11.249063491821289,0.13409575819969177,-0.7657338380813599,0.7270849943161011,-1.6269241571426392,-0.3422885239124298,1.4307512044906616
11.26912546157837,0.1342039406299591,-0.7656518816947937,0.727213442325592,-1.6270216703414917,-0.3424428403377533,1.4307178258895874
11.289259910583496,0.13411620259284973,-0.7658907771110535,0.7270839214324951,-1.6270657777786255,-0.3426252603530884,1.4308176040649414
11.309419393539429,0.13407784700393677,-0.7658798098564148,0.7269115447998047,-1.6269313097000122,-0.3420378565788269,1.4308300018310547
11.32945704460144,0.134108304977417,-0.7657536864280701,0.7273585796356201,-1.6271384954452515,-0.34282684326171875,1.43081533908844
11.349737644195557,0.13407906889915466,-0.7657442688941956,0.727313756942749,-1.627097487449646,-0.3424564599990845,1.4307371377944946
11.369838953018188,0.13412818312644958,-0.7660280466079712,0.7267962694168091,-1.6267614364624023,-0.3422771990299225,1.4308067560195923
11.389923095703125,0.1341245472431183,-0.7658602595329285,0.7271053791046143,-1.6269868612289429,-0.3423405885696411,1.4308000802993774
11.410070657730103,0.13409653306007385,-0.7661895155906677,0.7266688942909241,-1.626879096031189,-0.34234750270843506,1.4308913946151733
11.430135726928711,0.13405689597129822,-0.7656171917915344,0.7273321151733398,-1.6270774602890015,-0.34237828850746155,1.4307738542556763
11.450225114822388,0.13405665755271912,-0.7657650113105774,0.7272332310676575,-1.6270049810409546,-0.34245049953460693,1.430796504020691
11.470367908477783,0.1341468095779419,-0.7655513882637024,0.727271318435669,-1.6270557641983032,-0.34231889247894287,1.4306975603103638
11.490478038787842,0.13407406210899353,-0.7659551501274109,0.7271433472633362,-1.6269735097885132,-0.3423926830291748,1.4307957887649536
11.510567903518677,0.13410061597824097,-0.7659075856208801,0.7270563840866089,-1.6269798278808594,-0.34228089451789856,1.4308007955551147
11.530656576156616,0.13410741090774536,-0.7656400799751282,0.7273514866828918,-1.6271331310272217,-0.3424360156059265,1.4307390451431274
11.550770998001099,0.1340683102607727,-0.7660097479820251,0.7270075082778931,-1.6269842386245728,-0.3426145911216736,1.4308576583862305
11.5708909034729,0.13401702046394348,-0.7661910057067871,0.7269666790962219,-1.6269761323928833,-0.34261614084243774,1.43094801902771
11.591099739074707,0.13410577178001404,-0.7656468749046326,0.7272258996963501,-1.6271640062332153,-0.3425518274307251,1.4308050870895386
11.611154794692993,0.13398081064224243,-0.7657600045204163,0.7273827791213989,-1.6271089315414429,-0.3426128029823303,1.4308325052261353
11.631257057189941,0.13406571745872498,-0.7655486464500427,0.7276349067687988,-1.6271876096725464,-0.34268465638160706,1.4307256937026978
11.651324272155762,0.13401255011558533,-0.7662060260772705,0.7268185019493103,-1.626937747001648,-0.34247511625289917,1.4309571981430054
11.671396970748901,0.13403287529945374,-0.7660399675369263,0.727039635181427,-1.6269019842147827,-0.34236738085746765,1.4308236837387085
11.691467761993408,0.1340477168560028,-0.7655574679374695,0.7275211215019226,-1.6271440982818604,-0.3424202799797058,1.4307383298873901
11.71155595779419,0.13415363430976868,-0.7660709023475647,0.7267529964447021,-1.6269093751907349,-0.34210264682769775,1.4308234453201294
11.731646299362183,0.1340547800064087,-0.7658384442329407,0.7272231578826904,-1.6271085739135742,-0.34234124422073364,1.4308311939239502
11.752222061157227,0.13404476642608643,-0.7660214304924011,0.7270869016647339,-1.6270707845687866,-0.34260648488998413,1.4309251308441162
11.772371292114258,0.1341753900051117,-0.7657641172409058,0.727073073387146,-1.6270986795425415,-0.3425857424736023,1.4309314489364624
11.79241418838501,0.13405850529670715,-0.7661153674125671,0.7269232273101807,-1.6269258260726929,-0.34261348843574524,1.430869221687317
11.812926292419434,0.13403156399726868,-0.7657868266105652,0.7273226380348206,-1.6270180940628052,-0.3424578309059143,1.4307903051376343
11.833035945892334,0.1341145634651184,-0.7658398747444153,0.7270696759223938,-1.627016544342041,-0.3423280119895935,1.4307810068130493
11.853093385696411,0.13407668471336365,-0.7657889723777771,0.7270354628562927,-1.6269949674606323,-0.3421787619590759,1.430801272392273
11.873839378356934,0.13398325443267822,-0.7657501697540283,0.7273299694061279,-1.6270085573196411,-0.34257715940475464,1.4307737350463867
11.893940687179565,0.13420835137367249,-0.7658982872962952,0.7269435524940491,-1.6269768476486206,-0.34230804443359375,1.4308918714523315
11.913997173309326,0.13415983319282532,-0.7654337286949158,0.7277087569236755,-1.6271742582321167,-0.34250250458717346,1.430701494216919
11.93416428565979,0.1340104639530182,-0.7660285830497742,0.7270416021347046,-1.6268970966339111,-0.34252727031707764,1.4308249950408936
11.954191207885742,0.1340864598751068,-0.7659717798233032,0.7271119952201843,-1.6270357370376587,-0.3426535725593567,1.43083655834198
11.97437572479248,0.13409075140953064,-0.7657644152641296,0.7271941900253296,-1.6270389556884766,-0.3423120677471161,1.430790901184082
11.994475364685059,0.13406702876091003,-0.7659751772880554,0.7269835472106934,-1.6269104480743408,-0.342352032661438,1.4308301210403442
12.0146324634552,0.1341230273246765,-0.7658839225769043,0.727213978767395,-1.6269866228103638,-0.34284457564353943,1.430777907371521
12.034859895706177,0.13413655757904053,-0.7658404111862183,0.7271901369094849,-1.6270396709442139,-0.34242087602615356,1.4307786226272583
12.05495309829712,0.13410350680351257,-0.7660169005393982,0.7268900871276855,-1.6268795728683472,-0.34258443117141724,1.43081533908844
12.07501220703125,0.13412895798683167,-0.7658109068870544,0.7271820306777954,-1.6270564794540405,-0.34240061044692993,1.4307671785354614
12.095277309417725,0.13413193821907043,-0.7657495141029358,0.7271997332572937,-1.627099633216858,-0.3423145115375519,1.4307492971420288
12.115463256835938,0.13407817482948303,-0.765843391418457,0.7271522283554077,-1.6269804239273071,-0.3423880338668823,1.430806279182434
12.135563611984253,0.1340995728969574,-0.7655260562896729,0.72739577293396,-1.6271615028381348,-0.342325359582901,1.4307383298873901
12.155640602111816,0.13410905003547668,-0.7659559845924377,0.727088451385498,-1.6269687414169312,-0.3423798978328705,1.4308123588562012
12.175766229629517,0.13411816954612732,-0.7658708691596985,0.7268537282943726,-1.6269673109054565,-0.3419587016105652,1.4308085441589355
12.195939302444458,0.13407036662101746,-0.7659631371498108,0.7268268465995789,-1.6268994808197021,-0.3421429693698883,1.4308239221572876
12.216125726699829,0.1340920627117157,-0.7659153342247009,0.7271856665611267,-1.6270586252212524,-0.3426983058452606,1.430829644203186
12.236109018325806,0.1340879499912262,-0.7659834027290344,0.7270233631134033,-1.6269317865371704,-0.34237372875213623,1.430822491645813
12.256207704544067,0.13408854603767395,-0.7660281658172607,0.7268155217170715,-1.6269720792770386,-0.3423793911933899,1.4308528900146484
12.276330709457397,0.13406655192375183,-0.7660121321678162,0.7269610166549683,-1.6269713640213013,-0.3425121307373047,1.4308756589889526
12.296379804611206,0.13412204384803772,-0.7657802104949951,0.7274324893951416,-1.6270934343338013,-0.3424430191516876,1.4308193922042847
12.316511869430542,0.1340884268283844,-0.7659572958946228,0.7267560958862305,-1.626937747001648,-0.3421061635017395,1.430809736251831
12.336618185043335,0.1340787708759308,-0.7658583521842957,0.7270716428756714,-1.626998782157898,-0.3423342704772949,1.4307891130447388
12.356689929962158,0.13407841324806213,-0.765766978263855,0.7272570133209229,-1.6270426511764526,-0.3424544334411621,1.430777668952942
12.376736879348755,0.13408681750297546,-0.7657861113548279,0.7271416187286377,-1.6271506547927856,-0.34214967489242554,1.4308091402053833
12.396845579147339,0.08939305692911148,-0.88064044713974,0.7613890171051025,-1.9577583074569702,-0.37815427780151367,1.246293067932129
12.416891098022461,0.0318397656083107,-0.8940238356590271,0.7274805307388306,-2.006434202194214,-0.4097113311290741,1.217010498046875
12.43698525428772,-0.03141190856695175,-0.9098445177078247,0.6986727714538574,-2.010327100753784,-0.4500575065612793,1.208053469657898
12.457078695297241,-0.014881277456879616,-0.9070643186569214,0.7059650421142578,-2.0096142292022705,-0.43946802616119385,1.2109216451644897
12.477135181427002,-0.009460175409913063,-0.9044065475463867,0.7082951664924622,-2.0100350379943848,-0.4364154636859894,1.211051344871521
12.497274160385132,-0.006434762850403786,-0.9050090312957764,0.7065487504005432,-2.011305570602417,-0.43228620290756226,1.2106138467788696
12.517367124557495,-0.007139349356293678,-0.9057076573371887,0.7061164379119873,-2.011352300643921,-0.4325006604194641,1.2107938528060913
12.537476778030396,-0.00777890719473362,-0.905123770236969,0.7069883942604065,-2.0116305351257324,-0.4336738586425781,1.2109493017196655
12.557573080062866,-0.0076517704874277115,-0.9050396084785461,0.7065871357917786,-2.0119407176971436,-0.43356209993362427,1.2108701467514038
12.57763147354126,-0.007279837504029274,-0.9027542471885681,0.7085117101669312,-2.011820077896118,-0.4351867437362671,1.2109066247940063
12.597705841064453,-0.007866883650422096,-0.9013105034828186,0.7094550132751465,-2.011737585067749,-0.4368342161178589,1.2104653120040894
12.617863416671753,-0.006964230909943581,-0.900580644607544,0.7087734341621399,-2.011657476425171,-0.4363938570022583,1.2107000350952148
12.63860535621643,-0.007485592737793922,-0.9022368788719177,0.7083252668380737,-2.0125033855438232,-0.4356729984283447,1.2100095748901367
12.658748388290405,-0.007095003500580788,-0.9012486338615417,0.7091618776321411,-2.0130419731140137,-0.43434953689575195,1.2093030214309692
12.678780317306519,-0.007818067446351051,-0.902411162853241,0.7086178064346313,-2.0125322341918945,-0.43564602732658386,1.2098037004470825
12.69895601272583,-0.00755002535879612,-0.9012510180473328,0.7090486288070679,-2.0137250423431396,-0.4351223409175873,1.2093110084533691
12.718995094299316,-0.007623041048645973,-0.9008510708808899,0.709675669670105,-2.014219045639038,-0.4345991015434265,1.2086597681045532
12.73910641670227,-0.007369661703705788,-0.9012433886528015,0.7098921537399292,-2.0144827365875244,-0.4348796010017395,1.2087880373001099
12.759195804595947,-0.006997430697083473,-0.9014628529548645,0.7088384628295898,-2.014535665512085,-0.4340701401233673,1.2092207670211792
12.779286861419678,-0.007344568148255348,-0.9010526537895203,0.7091971039772034,-2.014742374420166,-0.4344659149646759,1.2094640731811523
12.799335718154907,-0.007300997152924538,-0.9004458785057068,0.7101207971572876,-2.014720916748047,-0.43511414527893066,1.2092467546463013
12.819443702697754,-0.007662678137421608,-0.9017854928970337,0.7094581723213196,-2.0152220726013184,-0.43405747413635254,1.2080707550048828
12.839584112167358,-0.006381893530488014,-0.9001732468605042,0.7088319063186646,-2.015288829803467,-0.4332621991634369,1.2082878351211548
12.859641313552856,-0.006847882643342018,-0.8985428214073181,0.7121877074241638,-2.016587018966675,-0.43494635820388794,1.2073088884353638
12.879712581634521,-0.0070490483194589615,-0.8989613652229309,0.7110196352005005,-2.0161821842193604,-0.4348396062850952,1.2081975936889648
12.899794578552246,-0.006943190470337868,-0.8981196880340576,0.7132811546325684,-2.0168659687042236,-0.43546226620674133,1.2072542905807495
12.919939279556274,-0.007155263796448708,-0.8965105414390564,0.7132716178894043,-2.0164835453033447,-0.43480899930000305,1.2061277627944946
12.94004774093628,-0.007670605555176735,-0.8978666067123413,0.7123571038246155,-2.0173535346984863,-0.4339292347431183,1.2058192491531372
12.960200071334839,-0.005658173933625221,-0.8969222903251648,0.7115339040756226,-2.0167927742004395,-0.4328475594520569,1.2067488431930542
12.9802565574646,-0.0062372926622629166,-0.8975457549095154,0.7121618986129761,-2.0179481506347656,-0.43273627758026123,1.206154465675354
13.000326871871948,-0.006992066279053688,-0.8960586190223694,0.7122159004211426,-2.0168187618255615,-0.43435049057006836,1.2064110040664673
13.020403623580933,-0.00717695988714695,-0.8983445763587952,0.7105004191398621,-2.01711368560791,-0.43262743949890137,1.2053977251052856
13.040465116500854,-0.006365979090332985,-0.8945231437683105,0.714543342590332,-2.0188302993774414,-0.4336404800415039,1.204691767692566
13.060545921325684,-0.0071291569620370865,-0.8965372443199158,0.7117943167686462,-2.0174546241760254,-0.4336058497428894,1.2055206298828125
13.080854415893555,-0.0069970134645700455,-0.8969866037368774,0.7119864225387573,-2.0188887119293213,-0.43307560682296753,1.205665946006775
13.100804328918457,-0.006468797102570534,-0.8966339230537415,0.7130894660949707,-2.0200400352478027,-0.4322582483291626,1.2050875425338745
13.1209077835083,-0.006745660677552223,-0.8957843780517578,0.7127060890197754,-2.019710063934326,-0.433018296957016,1.2054237127304077
13.14098048210144,-0.0067515019327402115,-0.8947412371635437,0.7129508852958679,-2.0194573402404785,-0.4334719777107239,1.2050093412399292
13.161853075027466,-0.006420576944947243,-0.8966844081878662,0.7116241455078125,-2.019578456878662,-0.431612491607666,1.2039673328399658
13.18195652961731,-0.0066700223833322525,-0.8937570452690125,0.7141783237457275,-2.020498752593994,-0.43260714411735535,1.2033452987670898
13.202075481414795,-0.006768250837922096,-0.8951622843742371,0.7130864858627319,-2.0199925899505615,-0.4330306947231293,1.2044926881790161
13.222989320755005,-0.006252015009522438,-0.8956224322319031,0.7135015726089478,-2.0210628509521484,-0.4312070906162262,1.2036925554275513
13.24313497543335,-0.006933296099305153,-0.895164966583252,0.7123395800590515,-2.021094799041748,-0.4310191869735718,1.2035802602767944
13.263193130493164,-0.006983006373047829,-0.8943381905555725,0.7120208740234375,-2.020496129989624,-0.4313049614429474,1.2031471729278564
13.283277034759521,-0.006756210699677467,-0.8900541663169861,0.7177944779396057,-2.0216145515441895,-0.4337283670902252,1.2021534442901611
13.303389549255371,-0.006272340193390846,-0.8926640748977661,0.7144646048545837,-2.021768093109131,-0.43192803859710693,1.202803373336792
13.323453903198242,-0.0065493229776620865,-0.8924162983894348,0.7146215438842773,-2.021709680557251,-0.4321324825286865,1.2021594047546387
13.34361457824707,-0.007381582632660866,-0.8926417231559753,0.7153350114822388,-2.0226874351501465,-0.43240827322006226,1.201373815536499
13.363701343536377,-0.006972873583436012,-0.8920946717262268,0.715278148651123,-2.0227606296539307,-0.4326428771018982,1.2019952535629272
13.38375973701477,-0.006840074434876442,-0.8918260335922241,0.7154728174209595,-2.023589849472046,-0.43199411034584045,1.2016938924789429
13.403848648071289,-0.0066068414598703384,-0.8913267850875854,0.7149009108543396,-2.02359938621521,-0.43142151832580566,1.2014871835708618
13.424069166183472,-0.006435418501496315,-0.8904162645339966,0.7162107229232788,-2.0244154930114746,-0.4318072199821472,1.2006378173828125
13.444044828414917,-0.006304288282990456,-0.891261637210846,0.7163451910018921,-2.024171829223633,-0.4323614835739136,1.2007287740707397
13.464150428771973,-0.0056234244257211685,-0.8868100047111511,0.7175760269165039,-2.024291515350342,-0.43254774808883667,1.2002061605453491
13.484262943267822,-0.005973720923066139,-0.8896918296813965,0.7150012254714966,-2.0254762172698975,-0.42984914779663086,1.2002068758010864
13.504446268081665,-0.005284929648041725,-0.8910027146339417,0.7163379192352295,-2.0256187915802,-0.4298126697540283,1.2001804113388062
13.524518251419067,-0.005912328138947487,-0.8888646960258484,0.7185583114624023,-2.027172327041626,-0.43024593591690063,1.1991208791732788
13.544595956802368,-0.006813133135437965,-0.8894819617271423,0.7178312540054321,-2.026874542236328,-0.43069836497306824,1.198859453201294
13.56475281715393,-0.005035365000367165,-0.8888732194900513,0.7151544690132141,-2.025740623474121,-0.42844492197036743,1.199393391609192
13.585023641586304,-0.004386568441987038,-0.8890377283096313,0.7170814871788025,-2.0262398719787598,-0.429209440946579,1.199135422706604
13.605019569396973,-0.005230868235230446,-0.8890202641487122,0.7184611558914185,-2.027189016342163,-0.4292183220386505,1.1982359886169434
13.625108480453491,-0.005762839689850807,-0.8879807591438293,0.7150529623031616,-2.0262937545776367,-0.42883002758026123,1.1991349458694458
13.645276069641113,-0.006253683939576149,-0.8873568177223206,0.7174929976463318,-2.027423858642578,-0.4298175871372223,1.1982507705688477
13.665459871292114,-0.00576862134039402,-0.887622058391571,0.7165857553482056,-2.0278303623199463,-0.42905011773109436,1.1986361742019653
13.685571670532227,-0.005603158846497536,-0.8878125548362732,0.7170816659927368,-2.0280282497406006,-0.42901718616485596,1.1986626386642456
13.705670833587646,-0.005990112200379372,-0.8858976364135742,0.7196062803268433,-2.0286455154418945,-0.4311167597770691,1.1977852582931519
13.725963354110718,-0.005310976877808571,-0.8858045935630798,0.7192728519439697,-2.0296120643615723,-0.4294579029083252,1.1973003149032593
13.746081352233887,-0.005579197779297829,-0.8867210745811462,0.7170704007148743,-2.0292272567749023,-0.42848116159439087,1.197790503501892
13.766174554824829,-0.006048941984772682,-0.8863081932067871,0.7195550203323364,-2.030085802078247,-0.43032002449035645,1.1975425481796265
13.786563158035278,-0.005861843004822731,-0.8848950862884521,0.7197672128677368,-2.0311264991760254,-0.42931124567985535,1.1966384649276733
13.80666470527649,-0.006269359961152077,-0.8847957253456116,0.7203245162963867,-2.031694173812866,-0.42907801270484924,1.1962705850601196
13.82671856880188,-0.007031762972474098,-0.8858440518379211,0.7195770144462585,-2.030726909637451,-0.42976808547973633,1.1958473920822144
13.846811532974243,-0.004927659407258034,-0.8842930197715759,0.7190750241279602,-2.031386375427246,-0.4276501536369324,1.1962484121322632
13.866905689239502,-0.0058564189821481705,-0.8826873898506165,0.7209907174110413,-2.030982732772827,-0.4298662543296814,1.1959009170532227
13.88694453239441,-0.005224192515015602,-0.8839632868766785,0.7194910049438477,-2.0318610668182373,-0.4268128573894501,1.1947729587554932
13.907153367996216,-0.00669022835791111,-0.8822411298751831,0.72325199842453,-2.03212571144104,-0.43051642179489136,1.1945055723190308
13.927128791809082,-0.006350422278046608,-0.8832886219024658,0.7210166454315186,-2.0318191051483154,-0.4289392828941345,1.194535493850708
13.947407484054565,-0.006250226870179176,-0.881420910358429,0.7218320965766907,-2.0319902896881104,-0.4295138716697693,1.1944879293441772
13.967511892318726,-0.006300712004303932,-0.8835138082504272,0.7209833860397339,-2.0321128368377686,-0.4284801781177521,1.1944608688354492
13.987645387649536,-0.006106877699494362,-0.8827184438705444,0.7216827869415283,-2.0333144664764404,-0.4280136823654175,1.1936142444610596
14.007719993591309,-0.006234908476471901,-0.882212221622467,0.7223056554794312,-2.0335118770599365,-0.42806100845336914,1.19333016872406
14.027738571166992,-0.006206953898072243,-0.8822140693664551,0.7227529287338257,-2.0344760417938232,-0.4273572862148285,1.1925781965255737
14.047913312911987,-0.006183171644806862,-0.8823858499526978,0.7215362191200256,-2.034303903579712,-0.42773348093032837,1.1933656930923462
14.067928791046143,-0.005993330851197243,-0.8826284408569336,0.7217170596122742,-2.0343563556671143,-0.4277347922325134,1.193379521369934
14.08806562423706,-0.006050610914826393,-0.8808712363243103,0.7233412265777588,-2.035189628601074,-0.427383691072464,1.1915308237075806
14.108082294464111,-0.006295586004853249,-0.88142329454422,0.7241442203521729,-2.0359437465667725,-0.4267997741699219,1.1900461912155151
14.12819528579712,-0.004928195849061012,-0.8811841607093811,0.7202610373497009,-2.0344314575195312,-0.4254222512245178,1.191668152809143
14.148335933685303,-0.004951441660523415,-0.8823940753936768,0.7207279205322266,-2.035029649734497,-0.42517876625061035,1.1912997961044312
14.168380498886108,-0.004912639036774635,-0.8805809617042542,0.7220653891563416,-2.0358874797821045,-0.42544421553611755,1.190456509590149
14.18848443031311,-0.0063575152307748795,-0.878947377204895,0.723828911781311,-2.036513566970825,-0.4269908666610718,1.1906126737594604
14.208560466766357,-0.006296718493103981,-0.8802727460861206,0.7214336395263672,-2.0362651348114014,-0.42574381828308105,1.1909395456314087
14.228660821914673,-0.005953038111329079,-0.8801746964454651,0.7211775183677673,-2.036640167236328,-0.42470401525497437,1.1905685663223267
14.24873161315918,-0.005801403895020485,-0.8751924633979797,0.7242311239242554,-2.0369489192962646,-0.4276115894317627,1.190236210823059
14.268840789794922,-0.005206787958741188,-0.8772493600845337,0.7230494618415833,-2.037781000137329,-0.42648595571517944,1.190474510192871
14.28897738456726,-0.005535149946808815,-0.879132866859436,0.7210097312927246,-2.0384445190429688,-0.4243057370185852,1.1901211738586426
14.309075355529785,-0.005906367674469948,-0.8782589435577393,0.7239349484443665,-2.0390305519104004,-0.42606353759765625,1.1899502277374268
14.32918095588684,-0.005824709311127663,-0.8788005709648132,0.7223170399665833,-2.0391314029693604,-0.4242262840270996,1.189337134361267
14.349634885787964,-0.00559999980032444,-0.877821683883667,0.724977433681488,-2.0410451889038086,-0.42412737011909485,1.1879560947418213
14.369722127914429,-0.005993688479065895,-0.8775350451469421,0.7251716256141663,-2.0402791500091553,-0.42531949281692505,1.1882011890411377
14.389808654785156,-0.006026351824402809,-0.8785422444343567,0.7249167561531067,-2.039950370788574,-0.4248151183128357,1.1879310607910156
14.409969806671143,-0.006008589640259743,-0.8764268755912781,0.7263339757919312,-2.039881467819214,-0.42521294951438904,1.1875829696655273
14.430081129074097,-0.00553288497030735,-0.8772243857383728,0.7244123816490173,-2.0401101112365723,-0.42423343658447266,1.1880508661270142
14.450182676315308,-0.0055730585008859634,-0.8772490620613098,0.7237673997879028,-2.040386438369751,-0.4227544367313385,1.1873987913131714
14.470449447631836,-0.0052651409059762955,-0.8764270544052124,0.7267106175422668,-2.0421030521392822,-0.4239845871925354,1.1866596937179565
14.490595817565918,-0.006038689985871315,-0.8769738674163818,0.7244073152542114,-2.041560649871826,-0.42341911792755127,1.1873981952667236
14.510696411132812,-0.005878174677491188,-0.8768040537834167,0.7247311472892761,-2.042263984680176,-0.4233287572860718,1.1876150369644165
14.5307457447052,-0.005611026659607887,-0.8746046423912048,0.7266628742218018,-2.0425257682800293,-0.4250069260597229,1.187577486038208
14.550816774368286,-0.005782211199402809,-0.875275731086731,0.7261735200881958,-2.0426533222198486,-0.4242050051689148,1.1864250898361206
14.57110047340393,-0.006319964304566383,-0.8752502202987671,0.7262487411499023,-2.042288064956665,-0.42397910356521606,1.1858453750610352
