liuyurong129/humanoid-gym/humanoid/data/target_q_20250522-040132.csv
timestamp,joint_1,joint_2,joint_3,joint_4,joint_5,joint_6
6.127357482910156e-05,0.0,0.0,0.0,0.0,0.0,0.0
0.020143747329711914,0.0,0.0,0.0,0.0,0.0,0.0
0.040216684341430664,0.0,0.0,0.0,0.0,0.0,0.0
0.06029939651489258,0.0,0.0,0.0,0.0,0.0,0.0
0.08037972450256348,0.0,0.0,0.0,0.0,0.0,0.0
0.10047221183776855,-0.2734750211238861,-0.48888635635375977,0.27943310141563416,0.2119644433259964,0.14683853089809418,-0.09152677655220032
0.12056875228881836,-0.2833878993988037,-0.5177611112594604,0.2888164520263672,0.22769208252429962,0.159907728433609,-0.10020159929990768
0.1408698558807373,-0.27522966265678406,-0.5214533805847168,0.30633047223091125,0.23210935294628143,0.1856825202703476,-0.10860299319028854
0.16099166870117188,-0.2664210796356201,-0.5156187415122986,0.31342560052871704,0.2274547666311264,0.20647038519382477,-0.11164015531539917
0.1810753345489502,-0.24529404938220978,-0.5002319812774658,0.33099114894866943,0.21332207322120667,0.24220061302185059,-0.11675804108381271
0.2011866569519043,-0.2242639809846878,-0.48446887731552124,0.3482327461242676,0.19418977200984955,0.27574971318244934,-0.12098126858472824
0.22128081321716309,-0.21536660194396973,-0.4751865863800049,0.3579464852809906,0.18425743281841278,0.2919192910194397,-0.12326432764530182
0.24139785766601562,-0.19721123576164246,-0.45952117443084717,0.3768135905265808,0.16164326667785645,0.3239856958389282,-0.1286468505859375
0.26151418685913086,-0.1881093978881836,-0.4528898298740387,0.3854599595069885,0.14956268668174744,0.3403725326061249,-0.1316390037536621
0.28156614303588867,-0.17063145339488983,-0.4411722719669342,0.4023949205875397,0.1259605437517166,0.37438634037971497,-0.13904809951782227
0.301624059677124,-0.1532047986984253,-0.43381014466285706,0.41917482018470764,0.10269580781459808,0.4092710316181183,-0.14886312186717987
0.3218371868133545,-0.14573872089385986,-0.43426796793937683,0.42321085929870605,0.09288832545280457,0.4296378493309021,-0.15532569587230682
0.3418605327606201,-0.13849885761737823,-0.447726845741272,0.42580723762512207,0.08440149575471878,0.467894583940506,-0.17227748036384583
0.3619816303253174,-0.1434262990951538,-0.4687986969947815,0.4233294427394867,0.09343413263559341,0.47150465846061707,-0.1797565221786499
0.38208889961242676,-0.1520124077796936,-0.5116530656814575,0.4161032438278198,0.10984781384468079,0.47841376066207886,-0.1899586319923401
0.4021904468536377,-0.16692252457141876,-0.551198422908783,0.41860923171043396,0.1341109424829483,0.47329163551330566,-0.1978215128183365
0.42228102684020996,-0.17595316469669342,-0.5670741200447083,0.4246758818626404,0.14887040853500366,0.4689392149448395,-0.20204298198223114
0.44236278533935547,-0.19162625074386597,-0.5989581942558289,0.43838411569595337,0.17556153237819672,0.46122944355010986,-0.20849086344242096
0.4627211093902588,-0.20741046965122223,-0.6217361688613892,0.45861658453941345,0.20192015171051025,0.45548221468925476,-0.21483226120471954
0.48281264305114746,-0.21346652507781982,-0.6429603695869446,0.46411436796188354,0.21194113790988922,0.4532918930053711,-0.2163858860731125
0.5029177665710449,-0.229731023311615,-0.6596031785011292,0.4872969090938568,0.23610509932041168,0.4510711133480072,-0.22208690643310547
0.5229911804199219,-0.23653392493724823,-0.6441307067871094,0.5028173327445984,0.2453790307044983,0.4506310820579529,-0.22558562457561493
0.543079137802124,-0.24621351063251495,-0.6464499235153198,0.5220701694488525,0.26080015301704407,0.45227110385894775,-0.22944872081279755
0.5631790161132812,-0.2550453841686249,-0.6472969651222229,0.5444223284721375,0.27493998408317566,0.4509604573249817,-0.23418264091014862
0.5836224555969238,-0.25809478759765625,-0.6678269505500793,0.5523003935813904,0.2817227840423584,0.45200440287590027,-0.23574946820735931
0.6037139892578125,-0.2634745240211487,-0.6652154922485352,0.5732431411743164,0.2918146252632141,0.45231834053993225,-0.2395995706319809
0.6238107681274414,-0.2665659487247467,-0.6610453724861145,0.5956541895866394,0.29982656240463257,0.4509439766407013,-0.24376893043518066
0.6439087390899658,-0.267320841550827,-0.6407985687255859,0.6082562208175659,0.3007102906703949,0.4512883424758911,-0.2463165670633316
0.6639251708984375,-0.26759421825408936,-0.6443479657173157,0.6248530149459839,0.3063923120498657,0.44918814301490784,-0.24926027655601501
0.6839876174926758,-0.26395443081855774,-0.6506994962692261,0.636281430721283,0.3070463538169861,0.45223718881607056,-0.25131523609161377
0.7041337490081787,-0.26281946897506714,-0.6755255460739136,0.6377179026603699,0.3092483580112457,0.4529189467430115,-0.2512880265712738
0.7242162227630615,-0.26382747292518616,-0.6842074990272522,0.6475499272346497,0.3131543695926666,0.45610690116882324,-0.2526068389415741
0.7442812919616699,-0.264045387506485,-0.6996669769287109,0.6572949886322021,0.31670311093330383,0.45957526564598083,-0.25378674268722534
0.7643899917602539,-0.2617003321647644,-0.6956443786621094,0.6611148715019226,0.31729933619499207,0.4640052914619446,-0.2543395161628723
0.7844574451446533,-0.25895094871520996,-0.7145360112190247,0.6655551195144653,0.3214077949523926,0.4697074890136719,-0.25446128845214844
0.8046555519104004,-0.2578824758529663,-0.7393274307250977,0.669169545173645,0.32321858406066895,0.4728136658668518,-0.254836767911911
0.824831485748291,-0.25751087069511414,-0.7563105821609497,0.669184684753418,0.3252337574958801,0.47442716360092163,-0.25451719760894775
0.8448925018310547,-0.255966454744339,-0.7818121910095215,0.670026421546936,0.3290975093841553,0.47529637813568115,-0.2543947100639343
0.8650002479553223,-0.25517043471336365,-0.7954665422439575,0.6697067618370056,0.3313545286655426,0.47489094734191895,-0.25431931018829346
0.8851056098937988,-0.25355613231658936,-0.821066677570343,0.6696665287017822,0.33452272415161133,0.47444605827331543,-0.25422927737236023
0.9051523208618164,-0.2517170310020447,-0.8431351184844971,0.6694764494895935,0.33732932806015015,0.4727419316768646,-0.2543545663356781
0.9252409934997559,-0.25035637617111206,-0.8482710719108582,0.668846845626831,0.3375711441040039,0.4724598526954651,-0.25447094440460205
0.9453134536743164,-0.24785584211349487,-0.8537570238113403,0.668621301651001,0.3390350341796875,0.47098508477211,-0.2550930380821228
0.9654853343963623,-0.2456696331501007,-0.8553531169891357,0.6712576150894165,0.33946162462234497,0.47112956643104553,-0.25624361634254456
0.9855875968933105,-0.24502032995224,-0.853733479976654,0.6737234592437744,0.3394250273704529,0.4720774292945862,-0.2569655776023865
1.005645513534546,-0.24227659404277802,-0.8419017195701599,0.6775872707366943,0.3381580710411072,0.4710664451122284,-0.25875863432884216
1.025749683380127,-0.24189913272857666,-0.8380573391914368,0.680960476398468,0.3405321538448334,0.4703570306301117,-0.25956788659095764
1.0458786487579346,-0.23957975208759308,-0.824298083782196,0.6873115301132202,0.339606374502182,0.4697346091270447,-0.26187098026275635
1.0660204887390137,-0.2396024763584137,-0.8164907097816467,0.6972278356552124,0.3406849801540375,0.4720540940761566,-0.2641191780567169
1.086061716079712,-0.2394808530807495,-0.8158271312713623,0.7013002038002014,0.34177881479263306,0.47229039669036865,-0.2651202082633972
1.1061511039733887,-0.23879629373550415,-0.813154399394989,0.7085316181182861,0.34119874238967896,0.47585180401802063,-0.2669670879840851
1.1262223720550537,-0.23833903670310974,-0.8201415538787842,0.7143964767456055,0.34349527955055237,0.4772844910621643,-0.2683497369289398
1.1463377475738525,-0.23898983001708984,-0.8296257853507996,0.7185080051422119,0.34674960374832153,0.47843310236930847,-0.268921434879303
1.166393518447876,-0.23921805620193481,-0.8508588075637817,0.7214305400848389,0.34910157322883606,0.48310941457748413,-0.2694217264652252
1.1864781379699707,-0.23942780494689941,-0.8753544688224792,0.7226461172103882,0.3528154492378235,0.4851754903793335,-0.26957178115844727
1.2065486907958984,-0.2392907738685608,-0.8851892352104187,0.7215306758880615,0.3545365631580353,0.48669713735580444,-0.2694869935512543
1.226581335067749,-0.23737014830112457,-0.8998911380767822,0.7203089594841003,0.35460373759269714,0.48612669110298157,-0.2700870633125305
1.2467753887176514,-0.23609866201877594,-0.9089915752410889,0.7203200459480286,0.355169415473938,0.4872260093688965,-0.2709430456161499
1.266979694366455,-0.2341705709695816,-0.9071086645126343,0.7191004157066345,0.3525577783584595,0.4876108169555664,-0.2715695798397064
1.2870354652404785,-0.23195162415504456,-0.9059120416641235,0.7214227914810181,0.3525373637676239,0.48609647154808044,-0.27327650785446167
1.3071119785308838,-0.2303715944290161,-0.9008618593215942,0.725543737411499,0.3528374433517456,0.4854367971420288,-0.2753549814224243
1.3272960186004639,-0.22888758778572083,-0.8942281603813171,0.7244396209716797,0.3515509068965912,0.48625123500823975,-0.2761129140853882
1.347360372543335,-0.2270604372024536,-0.8869442343711853,0.7282525897026062,0.353025883436203,0.4845430850982666,-0.27800795435905457
1.3674025535583496,-0.22572080790996552,-0.8815921545028687,0.731246292591095,0.3502940535545349,0.4848891496658325,-0.2792919874191284
1.3875739574432373,-0.22466745972633362,-0.884608268737793,0.7362765073776245,0.3521755635738373,0.4861189126968384,-0.2812240719795227
1.4080004692077637,-0.2241019308567047,-0.886480450630188,0.7418056130409241,0.35431015491485596,0.4858298897743225,-0.2832033634185791
1.4281573295593262,-0.2234875112771988,-0.8899821043014526,0.7445600032806396,0.35503920912742615,0.48563817143440247,-0.284156858921051
1.4481980800628662,-0.22382506728172302,-0.9019702076911926,0.7507532835006714,0.3567217290401459,0.4891301691532135,-0.28596389293670654
1.4682633876800537,-0.22338531911373138,-0.9044551849365234,0.7522040009498596,0.3564820885658264,0.491341769695282,-0.2867884337902069
1.4883813858032227,-0.22319957613945007,-0.9170907139778137,0.7553772330284119,0.35834914445877075,0.49345505237579346,-0.28829389810562134
1.5084636211395264,-0.22272181510925293,-0.9278998374938965,0.757240891456604,0.3602014482021332,0.4955069422721863,-0.2896592319011688
1.5285820960998535,-0.222158744931221,-0.9320924878120422,0.7590734958648682,0.3613407015800476,0.49442362785339355,-0.29060786962509155
1.5486657619476318,-0.22168855369091034,-0.9435968399047852,0.7612564563751221,0.3644315004348755,0.4958292245864868,-0.2920871376991272
1.5686938762664795,-0.221277117729187,-0.9524654150009155,0.7644583582878113,0.3679877817630768,0.4961386024951935,-0.2937670648097992
1.588804006576538,-0.21997734904289246,-0.9537118673324585,0.7640203237533569,0.3683519661426544,0.49485403299331665,-0.2946428656578064
1.6089038848876953,-0.21782651543617249,-0.9508312940597534,0.7682956457138062,0.3672087788581848,0.4927527904510498,-0.2972850501537323
1.6291463375091553,-0.21507017314434052,-0.9383745193481445,0.7726687788963318,0.36472630500793457,0.4907185137271881,-0.3002622723579407
1.6492366790771484,-0.21387778222560883,-0.9325534105300903,0.7756540775299072,0.36373114585876465,0.48982346057891846,-0.3018069565296173
1.6693038940429688,-0.2133735567331314,-0.9255358576774597,0.7840452790260315,0.3645004630088806,0.4901640713214874,-0.3048918843269348
1.689387559890747,-0.21341198682785034,-0.9264853596687317,0.7889409065246582,0.3652891516685486,0.48948508501052856,-0.30645105242729187
1.7094619274139404,-0.2134004384279251,-0.9329735636711121,0.7955583930015564,0.3674437999725342,0.49257010221481323,-0.3088597059249878
1.7296240329742432,-0.2142123281955719,-0.9459051489830017,0.7999281883239746,0.3708188235759735,0.49832481145858765,-0.31092196702957153
1.7497243881225586,-0.21508532762527466,-0.9561394453048706,0.8032998442649841,0.3737500309944153,0.5002778768539429,-0.31195199489593506
1.7698404788970947,-0.2147333025932312,-0.9739987850189209,0.8027839660644531,0.37384843826293945,0.5075407028198242,-0.31346771121025085
1.7899670600891113,-0.21469075977802277,-0.9816935062408447,0.802567183971405,0.37418025732040405,0.5089704394340515,-0.31440019607543945
1.8100206851959229,-0.21537938714027405,-0.995219349861145,0.8049184083938599,0.37550467252731323,0.5092119574546814,-0.31673943996429443
1.8301489353179932,-0.21626169979572296,-0.9990097284317017,0.8059226870536804,0.37462055683135986,0.5058614611625671,-0.31953439116477966
1.850285530090332,-0.2186286449432373,-0.9979966878890991,0.8089168667793274,0.3773531913757324,0.5021417140960693,-0.32118937373161316
1.870304822921753,-0.2227625995874405,-0.992056667804718,0.8173917531967163,0.3793189525604248,0.49457848072052,-0.325126051902771
1.8904457092285156,-0.22449332475662231,-0.9833053350448608,0.8277589082717896,0.38053691387176514,0.4863756000995636,-0.32926177978515625
1.9105298519134521,-0.2260245978832245,-0.9819324016571045,0.8327203392982483,0.3801349699497223,0.4852169156074524,-0.3311735689640045
1.930598497390747,-0.23003600537776947,-0.9921697974205017,0.842971682548523,0.38625839352607727,0.4866293668746948,-0.3345341086387634
1.950693130493164,-0.23022547364234924,-1.0010650157928467,0.8474085330963135,0.3874691426753998,0.48805540800094604,-0.3362080752849579
1.97088623046875,-0.22810007631778717,-1.0214482545852661,0.8513214588165283,0.38974031805992126,0.4922018051147461,-0.339013934135437
1.9913437366485596,-0.22202815115451813,-1.0353713035583496,0.850803017616272,0.3875735104084015,0.4997227191925049,-0.342147558927536
2.0114448070526123,-0.21909603476524353,-1.037787914276123,0.8530035018920898,0.38483133912086487,0.5032190680503845,-0.3444129228591919
2.0315146446228027,-0.21450817584991455,-1.0276598930358887,0.8631469011306763,0.3788967728614807,0.5077776908874512,-0.3503502905368805
2.0518195629119873,-0.21323257684707642,-1.0320813655853271,0.8723224401473999,0.3833303153514862,0.5128650665283203,-0.35567009449005127
2.0719733238220215,-0.21347804367542267,-1.0396809577941895,0.8752671480178833,0.3879048824310303,0.5155398845672607,-0.3578953444957733
2.092038154602051,-0.21474066376686096,-1.0562243461608887,0.8798486590385437,0.4001052975654602,0.52082759141922,-0.3616574704647064
2.1120784282684326,-0.21702423691749573,-1.0645805597305298,0.8827918767929077,0.40702909231185913,0.5214981436729431,-0.3635001480579376
2.13215708732605,-0.218383327126503,-1.0765998363494873,0.8876231908798218,0.4110839366912842,0.5207814574241638,-0.36757081747055054
2.152221202850342,-0.21617132425308228,-1.0801303386688232,0.893163800239563,0.4093102514743805,0.5197674036026001,-0.3721756935119629
2.172304153442383,-0.21504737436771393,-1.0808017253875732,0.8985703587532043,0.40812790393829346,0.5191450715065002,-0.3747755289077759
2.1924149990081787,-0.21655558049678802,-1.0863821506500244,0.9092299342155457,0.4112372398376465,0.5193793773651123,-0.3795291781425476
2.2126822471618652,-0.2182629257440567,-1.105245590209961,0.9119908213615417,0.42175203561782837,0.5237302184104919,-0.3822278380393982
2.2327804565429688,-0.2181692123413086,-1.1052194833755493,0.91509610414505,0.4252951443195343,0.5249426364898682,-0.38396379351615906
2.2528491020202637,-0.21860143542289734,-1.11052405834198,0.9218367338180542,0.42801499366760254,0.5264688730239868,-0.38748669624328613
2.2729268074035645,-0.21795116364955902,-1.1144219636917114,0.9245513677597046,0.42789578437805176,0.5300593972206116,-0.38908839225769043
2.292994499206543,-0.21829429268836975,-1.124596118927002,0.9308409690856934,0.4315428137779236,0.5311432480812073,-0.3922571539878845
2.313058376312256,-0.21496224403381348,-1.1255815029144287,0.9344162344932556,0.42777568101882935,0.5328023433685303,-0.39576566219329834
2.333143711090088,-0.21341361105442047,-1.1265925168991089,0.9349309802055359,0.42723628878593445,0.5335187315940857,-0.3973303437232971
2.3532140254974365,-0.21521347761154175,-1.1312038898468018,0.9445078372955322,0.4307437837123871,0.5370068550109863,-0.40054258704185486
2.3732681274414062,-0.21799597144126892,-1.1458410024642944,0.9503966569900513,0.43983423709869385,0.5368356108665466,-0.4027289152145386
2.3933582305908203,-0.21805082261562347,-1.1511057615280151,0.9523604512214661,0.4422021806240082,0.5393010377883911,-0.4036793112754822
2.4134249687194824,-0.2156316339969635,-1.153566837310791,0.9565097093582153,0.442430704832077,0.5377161502838135,-0.40631169080734253
2.433835744857788,-0.2141636610031128,-1.1538163423538208,0.9578090310096741,0.4419894814491272,0.5355942845344543,-0.40768155455589294
2.453951358795166,-0.21420221030712128,-1.1581878662109375,0.9654629230499268,0.4411035478115082,0.5399633646011353,-0.41032737493515015
2.473982095718384,-0.21379433572292328,-1.1666836738586426,0.9711024761199951,0.4452430009841919,0.5422936081886292,-0.4124440848827362
2.494072914123535,-0.21292248368263245,-1.1656403541564941,0.972219705581665,0.4460529088973999,0.5428628325462341,-0.4134073257446289
2.514150619506836,-0.21155008673667908,-1.1626380681991577,0.9761190414428711,0.4455590546131134,0.5455461144447327,-0.415599524974823
2.534268856048584,-0.21383103728294373,-1.1759822368621826,0.9830601215362549,0.45145463943481445,0.5476318597793579,-0.41736099123954773
2.5543832778930664,-0.21391981840133667,-1.1809861660003662,0.9856103658676147,0.4539722204208374,0.5488714575767517,-0.41810673475265503
2.574428081512451,-0.21302258968353271,-1.1844216585159302,0.9876144528388977,0.45566847920417786,0.5460808873176575,-0.4197889566421509
2.594740867614746,-0.2126234918832779,-1.1903685331344604,0.9938126802444458,0.45269516110420227,0.5481213331222534,-0.4219019114971161
2.614828109741211,-0.21225588023662567,-1.1944530010223389,0.9954724311828613,0.45382481813430786,0.5492558479309082,-0.42269763350486755
2.634894847869873,-0.21104274690151215,-1.1957850456237793,0.9984598755836487,0.45528966188430786,0.5496975779533386,-0.4242275357246399
2.654996633529663,-0.21160510182380676,-1.1901298761367798,1.002007007598877,0.45429903268814087,0.5506473779678345,-0.4254075586795807
2.6750848293304443,-0.21238195896148682,-1.1859923601150513,1.0076615810394287,0.4545332193374634,0.5532330870628357,-0.4272444546222687
2.695183038711548,-0.21480971574783325,-1.199162244796753,1.0158532857894897,0.46026596426963806,0.5576121807098389,-0.42834925651550293
2.7152578830718994,-0.21541696786880493,-1.2074768543243408,1.0181745290756226,0.46441635489463806,0.5585508942604065,-0.4285634756088257
2.7354156970977783,-0.21418699622154236,-1.2182880640029907,1.0183441638946533,0.46546125411987305,0.5587157607078552,-0.42930930852890015
2.755484104156494,-0.21128204464912415,-1.2211607694625854,1.016624093055725,0.46221351623535156,0.553349494934082,-0.43063315749168396
2.7755935192108154,-0.21002508699893951,-1.217736005783081,1.0186150074005127,0.4598906934261322,0.5515561699867249,-0.4316599369049072
2.795680046081543,-0.21072500944137573,-1.2202450037002563,1.0264291763305664,0.46328499913215637,0.5548807978630066,-0.4332008957862854
2.8158953189849854,-0.21232932806015015,-1.2211995124816895,1.0344340801239014,0.46875080466270447,0.5592311024665833,-0.43434274196624756
2.836000442504883,-0.21252533793449402,-1.2205673456192017,1.035329818725586,0.4716126024723053,0.560303270816803,-0.4345339238643646
2.8561065196990967,-0.2126311957836151,-1.2172574996948242,1.0388163328170776,0.4729349911212921,0.5632554292678833,-0.43537038564682007
2.8762972354888916,-0.21271125972270966,-1.2201913595199585,1.040299654006958,0.4739763140678406,0.5645254254341125,-0.4356895089149475
2.8964686393737793,-0.2123190462589264,-1.229128122329712,1.0420552492141724,0.47400209307670593,0.5658831000328064,-0.43621164560317993
2.9164931774139404,-0.21135246753692627,-1.2395071983337402,1.043354868888855,0.47114670276641846,0.5659255385398865,-0.4371001124382019
2.936601161956787,-0.21126243472099304,-1.2443602085113525,1.0447279214859009,0.4710061252117157,0.5660476684570312,-0.43753767013549805
2.956674575805664,-0.2111574113368988,-1.2495981454849243,1.047924518585205,0.47270870208740234,0.5637372136116028,-0.43861624598503113
2.9767887592315674,-0.21095329523086548,-1.2447930574417114,1.0504965782165527,0.4753158688545227,0.5624266266822815,-0.43962782621383667
2.996980905532837,-0.2110135555267334,-1.239193320274353,1.0527576208114624,0.47656065225601196,0.562243640422821,-0.440216600894928
3.0170905590057373,-0.21619290113449097,-1.2283226251602173,1.062586784362793,0.48039430379867554,0.5606892704963684,-0.4416525959968567
3.037156105041504,-0.21673929691314697,-1.2306668758392334,1.0657789707183838,0.4816933870315552,0.5636243224143982,-0.44181233644485474
3.057206153869629,-0.21735325455665588,-1.2387473583221436,1.0695616006851196,0.48491713404655457,0.5706148147583008,-0.4415439963340759
3.0772864818573,-0.21699851751327515,-1.2587144374847412,1.0680129528045654,0.48719078302383423,0.5716506242752075,-0.44097211956977844
3.0973875522613525,-0.2149675190448761,-1.2660390138626099,1.0642576217651367,0.48451346158981323,0.5702662467956543,-0.4409804046154022
3.117507219314575,-0.21094469726085663,-1.2762130498886108,1.0618466138839722,0.4794524908065796,0.5683523416519165,-0.4417077898979187
3.137761116027832,-0.20949961245059967,-1.276383399963379,1.0630414485931396,0.47821301221847534,0.5661940574645996,-0.4425440728664398
3.1579554080963135,-0.20793797075748444,-1.2739344835281372,1.067215919494629,0.48101574182510376,0.5658085346221924,-0.44388607144355774
3.17803955078125,-0.21006321907043457,-1.2530752420425415,1.0762217044830322,0.48497387766838074,0.5696157813072205,-0.4452976584434509
3.1981308460235596,-0.21150344610214233,-1.2430496215820312,1.0800069570541382,0.4868784248828888,0.5725730657577515,-0.44560790061950684
3.2182347774505615,-0.21735060214996338,-1.2434289455413818,1.087477445602417,0.49248427152633667,0.5784440636634827,-0.4450952410697937
3.2384016513824463,-0.21857178211212158,-1.253706932067871,1.0887649059295654,0.49354255199432373,0.5814801454544067,-0.4445168673992157
3.2584311962127686,-0.21481972932815552,-1.2814335823059082,1.0814753770828247,0.49206405878067017,0.5847681164741516,-0.44312742352485657
3.278672218322754,-0.21071001887321472,-1.2949594259262085,1.0754274129867554,0.48917168378829956,0.583351731300354,-0.44270074367523193
3.298823118209839,-0.20245593786239624,-1.3155690431594849,1.0660700798034668,0.4792191982269287,0.5770699381828308,-0.44297081232070923
3.3188676834106445,-0.20280607044696808,-1.2951149940490723,1.073896884918213,0.4777756929397583,0.5705499649047852,-0.4458322525024414
3.3389692306518555,-0.20612084865570068,-1.2852751016616821,1.0804929733276367,0.4812147319316864,0.568341851234436,-0.4471319913864136
3.3591506481170654,-0.21203050017356873,-1.269417643547058,1.0943639278411865,0.486256867647171,0.5687357187271118,-0.44932642579078674
3.3794422149658203,-0.22308257222175598,-1.2600699663162231,1.105072021484375,0.5003051161766052,0.5712490081787109,-0.4482400119304657
3.3995425701141357,-0.2261265218257904,-1.2609217166900635,1.1070972681045532,0.5052071809768677,0.5761501789093018,-0.446774959564209
3.419664144515991,-0.22194112837314606,-1.2753585577011108,1.1030504703521729,0.5059694051742554,0.5806311964988708,-0.44520074129104614
3.439754009246826,-0.21853701770305634,-1.2846077680587769,1.0982651710510254,0.5033153891563416,0.5818829536437988,-0.4446178674697876
3.4599061012268066,-0.20874619483947754,-1.3085505962371826,1.0866467952728271,0.49134379625320435,0.5830976366996765,-0.443948358297348
3.4799704551696777,-0.20044569671154022,-1.3240772485733032,1.0823606252670288,0.4779398739337921,0.5811887979507446,-0.44501993060112
3.500079393386841,-0.2009637951850891,-1.3091732263565063,1.0872864723205566,0.4743514955043793,0.5805006623268127,-0.44687771797180176
3.520146369934082,-0.20800338685512543,-1.291292428970337,1.097773551940918,0.4797835946083069,0.5771207213401794,-0.4496634602546692
3.541499614715576,-0.21315786242485046,-1.2789287567138672,1.1055647134780884,0.4893210828304291,0.5759891271591187,-0.4510638415813446
3.5616021156311035,-0.21727609634399414,-1.275062084197998,1.1095865964889526,0.49912840127944946,0.572769284248352,-0.45075252652168274
3.5816822052001953,-0.22644606232643127,-1.2629534006118774,1.1199254989624023,0.5122029781341553,0.5734574198722839,-0.44941791892051697
3.6020638942718506,-0.22517502307891846,-1.2854394912719727,1.117212176322937,0.5152914524078369,0.5789684653282166,-0.4469149708747864
3.622143268585205,-0.2216176688671112,-1.296615719795227,1.1121134757995605,0.5127086043357849,0.5812578797340393,-0.44594696164131165
3.642226457595825,-0.2119968831539154,-1.3224217891693115,1.0985110998153687,0.49949464201927185,0.5839945077896118,-0.44455796480178833
3.6623036861419678,-0.20763032138347626,-1.3264868259429932,1.0950605869293213,0.48929277062416077,0.5832964181900024,-0.44501233100891113
3.6823947429656982,-0.19989752769470215,-1.3111900091171265,1.0948153734207153,0.4756922721862793,0.5851887464523315,-0.4476776719093323
3.7027103900909424,-0.20436692237854004,-1.3007028102874756,1.1055889129638672,0.47508251667022705,0.5852685570716858,-0.4508078694343567
3.7228024005889893,-0.20735453069210052,-1.3010449409484863,1.1101057529449463,0.4806201457977295,0.5864666700363159,-0.45159971714019775
3.742872953414917,-0.2148197889328003,-1.2908819913864136,1.118789553642273,0.4984537363052368,0.5805613398551941,-0.45210593938827515
3.762953758239746,-0.21915991604328156,-1.2827657461166382,1.1229794025421143,0.5063028931617737,0.578840434551239,-0.45169979333877563
3.783033609390259,-0.22623632848262787,-1.2765183448791504,1.1300733089447021,0.5155758261680603,0.5803902745246887,-0.4501939117908478
3.8032989501953125,-0.222533717751503,-1.307544231414795,1.1208255290985107,0.5128155946731567,0.5831037759780884,-0.4477516710758209
3.82340407371521,-0.22020137310028076,-1.3216919898986816,1.1144371032714844,0.5104291439056396,0.5839710235595703,-0.4467211961746216
3.84346342086792,-0.21180115640163422,-1.3352268934249878,1.1079504489898682,0.4946938753128052,0.5839807987213135,-0.4466741979122162
3.863673448562622,-0.20764216780662537,-1.3289439678192139,1.1061633825302124,0.4860948920249939,0.5837980508804321,-0.44761431217193604
3.883763313293457,-0.20162604749202728,-1.3127907514572144,1.1056313514709473,0.4783986806869507,0.5852763652801514,-0.4500235915184021
3.903834819793701,-0.20530036091804504,-1.3029896020889282,1.112910509109497,0.48322737216949463,0.58609938621521,-0.452120840549469
3.9239020347595215,-0.20821170508861542,-1.2947877645492554,1.116662859916687,0.4883089065551758,0.5878452062606812,-0.45253971219062805
3.9439353942871094,-0.21635954082012177,-1.2839305400848389,1.126429796218872,0.504780650138855,0.5844461917877197,-0.4523853659629822
3.963986396789551,-0.22737976908683777,-1.2878971099853516,1.1352248191833496,0.5178173780441284,0.5839970707893372,-0.45035743713378906
3.9840798377990723,-0.2269398272037506,-1.3007111549377441,1.1323847770690918,0.5195702314376831,0.5859308838844299,-0.44886094331741333
4.004160642623901,-0.2251156121492386,-1.3218361139297485,1.1249440908432007,0.5166022181510925,0.5841265916824341,-0.4473056197166443
4.024286985397339,-0.21391403675079346,-1.3413594961166382,1.1106555461883545,0.5014111399650574,0.5773453712463379,-0.4465773105621338
4.04438042640686,-0.20925845205783844,-1.3452143669128418,1.1074994802474976,0.492181658744812,0.5772649049758911,-0.44699355959892273
4.064513444900513,-0.2030523419380188,-1.310948371887207,1.114575743675232,0.478895366191864,0.5783205032348633,-0.4505273699760437
4.084552526473999,-0.20379386842250824,-1.3059356212615967,1.1185070276260376,0.47950249910354614,0.5787814855575562,-0.4518756568431854
4.104642868041992,-0.2092898041009903,-1.3110644817352295,1.1245486736297607,0.4922056794166565,0.5837199687957764,-0.4523092806339264
4.124687671661377,-0.21630573272705078,-1.2917038202285767,1.1323944330215454,0.5070368051528931,0.587368369102478,-0.45147356390953064
4.144869804382324,-0.221655011177063,-1.2796434164047241,1.13812255859375,0.5139280557632446,0.5853012800216675,-0.45123302936553955
4.16495418548584,-0.22815099358558655,-1.2939099073410034,1.1399078369140625,0.5199193358421326,0.585586428642273,-0.4491942524909973
4.185476779937744,-0.22561904788017273,-1.3145034313201904,1.131420612335205,0.5164383053779602,0.5892454385757446,-0.44691258668899536
4.205561399459839,-0.22138077020645142,-1.3284995555877686,1.1235655546188354,0.5128405094146729,0.5878912806510925,-0.4460461139678955
4.225630760192871,-0.21086882054805756,-1.3405334949493408,1.1125818490982056,0.49392175674438477,0.5822490453720093,-0.44617995619773865
4.245696306228638,-0.20430544018745422,-1.3330087661743164,1.1114414930343628,0.4837898015975952,0.5827616453170776,-0.4473617374897003
4.26580548286438,-0.20353177189826965,-1.313357949256897,1.1201982498168945,0.4761701822280884,0.5809140205383301,-0.45073550939559937
4.285861015319824,-0.2086113840341568,-1.3122615814208984,1.126971960067749,0.4842647612094879,0.5836762189865112,-0.4525495171546936
4.305975675582886,-0.21197250485420227,-1.311355710029602,1.1294910907745361,0.4902893304824829,0.586595356464386,-0.45263564586639404
4.3261353969573975,-0.21940335631370544,-1.293697714805603,1.1348206996917725,0.5082340240478516,0.581889808177948,-0.4519716501235962
4.346348285675049,-0.22628580033779144,-1.2827624082565308,1.1424267292022705,0.5153161287307739,0.5843155980110168,-0.4511094391345978
4.366483449935913,-0.2254505157470703,-1.2988135814666748,1.1400325298309326,0.5159607529640198,0.5862675309181213,-0.44998425245285034
4.386537551879883,-0.22449946403503418,-1.3117179870605469,1.137574315071106,0.5157104134559631,0.5875959992408752,-0.44906145334243774
4.406605243682861,-0.2128581404685974,-1.337362289428711,1.121230125427246,0.5043588280677795,0.5816379189491272,-0.4478413760662079
4.426723480224609,-0.20567664504051208,-1.3419644832611084,1.1155987977981567,0.493069589138031,0.5793397426605225,-0.44809678196907043
4.446885347366333,-0.20047013461589813,-1.32821524143219,1.1174092292785645,0.4805966913700104,0.581024169921875,-0.4507281184196472
4.466918706893921,-0.20579570531845093,-1.3190951347351074,1.1251171827316284,0.48385655879974365,0.5829798579216003,-0.4532410502433777
4.487083673477173,-0.21036268770694733,-1.316063642501831,1.129265308380127,0.49093887209892273,0.5842171311378479,-0.45361894369125366
4.50723123550415,-0.21896781027317047,-1.2989468574523926,1.1381679773330688,0.5079668164253235,0.5822192430496216,-0.4534987807273865
4.527400970458984,-0.2224411517381668,-1.288954257965088,1.1430370807647705,0.5142666697502136,0.580976128578186,-0.45330551266670227
4.54741644859314,-0.2288476973772049,-1.2969045639038086,1.1468302011489868,0.5220571160316467,0.5828995108604431,-0.4510340690612793
4.567549705505371,-0.22743457555770874,-1.3086727857589722,1.1443641185760498,0.5214623808860779,0.583340048789978,-0.4501493573188782
4.587633848190308,-0.22089999914169312,-1.3323718309402466,1.1326899528503418,0.5159273147583008,0.5851122140884399,-0.4483771026134491
4.607702016830444,-0.2090129256248474,-1.3396141529083252,1.1218562126159668,0.49549856781959534,0.5829519033432007,-0.448553204536438
4.627897262573242,-0.20335116982460022,-1.3306514024734497,1.1219865083694458,0.48484140634536743,0.5853734016418457,-0.4498026669025421
4.648061990737915,-0.20328660309314728,-1.3240599632263184,1.1248153448104858,0.48074015974998474,0.5867608189582825,-0.45218124985694885
4.668035507202148,-0.20976802706718445,-1.319837212562561,1.1321194171905518,0.49168211221694946,0.5902243852615356,-0.4533349871635437
4.6881937980651855,-0.21200311183929443,-1.3061178922653198,1.1353375911712646,0.4960024952888489,0.5912721157073975,-0.45392927527427673
4.708237171173096,-0.21900852024555206,-1.2927289009094238,1.1415586471557617,0.5138643383979797,0.5846123695373535,-0.45319387316703796
4.728424072265625,-0.22436752915382385,-1.2935818433761597,1.1458849906921387,0.5199881792068481,0.5839235186576843,-0.4524611234664917
4.748514890670776,-0.22626915574073792,-1.3141342401504517,1.1428369283676147,0.5225142240524292,0.5863959789276123,-0.4501792788505554
4.7685205936431885,-0.21927571296691895,-1.3454118967056274,1.128551959991455,0.5200978517532349,0.584348201751709,-0.4479016363620758
4.788660526275635,-0.21459345519542694,-1.3530189990997314,1.1223586797714233,0.511755645275116,0.5819675326347351,-0.44764047861099243
4.808781147003174,-0.20440763235092163,-1.3440579175949097,1.1170085668563843,0.4905291199684143,0.5817351341247559,-0.4491131901741028
4.828882455825806,-0.2028585523366928,-1.3185349702835083,1.1262483596801758,0.4799584150314331,0.5817722082138062,-0.45252811908721924
4.849071025848389,-0.20485615730285645,-1.3158539533615112,1.1311155557632446,0.4818662405014038,0.5838557481765747,-0.4538452625274658
4.869084358215332,-0.2129981368780136,-1.3078269958496094,1.1398143768310547,0.4951087534427643,0.5879634618759155,-0.45458143949508667
4.889188289642334,-0.21701323986053467,-1.306951880455017,1.14204740524292,0.5056744813919067,0.5880272388458252,-0.45356085896492004
4.90931510925293,-0.22492533922195435,-1.3002740144729614,1.1465299129486084,0.5205718874931335,0.5864973068237305,-0.4516482651233673
4.9294116497039795,-0.22677701711654663,-1.299499750137329,1.1474379301071167,0.5232202410697937,0.585233747959137,-0.451069176197052
4.949526309967041,-0.22374296188354492,-1.3160409927368164,1.1419878005981445,0.5175808668136597,0.5863087177276611,-0.450003445148468
4.969593286514282,-0.21425461769104004,-1.345106840133667,1.1305818557739258,0.5065923929214478,0.5849047899246216,-0.44906187057495117
4.989718675613403,-0.2084115594625473,-1.3475373983383179,1.1257086992263794,0.49762582778930664,0.5835811495780945,-0.4493580758571625
5.009942293167114,-0.20182697474956512,-1.3371657133102417,1.1225394010543823,0.4846760928630829,0.5839189291000366,-0.45143404603004456
5.029997825622559,-0.20133216679096222,-1.3278006315231323,1.1234678030014038,0.4838075041770935,0.5851196050643921,-0.45270437002182007
5.050128221511841,-0.20855368673801422,-1.3149173259735107,1.1322734355926514,0.4936976432800293,0.588848352432251,-0.45413926243782043
5.070224285125732,-0.2126157283782959,-1.301336646080017,1.1385843753814697,0.4972534775733948,0.5931979417800903,-0.45473140478134155
5.090317249298096,-0.2210923284292221,-1.2926535606384277,1.1473188400268555,0.5139371752738953,0.5936274528503418,-0.45318403840065
5.110384941101074,-0.22909331321716309,-1.3131190538406372,1.1490559577941895,0.5250384211540222,0.589275062084198,-0.4509781301021576
5.130447864532471,-0.22790902853012085,-1.3176729679107666,1.1452500820159912,0.5239899754524231,0.5900990962982178,-0.4501047730445862
5.150548696517944,-0.21840272843837738,-1.3393950462341309,1.1313040256500244,0.512787938117981,0.5848153233528137,-0.4490637481212616
5.170602798461914,-0.2123570740222931,-1.3496638536453247,1.1242691278457642,0.5044003129005432,0.5828397274017334,-0.4488385021686554
5.190692901611328,-0.20532193779945374,-1.3390052318572998,1.123236060142517,0.4907962381839752,0.5822688937187195,-0.450896680355072
5.2107834815979,-0.20329180359840393,-1.3248224258422852,1.1296131610870361,0.4862104058265686,0.5808871984481812,-0.45376336574554443
5.230921506881714,-0.20526286959648132,-1.3218408823013306,1.133495807647705,0.4893501400947571,0.5835016369819641,-0.45473042130470276
5.25096321105957,-0.21337538957595825,-1.3057955503463745,1.1400266885757446,0.499668151140213,0.5877425074577332,-0.4552140235900879
5.271013021469116,-0.21990074217319489,-1.2905855178833008,1.1459546089172363,0.5134779810905457,0.5902285575866699,-0.4538503587245941
5.291122198104858,-0.22677481174468994,-1.2920185327529907,1.1517006158828735,0.521129846572876,0.588716983795166,-0.45289677381515503
5.311239004135132,-0.22815215587615967,-1.3149333000183105,1.1464773416519165,0.5241200923919678,0.5924895405769348,-0.4499943256378174
5.33125901222229,-0.22024604678153992,-1.3427259922027588,1.1318601369857788,0.5171943306922913,0.5919857025146484,-0.44807693362236023
5.351380109786987,-0.21453455090522766,-1.3514485359191895,1.1253695487976074,0.5083257555961609,0.588718593120575,-0.4479396641254425
5.37152624130249,-0.20528332889080048,-1.3518495559692383,1.119127869606018,0.4913733899593353,0.5814502239227295,-0.4493151009082794
5.3919618129730225,-0.20304082334041595,-1.3207218647003174,1.1276233196258545,0.48145192861557007,0.5811536312103271,-0.45296305418014526
5.412029266357422,-0.20422214269638062,-1.3178693056106567,1.1309581995010376,0.4839335083961487,0.5835881233215332,-0.4540318250656128
5.432104110717773,-0.2137133777141571,-1.3161227703094482,1.141449213027954,0.4976319670677185,0.5875108242034912,-0.4547768831253052
5.452175140380859,-0.21713033318519592,-1.3106231689453125,1.1431127786636353,0.5079395174980164,0.5876913070678711,-0.4537130892276764
5.472259998321533,-0.22594982385635376,-1.291382908821106,1.149042010307312,0.5223634243011475,0.5853716135025024,-0.45205214619636536
5.492326498031616,-0.22912633419036865,-1.2963124513626099,1.1506829261779785,0.5247024893760681,0.5876044034957886,-0.45061060786247253
5.512400388717651,-0.2273438572883606,-1.3076457977294922,1.1463823318481445,0.5233615636825562,0.5900853276252747,-0.4494263231754303
5.532480478286743,-0.21906045079231262,-1.3429902791976929,1.1329506635665894,0.5174217224121094,0.5910824537277222,-0.4474358856678009
5.552537679672241,-0.20693320035934448,-1.3581410646438599,1.1202776432037354,0.5003366470336914,0.5851324200630188,-0.4475083649158478
5.572623014450073,-0.20240536332130432,-1.3463540077209473,1.1191887855529785,0.49193230271339417,0.5844597816467285,-0.4488673508167267
5.592740297317505,-0.20568576455116272,-1.3154730796813965,1.1314446926116943,0.4827861785888672,0.5807427763938904,-0.4529447853565216
5.6131885051727295,-0.2125285565853119,-1.3160244226455688,1.1392900943756104,0.4930044412612915,0.5826420187950134,-0.45440009236335754
5.633275270462036,-0.2163276970386505,-1.3080767393112183,1.1446574926376343,0.49845242500305176,0.5859313011169434,-0.4547882676124573
5.653343439102173,-0.22478461265563965,-1.28690505027771,1.1551567316055298,0.516933798789978,0.5855714678764343,-0.4537580609321594
5.673426628112793,-0.22944539785385132,-1.2859680652618408,1.1585650444030762,0.5231281518936157,0.5834914445877075,-0.4530482888221741
5.693498134613037,-0.22881469130516052,-1.3029587268829346,1.1515024900436401,0.5249432921409607,0.5870946645736694,-0.4503651261329651
5.713560104370117,-0.22115184366703033,-1.3319364786148071,1.1371461153030396,0.5194634795188904,0.589028000831604,-0.4480820298194885
5.733675718307495,-0.21621939539909363,-1.3469594717025757,1.130244255065918,0.5144048929214478,0.5876631736755371,-0.44753801822662354
5.753737926483154,-0.20618608593940735,-1.3433921337127686,1.1235206127166748,0.4945908784866333,0.5837649703025818,-0.4488307535648346
5.773795127868652,-0.2027217447757721,-1.3312307596206665,1.1237648725509644,0.4868866205215454,0.5836846232414246,-0.45027950406074524
5.793970823287964,-0.20256806910037994,-1.3182353973388672,1.128048300743103,0.4845333695411682,0.5879871845245361,-0.45265722274780273
5.813981294631958,-0.21278561651706696,-1.3143134117126465,1.139087438583374,0.49857357144355774,0.5881646275520325,-0.4537048935890198
5.834084749221802,-0.2172345668077469,-1.3070707321166992,1.1439270973205566,0.5073469281196594,0.5861725807189941,-0.4537351727485657
5.854256868362427,-0.2252741903066635,-1.2982457876205444,1.149119257926941,0.5221531987190247,0.5848285555839539,-0.45168110728263855
5.874255418777466,-0.2290344536304474,-1.303428053855896,1.1491948366165161,0.5263941884040833,0.5846637487411499,-0.4498043358325958
5.894369602203369,-0.22599714994430542,-1.3125454187393188,1.144855260848999,0.5231665372848511,0.5875105261802673,-0.44884228706359863
5.9144508838653564,-0.21812912821769714,-1.3476299047470093,1.1306263208389282,0.5153312683105469,0.5884584784507751,-0.44681307673454285
5.9344964027404785,-0.21290791034698486,-1.3566920757293701,1.1236567497253418,0.5076202154159546,0.5864155888557434,-0.4465719163417816
5.95458459854126,-0.20150631666183472,-1.342212200164795,1.1208040714263916,0.4877139925956726,0.5854541063308716,-0.44871094822883606
5.974650144577026,-0.2046077847480774,-1.310878872871399,1.1317696571350098,0.4776487648487091,0.5845384001731873,-0.452727347612381
5.994737863540649,-0.20768670737743378,-1.310160756111145,1.1356457471847534,0.48181235790252686,0.5849796533584595,-0.4538500905036926
6.0148537158966064,-0.21495158970355988,-1.3087115287780762,1.1431070566177368,0.49680113792419434,0.587001383304596,-0.45436349511146545
6.034961938858032,-0.22487415373325348,-1.3077051639556885,1.1492750644683838,0.5189064145088196,0.583469033241272,-0.4520539343357086
6.055087566375732,-0.23031845688819885,-1.3055577278137207,1.1520394086837769,0.525785505771637,0.5827574729919434,-0.4508097767829895
6.075152158737183,-0.2233743667602539,-1.314540982246399,1.1425833702087402,0.521171510219574,0.5860729217529297,-0.4492150545120239
6.095242023468018,-0.21878616511821747,-1.3256490230560303,1.1362842321395874,0.5172445774078369,0.5866100192070007,-0.4484945833683014
6.115376710891724,-0.21249940991401672,-1.3483102321624756,1.1272637844085693,0.5057398080825806,0.585003674030304,-0.4479610323905945
6.135422229766846,-0.2035285234451294,-1.344197392463684,1.1218125820159912,0.48870161175727844,0.5855021476745605,-0.4494878947734833
6.155586004257202,-0.20234042406082153,-1.3350037336349487,1.1235942840576172,0.4841833710670471,0.5875678062438965,-0.4508882164955139
6.175792694091797,-0.20559075474739075,-1.3207889795303345,1.1312825679779053,0.48472291231155396,0.5884902477264404,-0.45360785722732544
6.195751190185547,-0.21341434121131897,-1.308842420578003,1.1389787197113037,0.49694448709487915,0.5891933441162109,-0.4545610845088959
6.2159082889556885,-0.21770817041397095,-1.3084815740585327,1.141483187675476,0.5090910196304321,0.5867339968681335,-0.45341846346855164
6.235955238342285,-0.22607165575027466,-1.3024015426635742,1.1478267908096313,0.5238713026046753,0.5838890075683594,-0.45178020000457764
6.256093978881836,-0.22753819823265076,-1.3053672313690186,1.1472712755203247,0.5241835117340088,0.584309995174408,-0.45060914754867554
6.276240348815918,-0.22502760589122772,-1.3155938386917114,1.1429529190063477,0.5213475227355957,0.5849529504776001,-0.44986459612846375
6.296314716339111,-0.21651412546634674,-1.3445069789886475,1.1321446895599365,0.5113117694854736,0.58420729637146,-0.4487625062465668
6.31653094291687,-0.2111702859401703,-1.3523662090301514,1.1277328729629517,0.5012903213500977,0.5845168828964233,-0.44882798194885254
6.336698055267334,-0.20373372733592987,-1.333709478378296,1.1252076625823975,0.4865260720252991,0.5869250297546387,-0.45102912187576294
6.356724262237549,-0.2056090235710144,-1.324238657951355,1.1305866241455078,0.4866600036621094,0.5881057977676392,-0.4534623622894287
6.376837968826294,-0.20775973796844482,-1.3133833408355713,1.1354594230651855,0.4907224774360657,0.5880664587020874,-0.45461106300354004
6.396883964538574,-0.21544218063354492,-1.2947967052459717,1.1439014673233032,0.5014256238937378,0.5900574922561646,-0.45527762174606323
6.41709303855896,-0.22251269221305847,-1.3033396005630493,1.1481151580810547,0.5193782448768616,0.5900227427482605,-0.4525740146636963
6.437216520309448,-0.22949005663394928,-1.3151224851608276,1.150098443031311,0.5273040533065796,0.5878700017929077,-0.45088472962379456
6.457324743270874,-0.22415035963058472,-1.3262730836868286,1.1395909786224365,0.523322582244873,0.5883423089981079,-0.4490872025489807
6.477483510971069,-0.22096356749534607,-1.3348878622055054,1.133701205253601,0.5180672407150269,0.5843954086303711,-0.448727548122406
6.497605562210083,-0.21121323108673096,-1.3511792421340942,1.1237813234329224,0.49814411997795105,0.5820334553718567,-0.44863900542259216
6.517664670944214,-0.20364181697368622,-1.3386039733886719,1.1229307651519775,0.48711884021759033,0.5861459374427795,-0.45071765780448914
6.537738561630249,-0.20402437448501587,-1.331671953201294,1.125515341758728,0.4880337119102478,0.5850807428359985,-0.45199379324913025
6.557807683944702,-0.20804202556610107,-1.320656657218933,1.1337451934814453,0.4917091727256775,0.5875061750411987,-0.45422622561454773
6.577906608581543,-0.21445932984352112,-1.3057825565338135,1.1389648914337158,0.5020335912704468,0.5918436050415039,-0.4542226493358612
6.597989559173584,-0.21730604767799377,-1.2946232557296753,1.1411155462265015,0.5085511803627014,0.5913338661193848,-0.4538012146949768
6.6180949211120605,-0.22705307602882385,-1.2817087173461914,1.1530723571777344,0.520416259765625,0.5879173874855042,-0.4532594680786133
6.638160467147827,-0.2298627346754074,-1.2871592044830322,1.1555249691009521,0.5209287405014038,0.5909538269042969,-0.45238518714904785
6.658329725265503,-0.2271791696548462,-1.3205699920654297,1.1479847431182861,0.5192634463310242,0.5919926166534424,-0.4502055048942566
6.678465366363525,-0.21855629980564117,-1.3516197204589844,1.1304649114608765,0.512365996837616,0.5886451005935669,-0.4483601748943329
6.698537349700928,-0.212961345911026,-1.356398582458496,1.1246044635772705,0.5039821863174438,0.5846458077430725,-0.448434054851532
6.718629837036133,-0.20542532205581665,-1.3320789337158203,1.1271271705627441,0.4839726686477661,0.5814937949180603,-0.4513229429721832
6.738966941833496,-0.20293709635734558,-1.3162637948989868,1.1310425996780396,0.48261401057243347,0.5869844555854797,-0.4537297487258911
6.759057998657227,-0.2050745040178299,-1.315937876701355,1.1344135999679565,0.4879416227340698,0.5892030000686646,-0.4543324410915375
6.779123783111572,-0.21455004811286926,-1.3069453239440918,1.1433049440383911,0.5036322474479675,0.5910255908966064,-0.4542410969734192
6.799260377883911,-0.21810421347618103,-1.3004086017608643,1.1446900367736816,0.5109302997589111,0.5926493406295776,-0.4531068801879883
6.819354295730591,-0.2252294421195984,-1.3009400367736816,1.147489309310913,0.5222471356391907,0.5900086164474487,-0.45125529170036316
6.840373516082764,-0.22332723438739777,-1.3187108039855957,1.1408865451812744,0.5190187096595764,0.5922578573226929,-0.44968730211257935
6.860487699508667,-0.2216685563325882,-1.335385799407959,1.1349985599517822,0.5171445608139038,0.5913441777229309,-0.4487854540348053
6.8806188106536865,-0.2145777940750122,-1.3655638694763184,1.122992753982544,0.505964457988739,0.583411455154419,-0.44816550612449646
6.900677442550659,-0.2089291214942932,-1.3704047203063965,1.1175280809402466,0.49868154525756836,0.5815501809120178,-0.448554128408432
6.920762777328491,-0.20368105173110962,-1.3428010940551758,1.1198549270629883,0.4927230477333069,0.579582691192627,-0.451339453458786
6.940843820571899,-0.20843322575092316,-1.324419617652893,1.1321640014648438,0.49420905113220215,0.576530396938324,-0.45440322160720825
6.960909843444824,-0.21172714233398438,-1.3178701400756836,1.1380616426467896,0.4984865188598633,0.5783783197402954,-0.4552834630012512
6.9809889793396,-0.21835258603096008,-1.2933869361877441,1.1466196775436401,0.5094964504241943,0.583250880241394,-0.45498237013816833
7.001039505004883,-0.22768566012382507,-1.301708459854126,1.1490288972854614,0.521644115447998,0.5891042351722717,-0.4515646994113922
7.021127939224243,-0.2279079407453537,-1.3089419603347778,1.1471281051635742,0.5240316390991211,0.592144250869751,-0.45014864206314087
7.0411975383758545,-0.22345837950706482,-1.3279178142547607,1.1381545066833496,0.521565318107605,0.5956301689147949,-0.44817402958869934
7.0614166259765625,-0.2120674103498459,-1.3555653095245361,1.1242258548736572,0.5058383941650391,0.5908118486404419,-0.4474943280220032
7.081513404846191,-0.20735864341259003,-1.3590433597564697,1.120381236076355,0.4959266185760498,0.5865750312805176,-0.4481167197227478
7.1015684604644775,-0.20386505126953125,-1.3364558219909668,1.125167965888977,0.4831151068210602,0.5809234976768494,-0.45153406262397766
7.121809005737305,-0.20678263902664185,-1.3234620094299316,1.132325291633606,0.4842444062232971,0.5796323418617249,-0.45462149381637573
7.141953229904175,-0.20983146131038666,-1.3222824335098267,1.1363581418991089,0.4912783205509186,0.5803002119064331,-0.45529115200042725
7.162036657333374,-0.21869690716266632,-1.3136687278747559,1.1471163034439087,0.5077152252197266,0.5779018402099609,-0.45614880323410034
7.182073593139648,-0.22971370816230774,-1.297306776046753,1.1554131507873535,0.5247901082038879,0.5765613317489624,-0.45423004031181335
7.202177047729492,-0.2299373298883438,-1.2940051555633545,1.1546046733856201,0.5268635153770447,0.5808617472648621,-0.45285576581954956
7.222255229949951,-0.22669464349746704,-1.3027186393737793,1.1497907638549805,0.5273385047912598,0.5873631238937378,-0.4505961537361145
7.242347002029419,-0.21854211390018463,-1.330971598625183,1.137174129486084,0.5202832818031311,0.593867301940918,-0.4483671188354492
7.2624571323394775,-0.21285155415534973,-1.3462979793548584,1.1288235187530518,0.5132582783699036,0.5952432751655579,-0.4476998448371887
7.282555103302002,-0.20316709578037262,-1.3444631099700928,1.122416615486145,0.4932980537414551,0.5928400158882141,-0.4492204785346985
7.302731990814209,-0.20577719807624817,-1.3243118524551392,1.1328412294387817,0.48048481345176697,0.5887999534606934,-0.4530259966850281
7.322836637496948,-0.20771872997283936,-1.3261253833770752,1.1339588165283203,0.48447084426879883,0.5870534181594849,-0.4538975954055786
7.342936754226685,-0.2143212854862213,-1.3304656744003296,1.1372783184051514,0.49970752000808716,0.5864270329475403,-0.4540010094642639
7.3631367683410645,-0.22052517533302307,-1.313989520072937,1.1430119276046753,0.5180823802947998,0.5784187912940979,-0.4535562992095947
7.3832221031188965,-0.22723934054374695,-1.3035831451416016,1.1490050554275513,0.5238096714019775,0.5754625797271729,-0.4533611536026001
7.403288125991821,-0.2254868447780609,-1.3003898859024048,1.1480047702789307,0.523514986038208,0.5847136974334717,-0.45146915316581726
7.423372507095337,-0.22141684591770172,-1.3092681169509888,1.1438279151916504,0.5205368399620056,0.5878288149833679,-0.45059698820114136
7.443466901779175,-0.21558663249015808,-1.3392488956451416,1.1319204568862915,0.514150857925415,0.5906987190246582,-0.44882261753082275
7.463555812835693,-0.20407332479953766,-1.365691900253296,1.118175745010376,0.497405081987381,0.5923293232917786,-0.4481502175331116
7.483692646026611,-0.20256362855434418,-1.3526108264923096,1.119866967201233,0.49008846282958984,0.5906654000282288,-0.4497649073600769
7.503727436065674,-0.2019536793231964,-1.3244993686676025,1.1264519691467285,0.47937339544296265,0.5899655222892761,-0.4533922076225281
7.523998975753784,-0.20940282940864563,-1.322226881980896,1.1342899799346924,0.4896581172943115,0.5884976387023926,-0.4552227556705475
7.5440874099731445,-0.21411529183387756,-1.3222872018814087,1.1391818523406982,0.4981725513935089,0.5872678756713867,-0.4555087387561798
7.564141750335693,-0.22226035594940186,-1.305128574371338,1.1485705375671387,0.5174657702445984,0.5820192098617554,-0.4548723101615906
7.58422589302063,-0.22925902903079987,-1.2983375787734985,1.1554300785064697,0.5263819098472595,0.5791049003601074,-0.4540654420852661
7.604292869567871,-0.23035652935504913,-1.3080610036849976,1.1503251791000366,0.5306289196014404,0.5788860321044922,-0.4513923227787018
7.624346733093262,-0.22301524877548218,-1.3233859539031982,1.139634370803833,0.5237765908241272,0.5831997394561768,-0.4493144452571869
7.644439458847046,-0.21682751178741455,-1.3373774290084839,1.132785439491272,0.515952467918396,0.5838521718978882,-0.4486365020275116
7.664584159851074,-0.20644114911556244,-1.3477884531021118,1.1246633529663086,0.4949359893798828,0.5853512287139893,-0.44897374510765076
7.684649229049683,-0.20121347904205322,-1.3353962898254395,1.1253987550735474,0.4813051223754883,0.5879853367805481,-0.45149123668670654
7.704693555831909,-0.20503778755664825,-1.321039080619812,1.130843997001648,0.4813084900379181,0.5876415967941284,-0.4532865881919861
