liuyurong129/humanoid-gym/humanoid/data/target_q_20250522-231435.csv
timestamp,joint_1,joint_2,joint_3,joint_4,joint_5,joint_6
4.458427429199219e-05,0.0,0.0,0.0,0.0,0.0,0.0
0.02011895179748535,0.0,0.0,0.0,0.0,0.0,0.0
0.04018688201904297,0.0,0.0,0.0,0.0,0.0,0.0
0.06023836135864258,0.5156812071800232,0.08862322568893433,0.46138644218444824,-0.22401387989521027,0.27212437987327576,-0.26501569151878357
0.08036255836486816,0.5156812071800232,0.08862322568893433,0.46138644218444824,-0.22401387989521027,0.27212437987327576,-0.26501569151878357
0.10044217109680176,0.43786323070526123,-0.016370702534914017,0.5293964743614197,-0.1965133100748062,0.28034132719039917,-0.23785147070884705
0.12052106857299805,0.43786323070526123,-0.016370702534914017,0.5293964743614197,-0.1965133100748062,0.28034132719039917,-0.23785147070884705
0.1405961513519287,0.4441174864768982,-0.08359569311141968,0.5372549295425415,-0.19028973579406738,0.27326101064682007,-0.24180731177330017
0.16066813468933105,0.4441174864768982,-0.08359569311141968,0.5372549295425415,-0.19028973579406738,0.27326101064682007,-0.24180731177330017
0.18073177337646484,0.44296994805336,-0.12364710867404938,0.5480902791023254,-0.18428285419940948,0.2743341326713562,-0.24755120277404785
0.20079755783081055,0.4373129606246948,-0.14569419622421265,0.5530065894126892,-0.17751507461071014,0.26859402656555176,-0.25047188997268677
0.22089242935180664,0.4373129606246948,-0.14569419622421265,0.5530065894126892,-0.17751507461071014,0.26859402656555176,-0.25047188997268677
0.2410125732421875,0.42877689003944397,-0.1674576997756958,0.5545219779014587,-0.17405126988887787,0.27100107073783875,-0.2548985779285431
0.261059045791626,0.42877689003944397,-0.1674576997756958,0.5545219779014587,-0.17405126988887787,0.27100107073783875,-0.2548985779285431
0.2811746597290039,0.4193210005760193,-0.191947340965271,0.5560122132301331,-0.16964302957057953,0.2676727771759033,-0.25658151507377625
0.3012115955352783,0.4193210005760193,-0.191947340965271,0.5560122132301331,-0.16964302957057953,0.2676727771759033,-0.25658151507377625
0.3214111328125,0.4109024405479431,-0.20571593940258026,0.5579843521118164,-0.16637969017028809,0.26424166560173035,-0.26026877760887146
0.34142303466796875,0.403133362531662,-0.2241564691066742,0.5590916275978088,-0.1607733815908432,0.2589937448501587,-0.26325738430023193
0.3614921569824219,0.403133362531662,-0.2241564691066742,0.5590916275978088,-0.1607733815908432,0.2589937448501587,-0.26325738430023193
0.381561279296875,0.3906656503677368,-0.23755042254924774,0.5600144267082214,-0.15715134143829346,0.255189448595047,-0.26677295565605164
0.4016427993774414,0.3906656503677368,-0.23755042254924774,0.5600144267082214,-0.15715134143829346,0.255189448595047,-0.26677295565605164
0.42179203033447266,0.3838878273963928,-0.2510131001472473,0.5609145760536194,-0.15235307812690735,0.2508937120437622,-0.2700248062610626
0.4418325424194336,0.3838878273963928,-0.2510131001472473,0.5609145760536194,-0.15235307812690735,0.2508937120437622,-0.2700248062610626
0.4619426727294922,0.36791178584098816,-0.2717733383178711,0.5644914507865906,-0.14760319888591766,0.2483154684305191,-0.27338680624961853
0.48198962211608887,0.3560711145401001,-0.28387609124183655,0.5689383745193481,-0.14062276482582092,0.2385920137166977,-0.27786803245544434
0.5020642280578613,0.3560711145401001,-0.28387609124183655,0.5689383745193481,-0.14062276482582092,0.2385920137166977,-0.27786803245544434
0.5221381187438965,0.34292158484458923,-0.2973589301109314,0.5698293447494507,-0.1361301988363266,0.2387847751379013,-0.28169408440589905
0.5422177314758301,0.34292158484458923,-0.2973589301109314,0.5698293447494507,-0.1361301988363266,0.2387847751379013,-0.28169408440589905
0.5623278617858887,0.32754677534103394,-0.3079383075237274,0.5749077200889587,-0.12818703055381775,0.2290969341993332,-0.28588593006134033
0.5823407173156738,0.3135341703891754,-0.31108081340789795,0.5788379311561584,-0.12294390052556992,0.22465960681438446,-0.2896912097930908
0.6024234294891357,0.3135341703891754,-0.31108081340789795,0.5788379311561584,-0.12294390052556992,0.22465960681438446,-0.2896912097930908
0.6224925518035889,0.2998059391975403,-0.3098406493663788,0.586483895778656,-0.11647510528564453,0.21733231842517853,-0.2935728132724762
0.6425583362579346,0.2998059391975403,-0.3098406493663788,0.586483895778656,-0.11647510528564453,0.21733231842517853,-0.2935728132724762
0.6626286506652832,0.27901631593704224,-0.3222138583660126,0.5913488268852234,-0.11109838634729385,0.2119307518005371,-0.2975943088531494
0.682701587677002,0.27901631593704224,-0.3222138583660126,0.5913488268852234,-0.11109838634729385,0.2119307518005371,-0.2975943088531494
0.7028577327728271,0.26436033844947815,-0.31986868381500244,0.6024988889694214,-0.10373388230800629,0.2047613114118576,-0.3025704026222229
0.7228412628173828,0.2452390193939209,-0.32361820340156555,0.6150473952293396,-0.09619227051734924,0.20080919563770294,-0.3076937794685364
0.7429203987121582,0.2452390193939209,-0.32361820340156555,0.6150473952293396,-0.09619227051734924,0.20080919563770294,-0.3076937794685364
0.7630476951599121,0.22711223363876343,-0.32148638367652893,0.6284595131874084,-0.08773372322320938,0.19210965931415558,-0.31207382678985596
0.783090353012085,0.22711223363876343,-0.32148638367652893,0.6284595131874084,-0.08773372322320938,0.19210965931415558,-0.31207382678985596
0.8031585216522217,0.21422216296195984,-0.3267758786678314,0.6425604224205017,-0.08054235577583313,0.1951228827238083,-0.31833863258361816
0.8232319355010986,0.21422216296195984,-0.3267758786678314,0.6425604224205017,-0.08054235577583313,0.1951228827238083,-0.31833863258361816
0.8432986736297607,0.20471781492233276,-0.324337899684906,0.6620392203330994,-0.07298535853624344,0.1907142847776413,-0.3241800367832184
0.8634238243103027,0.19703684747219086,-0.33273908495903015,0.6742185950279236,-0.06700058281421661,0.19392810761928558,-0.3302369713783264
0.8835279941558838,0.19703684747219086,-0.33273908495903015,0.6742185950279236,-0.06700058281421661,0.19392810761928558,-0.3302369713783264
0.903583288192749,0.19382217526435852,-0.34467387199401855,0.6884610056877136,-0.059754930436611176,0.1943555325269699,-0.33618074655532837
0.9236507415771484,0.19382217526435852,-0.34467387199401855,0.6884610056877136,-0.059754930436611176,0.1943555325269699,-0.33618074655532837
0.9438838958740234,0.19005104899406433,-0.3550337553024292,0.7026901841163635,-0.05403919145464897,0.19391028583049774,-0.3419560492038727
0.9639229774475098,0.19032585620880127,-0.3592611849308014,0.7189677357673645,-0.045961588621139526,0.19478817284107208,-0.34765300154685974
0.9840800762176514,0.19032585620880127,-0.3592611849308014,0.7189677357673645,-0.045961588621139526,0.19478817284107208,-0.34765300154685974
1.0041470527648926,0.18710565567016602,-0.38842400908470154,0.7227897047996521,-0.03982427716255188,0.19352544844150543,-0.35428720712661743
1.0242128372192383,0.18710565567016602,-0.38842400908470154,0.7227897047996521,-0.03982427716255188,0.19352544844150543,-0.35428720712661743
1.0443034172058105,0.18574342131614685,-0.421728253364563,0.7263957858085632,-0.032723017036914825,0.19200439751148224,-0.3600456714630127
1.0643725395202637,0.18574342131614685,-0.421728253364563,0.7263957858085632,-0.032723017036914825,0.19200439751148224,-0.3600456714630127
1.0844659805297852,0.18694530427455902,-0.4436679780483246,0.7360121011734009,-0.023694489151239395,0.19057276844978333,-0.36488834023475647
1.1045007705688477,0.18304851651191711,-0.5007472038269043,0.7262856364250183,-0.017750293016433716,0.18673858046531677,-0.37003764510154724
1.1245756149291992,0.18304851651191711,-0.5007472038269043,0.7262856364250183,-0.017750293016433716,0.18673858046531677,-0.37003764510154724
1.1446559429168701,0.17828190326690674,-0.5595404505729675,0.714823305606842,-0.009363315999507904,0.1789361983537674,-0.3757571280002594
1.1647610664367676,0.17828190326690674,-0.5595404505729675,0.714823305606842,-0.009363315999507904,0.1789361983537674,-0.3757571280002594
1.184882402420044,0.17061084508895874,-0.6223343014717102,0.702161431312561,-0.0008715540170669556,0.16767196357250214,-0.3835328221321106
1.2049190998077393,0.17061084508895874,-0.6223343014717102,0.702161431312561,-0.0008715540170669556,0.16767196357250214,-0.3835328221321106
1.2249817848205566,0.17582574486732483,-0.6130629181861877,0.7451270222663879,0.013828732073307037,0.16805632412433624,-0.39444246888160706
1.2450404167175293,0.16756689548492432,-0.6401295065879822,0.7470091581344604,0.025728613138198853,0.15976491570472717,-0.4038209915161133
1.265244483947754,0.16756689548492432,-0.6401295065879822,0.7470091581344604,0.025728613138198853,0.15976491570472717,-0.4038209915161133
1.2854397296905518,0.17027419805526733,-0.6242038607597351,0.7839901447296143,0.039475083351135254,0.1593104600906372,-0.4131332039833069
1.3054451942443848,0.17027419805526733,-0.6242038607597351,0.7839901447296143,0.039475083351135254,0.1593104600906372,-0.4131332039833069
1.3255038261413574,0.159823477268219,-0.6852487921714783,0.7541441321372986,0.048515453934669495,0.15280263125896454,-0.41816896200180054
1.3456544876098633,0.16283142566680908,-0.6713677048683167,0.7809537649154663,0.06012587249279022,0.1571410894393921,-0.4301397204399109
1.3657033443450928,0.16283142566680908,-0.6713677048683167,0.7809537649154663,0.06012587249279022,0.1571410894393921,-0.4301397204399109
1.3857800960540771,0.1625346541404724,-0.6689087152481079,0.791555643081665,0.0713767260313034,0.15878506004810333,-0.43651339411735535
1.4058425426483154,0.1625346541404724,-0.6689087152481079,0.791555643081665,0.0713767260313034,0.15878506004810333,-0.43651339411735535
1.4260473251342773,0.16559484601020813,-0.6455599069595337,0.8157139420509338,0.08185936510562897,0.16035465896129608,-0.44332176446914673
1.4460585117340088,0.16559484601020813,-0.6455599069595337,0.8157139420509338,0.08185936510562897,0.16035465896129608,-0.44332176446914673
1.4661297798156738,0.16235141456127167,-0.678691565990448,0.8003636002540588,0.08851704001426697,0.15519429743289948,-0.4458353519439697
1.4861786365509033,0.15877780318260193,-0.7075403332710266,0.7898605465888977,0.09422028064727783,0.15145964920520782,-0.45373302698135376
1.5063040256500244,0.15877780318260193,-0.7075403332710266,0.7898605465888977,0.09422028064727783,0.15145964920520782,-0.45373302698135376
1.5263638496398926,0.1593262255191803,-0.6776279211044312,0.8210102915763855,0.10346536338329315,0.15648488700389862,-0.4612773656845093
1.5464591979980469,0.1593262255191803,-0.6776279211044312,0.8210102915763855,0.10346536338329315,0.15648488700389862,-0.4612773656845093
1.5665366649627686,0.15953108668327332,-0.6831739544868469,0.8215031623840332,0.11206172406673431,0.15637195110321045,-0.46139612793922424
1.5866320133209229,0.15953108668327332,-0.6831739544868469,0.8215031623840332,0.11206172406673431,0.15637195110321045,-0.46139612793922424
1.6066908836364746,0.15852105617523193,-0.6581535935401917,0.837909996509552,0.11883141100406647,0.1565248817205429,-0.4668506979942322
1.626779317855835,0.15459255874156952,-0.721796989440918,0.7966962456703186,0.11876024305820465,0.15243755280971527,-0.4684661328792572
1.6468567848205566,0.15459255874156952,-0.721796989440918,0.7966962456703186,0.11876024305820465,0.15243755280971527,-0.4684661328792572
1.66693115234375,0.1585402488708496,-0.7058727145195007,0.8172159790992737,0.12494440376758575,0.15117967128753662,-0.47643688321113586
1.6870567798614502,0.1585402488708496,-0.7058727145195007,0.8172159790992737,0.12494440376758575,0.15117967128753662,-0.47643688321113586
1.7071151733398438,0.1577925682067871,-0.6966674327850342,0.8242311477661133,0.13257920742034912,0.15535227954387665,-0.4771333336830139
1.7271850109100342,0.1577925682067871,-0.6966674327850342,0.8242311477661133,0.13257920742034912,0.15535227954387665,-0.4771333336830139
1.7472527027130127,0.1605842113494873,-0.6768143773078918,0.8389069437980652,0.13716964423656464,0.1570226401090622,-0.47893407940864563
1.7673156261444092,0.15823301672935486,-0.6882633566856384,0.8287360072135925,0.13925309479236603,0.15506097674369812,-0.48084381222724915
1.7873897552490234,0.15823301672935486,-0.6882633566856384,0.8287360072135925,0.13925309479236603,0.15506097674369812,-0.48084381222724915
1.807462215423584,0.15375113487243652,-0.7428910136222839,0.7896835207939148,0.13897456228733063,0.1468212753534317,-0.4843719005584717
1.8275401592254639,0.15375113487243652,-0.7428910136222839,0.7896835207939148,0.13897456228733063,0.1468212753534317,-0.4843719005584717
1.8476147651672363,0.15868154168128967,-0.6801033020019531,0.8453730940818787,0.1469009518623352,0.16006138920783997,-0.4879538416862488
1.8676979541778564,0.15868154168128967,-0.6801033020019531,0.8453730940818787,0.1469009518623352,0.16006138920783997,-0.4879538416862488
1.887772560119629,0.15339325368404388,-0.7292519807815552,0.8048193454742432,0.14862842857837677,0.15159256756305695,-0.48642390966415405
1.9078679084777832,0.15936842560768127,-0.6535254120826721,0.8602561950683594,0.15264414250850677,0.15980572998523712,-0.49207329750061035
1.9279305934906006,0.15936842560768127,-0.6535254120826721,0.8602561950683594,0.15264414250850677,0.15980572998523712,-0.49207329750061035
1.9480199813842773,0.1544017791748047,-0.710698664188385,0.8117237091064453,0.15224146842956543,0.15243761241436005,-0.4891771376132965
1.9681053161621094,0.1544017791748047,-0.710698664188385,0.8117237091064453,0.15224146842956543,0.15243761241436005,-0.4891771376132965
1.988206148147583,0.16099479794502258,-0.722747802734375,0.8090822100639343,0.15392065048217773,0.15307407081127167,-0.4927031993865967
2.008253574371338,0.15347693860530853,-0.6963675618171692,0.8273588418960571,0.15925486385822296,0.15356121957302094,-0.49747800827026367
2.028343439102173,0.15347693860530853,-0.6963675618171692,0.8273588418960571,0.15925486385822296,0.15356121957302094,-0.49747800827026367
2.0484132766723633,0.1577063500881195,-0.6884574890136719,0.8327799439430237,0.1620955616235733,0.1570972055196762,-0.4958239495754242
2.0684852600097656,0.1577063500881195,-0.6884574890136719,0.8327799439430237,0.1620955616235733,0.1570972055196762,-0.4958239495754242
2.0885558128356934,0.154253751039505,-0.6722056865692139,0.8390992283821106,0.16423915326595306,0.15086053311824799,-0.49731484055519104
2.108625888824463,0.154253751039505,-0.6722056865692139,0.8390992283821106,0.16423915326595306,0.15086053311824799,-0.49731484055519104
2.1287009716033936,0.15411847829818726,-0.7259027361869812,0.8037891983985901,0.16172336041927338,0.15368004143238068,-0.49623873829841614
2.1487483978271484,0.15387383103370667,-0.710656464099884,0.8195446133613586,0.16332532465457916,0.15034694969654083,-0.5002754330635071
2.168835163116455,0.15387383103370667,-0.710656464099884,0.8195446133613586,0.16332532465457916,0.15034694969654083,-0.5002754330635071
2.18891978263855,0.15537065267562866,-0.7062538266181946,0.8219264149665833,0.1671324223279953,0.1582408994436264,-0.5002259016036987
2.209031820297241,0.15537065267562866,-0.7062538266181946,0.8219264149665833,0.1671324223279953,0.1582408994436264,-0.5002259016036987
2.2292392253875732,0.15758177638053894,-0.6792352795600891,0.8376224637031555,0.16976453363895416,0.15930519998073578,-0.4998021423816681
2.2492258548736572,0.15758177638053894,-0.6792352795600891,0.8376224637031555,0.16976453363895416,0.15930519998073578,-0.4998021423816681
2.269300699234009,0.15398213267326355,-0.682118833065033,0.8290387988090515,0.16981153190135956,0.15479467809200287,-0.5017476081848145
2.289358377456665,0.15556177496910095,-0.740079939365387,0.7906360030174255,0.1673554629087448,0.1479693502187729,-0.5008043646812439
2.309462070465088,0.15556177496910095,-0.740079939365387,0.7906360030174255,0.1673554629087448,0.1479693502187729,-0.5008043646812439
2.329756736755371,0.1555393487215042,-0.6801086664199829,0.8406783938407898,0.17261458933353424,0.15543468296527863,-0.5042222738265991
2.34989595413208,0.1555393487215042,-0.6801086664199829,0.8406783938407898,0.17261458933353424,0.15543468296527863,-0.5042222738265991
2.3699069023132324,0.15049327909946442,-0.7136331796646118,0.813043475151062,0.17285378277301788,0.1529546082019806,-0.5031578540802002
2.3900258541107178,0.15049327909946442,-0.7136331796646118,0.813043475151062,0.17285378277301788,0.1529546082019806,-0.5031578540802002
2.4100747108459473,0.15563149750232697,-0.6657959818840027,0.8468213677406311,0.1742093712091446,0.1585766077041626,-0.5042605400085449
2.4301323890686035,0.15200850367546082,-0.7028712630271912,0.8138676881790161,0.17342962324619293,0.1552257388830185,-0.5024187564849854
2.4502053260803223,0.15200850367546082,-0.7028712630271912,0.8138676881790161,0.17342962324619293,0.1552257388830185,-0.5024187564849854
2.4702703952789307,0.16001026332378387,-0.7267850041389465,0.8009173274040222,0.17105646431446075,0.15656644105911255,-0.5042628645896912
2.4903385639190674,0.16001026332378387,-0.7267850041389465,0.8009173274040222,0.17105646431446075,0.15656644105911255,-0.5042628645896912
2.5104029178619385,0.1542879045009613,-0.6929080486297607,0.8255999684333801,0.17575253546237946,0.15660874545574188,-0.5079806447029114
2.5305068492889404,0.15654683113098145,-0.6919514536857605,0.8250482678413391,0.17714716494083405,0.1561242789030075,-0.506187915802002
2.55061674118042,0.15654683113098145,-0.6919514536857605,0.8250482678413391,0.17714716494083405,0.1561242789030075,-0.506187915802002
2.5706839561462402,0.15621432662010193,-0.6476743221282959,0.850023627281189,0.17893223464488983,0.15547697246074677,-0.5070816278457642
2.590775489807129,0.15621432662010193,-0.6476743221282959,0.850023627281189,0.17893223464488983,0.15547697246074677,-0.5070816278457642
2.6108415126800537,0.14928454160690308,-0.7335761785507202,0.7868512272834778,0.1741381734609604,0.15202048420906067,-0.5041608810424805
2.6309051513671875,0.14928454160690308,-0.7335761785507202,0.7868512272834778,0.1741381734609604,0.15202048420906067,-0.5041608810424805
2.650989055633545,0.15665484964847565,-0.7033525705337524,0.8184331059455872,0.17546389997005463,0.15508057177066803,-0.5069336891174316
2.671025514602661,0.15144547820091248,-0.7070427536964417,0.811701238155365,0.17848964035511017,0.1574898511171341,-0.5067657232284546
2.6911115646362305,0.15144547820091248,-0.7070427536964417,0.811701238155365,0.17848964035511017,0.1574898511171341,-0.5067657232284546
2.7111778259277344,0.15565341711044312,-0.6656849384307861,0.8402538299560547,0.18030594289302826,0.15967410802841187,-0.5074899196624756
2.7312541007995605,0.15565341711044312,-0.6656849384307861,0.8402538299560547,0.18030594289302826,0.15967410802841187,-0.5074899196624756
2.751319408416748,0.15869638323783875,-0.6767874956130981,0.8266362547874451,0.1782878190279007,0.16114242374897003,-0.5049383640289307
2.7714107036590576,0.15869638323783875,-0.6767874956130981,0.8266362547874451,0.1782878190279007,0.16114242374897003,-0.5049383640289307
2.7914743423461914,0.15387341380119324,-0.7331638336181641,0.7882511019706726,0.17442236840724945,0.14605939388275146,-0.5050016045570374
2.811516523361206,0.1566387265920639,-0.696079671382904,0.8252784609794617,0.17738880217075348,0.1546000987291336,-0.5082634687423706
2.83160400390625,0.1566387265920639,-0.696079671382904,0.8252784609794617,0.17738880217075348,0.1546000987291336,-0.5082634687423706
2.851691246032715,0.15043897926807404,-0.6993222236633301,0.817939281463623,0.17951937019824982,0.15391936898231506,-0.5076121091842651
2.87176251411438,0.15043897926807404,-0.6993222236633301,0.817939281463623,0.17951937019824982,0.15391936898231506,-0.5076121091842651
2.8919408321380615,0.1519308090209961,-0.6763424277305603,0.831378161907196,0.18203987181186676,0.1580197811126709,-0.5057103633880615
2.9119253158569336,0.15433701872825623,-0.6820752620697021,0.8230701088905334,0.17811913788318634,0.1645020693540573,-0.5067775249481201
2.9320192337036133,0.15433701872825623,-0.6820752620697021,0.8230701088905334,0.17811913788318634,0.1645020693540573,-0.5067775249481201
2.952195405960083,0.15637165307998657,-0.7451652884483337,0.7813126444816589,0.17383308708667755,0.15171575546264648,-0.505695641040802
2.972240686416626,0.15637165307998657,-0.7451652884483337,0.7813126444816589,0.17383308708667755,0.15171575546264648,-0.505695641040802
2.9923439025878906,0.15731161832809448,-0.6741136908531189,0.8364983201026917,0.1798442155122757,0.15593525767326355,-0.5109948515892029
3.01240611076355,0.15731161832809448,-0.6741136908531189,0.8364983201026917,0.1798442155122757,0.15593525767326355,-0.5109948515892029
3.0324411392211914,0.15177367627620697,-0.718280553817749,0.8015871644020081,0.18006707727909088,0.14940132200717926,-0.5075793862342834
3.05249285697937,0.15826405584812164,-0.6588425040245056,0.8464213609695435,0.1823185533285141,0.16045738756656647,-0.5064566731452942
3.072582960128784,0.15826405584812164,-0.6588425040245056,0.8464213609695435,0.1823185533285141,0.16045738756656647,-0.5064566731452942
3.0926618576049805,0.15023766458034515,-0.6944259405136108,0.8104302287101746,0.17968027293682098,0.15535588562488556,-0.5065844058990479
3.112786293029785,0.15023766458034515,-0.6944259405136108,0.8104302287101746,0.17968027293682098,0.15535588562488556,-0.5065844058990479
3.1328227519989014,0.1553008258342743,-0.7383009791374207,0.7853277921676636,0.175644651055336,0.15322311222553253,-0.5073437094688416
3.1529619693756104,0.1553008258342743,-0.7383009791374207,0.7853277921676636,0.175644651055336,0.15322311222553253,-0.5073437094688416
3.1730310916900635,0.15356282889842987,-0.678306519985199,0.8319904208183289,0.18063975870609283,0.15834899246692657,-0.5113005042076111
3.193037509918213,0.15311698615550995,-0.6964259743690491,0.8162059187889099,0.18110479414463043,0.15512825548648834,-0.5089791417121887
3.2131221294403076,0.15311698615550995,-0.6964259743690491,0.8162059187889099,0.18110479414463043,0.15512825548648834,-0.5089791417121887
3.2331905364990234,0.15835359692573547,-0.6579952239990234,0.8418999314308167,0.1823168843984604,0.16132496297359467,-0.5069143176078796
3.2533116340637207,0.15835359692573547,-0.6579952239990234,0.8418999314308167,0.1823168843984604,0.16132496297359467,-0.5069143176078796
3.273500442504883,0.1493428647518158,-0.7038845419883728,0.8018109202384949,0.18028612434864044,0.14836300909519196,-0.5076197981834412
3.2934978008270264,0.1493428647518158,-0.7038845419883728,0.8018109202384949,0.18028612434864044,0.14836300909519196,-0.5076197981834412
3.3135836124420166,0.15823835134506226,-0.7197750806808472,0.8012966513633728,0.1784258931875229,0.15969516336917877,-0.5082910656929016
3.3336308002471924,0.15117502212524414,-0.698805570602417,0.8166642785072327,0.18136988580226898,0.1556115746498108,-0.5100129246711731
3.353764295578003,0.15117502212524414,-0.698805570602417,0.8166642785072327,0.18136988580226898,0.1556115746498108,-0.5100129246711731
3.3738906383514404,0.15620967745780945,-0.6592833995819092,0.8421767950057983,0.18286342918872833,0.16239836812019348,-0.5092784762382507
3.393908977508545,0.15620967745780945,-0.6592833995819092,0.8421767950057983,0.18286342918872833,0.16239836812019348,-0.5092784762382507
3.4139816761016846,0.15319764614105225,-0.6825437545776367,0.8152111172676086,0.1823110431432724,0.15803301334381104,-0.5064266920089722
3.434502363204956,0.15270429849624634,-0.7219037413597107,0.7910515069961548,0.17878390848636627,0.15074120461940765,-0.5075291395187378
3.454589605331421,0.15270429849624634,-0.7219037413597107,0.7910515069961548,0.17878390848636627,0.15074120461940765,-0.5075291395187378
3.4746994972229004,0.15577566623687744,-0.7103365659713745,0.8106635808944702,0.17963193356990814,0.15529392659664154,-0.5088211297988892
3.4947478771209717,0.15577566623687744,-0.7103365659713745,0.8106635808944702,0.17963193356990814,0.15529392659664154,-0.5088211297988892
3.5148847103118896,0.15235714614391327,-0.6891424059867859,0.8206207156181335,0.18233682215213776,0.15657593309879303,-0.5092716813087463
3.534914016723633,0.15235714614391327,-0.6891424059867859,0.8206207156181335,0.18233682215213776,0.15657593309879303,-0.5092716813087463
3.555018663406372,0.1562514305114746,-0.6531950831413269,0.8415235280990601,0.1844974309206009,0.15979263186454773,-0.5061417818069458
3.5750608444213867,0.15264949202537537,-0.6951590776443481,0.8100823760032654,0.17910028994083405,0.1571466624736786,-0.5061623454093933
3.5951638221740723,0.15264949202537537,-0.6951590776443481,0.8100823760032654,0.17910028994083405,0.1571466624736786,-0.5061623454093933
3.6152396202087402,0.15282145142555237,-0.7322667241096497,0.787442147731781,0.1760840266942978,0.14822567999362946,-0.5076067447662354
3.6353063583374023,0.15282145142555237,-0.7322667241096497,0.787442147731781,0.1760840266942978,0.14822567999362946,-0.5076067447662354
3.6553964614868164,0.1521371603012085,-0.686353862285614,0.8256433606147766,0.18105627596378326,0.15791566669940948,-0.5104575157165527
3.6754636764526367,0.1521371603012085,-0.686353862285614,0.8256433606147766,0.18105627596378326,0.15791566669940948,-0.5104575157165527
3.695603370666504,0.15276309847831726,-0.698472261428833,0.8152406811714172,0.18120522797107697,0.1562131643295288,-0.5088953375816345
3.715632677078247,0.15769222378730774,-0.6702703237533569,0.8347488045692444,0.18260927498340607,0.1616782248020172,-0.5052573084831238
3.7357025146484375,0.15769222378730774,-0.6702703237533569,0.8347488045692444,0.18260927498340607,0.1616782248020172,-0.5052573084831238
3.755777359008789,0.15257427096366882,-0.693740725517273,0.8092387318611145,0.18006928265094757,0.15569758415222168,-0.5066502690315247
3.7758450508117676,0.15257427096366882,-0.693740725517273,0.8092387318611145,0.18006928265094757,0.15569758415222168,-0.5066502690315247
3.7959201335906982,0.1535133421421051,-0.7413941025733948,0.7777684330940247,0.1768011599779129,0.14946527779102325,-0.5067581534385681
3.815971851348877,0.1535133421421051,-0.7413941025733948,0.7777684330940247,0.1768011599779129,0.14946527779102325,-0.5067581534385681
3.83607816696167,0.1573725938796997,-0.6653133630752563,0.845522940158844,0.18104366958141327,0.16004160046577454,-0.5093613862991333
3.856238603591919,0.1515841782093048,-0.7277772426605225,0.7954103350639343,0.1783980280160904,0.14966367185115814,-0.5065210461616516
3.8763108253479004,0.1515841782093048,-0.7277772426605225,0.7954103350639343,0.1783980280160904,0.14966367185115814,-0.5065210461616516
3.896540880203247,0.16119712591171265,-0.6295157074928284,0.8639578223228455,0.18128694593906403,0.1662682741880417,-0.5073726773262024
3.916578531265259,0.16119712591171265,-0.6295157074928284,0.8639578223228455,0.18128694593906403,0.1662682741880417,-0.5073726773262024
3.936685800552368,0.1535188853740692,-0.684655487537384,0.8183399438858032,0.17760880291461945,0.15724287927150726,-0.5053661465644836
3.9567089080810547,0.16166405379772186,-0.7369996905326843,0.7910605072975159,0.17287762463092804,0.1518174558877945,-0.5066226720809937
3.9768025875091553,0.16166405379772186,-0.7369996905326843,0.7910605072975159,0.17287762463092804,0.1518174558877945,-0.5066226720809937
3.9968864917755127,0.1532985419034958,-0.6881430745124817,0.826773464679718,0.17909033596515656,0.15010710060596466,-0.5114681124687195
4.016982078552246,0.1532985419034958,-0.6881430745124817,0.826773464679718,0.17909033596515656,0.15010710060596466,-0.5114681124687195
4.037045001983643,0.15365001559257507,-0.6950223445892334,0.8204984664916992,0.18096311390399933,0.15262120962142944,-0.5084734559059143
4.057117700576782,0.15365001559257507,-0.6950223445892334,0.8204984664916992,0.18096311390399933,0.15262120962142944,-0.5084734559059143
4.077240228652954,0.15467306971549988,-0.6573134064674377,0.8446532487869263,0.18286027014255524,0.16109350323677063,-0.5071970820426941
4.097284555435181,0.1499691903591156,-0.6882032752037048,0.8136866688728333,0.18005721271038055,0.15623286366462708,-0.5073370337486267
4.1173415184021,0.1499691903591156,-0.6882032752037048,0.8136866688728333,0.18005721271038055,0.15623286366462708,-0.5073370337486267
4.137438535690308,0.15196113288402557,-0.752247154712677,0.7734228372573853,0.17568616569042206,0.14891745150089264,-0.5074097514152527
4.157508850097656,0.15196113288402557,-0.752247154712677,0.7734228372573853,0.17568616569042206,0.14891745150089264,-0.5074097514152527
4.177608013153076,0.15314409136772156,-0.6714417338371277,0.8383236527442932,0.18205834925174713,0.15897127985954285,-0.5124992728233337
4.197657346725464,0.15314409136772156,-0.6714417338371277,0.8383236527442932,0.18205834925174713,0.15897127985954285,-0.5124992728233337
4.217750549316406,0.1512293517589569,-0.7073531746864319,0.8089035749435425,0.1818871647119522,0.15194366872310638,-0.5085800290107727
4.237807035446167,0.1567348837852478,-0.6694144606590271,0.8391565084457397,0.1836051493883133,0.162230983376503,-0.5067979693412781
4.257929563522339,0.1567348837852478,-0.6694144606590271,0.8391565084457397,0.1836051493883133,0.162230983376503,-0.5067979693412781
4.277976036071777,0.1525341272354126,-0.6910749077796936,0.8113890886306763,0.1803819090127945,0.15767298638820648,-0.5076545476913452
4.29804253578186,0.1525341272354126,-0.6910749077796936,0.8113890886306763,0.1803819090127945,0.15767298638820648,-0.5076545476913452
4.318108081817627,0.1532846987247467,-0.7417595982551575,0.7776026129722595,0.17694170773029327,0.14850805699825287,-0.5077913999557495
4.338155269622803,0.1603224277496338,-0.67331463098526,0.8421925902366638,0.1809411197900772,0.15937936305999756,-0.5107342600822449
4.3582375049591064,0.1603224277496338,-0.67331463098526,0.8421925902366638,0.1809411197900772,0.15937936305999756,-0.5107342600822449
4.378325939178467,0.15537193417549133,-0.7152236104011536,0.8078308701515198,0.1796775609254837,0.15295539796352386,-0.5076917409896851
4.398386240005493,0.15537193417549133,-0.7152236104011536,0.8078308701515198,0.1796775609254837,0.15295539796352386,-0.5076917409896851
4.418518781661987,0.16064631938934326,-0.663489580154419,0.8445122838020325,0.1818217784166336,0.16051232814788818,-0.5063645839691162
4.438547372817993,0.16064631938934326,-0.663489580154419,0.8445122838020325,0.1818217784166336,0.16051232814788818,-0.5063645839691162
4.458618402481079,0.15271210670471191,-0.6904692053794861,0.81765216588974,0.17982806265354156,0.15340864658355713,-0.5066959261894226
4.478684902191162,0.15403030812740326,-0.7456609606742859,0.7814416289329529,0.17586912214756012,0.1484559178352356,-0.5070173740386963
4.498763799667358,0.15403030812740326,-0.7456609606742859,0.7814416289329529,0.17586912214756012,0.1484559178352356,-0.5070173740386963
4.518807888031006,0.15599492192268372,-0.6669711470603943,0.8442515134811401,0.18131054937839508,0.16048631072044373,-0.5107179284095764
4.538876533508301,0.15599492192268372,-0.6669711470603943,0.8442515134811401,0.18131054937839508,0.16048631072044373,-0.5107179284095764
4.558948993682861,0.14989212155342102,-0.7243111729621887,0.7982957363128662,0.1797623485326767,0.15010331571102142,-0.5074225664138794
4.5790205001831055,0.14989212155342102,-0.7243111729621887,0.7982957363128662,0.1797623485326767,0.15010331571102142,-0.5074225664138794
4.599086761474609,0.15920887887477875,-0.6454887986183167,0.8562801480293274,0.18239139020442963,0.16215865314006805,-0.5073494911193848
4.619173288345337,0.1476266235113144,-0.7092355489730835,0.7988497614860535,0.17929567396640778,0.14699609577655792,-0.5064253807067871
4.639311790466309,0.1476266235113144,-0.7092355489730835,0.7988497614860535,0.17929567396640778,0.14699609577655792,-0.5064253807067871
4.6595213413238525,0.16017532348632812,-0.7154846787452698,0.8067719340324402,0.17690260708332062,0.1559423953294754,-0.5083227157592773
4.67952823638916,0.16017532348632812,-0.7154846787452698,0.8067719340324402,0.17690260708332062,0.1559423953294754,-0.5083227157592773
4.699612617492676,0.15069961547851562,-0.7044325470924377,0.8125931620597839,0.17976953089237213,0.15392419695854187,-0.5110466480255127
4.719760417938232,0.15623325109481812,-0.6747814416885376,0.8342743515968323,0.1823645681142807,0.15780335664749146,-0.5085014700889587
4.739866495132446,0.15623325109481812,-0.6747814416885376,0.8342743515968323,0.1823645681142807,0.15780335664749146,-0.5085014700889587
4.76001238822937,0.15460127592086792,-0.6775553822517395,0.8263037204742432,0.18169020116329193,0.1565273255109787,-0.5065165758132935
4.780049085617065,0.15460127592086792,-0.6775553822517395,0.8263037204742432,0.18169020116329193,0.1565273255109787,-0.5065165758132935
4.800120830535889,0.15161389112472534,-0.7139021754264832,0.802160918712616,0.1792454570531845,0.15210051834583282,-0.5071710348129272
4.820202589035034,0.15161389112472534,-0.7139021754264832,0.802160918712616,0.1792454570531845,0.15210051834583282,-0.5071710348129272
4.840263366699219,0.15449270606040955,-0.7118101716041565,0.8085246086120605,0.17921678721904755,0.15756361186504364,-0.508796751499176
4.8603596687316895,0.1517711579799652,-0.7037121653556824,0.8127469420433044,0.18192602694034576,0.15653322637081146,-0.5076876282691956
4.880408048629761,0.1517711579799652,-0.7037121653556824,0.8127469420433044,0.18192602694034576,0.15653322637081146,-0.5076876282691956
4.900485515594482,0.15545117855072021,-0.6681419014930725,0.835673987865448,0.18239916861057281,0.1609070748090744,-0.5081118941307068
4.920621395111084,0.15545117855072021,-0.6681419014930725,0.835673987865448,0.18239916861057281,0.1609070748090744,-0.5081118941307068
4.940677881240845,0.15639279782772064,-0.6785078048706055,0.8246590495109558,0.1795300394296646,0.16054947674274445,-0.5073341727256775
4.960734605789185,0.15639279782772064,-0.6785078048706055,0.8246590495109558,0.1795300394296646,0.16054947674274445,-0.5073341727256775
4.980864524841309,0.15367121994495392,-0.7453636527061462,0.7775444388389587,0.17575563490390778,0.1482466757297516,-0.5067633390426636
5.000886917114258,0.15385064482688904,-0.6750001907348633,0.8344720005989075,0.18173755705356598,0.1555921584367752,-0.5111017227172852
5.020974636077881,0.15385064482688904,-0.6750001907348633,0.8344720005989075,0.18173755705356598,0.1555921584367752,-0.5111017227172852
5.041085243225098,0.14977692067623138,-0.7149764895439148,0.802734911441803,0.18135704100131989,0.1518537551164627,-0.5085523724555969
5.0611937046051025,0.14977692067623138,-0.7149764895439148,0.802734911441803,0.18135704100131989,0.1518537551164627,-0.5085523724555969
5.08124852180481,0.15454503893852234,-0.6609712243080139,0.8432102799415588,0.18439923226833344,0.16163885593414307,-0.5069260597229004
5.101300477981567,0.14929699897766113,-0.6885964274406433,0.8120457530021667,0.18062074482440948,0.15211917459964752,-0.5081270933151245
5.12142276763916,0.14929699897766113,-0.6885964274406433,0.8120457530021667,0.18062074482440948,0.15211917459964752,-0.5081270933151245
5.141475200653076,0.1553540974855423,-0.7391707897186279,0.7827171087265015,0.17677544057369232,0.1512780338525772,-0.507286548614502
5.161553382873535,0.1553540974855423,-0.7391707897186279,0.7827171087265015,0.17677544057369232,0.1512780338525772,-0.507286548614502
5.18161416053772,0.1568908989429474,-0.6768921613693237,0.8329715132713318,0.1810103803873062,0.15646202862262726,-0.5114400386810303
5.201697111129761,0.1568908989429474,-0.6768921613693237,0.8329715132713318,0.1810103803873062,0.15646202862262726,-0.5114400386810303
5.221811294555664,0.15282869338989258,-0.7172918915748596,0.8024870753288269,0.18062911927700043,0.15036042034626007,-0.5080893635749817
5.241863012313843,0.15816809237003326,-0.655333936214447,0.8461441397666931,0.18382258713245392,0.16074825823307037,-0.5070574879646301
5.261938810348511,0.15816809237003326,-0.655333936214447,0.8461441397666931,0.18382258713245392,0.16074825823307037,-0.5070574879646301
5.282050609588623,0.1489134281873703,-0.6938816905021667,0.8085852265357971,0.18073411285877228,0.1532730609178543,-0.5073690414428711
5.302095890045166,0.1489134281873703,-0.6938816905021667,0.8085852265357971,0.18073411285877228,0.1532730609178543,-0.5073690414428711
5.322148323059082,0.15594375133514404,-0.7343152165412903,0.7866453528404236,0.17665649950504303,0.15217331051826477,-0.5070648789405823
5.342337369918823,0.15594375133514404,-0.7343152165412903,0.7866453528404236,0.17665649950504303,0.15217331051826477,-0.5070648789405823
5.3623740673065186,0.15661853551864624,-0.6837319731712341,0.8310486078262329,0.17994554340839386,0.1586756855249405,-0.5107147097587585
5.382399320602417,0.15603837370872498,-0.7070239782333374,0.8117182850837708,0.17977775633335114,0.1539144068956375,-0.5081163048744202
5.402505159378052,0.15603837370872498,-0.7070239782333374,0.8117182850837708,0.17977775633335114,0.1539144068956375,-0.5081163048744202
5.42258358001709,0.16068951785564423,-0.6645273566246033,0.8410704135894775,0.18221540749073029,0.1608547419309616,-0.505291759967804
5.4426515102386475,0.16068951785564423,-0.6645273566246033,0.8410704135894775,0.18221540749073029,0.1608547419309616,-0.505291759967804
5.462764501571655,0.15043243765830994,-0.6941015124320984,0.8120208382606506,0.1799107939004898,0.15017177164554596,-0.5064797401428223
5.483036518096924,0.15079918503761292,-0.7416945099830627,0.7802734375,0.17651619017124176,0.14595894515514374,-0.5071189999580383
5.503119945526123,0.15079918503761292,-0.7416945099830627,0.7802734375,0.17651619017124176,0.14595894515514374,-0.5071189999580383
5.5231873989105225,0.15214818716049194,-0.6590149402618408,0.8488176465034485,0.1817384511232376,0.15876972675323486,-0.5107144117355347
5.543268442153931,0.15214818716049194,-0.6590149402618408,0.8488176465034485,0.1817384511232376,0.15876972675323486,-0.5107144117355347
5.563352108001709,0.14894182980060577,-0.7389284372329712,0.7847523093223572,0.17815639078617096,0.1494472771883011,-0.5065419673919678
5.583417177200317,0.14894182980060577,-0.7389284372329712,0.7847523093223572,0.17815639078617096,0.1494472771883011,-0.5065419673919678
5.603562355041504,0.16157090663909912,-0.6073758006095886,0.8789893984794617,0.18174000084400177,0.16750220954418182,-0.5084631443023682
5.623586654663086,0.15622356534004211,-0.6549302339553833,0.836750328540802,0.17891962826251984,0.1618831604719162,-0.5057255625724792
5.643665790557861,0.15622356534004211,-0.6549302339553833,0.836750328540802,0.17891962826251984,0.1618831604719162,-0.5057255625724792
5.66373872756958,0.1613466739654541,-0.7341026067733765,0.7874801158905029,0.17280219495296478,0.15197013318538666,-0.5069240927696228
5.683812379837036,0.1613466739654541,-0.7341026067733765,0.7874801158905029,0.17280219495296478,0.15197013318538666,-0.5069240927696228
5.703941583633423,0.15606491267681122,-0.6995337605476379,0.8184419274330139,0.1792297214269638,0.14567331969738007,-0.510143518447876
5.723981618881226,0.15606491267681122,-0.6995337605476379,0.8184419274330139,0.1792297214269638,0.14567331969738007,-0.510143518447876
5.744165897369385,0.15108537673950195,-0.6947373747825623,0.8187857270240784,0.18224869668483734,0.15168637037277222,-0.5094799995422363
5.764177322387695,0.14858493208885193,-0.6572811007499695,0.8428186774253845,0.18516044318675995,0.15536673367023468,-0.508691132068634
5.784259796142578,0.14858493208885193,-0.6572811007499695,0.8428186774253845,0.18516044318675995,0.15536673367023468,-0.508691132068634
5.804316759109497,0.14838936924934387,-0.6820340752601624,0.818510115146637,0.18098346889019012,0.15958280861377716,-0.5082557201385498
5.824396371841431,0.14838936924934387,-0.6820340752601624,0.818510115146637,0.18098346889019012,0.15958280861377716,-0.5082557201385498
5.844475269317627,0.15243977308273315,-0.7500730752944946,0.7739328145980835,0.17625446617603302,0.14893658459186554,-0.5071724653244019
5.864520072937012,0.15243977308273315,-0.7500730752944946,0.7739328145980835,0.17625446617603302,0.14893658459186554,-0.5071724653244019
5.884626865386963,0.15449586510658264,-0.6768617630004883,0.8333387970924377,0.18229298293590546,0.16046105325222015,-0.5115815997123718
5.90472149848938,0.15107807517051697,-0.70221346616745,0.8114027976989746,0.18251477181911469,0.1550644338130951,-0.5097966194152832
5.924803972244263,0.15107807517051697,-0.70221346616745,0.8114027976989746,0.18251477181911469,0.1550644338130951,-0.5097966194152832
5.944876670837402,0.15415066480636597,-0.6624190211296082,0.8406578302383423,0.18457885086536407,0.16047868132591248,-0.5095734596252441
5.964937925338745,0.15415066480636597,-0.6624190211296082,0.8406578302383423,0.18457885086536407,0.16047868132591248,-0.5095734596252441
5.985028982162476,0.15442579984664917,-0.678432285785675,0.8207932114601135,0.1810399442911148,0.15954004228115082,-0.5097268223762512
6.005078077316284,0.14989560842514038,-0.7591705918312073,0.7647347450256348,0.17690949141979218,0.1443716287612915,-0.5080630779266357
6.025167226791382,0.14989560842514038,-0.7591705918312073,0.7647347450256348,0.17690949141979218,0.1443716287612915,-0.5080630779266357
6.045244455337524,0.14993369579315186,-0.6964116096496582,0.8186074495315552,0.18344660103321075,0.15380994975566864,-0.5132161378860474
6.065338850021362,0.14993369579315186,-0.6964116096496582,0.8186074495315552,0.18344660103321075,0.15380994975566864,-0.5132161378860474
6.085464000701904,0.14838819205760956,-0.6917780041694641,0.8191302418708801,0.18545611202716827,0.1511319875717163,-0.5107665657997131
6.1055006980896,0.14838819205760956,-0.6917780041694641,0.8191302418708801,0.18545611202716827,0.1511319875717163,-0.5107665657997131
6.1255879402160645,0.1511453092098236,-0.657637894153595,0.8446207642555237,0.1862868219614029,0.16227515041828156,-0.5098222494125366
6.14563512802124,0.15177784860134125,-0.6761912703514099,0.8206954598426819,0.18155832588672638,0.16707095503807068,-0.5098721385002136
6.165729999542236,0.15177784860134125,-0.6761912703514099,0.8206954598426819,0.18155832588672638,0.16707095503807068,-0.5098721385002136
6.1858227252960205,0.15225553512573242,-0.7644596099853516,0.7591609358787537,0.17666928470134735,0.1462000161409378,-0.5073850154876709
6.205863952636719,0.15225553512573242,-0.7644596099853516,0.7591609358787537,0.17666928470134735,0.1462000161409378,-0.5073850154876709
6.225935697555542,0.15501347184181213,-0.7171094417572021,0.8075830340385437,0.18218864500522614,0.15722806751728058,-0.5121245980262756
6.246370792388916,0.15104110538959503,-0.6808880567550659,0.8285471796989441,0.18602506816387177,0.15087495744228363,-0.5115872025489807
6.266443967819214,0.15104110538959503,-0.6808880567550659,0.8285471796989441,0.18602506816387177,0.15087495744228363,-0.5115872025489807
6.286509037017822,0.1524675190448761,-0.6448628902435303,0.8483255505561829,0.18754912912845612,0.16512618958950043,-0.5099678039550781
6.306588172912598,0.1524675190448761,-0.6448628902435303,0.8483255505561829,0.18754912912845612,0.16512618958950043,-0.5099678039550781
6.326720714569092,0.1562616378068924,-0.6811907887458801,0.8175089955329895,0.18155021965503693,0.16310040652751923,-0.5079185962677002
6.34676718711853,0.1562616378068924,-0.6811907887458801,0.8175089955329895,0.18155021965503693,0.16310040652751923,-0.5079185962677002
6.36682915687561,0.14994415640830994,-0.7749648690223694,0.7509060502052307,0.17620857059955597,0.14086155593395233,-0.5070124268531799
6.386926889419556,0.14807552099227905,-0.7451384663581848,0.7890644669532776,0.18217821419239044,0.14702175557613373,-0.5123202800750732
6.406972885131836,0.14807552099227905,-0.7451384663581848,0.7890644669532776,0.18217821419239044,0.14702175557613373,-0.5123202800750732
6.427105665206909,0.14908109605312347,-0.6576038599014282,0.8494294285774231,0.18770398199558258,0.15174879133701324,-0.5123482346534729
6.447139263153076,0.14908109605312347,-0.6576038599014282,0.8494294285774231,0.18770398199558258,0.15174879133701324,-0.5123482346534729
6.467207193374634,0.1454501748085022,-0.6767841577529907,0.8254965543746948,0.187062606215477,0.1640293449163437,-0.5090554356575012
6.4872753620147705,0.1454501748085022,-0.6767841577529907,0.8254965543746948,0.187062606215477,0.1640293449163437,-0.5090554356575012
6.507341623306274,0.16257068514823914,-0.6545663475990295,0.8407177329063416,0.18092818558216095,0.17340520024299622,-0.5094745755195618
6.52738618850708,0.15070366859436035,-0.7995733618736267,0.7303837537765503,0.17355851829051971,0.1416296362876892,-0.5065392255783081
6.547466516494751,0.15070366859436035,-0.7995733618736267,0.7303837537765503,0.17355851829051971,0.1416296362876892,-0.5065392255783081
6.567548751831055,0.14868149161338806,-0.8104274868965149,0.7392956614494324,0.17789490520954132,0.13720406591892242,-0.5119161009788513
6.5876123905181885,0.14868149161338806,-0.8104274868965149,0.7392956614494324,0.17789490520954132,0.13720406591892242,-0.5119161009788513
6.607736110687256,0.14824528992176056,-0.7647772431373596,0.7805871963500977,0.18412436544895172,0.14565008878707886,-0.5136880874633789
6.627810478210449,0.1469733715057373,-0.6708633303642273,0.8431153893470764,0.18955551087856293,0.15626347064971924,-0.5134393572807312
6.647914171218872,0.1469733715057373,-0.6708633303642273,0.8431153893470764,0.18955551087856293,0.15626347064971924,-0.5134393572807312
6.667970657348633,0.1559232622385025,-0.6704782843589783,0.834022045135498,0.18762709200382233,0.16961263120174408,-0.5076701045036316
6.688068389892578,0.1559232622385025,-0.6704782843589783,0.834022045135498,0.18762709200382233,0.16961263120174408,-0.5076701045036316
6.708139181137085,0.16041778028011322,-0.7262842059135437,0.7973930835723877,0.1805274337530136,0.1553942710161209,-0.5079387426376343
6.728208780288696,0.16041778028011322,-0.7262842059135437,0.7973930835723877,0.1805274337530136,0.1553942710161209,-0.5079387426376343
6.7482750415802,0.15773344039916992,-0.7363412976264954,0.7963923811912537,0.18052007257938385,0.14816147089004517,-0.5112557411193848
6.768311977386475,0.15358468890190125,-0.6839603781700134,0.8332784175872803,0.18660230934619904,0.15810789167881012,-0.5108829140663147
6.788400888442993,0.15358468890190125,-0.6839603781700134,0.8332784175872803,0.18660230934619904,0.15810789167881012,-0.5108829140663147
6.808468341827393,0.14985418319702148,-0.684968888759613,0.8278211355209351,0.18663416802883148,0.15615493059158325,-0.5086221098899841
6.828554153442383,0.14985418319702148,-0.684968888759613,0.8278211355209351,0.18663416802883148,0.15615493059158325,-0.5086221098899841
6.848626136779785,0.15679137408733368,-0.6682233214378357,0.8349719047546387,0.184782937169075,0.167962908744812,-0.5061559081077576
6.868696451187134,0.15679137408733368,-0.6682233214378357,0.8349719047546387,0.184782937169075,0.167962908744812,-0.5061559081077576
6.888765811920166,0.15533378720283508,-0.7362329363822937,0.7848491072654724,0.17805464565753937,0.14938530325889587,-0.5061578750610352
6.908805847167969,0.1562189757823944,-0.7035139203071594,0.819187581539154,0.18130551278591156,0.15294179320335388,-0.5096431374549866
6.928884983062744,0.1562189757823944,-0.7035139203071594,0.819187581539154,0.18130551278591156,0.15294179320335388,-0.5096431374549866
6.948953151702881,0.14986762404441833,-0.7122329473495483,0.8091340661048889,0.18317683041095734,0.15180926024913788,-0.5077380537986755
6.969023942947388,0.14986762404441833,-0.7122329473495483,0.8091340661048889,0.18317683041095734,0.15180926024913788,-0.5077380537986755
6.98909592628479,0.15306152403354645,-0.6630465984344482,0.8421884775161743,0.18466134369373322,0.16232521831989288,-0.508060872554779
7.009143590927124,0.15306152403354645,-0.6630465984344482,0.8421884775161743,0.18466134369373322,0.16232521831989288,-0.508060872554779
7.029230117797852,0.1585506796836853,-0.6702718138694763,0.830406129360199,0.18107183277606964,0.16653113067150116,-0.5043689608573914
7.049287796020508,0.158146470785141,-0.7454953789710999,0.7797080874443054,0.17508850991725922,0.1467725932598114,-0.5051369071006775
7.069371223449707,0.158146470785141,-0.7454953789710999,0.7797080874443054,0.17508850991725922,0.1467725932598114,-0.5051369071006775
7.0895795822143555,0.1554647982120514,-0.6975767612457275,0.8230828046798706,0.18020816147327423,0.1517610251903534,-0.509978175163269
7.109569549560547,0.1554647982120514,-0.6975767612457275,0.8230828046798706,0.18020816147327423,0.1517610251903534,-0.509978175163269
7.129631280899048,0.14656969904899597,-0.6949635148048401,0.822968065738678,0.18280400335788727,0.14721597731113434,-0.5091784000396729
7.149702310562134,0.15027675032615662,-0.6593478322029114,0.8451548218727112,0.18441976606845856,0.16314689815044403,-0.5084691047668457
7.16978120803833,0.15027675032615662,-0.6593478322029114,0.8451548218727112,0.18441976606845856,0.16314689815044403,-0.5084691047668457
7.189836502075195,0.15334853529930115,-0.6722418665885925,0.8271825313568115,0.17941541969776154,0.16523919999599457,-0.5080400705337524
7.210010766983032,0.15334853529930115,-0.6722418665885925,0.8271825313568115,0.17941541969776154,0.16523919999599457,-0.5080400705337524
7.2300286293029785,0.15321333706378937,-0.7673232555389404,0.761089026927948,0.17394842207431793,0.14233170449733734,-0.5063017010688782
7.250157117843628,0.15321333706378937,-0.7673232555389404,0.761089026927948,0.17394842207431793,0.14233170449733734,-0.5063017010688782
7.270211696624756,0.15230399370193481,-0.7256343364715576,0.804582417011261,0.1803581267595291,0.1498328149318695,-0.5118420720100403
7.290226459503174,0.1476690173149109,-0.6848358511924744,0.8322176337242126,0.184926375746727,0.1476237177848816,-0.5113202929496765
7.31033730506897,0.1476690173149109,-0.6848358511924744,0.8322176337242126,0.184926375746727,0.1476237177848816,-0.5113202929496765
7.3304197788238525,0.15508076548576355,-0.639812171459198,0.8574565649032593,0.18593384325504303,0.16930492222309113,-0.5088499784469604
7.350577116012573,0.15508076548576355,-0.639812171459198,0.8574565649032593,0.18593384325504303,0.16930492222309113,-0.5088499784469604
7.370598077774048,0.16158878803253174,-0.658142626285553,0.8356493711471558,0.1803908497095108,0.16804133355617523,-0.5066516995429993
7.390988111495972,0.16158878803253174,-0.658142626285553,0.8356493711471558,0.1803908497095108,0.16804133355617523,-0.5066516995429993
7.411066293716431,0.1545141339302063,-0.7963008284568787,0.7354671359062195,0.17150454223155975,0.14102162420749664,-0.5048574805259705
7.431135654449463,0.1509145349264145,-0.7984753251075745,0.7517090439796448,0.1769050508737564,0.13760493695735931,-0.5109866857528687
7.451282739639282,0.1509145349264145,-0.7984753251075745,0.7517090439796448,0.1769050508737564,0.13760493695735931,-0.5109866857528687
7.4713170528411865,0.14589662849903107,-0.7589952349662781,0.7886671423912048,0.18314267694950104,0.13938890397548676,-0.5133116245269775
7.491395711898804,0.14589662849903107,-0.7589952349662781,0.7886671423912048,0.18314267694950104,0.13938890397548676,-0.5133116245269775
7.511494874954224,0.15111328661441803,-0.617078959941864,0.878255307674408,0.1887943297624588,0.16669677197933197,-0.5133975744247437
7.531583070755005,0.15401041507720947,-0.6470972299575806,0.8422879576683044,0.18646441400051117,0.16733017563819885,-0.5065383315086365
7.55172061920166,0.15401041507720947,-0.6470972299575806,0.8422879576683044,0.18646441400051117,0.16733017563819885,-0.5065383315086365
7.5717644691467285,0.15948300063610077,-0.7074387073516846,0.8005255460739136,0.1781570166349411,0.1532665491104126,-0.5082026720046997
7.591926097869873,0.15948300063610077,-0.7074387073516846,0.8005255460739136,0.1781570166349411,0.1532665491104126,-0.5082026720046997
7.612008571624756,0.15321722626686096,-0.8000518083572388,0.7483415007591248,0.1736210137605667,0.14380371570587158,-0.5097395181655884
7.6320531368255615,0.15321722626686096,-0.8000518083572388,0.7483415007591248,0.1736210137605667,0.14380371570587158,-0.5097395181655884
7.652134656906128,0.14703088998794556,-0.7845162749290466,0.7674670815467834,0.18162564933300018,0.1450950652360916,-0.511652946472168
7.67218279838562,0.14436084032058716,-0.685102641582489,0.8357082605361938,0.19073428213596344,0.1607949435710907,-0.5118362307548523
7.692323446273804,0.14436084032058716,-0.685102641582489,0.8357082605361938,0.19073428213596344,0.1607949435710907,-0.5118362307548523
7.71235466003418,0.1565813422203064,-0.6134863495826721,0.8672465682029724,0.18995614349842072,0.17779481410980225,-0.508444607257843
7.732452392578125,0.1565813422203064,-0.6134863495826721,0.8672465682029724,0.18995614349842072,0.17779481410980225,-0.508444607257843
7.752574920654297,0.1635328233242035,-0.6470817923545837,0.8348440527915955,0.1818542629480362,0.16863103210926056,-0.5063710808753967
7.772636651992798,0.1635328233242035,-0.6470817923545837,0.8348440527915955,0.1818542629480362,0.16863103210926056,-0.5063710808753967
7.792760610580444,0.15982234477996826,-0.8167179226875305,0.7185196876525879,0.16908235847949982,0.14450283348560333,-0.5035551190376282
7.812772035598755,0.1539548635482788,-0.8431766629219055,0.7183524966239929,0.17335914075374603,0.13097065687179565,-0.5072657465934753
7.832891941070557,0.1539548635482788,-0.8431766629219055,0.7183524966239929,0.17335914075374603,0.13097065687179565,-0.5072657465934753
7.852992057800293,0.15325438976287842,-0.8137770295143127,0.7527800798416138,0.17824335396289825,0.13787026703357697,-0.5112255811691284
7.873028993606567,0.15325438976287842,-0.8137770295143127,0.7527800798416138,0.17824335396289825,0.13787026703357697,-0.5112255811691284
7.893110990524292,0.1466626524925232,-0.7293329238891602,0.8139645457267761,0.18488569557666779,0.14831216633319855,-0.511916995048523
7.913143873214722,0.15821774303913116,-0.6546149849891663,0.8540289402008057,0.18500806391239166,0.1634957194328308,-0.5089661478996277
7.933231353759766,0.15821774303913116,-0.6546149849891663,0.8540289402008057,0.18500806391239166,0.1634957194328308,-0.5089661478996277
7.95331883430481,0.1574760526418686,-0.7056800723075867,0.80948805809021,0.1795443743467331,0.16383230686187744,-0.5061690211296082
7.973422288894653,0.1574760526418686,-0.7056800723075867,0.80948805809021,0.1795443743467331,0.16383230686187744,-0.5061690211296082
7.9934844970703125,0.16379956901073456,-0.7653193473815918,0.7767671346664429,0.17400814592838287,0.15432094037532806,-0.5066311359405518
8.013545036315918,0.16379956901073456,-0.7653193473815918,0.7767671346664429,0.17400814592838287,0.15432094037532806,-0.5066311359405518
8.033607959747314,0.1558270901441574,-0.7354071736335754,0.8057432770729065,0.17919005453586578,0.15078842639923096,-0.5107836127281189
8.053703308105469,0.1564045250415802,-0.6623935103416443,0.8516183495521545,0.1851360946893692,0.15473328530788422,-0.5101686716079712
8.073740005493164,0.1564045250415802,-0.6623935103416443,0.8516183495521545,0.1851360946893692,0.15473328530788422,-0.5101686716079712
8.093820810317993,0.15370944142341614,-0.6693500876426697,0.8396857380867004,0.18482615053653717,0.16432365775108337,-0.5068487524986267
8.113876819610596,0.15370944142341614,-0.6693500876426697,0.8396857380867004,0.18482615053653717,0.16432365775108337,-0.5068487524986267
8.133960247039795,0.1613062173128128,-0.6824696660041809,0.8278395533561707,0.17805244028568268,0.15946149826049805,-0.5086232423782349
8.15454626083374,0.14851117134094238,-0.7878567576408386,0.7485483288764954,0.1743757277727127,0.13836808502674103,-0.5078701376914978
8.174768924713135,0.14851117134094238,-0.7878567576408386,0.7485483288764954,0.1743757277727127,0.13836808502674103,-0.5078701376914978
8.194952249526978,0.14400318264961243,-0.7773863673210144,0.7707406878471375,0.18123026192188263,0.14246651530265808,-0.5110732913017273
8.21489429473877,0.14400318264961243,-0.7773863673210144,0.7707406878471375,0.18123026192188263,0.14246651530265808,-0.5110732913017273
8.235004663467407,0.14350488781929016,-0.6866618394851685,0.8370395302772522,0.18836714327335358,0.14982779324054718,-0.5122318863868713
8.25503659248352,0.14350488781929016,-0.6866618394851685,0.8370395302772522,0.18836714327335358,0.14982779324054718,-0.5122318863868713
8.275114297866821,0.14619146287441254,-0.6571580767631531,0.8517442941665649,0.1874864250421524,0.16748477518558502,-0.5100643038749695
8.295159578323364,0.1571088582277298,-0.6786050796508789,0.8261439204216003,0.18072910606861115,0.17351238429546356,-0.5071947574615479
8.315274477005005,0.1571088582277298,-0.6786050796508789,0.8261439204216003,0.18072910606861115,0.17351238429546356,-0.5071947574615479
8.335327625274658,0.15315353870391846,-0.7869520783424377,0.7467389106750488,0.17372508347034454,0.14436422288417816,-0.5057265162467957
8.355462789535522,0.15315353870391846,-0.7869520783424377,0.7467389106750488,0.17372508347034454,0.14436422288417816,-0.5057265162467957
8.375584840774536,0.1475449651479721,-0.764804482460022,0.7819438576698303,0.18015934526920319,0.1419551521539688,-0.5123277902603149
8.395605325698853,0.1475449651479721,-0.764804482460022,0.7819438576698303,0.18015934526920319,0.1419551521539688,-0.5123277902603149
8.415676593780518,0.14900168776512146,-0.6943280100822449,0.8356590867042542,0.18584676086902618,0.14780841767787933,-0.5131809115409851
8.43572473526001,0.14467690885066986,-0.6701592803001404,0.8408371806144714,0.1882406324148178,0.16510364413261414,-0.5098019242286682
8.45583462715149,0.14467690885066986,-0.6701592803001404,0.8408371806144714,0.1882406324148178,0.16510364413261414,-0.5098019242286682
8.475902795791626,0.16083621978759766,-0.6603972911834717,0.8419228196144104,0.18272341787815094,0.17401234805583954,-0.5062901973724365
8.496008157730103,0.16083621978759766,-0.6603972911834717,0.8419228196144104,0.18272341787815094,0.17401234805583954,-0.5062901973724365
8.516136884689331,0.15348079800605774,-0.7928754687309265,0.7415067553520203,0.1732826977968216,0.1411115974187851,-0.505082368850708
8.536164999008179,0.15348079800605774,-0.7928754687309265,0.7415067553520203,0.1732826977968216,0.1411115974187851,-0.505082368850708
8.556228876113892,0.1514047086238861,-0.7903289198875427,0.7635536789894104,0.1783224493265152,0.13723324239253998,-0.5109290480613708
8.576284646987915,0.14524725079536438,-0.749600350856781,0.8010208010673523,0.1838536113500595,0.13941387832164764,-0.5134878158569336
8.596355438232422,0.14524725079536438,-0.749600350856781,0.8010208010673523,0.1838536113500595,0.13941387832164764,-0.5134878158569336
8.616492748260498,0.14747945964336395,-0.6256223320960999,0.8766736388206482,0.1896970421075821,0.1648760288953781,-0.5130493640899658
8.636529207229614,0.14747945964336395,-0.6256223320960999,0.8766736388206482,0.1896970421075821,0.1648760288953781,-0.5130493640899658
8.656625270843506,0.14940035343170166,-0.6636403203010559,0.8362459540367126,0.18692289292812347,0.16509728133678436,-0.5055807828903198
8.676786184310913,0.15591730177402496,-0.7162719368934631,0.8005005717277527,0.17851893603801727,0.1518285870552063,-0.509348452091217
8.696898937225342,0.15591730177402496,-0.7162719368934631,0.8005005717277527,0.17851893603801727,0.1518285870552063,-0.509348452091217
8.71693730354309,0.14941373467445374,-0.7693895697593689,0.7714565396308899,0.17741818726062775,0.14281654357910156,-0.5113286972045898
8.737024784088135,0.14941373467445374,-0.7693895697593689,0.7714565396308899,0.17741818726062775,0.14281654357910156,-0.5113286972045898
8.757166385650635,0.14375954866409302,-0.7351139187812805,0.8017290234565735,0.18495149910449982,0.1426072120666504,-0.5140256881713867
8.777239322662354,0.14375954866409302,-0.7351139187812805,0.8017290234565735,0.18495149910449982,0.1426072120666504,-0.5140256881713867
8.797329425811768,0.14338693022727966,-0.6069002151489258,0.8783408999443054,0.19241316616535187,0.16790257394313812,-0.5148698687553406
8.817363262176514,0.15577077865600586,-0.6002867817878723,0.8635342121124268,0.18980486690998077,0.17151176929473877,-0.5080187320709229
8.837501287460327,0.15577077865600586,-0.6002867817878723,0.8635342121124268,0.18980486690998077,0.17151176929473877,-0.5080187320709229
8.857555389404297,0.16572993993759155,-0.6149418950080872,0.854956865310669,0.1819152683019638,0.16551534831523895,-0.5101944804191589
8.877794742584229,0.16572993993759155,-0.6149418950080872,0.854956865310669,0.1819152683019638,0.16551534831523895,-0.5101944804191589
8.897769451141357,0.15075048804283142,-0.7845070958137512,0.74325031042099,0.17251302301883698,0.1457701176404953,-0.5100851058959961
8.917819738388062,0.15075048804283142,-0.7845070958137512,0.74325031042099,0.17251302301883698,0.1457701176404953,-0.5100851058959961
8.937885761260986,0.14264629781246185,-0.7615540027618408,0.7721827626228333,0.18303419649600983,0.14373429119586945,-0.5164601802825928
8.95792841911316,0.13999095559120178,-0.6637459397315979,0.8339198231697083,0.1944599598646164,0.15155567228794098,-0.5191860198974609
8.978046655654907,0.13999095559120178,-0.6637459397315979,0.8339198231697083,0.1944599598646164,0.15155567228794098,-0.5191860198974609
8.998108863830566,0.14667370915412903,-0.6234369277954102,0.8443308472633362,0.1962728053331375,0.17456364631652832,-0.5155702829360962
9.018178224563599,0.14667370915412903,-0.6234369277954102,0.8443308472633362,0.1962728053331375,0.17456364631652832,-0.5155702829360962
9.038256883621216,0.16528290510177612,-0.6177292466163635,0.8441896438598633,0.18825490772724152,0.17520153522491455,-0.5155670046806335
9.058322429656982,0.16528290510177612,-0.6177292466163635,0.8441896438598633,0.18825490772724152,0.17520153522491455,-0.5155670046806335
9.078389883041382,0.1557154357433319,-0.8052404522895813,0.7082797288894653,0.17831699550151825,0.14451949298381805,-0.5106447339057922
9.098556995391846,0.1545461267232895,-0.8322195410728455,0.7100175023078918,0.18288813531398773,0.133881613612175,-0.5168643593788147
9.118619203567505,0.1545461267232895,-0.8322195410728455,0.7100175023078918,0.18288813531398773,0.133881613612175,-0.5168643593788147
9.13869023323059,0.15482097864151,-0.804341733455658,0.7434313297271729,0.18795444071292877,0.14102287590503693,-0.5205612778663635
9.158758640289307,0.15482097864151,-0.804341733455658,0.7434313297271729,0.18795444071292877,0.14102287590503693,-0.5205612778663635
9.178832292556763,0.15296529233455658,-0.7110686898231506,0.8126708269119263,0.19635172188282013,0.1563282012939453,-0.5198444128036499
9.198967695236206,0.15975497663021088,-0.657733142375946,0.8357163071632385,0.19790096580982208,0.16672155261039734,-0.5161446332931519
9.219060182571411,0.15975497663021088,-0.657733142375946,0.8357163071632385,0.19790096580982208,0.16672155261039734,-0.5161446332931519
9.239109516143799,0.15724176168441772,-0.7041582465171814,0.7976415753364563,0.19190789759159088,0.15790991485118866,-0.5151028633117676
9.25918984413147,0.15724176168441772,-0.7041582465171814,0.7976415753364563,0.19190789759159088,0.15790991485118866,-0.5151028633117676
9.279338359832764,0.15874238312244415,-0.7398865222930908,0.77910977602005,0.1883392482995987,0.1505620926618576,-0.5164732336997986
9.299362659454346,0.15874238312244415,-0.7398865222930908,0.77910977602005,0.1883392482995987,0.1505620926618576,-0.5164732336997986
9.319437026977539,0.15258722007274628,-0.6872833967208862,0.8238503336906433,0.19548000395298004,0.1585649996995926,-0.5154727101325989
9.33948564529419,0.15034478902816772,-0.6869468092918396,0.8179906606674194,0.19400610029697418,0.1596822738647461,-0.5147964954376221
9.359567403793335,0.15034478902816772,-0.6869468092918396,0.8179906606674194,0.19400610029697418,0.1596822738647461,-0.5147964954376221
9.379722595214844,0.15578588843345642,-0.6457242369651794,0.8442428708076477,0.19397760927677155,0.16775403916835785,-0.511454164981842
9.399746894836426,0.15578588843345642,-0.6457242369651794,0.8442428708076477,0.19397760927677155,0.16775403916835785,-0.511454164981842
9.419817447662354,0.15628032386302948,-0.7195842862129211,0.7847365736961365,0.18511085212230682,0.1557343751192093,-0.5101627111434937
9.440020084381104,0.15628032386302948,-0.7195842862129211,0.7847365736961365,0.18511085212230682,0.1557343751192093,-0.5101627111434937
9.460105895996094,0.15941855311393738,-0.7196483612060547,0.7993736863136292,0.18342067301273346,0.15422683954238892,-0.5131038427352905
