liuyurong129/humanoid-gym/humanoid/data/target_q_20250523-024903.csv
timestamp,joint_1,joint_2,joint_3,joint_4,joint_5,joint_6
9.036064147949219e-05,0.0,0.0,0.0,0.0,0.0,0.0
0.020139694213867188,0.0,0.0,0.0,0.0,0.0,0.0
0.04022669792175293,0.0,0.0,0.0,0.0,0.0,0.0
0.06027984619140625,0.31399160623550415,-0.674255907535553,1.111527442932129,-0.9228513836860657,-0.1663232445716858,-0.1577531099319458
0.080352783203125,0.11600711196660995,-0.3439459800720215,0.6014304757118225,-0.60557621717453,-0.09268475323915482,0.1965855211019516
0.10051298141479492,0.16583409905433655,-0.4045928716659546,0.7270804643630981,-0.7246289849281311,-0.09526358544826508,0.16209380328655243
0.12053179740905762,0.1885845959186554,-0.4118320345878601,0.7467703819274902,-0.7624966502189636,-0.09506171941757202,0.13690732419490814
0.1407921314239502,0.20934993028640747,-0.3968016505241394,0.7525288462638855,-0.7750915884971619,-0.09831935912370682,0.12084324657917023
0.16088342666625977,0.21111148595809937,-0.44035792350769043,0.7161110639572144,-0.8027092814445496,-0.07095806300640106,0.10362803936004639
0.18101906776428223,0.19614112377166748,-0.4492940306663513,0.7132596969604492,-0.7976033091545105,-0.07164428383111954,0.11043553054332733
0.2011575698852539,0.1986333727836609,-0.43627798557281494,0.725893497467041,-0.7925668358802795,-0.08091694861650467,0.11102131754159927
0.2214193344116211,0.20360490679740906,-0.4226343631744385,0.7334335446357727,-0.7923509478569031,-0.08763094991445541,0.11218423396348953
0.2415003776550293,0.20952825248241425,-0.4276798367500305,0.7250335216522217,-0.7964929938316345,-0.07648488879203796,0.10976804047822952
0.2616136074066162,0.19673112034797668,-0.4469088315963745,0.7182939052581787,-0.7993708252906799,-0.07339055091142654,0.11494283378124237
0.28168177604675293,0.19517382979393005,-0.44649648666381836,0.7309278249740601,-0.7990301251411438,-0.08149474114179611,0.11691255867481232
0.301713228225708,0.20683550834655762,-0.4257625341415405,0.7437458634376526,-0.7962355017662048,-0.08895976841449738,0.11381038278341293
0.3217945098876953,0.20610493421554565,-0.4356778860092163,0.7289482355117798,-0.7999193072319031,-0.0789748877286911,0.11285802721977234
0.3418915271759033,0.20379802584648132,-0.43987828493118286,0.7346467971801758,-0.7996111512184143,-0.08250587433576584,0.1139662116765976
0.36199021339416504,0.20382633805274963,-0.4383115768432617,0.7382527589797974,-0.800080418586731,-0.08448967337608337,0.11535374820232391
0.3820173740386963,0.2071874737739563,-0.43556511402130127,0.7407517433166504,-0.8001841902732849,-0.0832412987947464,0.11352309584617615
0.4020986557006836,0.2018330991268158,-0.44434452056884766,0.7287940979003906,-0.8021676540374756,-0.07907023280858994,0.11456628143787384
0.4221785068511963,0.21150043606758118,-0.4253377914428711,0.7512040138244629,-0.800514280796051,-0.09354647248983383,0.11342986673116684
0.4422290325164795,0.21675284206867218,-0.4184330701828003,0.7448683977127075,-0.8007320761680603,-0.08844298869371414,0.11064164340496063
0.4622769355773926,0.2137944996356964,-0.4284471273422241,0.7345784306526184,-0.802986204624176,-0.08240167051553726,0.1110628992319107
0.4823768138885498,0.18966639041900635,-0.46969395875930786,0.7322659492492676,-0.8049972653388977,-0.07451242953538895,0.11847252398729324
0.5024459362030029,0.18640193343162537,-0.4673265814781189,0.7337733507156372,-0.8045898079872131,-0.07817353308200836,0.11923325061798096
0.5225622653961182,0.18665458261966705,-0.46876221895217896,0.7332993745803833,-0.806172251701355,-0.07768809050321579,0.11991585046052933
0.542600154876709,0.18888871371746063,-0.4756566286087036,0.7365125417709351,-0.8076962232589722,-0.07688947767019272,0.12091284245252609
0.5626950263977051,0.21288901567459106,-0.43197882175445557,0.745262622833252,-0.807353675365448,-0.08832042664289474,0.11310712993144989
0.5827999114990234,0.21543005108833313,-0.43211156129837036,0.7482011318206787,-0.8077670931816101,-0.08737962692975998,0.11205452680587769
0.6028063297271729,0.21280452609062195,-0.4368257522583008,0.7434934377670288,-0.8081740140914917,-0.08497021347284317,0.11201169341802597
0.6228592395782471,0.20475077629089355,-0.4484708309173584,0.7346483469009399,-0.8091092705726624,-0.0805470198392868,0.11345019936561584
0.643028736114502,0.20629100501537323,-0.43974125385284424,0.7434391975402832,-0.8082149624824524,-0.08928590267896652,0.11324676871299744
0.6631193161010742,0.18189465999603271,-0.4930145740509033,0.7328524589538574,-0.8118191361427307,-0.07201109081506729,0.12124618887901306
0.6832389831542969,0.17709162831306458,-0.4969727396965027,0.7340356111526489,-0.8123335242271423,-0.07439453899860382,0.12370311468839645
0.7032980918884277,0.1743476688861847,-0.5048133134841919,0.7349013090133667,-0.8136993050575256,-0.0730842798948288,0.12497151643037796
0.7234814167022705,0.17296549677848816,-0.5096035599708557,0.7367669343948364,-0.8135825991630554,-0.07298047840595245,0.125851109623909
0.7436013221740723,0.21551960706710815,-0.44182485342025757,0.7501031160354614,-0.8146142363548279,-0.08774690330028534,0.11272558569908142
0.7637739181518555,0.20950603485107422,-0.4587550163269043,0.742911696434021,-0.8176180720329285,-0.07955564558506012,0.11459289491176605
0.7837202548980713,0.20035088062286377,-0.47184431552886963,0.7393127679824829,-0.8195552229881287,-0.07810948044061661,0.1173882707953453
0.8038620948791504,0.20526686310768127,-0.4612593650817871,0.7532479763031006,-0.8172522783279419,-0.08855101466178894,0.11661006510257721
0.8239498138427734,0.1755506992340088,-0.5114552974700928,0.7362464070320129,-0.8194332718849182,-0.07231251150369644,0.12596194446086884
0.8440210819244385,0.17025215923786163,-0.525927722454071,0.7328706979751587,-0.821273148059845,-0.06820639222860336,0.1276479959487915
0.8640978336334229,0.16536210477352142,-0.534928560256958,0.7342811226844788,-0.8221718668937683,-0.06735242903232574,0.12960737943649292
0.8841660022735596,0.21775539219379425,-0.4364181160926819,0.7644766569137573,-0.819309651851654,-0.09919050335884094,0.11574289202690125
0.9042563438415527,0.21299894154071808,-0.45131808519363403,0.7535499334335327,-0.8229761719703674,-0.08977948874235153,0.1173134595155716
0.9243264198303223,0.20387490093708038,-0.4733768105506897,0.7478888034820557,-0.8261790871620178,-0.08197866380214691,0.11888499557971954
0.9443907737731934,0.19386839866638184,-0.49627554416656494,0.7472207546234131,-0.8275840878486633,-0.08006066828966141,0.12339389324188232
0.964461088180542,0.18199566006660461,-0.49262845516204834,0.7566958069801331,-0.8217954039573669,-0.0891236811876297,0.1276356279850006
0.9845457077026367,0.18812337517738342,-0.49445128440856934,0.7572028636932373,-0.8235883116722107,-0.08646127581596375,0.12702222168445587
1.0046253204345703,0.1887432336807251,-0.4978795647621155,0.7540102005004883,-0.826387345790863,-0.08301017433404922,0.12655603885650635
1.0246787071228027,0.18488381803035736,-0.5070435404777527,0.752400815486908,-0.8279192447662354,-0.082010917365551,0.1272924244403839
1.0447592735290527,0.182794451713562,-0.5148223042488098,0.7516516447067261,-0.8299247622489929,-0.07794950157403946,0.12750913202762604
1.0648231506347656,0.177118182182312,-0.5288769602775574,0.7488961219787598,-0.8315829634666443,-0.07598575204610825,0.13047324120998383
1.0849156379699707,0.1776587814092636,-0.5331087708473206,0.7515524625778198,-0.8307443261146545,-0.07641901075839996,0.13017015159130096
1.1050033569335938,0.1811012625694275,-0.5020387172698975,0.7466495633125305,-0.8293699622154236,-0.08437295258045197,0.12606598436832428
1.1250941753387451,0.18781518936157227,-0.49105745553970337,0.7645708918571472,-0.8301871418952942,-0.09601971507072449,0.12731949985027313
1.1451492309570312,0.1865214705467224,-0.5100824236869812,0.7538930177688599,-0.8350073099136353,-0.08336693048477173,0.1290675401687622
1.1652207374572754,0.18300586938858032,-0.5216802954673767,0.7567459344863892,-0.8365142941474915,-0.08152642101049423,0.12964153289794922
1.1853291988372803,0.17570137977600098,-0.5337927341461182,0.7594732642173767,-0.8352099061012268,-0.08249364048242569,0.1326797902584076
1.205385446548462,0.18101255595684052,-0.5204926133155823,0.7682948112487793,-0.8349238038063049,-0.09042656421661377,0.1314452588558197
1.2254359722137451,0.1862127184867859,-0.5197855830192566,0.7692257165908813,-0.8371555209159851,-0.08868742734193802,0.1298084408044815
1.2455153465270996,0.1670071929693222,-0.5542398691177368,0.7569833993911743,-0.8392300009727478,-0.0791022777557373,0.13499633967876434
1.2655763626098633,0.1743893027305603,-0.5407939553260803,0.7710039615631104,-0.8388817310333252,-0.08782270550727844,0.13480405509471893
1.285661220550537,0.17624357342720032,-0.536663830280304,0.7692887783050537,-0.8418366312980652,-0.08618459105491638,0.1340327262878418
1.3058850765228271,0.16948352754116058,-0.5574570894241333,0.7558145523071289,-0.8457165956497192,-0.0751858502626419,0.1356368362903595
1.3260602951049805,0.17937034368515015,-0.5318823456764221,0.7751887440681458,-0.8434873819351196,-0.09243549406528473,0.13554073870182037
1.3460845947265625,0.1873812973499298,-0.5185786485671997,0.7809162735939026,-0.8437448143959045,-0.09626137465238571,0.13373591005802155
1.36613130569458,0.18152453005313873,-0.5313399434089661,0.7710952162742615,-0.8473891019821167,-0.09022101759910583,0.13443735241889954
1.3862714767456055,0.17295479774475098,-0.5463474988937378,0.7615252137184143,-0.8487123847007751,-0.08454681932926178,0.13565681874752045
1.4063327312469482,0.16576258838176727,-0.578587532043457,0.7753947377204895,-0.850077211856842,-0.08031176030635834,0.14052891731262207
1.4264380931854248,0.1595515012741089,-0.5858902335166931,0.7680254578590393,-0.8524205088615417,-0.07701779156923294,0.14318355917930603
1.4465765953063965,0.1561388373374939,-0.5914115309715271,0.7673020362854004,-0.8516929745674133,-0.07791366428136826,0.14296428859233856
1.4667448997497559,0.17390458285808563,-0.5577290654182434,0.7709102034568787,-0.8525529503822327,-0.08441679924726486,0.1368655413389206
1.4868643283843994,0.167717844247818,-0.5704308152198792,0.770271897315979,-0.8539136052131653,-0.08266979455947876,0.13802841305732727
1.5070371627807617,0.1610032171010971,-0.5931436419487,0.7642577886581421,-0.8564786314964294,-0.07443693280220032,0.1405460387468338
1.5270359516143799,0.1583062708377838,-0.5985544323921204,0.7763868570327759,-0.8575584292411804,-0.08121106773614883,0.14335033297538757
1.5471477508544922,0.16645967960357666,-0.577898383140564,0.7765387296676636,-0.8568423390388489,-0.08384471386671066,0.14142388105392456
1.5671944618225098,0.167456716299057,-0.5762365460395813,0.7850255966186523,-0.8582462668418884,-0.09051895886659622,0.14374738931655884
1.587294340133667,0.17704862356185913,-0.5500736236572266,0.8046836256980896,-0.8576728105545044,-0.10668652504682541,0.14173029363155365
1.6073577404022217,0.18110299110412598,-0.545434832572937,0.8001141548156738,-0.8593854904174805,-0.10477350652217865,0.1399776190519333
1.6274828910827637,0.13897833228111267,-0.6515905261039734,0.7764966487884521,-0.8635560870170593,-0.07170695066452026,0.1526714414358139
1.6476335525512695,0.13572236895561218,-0.6511000990867615,0.781871497631073,-0.8634354472160339,-0.07694973796606064,0.15460506081581116
1.6676952838897705,0.13793766498565674,-0.644555389881134,0.788474440574646,-0.8636955618858337,-0.08208891749382019,0.1547555774450302
1.6877450942993164,0.14308330416679382,-0.6386107206344604,0.7950984239578247,-0.8647667765617371,-0.08480408787727356,0.15436111390590668
1.7078425884246826,0.1697482466697693,-0.5920728445053101,0.7909539937973022,-0.8677305579185486,-0.08946451544761658,0.14381085336208344
1.7278897762298584,0.17134371399879456,-0.5942521691322327,0.8085684776306152,-0.8686351180076599,-0.09830067306756973,0.14647133648395538
1.7479562759399414,0.1681727170944214,-0.6015183925628662,0.8056809306144714,-0.8725433349609375,-0.09478840976953506,0.15024256706237793
1.7680747509002686,0.16685247421264648,-0.5994560718536377,0.8127526044845581,-0.8734616637229919,-0.10066771507263184,0.15235739946365356
1.788271188735962,0.1437130868434906,-0.6340312361717224,0.8008236289024353,-0.8731120228767395,-0.09231258928775787,0.1585971862077713
1.8083298206329346,0.15137851238250732,-0.6200814843177795,0.8147866725921631,-0.8728157877922058,-0.10181525349617004,0.1587127298116684
1.828387975692749,0.15691837668418884,-0.6226097941398621,0.8174037933349609,-0.8757075667381287,-0.10000622272491455,0.15769146382808685
1.848487377166748,0.15438446402549744,-0.633025586605072,0.8112161159515381,-0.8793983459472656,-0.09350337088108063,0.15837140381336212
1.8686103820800781,0.1528351753950119,-0.6277885437011719,0.8205618858337402,-0.8790232539176941,-0.10244864225387573,0.15883669257164001
1.8887460231781006,0.14712244272232056,-0.6492792367935181,0.804868221282959,-0.8818119168281555,-0.08882078528404236,0.1589280515909195
1.9087631702423096,0.1421254426240921,-0.652631402015686,0.8064624667167664,-0.8812361359596252,-0.09079580008983612,0.15964733064174652
1.928941249847412,0.15062324702739716,-0.6391546130180359,0.8137140274047852,-0.8822335600852966,-0.09651754796504974,0.15782637894153595
1.948937177658081,0.14918725192546844,-0.6329631805419922,0.8176828622817993,-0.8835965394973755,-0.10196815431118011,0.1600099802017212
1.969050407409668,0.15693797171115875,-0.6259101033210754,0.8341082334518433,-0.8836528658866882,-0.11131422966718674,0.15959851443767548
1.9890825748443604,0.15318985283374786,-0.6478621363639832,0.8172718286514282,-0.8880225419998169,-0.09503180533647537,0.15928290784358978
2.0091960430145264,0.13897018134593964,-0.6759815812110901,0.8047993183135986,-0.8902416825294495,-0.08667251467704773,0.16371092200279236
2.0293614864349365,0.15357805788516998,-0.6508277058601379,0.841832160949707,-0.8880128264427185,-0.10641589015722275,0.1634318232536316
2.049452543258667,0.13864761590957642,-0.6907544732093811,0.8091558218002319,-0.8913055062294006,-0.0817728191614151,0.16406016051769257
2.0695223808288574,0.1322946548461914,-0.7041310667991638,0.8173186779022217,-0.8922795653343201,-0.08734532445669174,0.16825099289417267
2.089634418487549,0.1399146020412445,-0.6557669639587402,0.8236768245697021,-0.8920913338661194,-0.10363620519638062,0.16221244633197784
2.109689712524414,0.12895585596561432,-0.676480233669281,0.8188424110412598,-0.8951939940452576,-0.10104742646217346,0.1672918200492859
2.1297500133514404,0.13744719326496124,-0.6717472672462463,0.8414415717124939,-0.8956800699234009,-0.11157821863889694,0.16888929903507233
2.1498241424560547,0.13904204964637756,-0.685183584690094,0.8387633562088013,-0.8986517786979675,-0.103977270424366,0.16907291114330292
2.1699225902557373,0.13263410329818726,-0.7051202058792114,0.8378941416740417,-0.8994681239128113,-0.09884778410196304,0.17224222421646118
2.1899755001068115,0.13446685671806335,-0.7034366130828857,0.8494141101837158,-0.9015050530433655,-0.10613605380058289,0.17311452329158783
2.2100837230682373,0.12859398126602173,-0.7311126589775085,0.8336493968963623,-0.904213011264801,-0.0901327133178711,0.1721883863210678
2.2307980060577393,0.11928469687700272,-0.7512406706809998,0.8313806056976318,-0.9050969481468201,-0.08614777028560638,0.17534096539020538
2.250899314880371,0.1454043984413147,-0.6918763518333435,0.8658190965652466,-0.9057216048240662,-0.11447679996490479,0.1704612374305725
2.2709603309631348,0.13793520629405975,-0.7001505494117737,0.862025797367096,-0.9095091223716736,-0.11377789825201035,0.1719028204679489
2.291080951690674,0.13015928864479065,-0.7261220812797546,0.8574713468551636,-0.9120802879333496,-0.10793246328830719,0.1749546080827713
2.3111343383789062,0.12153718620538712,-0.779083251953125,0.8423999547958374,-0.9147031903266907,-0.08528270572423935,0.17817991971969604
2.331299066543579,0.14504526555538177,-0.6701985001564026,0.8959276676177979,-0.9052509665489197,-0.13895383477210999,0.17658451199531555
2.351285219192505,0.15602906048297882,-0.6495890021324158,0.904944896697998,-0.9073324203491211,-0.1469096541404724,0.17368243634700775
2.371464967727661,0.16157469153404236,-0.6400976777076721,0.9110497236251831,-0.9108536839485168,-0.1517644226551056,0.17183102667331696
2.391498327255249,0.16512256860733032,-0.6415391564369202,0.911887526512146,-0.9145826697349548,-0.15102185308933258,0.17395703494548798
2.4116017818450928,0.09040863066911697,-0.8352165818214417,0.874817967414856,-0.9176861047744751,-0.09623432159423828,0.1947280913591385
2.4317054748535156,0.09182686358690262,-0.8237298130989075,0.8827381134033203,-0.9178683757781982,-0.10370303690433502,0.1958642601966858
2.4517924785614014,0.10188222676515579,-0.8047879338264465,0.8994609117507935,-0.9193056225776672,-0.11527486145496368,0.19634148478507996
2.4718899726867676,0.10539902001619339,-0.7901793718338013,0.9004569053649902,-0.9211351871490479,-0.11913726478815079,0.19689781963825226
2.492103099822998,0.11385095864534378,-0.783852756023407,0.9028119444847107,-0.9222899079322815,-0.11991951614618301,0.19409959018230438
2.512185573577881,0.1283511519432068,-0.7612958550453186,0.8957397937774658,-0.9277251362800598,-0.11958097666501999,0.18756148219108582
2.5322682857513428,0.12031427770853043,-0.7924606800079346,0.8909047842025757,-0.9295294880867004,-0.10963203758001328,0.18982820212841034
2.5523324012756348,0.11051852256059647,-0.7908974885940552,0.9007024765014648,-0.9284711480140686,-0.11885807663202286,0.19277070462703705
2.5723793506622314,0.11324972659349442,-0.7732493281364441,0.9198225736618042,-0.9278972744941711,-0.13563773036003113,0.19336660206317902
2.5924856662750244,0.11059878021478653,-0.8311346769332886,0.8891863822937012,-0.9331233501434326,-0.10023181140422821,0.19319866597652435
2.612591505050659,0.10022095590829849,-0.8586962819099426,0.893140435218811,-0.9337645173072815,-0.09829643368721008,0.19743752479553223
2.6326615810394287,0.09238050132989883,-0.8719132542610168,0.8983783721923828,-0.934592068195343,-0.09954454004764557,0.20140410959720612
2.65295672416687,0.09506014734506607,-0.8291254639625549,0.9371951818466187,-0.9351476430892944,-0.13162526488304138,0.20625218749046326
2.673032283782959,0.12740644812583923,-0.8013572096824646,0.9345165491104126,-0.943545401096344,-0.1296442449092865,0.1972862035036087
2.693129301071167,0.10014764219522476,-0.8707226514816284,0.9085286855697632,-0.9469993114471436,-0.10498020052909851,0.20134305953979492
2.7133679389953613,0.0724945142865181,-0.898057222366333,0.9110379219055176,-0.9481835961341858,-0.10820792615413666,0.20990414917469025
2.7334554195404053,0.14044782519340515,-0.7677393555641174,0.9767472147941589,-0.9460181593894958,-0.15755122900009155,0.200214222073555
2.7535696029663086,0.12765023112297058,-0.7937641739845276,0.9589557647705078,-0.9522028565406799,-0.14516586065292358,0.2014426440000534
2.773632526397705,0.11770374327898026,-0.8134037256240845,0.9617014527320862,-0.953409731388092,-0.14405661821365356,0.2056104987859726
2.7936973571777344,0.09198740869760513,-0.8654066920280457,0.9783971905708313,-0.9508772492408752,-0.14391033351421356,0.21566985547542572
2.8137640953063965,0.10017166286706924,-0.8492583632469177,0.9955209493637085,-0.9554690718650818,-0.156308114528656,0.21768485009670258
2.8338515758514404,0.10874179750680923,-0.8601794242858887,1.0030972957611084,-0.9600087404251099,-0.15554475784301758,0.21709729731082916
2.8538870811462402,0.09790150076150894,-0.8797270655632019,0.9925171136856079,-0.9617993831634521,-0.14650872349739075,0.21555446088314056
2.874018430709839,0.10668949037790298,-0.8519435524940491,1.0197123289108276,-0.9581801295280457,-0.16844111680984497,0.22015298902988434
2.894040584564209,0.09865737706422806,-0.8789168000221252,1.0022778511047363,-0.964474618434906,-0.1523548662662506,0.21993157267570496
2.914109230041504,0.0875038281083107,-0.9115706086158752,0.9955968260765076,-0.9665024876594543,-0.14299219846725464,0.2226422131061554
2.934178352355957,0.09172958880662918,-0.9142907857894897,1.0218241214752197,-0.9671827554702759,-0.1547127664089203,0.22660855948925018
2.954275369644165,0.09552545100450516,-0.9083486199378967,1.0185846090316772,-0.9710391759872437,-0.15462440252304077,0.22353358566761017
2.974332332611084,0.0911700502038002,-0.9243683218955994,1.0257059335708618,-0.972628653049469,-0.1533554196357727,0.22578085958957672
2.9943995475769043,0.09074611216783524,-0.9345529675483704,1.0477182865142822,-0.9759895205497742,-0.16227740049362183,0.23038612306118011
3.014518976211548,0.08208487182855606,-0.9463093876838684,1.0551296472549438,-0.9772221446037292,-0.16525396704673767,0.2314826250076294
3.0346062183380127,0.09536758810281754,-0.917777419090271,1.061838150024414,-0.9756633043289185,-0.1707611382007599,0.23038236796855927
3.0546987056732178,0.09860868006944656,-0.9000497460365295,1.0852290391921997,-0.9758153557777405,-0.19011402130126953,0.22964288294315338
3.0747363567352295,0.0986347571015358,-0.9294607639312744,1.0790685415267944,-0.9803245067596436,-0.1817249059677124,0.2293328493833542
3.0948944091796875,0.0830894187092781,-0.9752579927444458,1.088759183883667,-0.9760382175445557,-0.1717132031917572,0.2361661195755005
3.1149814128875732,0.08866129070520401,-0.9666628241539001,1.1021891832351685,-0.9798160195350647,-0.18002742528915405,0.23595209419727325
3.135079860687256,0.08440826088190079,-0.9675573110580444,1.1083669662475586,-0.9837665557861328,-0.18389180302619934,0.2382114678621292
3.1551222801208496,0.0878753736615181,-0.994602382183075,1.115358591079712,-0.9867061376571655,-0.1844397485256195,0.2382761389017105
3.1752099990844727,0.07598627358675003,-0.9849573373794556,1.1121445894241333,-0.9862246513366699,-0.18185961246490479,0.2403298169374466
3.195345163345337,0.08786983042955399,-0.9717361330986023,1.1420291662216187,-0.9845700860023499,-0.20186668634414673,0.2407330721616745
3.215400457382202,0.10004100948572159,-0.9788322448730469,1.1571247577667236,-0.9911342859268188,-0.2055639922618866,0.24005483090877533
3.235414505004883,0.06300351768732071,-1.039027452468872,1.1396617889404297,-0.9874333739280701,-0.1863631010055542,0.246392622590065
3.2556567192077637,0.07067520171403885,-1.0180407762527466,1.1702951192855835,-0.9913721680641174,-0.20529469847679138,0.24941785633563995
3.2756552696228027,0.07363522797822952,-1.0170620679855347,1.1795148849487305,-0.9955373406410217,-0.2087375819683075,0.24940815567970276
3.2957658767700195,0.08015061169862747,-1.023578405380249,1.1919221878051758,-0.9987757802009583,-0.21430611610412598,0.24939097464084625
3.3157761096954346,0.07767579704523087,-1.070200800895691,1.1796104907989502,-1.0033178329467773,-0.19350698590278625,0.24737024307250977
3.3358616828918457,0.07877916842699051,-1.0390832424163818,1.213494062423706,-0.9959267377853394,-0.2156723141670227,0.2523755133152008
3.3559224605560303,0.09268824011087418,-1.030161738395691,1.2320311069488525,-1.002869963645935,-0.22612491250038147,0.2514357566833496
3.376037120819092,0.09051836282014847,-1.0655406713485718,1.2196636199951172,-1.005839467048645,-0.21061041951179504,0.24673393368721008
3.396061658859253,0.07698405534029007,-1.1066571474075317,1.219855785369873,-1.0081253051757812,-0.20351654291152954,0.2515628933906555
3.416149854660034,0.06694374233484268,-1.1047393083572388,1.2450724840164185,-1.0033067464828491,-0.21600359678268433,0.2562851011753082
3.436216115951538,0.06964818388223648,-1.1139483451843262,1.2576334476470947,-1.0075383186340332,-0.22080406546592712,0.25636541843414307
3.4562573432922363,0.0694899931550026,-1.1376508474349976,1.264638900756836,-1.0103085041046143,-0.21650496125221252,0.25838807225227356
3.476346492767334,0.0656641498208046,-1.140831708908081,1.2734568119049072,-1.0076961517333984,-0.21992385387420654,0.25921404361724854
3.4964098930358887,0.06567049771547318,-1.1551882028579712,1.277574062347412,-1.0074896812438965,-0.21793046593666077,0.25873878598213196
3.5164732933044434,0.08054883033037186,-1.1463130712509155,1.305717945098877,-1.0072517395019531,-0.23189762234687805,0.26070436835289
3.5365347862243652,0.09185019880533218,-1.1360268592834473,1.324361801147461,-1.0106724500656128,-0.24282190203666687,0.26088473200798035
3.556689739227295,0.04064781218767166,-1.2385908365249634,1.310534119606018,-1.0103461742401123,-0.22347688674926758,0.26406311988830566
3.576812982559204,0.04671529680490494,-1.217032790184021,1.3417079448699951,-1.0119184255599976,-0.23749268054962158,0.2684752643108368
3.5967938899993896,0.06021533161401749,-1.2030242681503296,1.3519272804260254,-1.0140857696533203,-0.24890589714050293,0.26826563477516174
3.616879463195801,0.06181175261735916,-1.2524385452270508,1.3285260200500488,-1.020024299621582,-0.22166171669960022,0.26503539085388184
3.63693904876709,0.0620085671544075,-1.2243865728378296,1.3584429025650024,-1.0208150148391724,-0.2454642355442047,0.2710641026496887
3.657043218612671,0.0777442529797554,-1.2302674055099487,1.377013921737671,-1.0221025943756104,-0.25807327032089233,0.27154555916786194
3.6771087646484375,0.09002900868654251,-1.269850730895996,1.371991515159607,-1.0264766216278076,-0.23757028579711914,0.2720223069190979
3.697298765182495,0.040355391800403595,-1.2593637704849243,1.3939952850341797,-1.0303062200546265,-0.27128803730010986,0.2803662121295929
3.717411518096924,0.05872932821512222,-1.2807421684265137,1.401458501815796,-1.0340343713760376,-0.2669563889503479,0.2806035876274109
3.737518072128296,0.06722933799028397,-1.2967289686203003,1.4075173139572144,-1.0388153791427612,-0.2630699574947357,0.2862221896648407
3.7575087547302246,0.07203824073076248,-1.3189109563827515,1.4099003076553345,-1.040912389755249,-0.2550988495349884,0.2895391285419464
3.7776918411254883,0.06267384439706802,-1.2934638261795044,1.4166598320007324,-1.0483858585357666,-0.26884421706199646,0.29295146465301514
3.7978012561798096,0.0673595443367958,-1.3169008493423462,1.4188714027404785,-1.0532853603363037,-0.2677176892757416,0.29654043912887573
3.817763328552246,0.07187996059656143,-1.3319522142410278,1.4229393005371094,-1.0589971542358398,-0.2652873396873474,0.3028731644153595
3.8378350734710693,0.07223016768693924,-1.3416355848312378,1.4264006614685059,-1.0675666332244873,-0.26467493176460266,0.31040051579475403
3.8579583168029785,0.0639779344201088,-1.3372873067855835,1.4326345920562744,-1.0729635953903198,-0.27649807929992676,0.3164876699447632
3.8780813217163086,0.06512103229761124,-1.3522145748138428,1.42668616771698,-1.0849515199661255,-0.27189406752586365,0.32407346367836
3.898085355758667,0.06662032753229141,-1.3561269044876099,1.4237971305847168,-1.0969513654708862,-0.268614798784256,0.33435893058776855
3.9182233810424805,0.07406411319971085,-1.3697024583816528,1.4175560474395752,-1.1029515266418457,-0.2624228298664093,0.3388047516345978
3.9382755756378174,0.07032252103090286,-1.3629964590072632,1.41458261013031,-1.1225826740264893,-0.2640504539012909,0.3544241786003113
3.958355665206909,0.06852934509515762,-1.3671478033065796,1.4055192470550537,-1.1426061391830444,-0.2608487010002136,0.36825549602508545
3.9785232543945312,0.06911716610193253,-1.3693056106567383,1.3976408243179321,-1.161754846572876,-0.2585490643978119,0.38295623660087585
3.9986133575439453,0.06809137016534805,-1.3653305768966675,1.402886152267456,-1.168899655342102,-0.26657819747924805,0.3923267424106598
4.018681287765503,0.06370357424020767,-1.3675295114517212,1.3922345638275146,-1.1968414783477783,-0.26458939909935,0.4117758870124817
4.0387794971466064,0.06587664037942886,-1.3559788465499878,1.3878192901611328,-1.2227952480316162,-0.26798465847969055,0.4337329864501953
4.059215307235718,0.06291411072015762,-1.349503517150879,1.3797268867492676,-1.2533730268478394,-0.271192342042923,0.45773571729660034
4.079313516616821,0.0652901902794838,-1.3361932039260864,1.3758703470230103,-1.270269751548767,-0.2755981981754303,0.47216272354125977
4.099469184875488,0.05776999145746231,-1.3281519412994385,1.3701226711273193,-1.3028706312179565,-0.2820896804332733,0.49985629320144653
4.119553327560425,0.05860833078622818,-1.333909511566162,1.350899577140808,-1.337543249130249,-0.2728964686393738,0.5255711078643799
4.139589309692383,0.06508240848779678,-1.3173174858093262,1.3530220985412598,-1.3526285886764526,-0.2770844101905823,0.5409085750579834
4.159719705581665,0.06543616205453873,-1.320759892463684,1.3382058143615723,-1.3826924562454224,-0.27276554703712463,0.5690137147903442
4.17980170249939,0.05788598209619522,-1.3171168565750122,1.3205466270446777,-1.4205231666564941,-0.2751920223236084,0.5995182991027832
4.19987678527832,0.06203822046518326,-1.312237024307251,1.3038157224655151,-1.4545321464538574,-0.27384403347969055,0.6255422830581665
4.219968795776367,0.05833259969949722,-1.2865227460861206,1.3080934286117554,-1.4730998277664185,-0.2839178442955017,0.6398770213127136
4.240031003952026,0.0606372132897377,-1.2928446531295776,1.2865939140319824,-1.50149405002594,-0.2801705300807953,0.6646427512168884
4.260115146636963,0.05551079660654068,-1.2692006826400757,1.2798174619674683,-1.5337313413619995,-0.29094308614730835,0.692925751209259
4.280267000198364,0.05525461584329605,-1.2634166479110718,1.2626479864120483,-1.5625641345977783,-0.28782984614372253,0.7171533107757568
4.300363063812256,0.06142667680978775,-1.2738326787948608,1.2486423254013062,-1.573480486869812,-0.2811606526374817,0.7286437153816223
4.320482015609741,0.058496929705142975,-1.2525979280471802,1.2415499687194824,-1.6022616624832153,-0.2880919873714447,0.7544567584991455
4.34055233001709,0.056456245481967926,-1.2438907623291016,1.2247331142425537,-1.6274986267089844,-0.2894394099712372,0.7763353586196899
4.36063551902771,0.0553383007645607,-1.2407242059707642,1.21669602394104,-1.642020583152771,-0.29224005341529846,0.7870649695396423
4.380755424499512,0.05203346163034439,-1.21575129032135,1.2087011337280273,-1.6674309968948364,-0.30083563923835754,0.8094958066940308
4.400821685791016,0.05595222860574722,-1.2268704175949097,1.1849863529205322,-1.6887153387069702,-0.2993200719356537,0.8276082873344421
4.4208643436431885,0.05531410127878189,-1.2058433294296265,1.1759448051452637,-1.710645079612732,-0.30017009377479553,0.8478742241859436
4.440986156463623,0.05853668600320816,-1.2025874853134155,1.1695611476898193,-1.721634030342102,-0.3014679253101349,0.857137143611908
4.461026191711426,0.05787292867898941,-1.192150592803955,1.1558659076690674,-1.7415069341659546,-0.308383047580719,0.8748685121536255
4.481111526489258,0.058117665350437164,-1.1869220733642578,1.1377099752426147,-1.758497714996338,-0.3028290271759033,0.8905022740364075
4.5011820793151855,0.057833231985569,-1.1700785160064697,1.1319787502288818,-1.7764848470687866,-0.3071743845939636,0.9061688780784607
4.521280288696289,0.05662266165018082,-1.1581791639328003,1.1363322734832764,-1.7876250743865967,-0.32130515575408936,0.914584755897522
4.54131817817688,0.057328976690769196,-1.1651476621627808,1.1057134866714478,-1.8015385866165161,-0.30634579062461853,0.9291304349899292
4.561414003372192,0.0551479235291481,-1.139248251914978,1.109989047050476,-1.8201801776885986,-0.32221710681915283,0.9440726041793823
4.581570386886597,0.05873928219079971,-1.1391149759292603,1.0882279872894287,-1.833572268486023,-0.31386053562164307,0.9548814296722412
4.601691246032715,0.05758950859308243,-1.1462229490280151,1.0788053274154663,-1.8393322229385376,-0.3072010278701782,0.9610854983329773
4.621735095977783,0.055584825575351715,-1.1083905696868896,1.094131588935852,-1.8537381887435913,-0.3386996388435364,0.9736074209213257
4.641917943954468,0.06013313680887222,-1.1315597295761108,1.0532960891723633,-1.8662408590316772,-0.30942201614379883,0.9832173585891724
4.662132263183594,0.0563146248459816,-1.0975112915039062,1.0699108839035034,-1.877738118171692,-0.33724161982536316,0.9945917725563049
4.6822190284729,0.058550991117954254,-1.1039217710494995,1.0572705268859863,-1.882912278175354,-0.32933342456817627,0.9983783960342407
4.702302694320679,0.05825439840555191,-1.0997352600097656,1.0375770330429077,-1.8927900791168213,-0.31787148118019104,1.0078520774841309
4.722392559051514,0.05731300264596939,-1.086877465248108,1.044914960861206,-1.9037600755691528,-0.3365425765514374,1.016034722328186
4.742662668228149,0.0592753067612648,-1.0884482860565186,1.0212287902832031,-1.912344217300415,-0.32290810346603394,1.0241832733154297
4.762753009796143,0.058660782873630524,-1.0792558193206787,1.0229722261428833,-1.9174176454544067,-0.3325996696949005,1.0293068885803223
4.782834053039551,0.05929390341043472,-1.0711795091629028,1.0155737400054932,-1.9243654012680054,-0.3343266546726227,1.0354392528533936
4.802873373031616,0.05914274603128433,-1.0683209896087646,1.0052876472473145,-1.9326584339141846,-0.3327808380126953,1.04338538646698
4.823405504226685,0.05880669504404068,-1.0572742223739624,1.001528263092041,-1.939907431602478,-0.3390694558620453,1.0497664213180542
4.843657732009888,0.060000933706760406,-1.0530622005462646,0.9936902523040771,-1.943424940109253,-0.3352089822292328,1.053087592124939
4.863659143447876,0.05908254534006119,-1.044022560119629,0.9909136295318604,-1.9508894681930542,-0.34104490280151367,1.0586968660354614
4.883744239807129,0.059011198580265045,-1.034618616104126,0.9866795539855957,-1.9576084613800049,-0.34395474195480347,1.0636848211288452
4.903807163238525,0.05891833454370499,-1.0454810857772827,0.9749648571014404,-1.9599555730819702,-0.33463171124458313,1.066410779953003
4.923857927322388,0.058733679354190826,-1.0370290279388428,0.9734355211257935,-1.966948390007019,-0.341105580329895,1.0720163583755493
4.943915367126465,0.059038080275058746,-1.029817819595337,0.9665433168411255,-1.9716585874557495,-0.3399767577648163,1.0765503644943237
4.96398138999939,0.05916497856378555,-1.0217258930206299,0.966560423374176,-1.9749293327331543,-0.34662842750549316,1.0786105394363403
4.98406720161438,0.06049469858407974,-1.0167933702468872,0.9570881128311157,-1.9797255992889404,-0.34250128269195557,1.083099365234375
5.004156112670898,0.05916730314493179,-1.0143113136291504,0.9519991278648376,-1.9842339754104614,-0.34530019760131836,1.0873569250106812
5.024234771728516,0.06118837743997574,-1.0033771991729736,0.9480273127555847,-1.9885607957839966,-0.34676462411880493,1.0905379056930542
5.044328212738037,0.060859717428684235,-1.008362054824829,0.944888710975647,-1.9907588958740234,-0.34699681401252747,1.0929518938064575
5.064399480819702,0.06045929342508316,-1.0010043382644653,0.941942036151886,-1.9947367906570435,-0.3518258333206177,1.0967636108398438
5.084449768066406,0.0603930726647377,-0.9948141574859619,0.9344724416732788,-1.998335599899292,-0.34940534830093384,1.10060715675354
5.10450291633606,0.060173965990543365,-0.9872002601623535,0.9357365369796753,-2.001580238342285,-0.35683372616767883,1.1029551029205322
5.1246018409729,0.060310401022434235,-0.9862167239189148,0.9278227090835571,-2.0035617351531982,-0.35290372371673584,1.104035496711731
5.144705295562744,0.060710467398166656,-0.9859516620635986,0.919023871421814,-2.0083014965057373,-0.3464142084121704,1.106825351715088
5.164742708206177,0.059604205191135406,-0.9808762073516846,0.9190205335617065,-2.01052188873291,-0.3512718677520752,1.1089998483657837
5.184793472290039,0.06148681789636612,-0.9769482016563416,0.9152916669845581,-2.012852907180786,-0.35081249475479126,1.1120320558547974
5.204880237579346,0.06067720800638199,-0.9685090184211731,0.9154843688011169,-2.0139925479888916,-0.35499709844589233,1.1135081052780151
5.2250447273254395,0.06115070730447769,-0.965813934803009,0.9096550941467285,-2.017007350921631,-0.35469168424606323,1.1154385805130005
5.245044946670532,0.06115696579217911,-0.9603826403617859,0.9056953191757202,-2.020122766494751,-0.35496985912323,1.117283821105957
5.265153169631958,0.06082127243280411,-0.9619666934013367,0.9028603434562683,-2.0202412605285645,-0.352599173784256,1.1182278394699097
5.285215377807617,0.060968317091464996,-0.958524227142334,0.9008830785751343,-2.0223023891448975,-0.3533807396888733,1.1202703714370728
5.305304527282715,0.061571575701236725,-0.9525792002677917,0.8997488021850586,-2.0246832370758057,-0.357722669839859,1.1223748922348022
5.3252973556518555,0.062535859644413,-0.9542695879936218,0.8918645977973938,-2.026101589202881,-0.35012727975845337,1.1228920221328735
5.34539270401001,0.05947951227426529,-0.952995777130127,0.8910706639289856,-2.0287985801696777,-0.35383331775665283,1.1247550249099731
5.365477561950684,0.06079886108636856,-0.9492626786231995,0.8852685689926147,-2.02933931350708,-0.35090529918670654,1.125527262687683
5.385526418685913,0.06047574430704117,-0.9461321830749512,0.8827033638954163,-2.031890392303467,-0.348825603723526,1.1262822151184082
5.405597448348999,0.0614452138543129,-0.9405179619789124,0.8870663046836853,-2.033050775527954,-0.356608510017395,1.1274722814559937
5.4257707595825195,0.06123403459787369,-0.9373652935028076,0.8844660520553589,-2.0340518951416016,-0.3557288646697998,1.1283940076828003
5.445729494094849,0.0615333691239357,-0.9381137490272522,0.878544807434082,-2.0348546504974365,-0.351697713136673,1.1295639276504517
5.46588397026062,0.06148604303598404,-0.9366579651832581,0.8755685091018677,-2.035839080810547,-0.3514559864997864,1.1306194067001343
5.486086845397949,0.0626501813530922,-0.931269109249115,0.87530517578125,-2.036080837249756,-0.3510715961456299,1.1309527158737183
5.50621223449707,0.06141451746225357,-0.9271290898323059,0.8801952600479126,-2.038161516189575,-0.3592210114002228,1.1324759721755981
5.526163578033447,0.062283433973789215,-0.9247929453849792,0.8761391639709473,-2.0392565727233887,-0.35648176074028015,1.1330976486206055
5.546414375305176,0.06036285310983658,-0.934932291507721,0.8696630001068115,-2.0393974781036377,-0.34979450702667236,1.1332145929336548
5.566500902175903,0.06053207069635391,-0.9296291470527649,0.8702441453933716,-2.039566993713379,-0.3521404266357422,1.1339048147201538
5.586542129516602,0.06072608381509781,-0.9269267916679382,0.8710228204727173,-2.0407299995422363,-0.3541880249977112,1.1344465017318726
5.606594800949097,0.06180707365274429,-0.92734295129776,0.8667598962783813,-2.0421621799468994,-0.3494289815425873,1.1346131563186646
5.6266930103302,0.06110433489084244,-0.921575129032135,0.8685134649276733,-2.0425028800964355,-0.3530828058719635,1.1349080801010132
5.64678168296814,0.06205681711435318,-0.921172022819519,0.8663808107376099,-2.0423340797424316,-0.3527284562587738,1.1352282762527466
5.666814088821411,0.06123880296945572,-0.9209831357002258,0.8668121695518494,-2.042341709136963,-0.3548298478126526,1.1356247663497925
5.687106132507324,0.06168023496866226,-0.9214666485786438,0.8625719547271729,-2.0419819355010986,-0.35101574659347534,1.1357088088989258
5.7072038650512695,0.06222955137491226,-0.918275773525238,0.8644658327102661,-2.0424318313598633,-0.3528137803077698,1.1357091665267944
5.727355241775513,0.062066711485385895,-0.9157276749610901,0.8641349077224731,-2.0432722568511963,-0.3531339168548584,1.135919213294983
5.747379302978516,0.06221029907464981,-0.9125672578811646,0.8649677038192749,-2.043485164642334,-0.355679452419281,1.136346697807312
5.767629623413086,0.06136009842157364,-0.9188880324363708,0.8644444346427917,-2.043646812438965,-0.3546288013458252,1.1365474462509155
5.787736892700195,0.06129816919565201,-0.9176763892173767,0.8615409731864929,-2.04364275932312,-0.3533245325088501,1.1371761560440063
5.807841777801514,0.062123335897922516,-0.9151974320411682,0.8582189083099365,-2.0436904430389404,-0.35025444626808167,1.1370800733566284
5.827885866165161,0.06116894632577896,-0.9122544527053833,0.8615483045578003,-2.0446159839630127,-0.35460758209228516,1.1373180150985718
5.848121166229248,0.06096724420785904,-0.9159940481185913,0.857730507850647,-2.044562578201294,-0.35223817825317383,1.137713074684143
5.868088722229004,0.061682380735874176,-0.9141631126403809,0.8590909838676453,-2.04542875289917,-0.35228148102760315,1.1376863718032837
5.888145685195923,0.06111953407526016,-0.9127708673477173,0.8597950339317322,-2.045441150665283,-0.35508501529693604,1.138685941696167
5.908189296722412,0.061630941927433014,-0.9146391749382019,0.8550804853439331,-2.045484781265259,-0.35067233443260193,1.1386750936508179
5.928332805633545,0.06144670397043228,-0.9088478088378906,0.8600306510925293,-2.0459725856781006,-0.35623323917388916,1.1387192010879517
5.948412895202637,0.06173215061426163,-0.910403311252594,0.8570824861526489,-2.045555591583252,-0.35394763946533203,1.1385433673858643
5.968456983566284,0.06156245619058609,-0.9108644723892212,0.8559602499008179,-2.0454487800598145,-0.35405591130256653,1.1388237476348877
5.9885759353637695,0.061262644827365875,-0.9106485247612,0.8549017310142517,-2.0457777976989746,-0.3515980541706085,1.1384767293930054
6.008716821670532,0.06138984113931656,-0.9104409217834473,0.855089008808136,-2.046264886856079,-0.35220304131507874,1.138621211051941
6.028769254684448,0.06115148216485977,-0.9120951294898987,0.8537519574165344,-2.046412467956543,-0.3505648970603943,1.138846755027771
6.048828840255737,0.061481453478336334,-0.9106466174125671,0.854357898235321,-2.04628324508667,-0.3515435755252838,1.1392168998718262
6.068875074386597,0.06166116148233414,-0.9097325205802917,0.8549935221672058,-2.0469064712524414,-0.35308486223220825,1.1394778490066528
6.08892035484314,0.06189540773630142,-0.9086857438087463,0.8544459342956543,-2.046339511871338,-0.35356298089027405,1.139819622039795
6.108980655670166,0.06220952421426773,-0.9058980345726013,0.854377269744873,-2.046071767807007,-0.3543991148471832,1.1400831937789917
6.12906289100647,0.06245938688516617,-0.9069987535476685,0.8524144887924194,-2.046190023422241,-0.35161176323890686,1.1398358345031738
6.149245738983154,0.06133238226175308,-0.9094919562339783,0.8522288799285889,-2.0467934608459473,-0.35149359703063965,1.13994300365448
6.169293403625488,0.06131545454263687,-0.9075835347175598,0.8539254665374756,-2.047170400619507,-0.3533821403980255,1.140005111694336
6.189306735992432,0.06160793453454971,-0.9073049426078796,0.8524373173713684,-2.047290325164795,-0.351712703704834,1.1399098634719849
6.209426641464233,0.06116525083780289,-0.9065834879875183,0.8519114255905151,-2.047541379928589,-0.35158592462539673,1.139822244644165
6.229577302932739,0.06129667907953262,-0.9071005582809448,0.8514852523803711,-2.0473861694335938,-0.3509806990623474,1.1398494243621826
6.249645233154297,0.061159588396549225,-0.9088409543037415,0.8504799604415894,-2.047559976577759,-0.35017266869544983,1.1399285793304443
6.269752264022827,0.061109282076358795,-0.9075828194618225,0.8514313697814941,-2.04734468460083,-0.3511689305305481,1.1401753425598145
6.2898335456848145,0.061317600309848785,-0.9053415656089783,0.852476954460144,-2.047703981399536,-0.3524085283279419,1.1400216817855835
6.30991268157959,0.06133059412240982,-0.9043501615524292,0.8536769151687622,-2.0476343631744385,-0.3539559245109558,1.1401761770248413
6.329957008361816,0.06156531721353531,-0.9075037837028503,0.8497873544692993,-2.047658920288086,-0.3503512144088745,1.1402438879013062
6.350029230117798,0.06079874187707901,-0.9069468975067139,0.8506472706794739,-2.0479769706726074,-0.35078978538513184,1.1401782035827637
6.3700995445251465,0.061314500868320465,-0.9029985070228577,0.8539524674415588,-2.048191785812378,-0.3543558418750763,1.14036226272583
6.390172481536865,0.06155059486627579,-0.9045856595039368,0.8514128923416138,-2.0484731197357178,-0.35167235136032104,1.140642762184143
6.410271167755127,0.060975588858127594,-0.9030076861381531,0.8520504236221313,-2.04894757270813,-0.35305920243263245,1.1410198211669922
6.4303975105285645,0.060835279524326324,-0.9037253856658936,0.8512251973152161,-2.0492470264434814,-0.3524644076824188,1.1408168077468872
6.450483322143555,0.06111607700586319,-0.9059786796569824,0.8515573740005493,-2.0491111278533936,-0.35201701521873474,1.1411484479904175
6.470751047134399,0.06107208877801895,-0.9065123200416565,0.8499975204467773,-2.0490875244140625,-0.35077983140945435,1.1411049365997314
6.4907546043396,0.06121162325143814,-0.9059852957725525,0.8501447439193726,-2.0489919185638428,-0.35099342465400696,1.1410967111587524
6.510787010192871,0.06104794889688492,-0.9033047556877136,0.852215051651001,-2.049311876296997,-0.35322093963623047,1.1410329341888428
6.530901908874512,0.06071899086236954,-0.9045198559761047,0.8510740995407104,-2.0493056774139404,-0.35274478793144226,1.1410585641860962
6.551065921783447,0.0608806386590004,-0.9045516848564148,0.850056529045105,-2.049128532409668,-0.3511904180049896,1.1409968137741089
6.571246862411499,0.061069466173648834,-0.9039384126663208,0.8505484461784363,-2.049208879470825,-0.351629376411438,1.1409856081008911
6.5913474559783936,0.06089381128549576,-0.9047942757606506,0.8504829406738281,-2.0492377281188965,-0.351635217666626,1.1410242319107056
6.611525297164917,0.060979701578617096,-0.9049964547157288,0.8500397205352783,-2.049194097518921,-0.3512963354587555,1.141062617301941
6.631586313247681,0.061061955988407135,-0.9046512842178345,0.8501756191253662,-2.0492165088653564,-0.3514377474784851,1.1410953998565674
6.65162992477417,0.06097225099802017,-0.9048243165016174,0.848915696144104,-2.049328565597534,-0.35053181648254395,1.141135334968567
6.671679973602295,0.06084338575601578,-0.90386563539505,0.8505285382270813,-2.049440622329712,-0.3519505262374878,1.1411309242248535
6.691745281219482,0.06091818958520889,-0.9034588932991028,0.850559413433075,-2.049412727355957,-0.3520950376987457,1.1410998106002808
6.711836338043213,0.06112769991159439,-0.9039326906204224,0.849576473236084,-2.049233913421631,-0.35135695338249207,1.1410681009292603
6.732658624649048,0.06085667759180069,-0.9041430950164795,0.8497895002365112,-2.0492639541625977,-0.3515642285346985,1.1410794258117676
6.752777099609375,0.06110654026269913,-0.903416097164154,0.8509339094161987,-2.0491583347320557,-0.3524513840675354,1.1411482095718384
6.772832870483398,0.0611024871468544,-0.9028777480125427,0.8507633209228516,-2.0492043495178223,-0.35268521308898926,1.1411278247833252
6.79291296005249,0.06100074201822281,-0.9029673933982849,0.8505757451057434,-2.049226760864258,-0.3526620864868164,1.1411408185958862
6.813039541244507,0.061000265181064606,-0.9033976197242737,0.8502224087715149,-2.0494120121002197,-0.3521084189414978,1.141137957572937
6.833130121231079,0.06084052473306656,-0.9048677682876587,0.8492764234542847,-2.0495455265045166,-0.3507402539253235,1.1410677433013916
6.853197813034058,0.06085864454507828,-0.9037755131721497,0.8496476411819458,-2.049502372741699,-0.35140761733055115,1.141080379486084
6.873298168182373,0.061098016798496246,-0.9035446047782898,0.8489614129066467,-2.0491981506347656,-0.3512422442436218,1.14109468460083
6.893387794494629,0.06094590574502945,-0.9038283228874207,0.8488748073577881,-2.0492289066314697,-0.35092923045158386,1.141003131866455
6.913474798202515,0.06097153574228287,-0.9030284285545349,0.8502801656723022,-2.0492966175079346,-0.3521922826766968,1.1411195993423462
6.933598041534424,0.06092724949121475,-0.9034790992736816,0.8495150804519653,-2.0493032932281494,-0.35154643654823303,1.141043782234192
6.953622341156006,0.0608508363366127,-0.903465747833252,0.8497087359428406,-2.04936146736145,-0.35163605213165283,1.1410545110702515
6.973689556121826,0.06090722233057022,-0.9032928347587585,0.8499706983566284,-2.049391269683838,-0.35186707973480225,1.1410703659057617
6.993807077407837,0.06105826050043106,-0.9032109975814819,0.8498550653457642,-2.049412488937378,-0.35161158442497253,1.1410431861877441
7.013846158981323,0.06104568392038345,-0.9034873247146606,0.8493224382400513,-2.0492804050445557,-0.351251482963562,1.14106285572052
7.03389048576355,0.06073681265115738,-0.9036203026771545,0.8496257066726685,-2.0492982864379883,-0.35182392597198486,1.1410605907440186
7.053982496261597,0.06125394254922867,-0.9031528830528259,0.8497745394706726,-2.0492091178894043,-0.3514118492603302,1.1410692930221558
7.074041843414307,0.0610942617058754,-0.9031153321266174,0.8500134944915771,-2.049231767654419,-0.35178637504577637,1.1410831212997437
7.094111680984497,0.06093338876962662,-0.9035246968269348,0.8492475748062134,-2.0493524074554443,-0.35111570358276367,1.1410056352615356
7.114170074462891,0.060838498175144196,-0.9035201668739319,0.849624752998352,-2.049248456954956,-0.351759135723114,1.1410928964614868
7.1342613697052,0.0610295906662941,-0.9032616019248962,0.8499563932418823,-2.049220085144043,-0.3517632484436035,1.141080617904663
7.154328346252441,0.0609535351395607,-0.903383731842041,0.8496565818786621,-2.0493435859680176,-0.3515974283218384,1.1410373449325562
7.174457550048828,0.06099513918161392,-0.9034237265586853,0.8496896028518677,-2.049168348312378,-0.35157766938209534,1.1410812139511108
7.194476842880249,0.06104765087366104,-0.9032617807388306,0.8497699499130249,-2.049417018890381,-0.3515620827674866,1.141015887260437
7.214563369750977,0.060919083654880524,-0.9035227298736572,0.8496201038360596,-2.049265146255493,-0.3515856862068176,1.1410866975784302
7.23465895652771,0.06099800020456314,-0.9036076664924622,0.8494629263877869,-2.0490503311157227,-0.35150498151779175,1.1411280632019043
7.254686594009399,0.06103471666574478,-0.903502345085144,0.8494283556938171,-2.0492758750915527,-0.35127973556518555,1.14107084274292
7.274740695953369,0.061077870428562164,-0.9035224914550781,0.8494136333465576,-2.0491554737091064,-0.35129332542419434,1.1410644054412842
7.308686256408691,0.06091294437646866,-0.9032158255577087,0.8498362302780151,-2.0493621826171875,-0.3514539301395416,1.1409670114517212
7.328767776489258,0.060948409140110016,-0.9024563431739807,0.8506258726119995,-2.0492172241210938,-0.352528840303421,1.1410259008407593
7.349008321762085,0.06082645803689957,-0.9019591212272644,0.850582480430603,-2.0492501258850098,-0.35289040207862854,1.1410146951675415
7.3689939975738525,0.06092587858438492,-0.9022902846336365,0.8493750095367432,-2.049280881881714,-0.35147401690483093,1.140968918800354
7.389158487319946,0.06090370565652847,-0.9030265808105469,0.8494287729263306,-2.0493013858795166,-0.35138073563575745,1.1409651041030884
7.409186363220215,0.06069616228342056,-0.9031875729560852,0.8489294052124023,-2.0492467880249023,-0.35109567642211914,1.1409863233566284
7.429248332977295,0.060890115797519684,-0.9032351970672607,0.8492892980575562,-2.049193859100342,-0.35116851329803467,1.141013264656067
7.449440002441406,0.06110600382089615,-0.9027858376502991,0.8491249084472656,-2.0491278171539307,-0.35118088126182556,1.1410173177719116
7.469511270523071,0.0609305277466774,-0.9025502800941467,0.8488773107528687,-2.049173355102539,-0.3511708378791809,1.1409461498260498
7.489578008651733,0.061051107943058014,-0.9022844433784485,0.8488886952400208,-2.0491528511047363,-0.35132962465286255,1.1409536600112915
7.5096755027771,0.0611024871468544,-0.9019718766212463,0.8492121696472168,-2.049321174621582,-0.3514118194580078,1.140882968902588
7.5297651290893555,0.060820139944553375,-0.902856171131134,0.8493788242340088,-2.049146890640259,-0.35132288932800293,1.1409825086593628
7.549839735031128,0.060901857912540436,-0.9027746319770813,0.8490939140319824,-2.0490903854370117,-0.3512628972530365,1.1409976482391357
7.569902420043945,0.061128534376621246,-0.9027045369148254,0.8488167524337769,-2.0491135120391846,-0.35103222727775574,1.1409848928451538
7.58996844291687,0.06094411760568619,-0.9033388495445251,0.8488399982452393,-2.049057722091675,-0.3509632349014282,1.1410243511199951
7.610063076019287,0.060997165739536285,-0.9023101329803467,0.8497104644775391,-2.0494425296783447,-0.35099464654922485,1.1407314538955688
7.630142450332642,0.06110427528619766,-0.902438759803772,0.8497440814971924,-2.0494515895843506,-0.35096919536590576,1.140614628791809
7.650216817855835,0.06088773161172867,-0.9027472138404846,0.8491689562797546,-2.049151659011841,-0.3506917953491211,1.1408185958862305
7.670238256454468,0.06097850948572159,-0.9024671316146851,0.8497860431671143,-2.049299478530884,-0.3511255383491516,1.1407967805862427
7.690351963043213,0.06082925945520401,-0.9028392434120178,0.8492581844329834,-2.049208641052246,-0.35115087032318115,1.1409155130386353
7.710493326187134,0.06087193638086319,-0.9025333523750305,0.8495510220527649,-2.049271821975708,-0.3507930040359497,1.1407972574234009
7.730509042739868,0.060882605612277985,-0.9027016758918762,0.8493414521217346,-2.049215316772461,-0.35097992420196533,1.1408809423446655
7.750714063644409,0.06099722534418106,-0.9027484655380249,0.8491483926773071,-2.0492055416107178,-0.35046622157096863,1.1407992839813232
7.7707579135894775,0.06088218837976456,-0.9026159048080444,0.8495064377784729,-2.0492756366729736,-0.3510740399360657,1.1408623456954956
7.790790319442749,0.06082770973443985,-0.9028415679931641,0.8494330644607544,-2.049272298812866,-0.351171612739563,1.1408599615097046
7.810828685760498,0.060903824865818024,-0.9027111530303955,0.8495000600814819,-2.0492777824401855,-0.35090041160583496,1.1407939195632935
7.830970287322998,0.06099513918161392,-0.9025101065635681,0.8497368693351746,-2.0493335723876953,-0.3513193726539612,1.1408514976501465
7.851006031036377,0.060913778841495514,-0.9029787182807922,0.8489041924476624,-2.0491199493408203,-0.3507269024848938,1.1408952474594116
7.87107253074646,0.06075248867273331,-0.9028109908103943,0.8495562076568604,-2.049281120300293,-0.35122352838516235,1.1408687829971313
7.8914501667022705,0.060957588255405426,-0.9025253653526306,0.8496695756912231,-2.0493597984313965,-0.3510935306549072,1.140841007232666
7.911572456359863,0.060882486402988434,-0.9031928181648254,0.8487285375595093,-2.049043655395508,-0.3506441116333008,1.1409169435501099
7.93171238899231,0.06091807037591934,-0.9028964638710022,0.8492575883865356,-2.0491950511932373,-0.35094088315963745,1.140887975692749
7.951734304428101,0.060907699167728424,-0.9028909802436829,0.8492689728736877,-2.049185037612915,-0.35097649693489075,1.140893816947937
7.972057104110718,0.061023153364658356,-0.9027084112167358,0.8493692874908447,-2.0491952896118164,-0.35103490948677063,1.140892505645752
7.9922401905059814,0.060807742178440094,-0.9029736518859863,0.8491162657737732,-2.049131393432617,-0.3509623408317566,1.140899658203125
8.012234926223755,0.060938216745853424,-0.9028269052505493,0.8492786288261414,-2.0491695404052734,-0.35097771883010864,1.1408874988555908
8.032277345657349,0.06110963970422745,-0.9025710225105286,0.849280059337616,-2.04917311668396,-0.3506275415420532,1.1408249139785767
8.052358627319336,0.06084731966257095,-0.9028850197792053,0.849398136138916,-2.04923152923584,-0.3511594533920288,1.1408628225326538
8.07247519493103,0.060913361608982086,-0.902798056602478,0.8493703603744507,-2.04923152923584,-0.35102784633636475,1.1408789157867432
8.092616558074951,0.06098077446222305,-0.9026102423667908,0.8495464324951172,-2.0493221282958984,-0.3510301113128662,1.140850305557251
8.112630605697632,0.06093428283929825,-0.9025700688362122,0.8495997786521912,-2.0493433475494385,-0.35106855630874634,1.1408380270004272
8.132739305496216,0.06098917871713638,-0.9027093052864075,0.8494329452514648,-2.04927921295166,-0.3509867191314697,1.1408623456954956
8.152835369110107,0.06105438619852066,-0.9044204950332642,0.8474461436271667,-2.0493412017822266,-0.3483279347419739,1.1407288312911987
8.172904968261719,0.06074581295251846,-0.9034953713417053,0.8495156168937683,-2.0493412017822266,-0.3508942723274231,1.1409085988998413
8.193289279937744,0.06085769087076187,-0.9032452702522278,0.8495182394981384,-2.0493712425231934,-0.350250244140625,1.140772819519043
8.213393688201904,0.06079975515604019,-0.9035391807556152,0.8494775295257568,-2.0493249893188477,-0.35097557306289673,1.1409004926681519
8.233473777770996,0.060972847044467926,-0.9031059741973877,0.8500060439109802,-2.049381971359253,-0.3510357439517975,1.140848994255066
8.25352692604065,0.060923852026462555,-0.9030858874320984,0.8500627875328064,-2.049302816390991,-0.35125964879989624,1.1408932209014893
8.27364206314087,0.06082210689783096,-0.9033839106559753,0.849605917930603,-2.049328565597534,-0.3506888151168823,1.140830636024475
8.293725490570068,0.06066171079874039,-0.9031206965446472,0.8503091931343079,-2.0494492053985596,-0.35139426589012146,1.1408658027648926
8.3138267993927,0.060858286917209625,-0.9031985402107239,0.8498162627220154,-2.0493102073669434,-0.3509964942932129,1.1408756971359253
8.333826065063477,0.060949064791202545,-0.9032508730888367,0.849390983581543,-2.0492422580718994,-0.35027045011520386,1.1407967805862427
8.353912353515625,0.0606752410531044,-0.9036102890968323,0.8496312499046326,-2.0492374897003174,-0.35107070207595825,1.1408846378326416
8.373978614807129,0.06094411760568619,-0.903420090675354,0.8495289087295532,-2.0491790771484375,-0.3507862985134125,1.1408857107162476
8.394046783447266,0.06082270294427872,-0.9030670523643494,0.8500200510025024,-2.0492160320281982,-0.3511882722377777,1.1408342123031616
8.4140944480896,0.060902632772922516,-0.9024057984352112,0.8504297733306885,-2.049081802368164,-0.3516802191734314,1.140825629234314
8.434303283691406,0.06077251583337784,-0.9031206369400024,0.8502407073974609,-2.0493080615997314,-0.3512014150619507,1.1407523155212402
8.454296827316284,0.06078986078500748,-0.903615415096283,0.8492720127105713,-2.0491034984588623,-0.35061192512512207,1.1408753395080566
8.474389553070068,0.0609159842133522,-0.9034702181816101,0.849535346031189,-2.049198865890503,-0.3508068919181824,1.1408580541610718
8.494426488876343,0.06087533384561539,-0.9033582806587219,0.849750280380249,-2.0492477416992188,-0.3509393334388733,1.140852689743042
8.514513969421387,0.06075850874185562,-0.9032949805259705,0.8498936295509338,-2.049304246902466,-0.3510530889034271,1.1408432722091675
8.534645795822144,0.060840047895908356,-0.903515636920929,0.8494192361831665,-2.0491909980773926,-0.3506197929382324,1.1408478021621704
8.554632902145386,0.060878194868564606,-0.9033774733543396,0.8496898412704468,-2.0491933822631836,-0.3509036898612976,1.1408582925796509
8.574720621109009,0.06084487587213516,-0.9032755494117737,0.8498260378837585,-2.0492711067199707,-0.3510056138038635,1.1408425569534302
8.59478497505188,0.06070784479379654,-0.9033252000808716,0.8499338030815125,-2.049313545227051,-0.3510877788066864,1.1408355236053467
8.614894390106201,0.06060115247964859,-0.9034761190414429,0.8496793508529663,-2.049164056777954,-0.3511011600494385,1.140975832939148
8.634960174560547,0.060466207563877106,-0.9042907953262329,0.8483588695526123,-2.0487027168273926,-0.3512037694454193,1.1415003538131714
8.655037879943848,0.0607633963227272,-0.9035072326660156,0.8495454788208008,-2.0492007732391357,-0.3514372706413269,1.1410521268844604
8.675097703933716,0.06058911234140396,-0.9030930995941162,0.8503001928329468,-2.0492360591888428,-0.35229265689849854,1.1410683393478394
8.69514775276184,0.060583747923374176,-0.902504026889801,0.8504163026809692,-2.0490801334381104,-0.3528587222099304,1.1410802602767944
8.715240001678467,0.060722626745700836,-0.9024069905281067,0.850750207901001,-2.0491106510162354,-0.35315126180648804,1.1411008834838867
8.735337257385254,0.060916103422641754,-0.9026418328285217,0.8496365547180176,-2.0491116046905518,-0.3517485558986664,1.1409854888916016
8.755391120910645,0.06089744716882706,-0.9022801518440247,0.8501741886138916,-2.049326181411743,-0.35215872526168823,1.140954852104187
8.775556087493896,0.06087867170572281,-0.9024081230163574,0.8492772579193115,-2.049379825592041,-0.35164713859558105,1.1409841775894165
8.795693635940552,0.06080315262079239,-0.9047932028770447,0.8487496972084045,-2.0493814945220947,-0.3505129814147949,1.1410959959030151
8.815856695175171,0.060740746557712555,-0.9036849141120911,0.8493270874023438,-2.0494019985198975,-0.3510603904724121,1.1410608291625977
8.835871934890747,0.060953058302402496,-0.9032468795776367,0.8491499423980713,-2.0491819381713867,-0.35136929154396057,1.1411067247390747
8.855958461761475,0.06101987510919571,-0.9028357863426208,0.8489260673522949,-2.0491726398468018,-0.3513363301753998,1.1410624980926514
8.876105546951294,0.06094924360513687,-0.9029541611671448,0.8490290641784668,-2.049201011657715,-0.3512954115867615,1.1410313844680786
8.896185636520386,0.06096593290567398,-0.902873158454895,0.8493578433990479,-2.0491929054260254,-0.3515230119228363,1.1410318613052368
8.916192054748535,0.060820676386356354,-0.9029577374458313,0.8492360711097717,-2.04925537109375,-0.3514336943626404,1.1410208940505981
8.936298847198486,0.06079844385385513,-0.9030292630195618,0.8492313623428345,-2.049269914627075,-0.35137939453125,1.1410340070724487
8.95639681816101,0.06085953861474991,-0.9030740261077881,0.8490161895751953,-2.049206256866455,-0.35124996304512024,1.141034483909607
8.976442098617554,0.06084565073251724,-0.9029349684715271,0.8492039442062378,-2.049269437789917,-0.35137900710105896,1.141015887260437
8.9970703125,0.06094775348901749,-0.9029355049133301,0.849226713180542,-2.0491678714752197,-0.3514355421066284,1.1410267353057861
9.01724624633789,0.06086239963769913,-0.9028810858726501,0.8493469953536987,-2.0493242740631104,-0.3513692617416382,1.1409947872161865
9.037293910980225,0.06076321750879288,-0.9029448628425598,0.8494333028793335,-2.049269914627075,-0.3515660762786865,1.1410084962844849
9.057335615158081,0.06081906706094742,-0.9030439257621765,0.8490479588508606,-2.04923152923584,-0.3512251377105713,1.1410161256790161
9.077426433563232,0.06092635542154312,-0.9027208685874939,0.8497788906097412,-2.0492758750915527,-0.351884126663208,1.1410423517227173
9.097598791122437,0.060982443392276764,-0.9029662013053894,0.8491186499595642,-2.04917311668396,-0.35134565830230713,1.1410599946975708
9.117659091949463,0.06090698391199112,-0.9030254483222961,0.8491779565811157,-2.0491881370544434,-0.3513612747192383,1.1410216093063354
9.137766361236572,0.060876764357089996,-0.9028782248497009,0.8494368195533752,-2.049229145050049,-0.3515740931034088,1.1410239934921265
9.157814741134644,0.06090370565652847,-0.9029663801193237,0.8492157459259033,-2.0492024421691895,-0.35135626792907715,1.1410197019577026
9.177858591079712,0.06093541532754898,-0.9029359817504883,0.8492761850357056,-2.0492024421691895,-0.35144394636154175,1.141028881072998
9.198036432266235,0.06078831106424332,-0.9028184413909912,0.8497037291526794,-2.049304723739624,-0.3518318235874176,1.1410163640975952
9.218218088150024,0.06088707596063614,-0.9031099677085876,0.8489189743995667,-2.0491867065429688,-0.35115355253219604,1.141034483909607
9.23833680152893,0.06088385730981827,-0.9032824635505676,0.8487496376037598,-2.0490589141845703,-0.35111182928085327,1.1410534381866455
9.25843858718872,0.06080911308526993,-0.9030776619911194,0.8493432402610779,-2.049133777618408,-0.35169103741645813,1.1410620212554932
9.278422355651855,0.06095651537179947,-0.9029014706611633,0.849452793598175,-2.0491771697998047,-0.3516428470611572,1.1410417556762695
9.298548936843872,0.06073502451181412,-0.9029760956764221,0.8494039177894592,-2.0492632389068604,-0.3515402376651764,1.1410024166107178
9.318665981292725,0.06081686168909073,-0.9028220772743225,0.8496591448783875,-2.049253225326538,-0.35181474685668945,1.141027569770813
9.338748455047607,0.06092504411935806,-0.9030315279960632,0.8490881323814392,-2.0492868423461914,-0.3511362671852112,1.140981674194336
9.358855962753296,0.06098905950784683,-0.9045280814170837,0.8478260040283203,-2.049292802810669,-0.34953951835632324,1.1409292221069336
9.378987789154053,0.06093970686197281,-0.9036048650741577,0.848908543586731,-2.0493035316467285,-0.3504689931869507,1.141011118888855
9.399068355560303,0.061088062822818756,-0.9035859107971191,0.8490468859672546,-2.0491461753845215,-0.35090088844299316,1.141026496887207
9.419141054153442,0.060943640768527985,-0.9035115838050842,0.8493859767913818,-2.049269199371338,-0.35112977027893066,1.140987515449524
9.439218282699585,0.06092820316553116,-0.9033061861991882,0.8496558666229248,-2.0492188930511475,-0.35122233629226685,1.1410036087036133
9.459307432174683,0.06113020330667496,-0.9025797247886658,0.8501108288764954,-2.0490972995758057,-0.351502388715744,1.1409683227539062
9.479384183883667,0.06078425794839859,-0.9032862782478333,0.8499448895454407,-2.0491299629211426,-0.3516194224357605,1.1409295797348022
9.499426126480103,0.06088987737894058,-0.903744637966156,0.8496580123901367,-2.04911470413208,-0.3512490391731262,1.1409413814544678
9.519586086273193,0.060858286917209625,-0.902998149394989,0.850151777267456,-2.0493669509887695,-0.35137802362442017,1.140867829322815
9.539657831192017,0.06087461858987808,-0.9031172394752502,0.8498721122741699,-2.0493946075439453,-0.35122376680374146,1.14089834690094
9.559700965881348,0.06084040552377701,-0.9033566117286682,0.8495503067970276,-2.0493316650390625,-0.351071834564209,1.1408685445785522
9.579762935638428,0.06087569147348404,-0.9035443067550659,0.849320650100708,-2.0491960048675537,-0.3509213626384735,1.1409448385238647
9.59983515739441,0.06125906854867935,-0.9031817317008972,0.8499921560287476,-2.0491442680358887,-0.35115522146224976,1.1408560276031494
9.620005369186401,0.061184562742710114,-0.90281742811203,0.8504417538642883,-2.049396514892578,-0.3512535095214844,1.1407564878463745
9.640014886856079,0.061009444296360016,-0.9032221436500549,0.8497769832611084,-2.0493202209472656,-0.35075122117996216,1.1407310962677002
9.660111665725708,0.06102887541055679,-0.9033226370811462,0.8496297001838684,-2.049118757247925,-0.3510534465312958,1.1409047842025757
9.680295467376709,0.06095341593027115,-0.9032740592956543,0.8495911955833435,-2.0491364002227783,-0.3507196307182312,1.1408406496047974
9.700407981872559,0.06084642559289932,-0.9033156037330627,0.8496823906898499,-2.0492780208587646,-0.35100609064102173,1.1408442258834839
9.7203848361969,0.06098971515893936,-0.9034032225608826,0.8495141267776489,-2.0490386486053467,-0.3508712947368622,1.1408642530441284
9.740504264831543,0.060991086065769196,-0.9032444357872009,0.8497039079666138,-2.0492136478424072,-0.3510242700576782,1.1408568620681763
9.76058554649353,0.06096348911523819,-0.9029670357704163,0.8500688076019287,-2.049278497695923,-0.35103166103363037,1.1408087015151978
9.780657529830933,0.0610257163643837,-0.9029648303985596,0.8499933481216431,-2.0492544174194336,-0.35123908519744873,1.1408804655075073
9.800770282745361,0.061067141592502594,-0.9031270742416382,0.849492073059082,-2.0492005348205566,-0.3504653573036194,1.140805721282959
9.82128357887268,0.0609915629029274,-0.9030952453613281,0.8498167991638184,-2.049302101135254,-0.3509534001350403,1.1408480405807495
9.841370105743408,0.060926713049411774,-0.9033995270729065,0.8497084379196167,-2.04919695854187,-0.35104429721832275,1.1408941745758057
9.861536264419556,0.060872770845890045,-0.903203547000885,0.8500604033470154,-2.049269199371338,-0.35133787989616394,1.1408826112747192
9.881579637527466,0.06094638258218765,-0.9032106995582581,0.8500359654426575,-2.049330234527588,-0.35124120116233826,1.1408394575119019
9.90158987045288,0.06092534214258194,-0.9033188819885254,0.8496657609939575,-2.0492684841156006,-0.35091012716293335,1.1408699750900269
9.921650409698486,0.06094173341989517,-0.9031445384025574,0.8500188589096069,-2.0492589473724365,-0.3513249158859253,1.1408957242965698
9.9417564868927,0.060879625380039215,-0.9033849835395813,0.8495845794677734,-2.049246072769165,-0.3508492708206177,1.1408677101135254
9.961825370788574,0.060879625380039215,-0.903346836566925,0.8496036529541016,-2.0492639541625977,-0.35091787576675415,1.1408302783966064
9.982367277145386,0.06098750978708267,-0.9031268954277039,0.8497369289398193,-2.049226760864258,-0.3507207930088043,1.1408095359802246
10.00252914428711,0.06084827333688736,-0.903403103351593,0.849837064743042,-2.049267292022705,-0.3511972725391388,1.1408666372299194
10.022626399993896,0.06097457557916641,-0.90345299243927,0.8494517803192139,-2.0491504669189453,-0.3507624864578247,1.1408799886703491
10.042687892913818,0.060890354216098785,-0.9033558964729309,0.849724292755127,-2.04921817779541,-0.35101622343063354,1.1408783197402954
10.062832832336426,0.06094340234994888,-0.9028730988502502,0.8493605256080627,-2.0492308139801025,-0.3509816527366638,1.1408582925796509
10.082882404327393,0.06084255129098892,-0.902619481086731,0.8501706123352051,-2.049437999725342,-0.3511306047439575,1.1408125162124634
10.10291314125061,0.060776032507419586,-0.9016689658164978,0.8498927354812622,-2.0492446422576904,-0.35187622904777527,1.1408613920211792
10.122973680496216,0.06080219894647598,-0.9022418260574341,0.8490231037139893,-2.0491392612457275,-0.35114359855651855,1.1408694982528687
10.143063068389893,0.06094668060541153,-0.9025662541389465,0.8495808839797974,-2.0491864681243896,-0.351374089717865,1.140902042388916
10.163191556930542,0.06082264333963394,-0.9021454453468323,0.8498684167861938,-2.0493195056915283,-0.3509642481803894,1.1407235860824585
10.183255434036255,0.06069014221429825,-0.9029620885848999,0.8495461344718933,-2.049247980117798,-0.35096049308776855,1.140863299369812
10.203342199325562,0.06083700805902481,-0.9027000069618225,0.8493809103965759,-2.049327850341797,-0.3509778380393982,1.1408241987228394
10.2235107421875,0.06077937036752701,-0.9029915928840637,0.8494049310684204,-2.0492632389068604,-0.3504415452480316,1.1407740116119385
10.243547916412354,0.06085405498743057,-0.9025377631187439,0.8498602509498596,-2.0493719577789307,-0.35110729932785034,1.1408261060714722
10.263579845428467,0.060844458639621735,-0.9027023911476135,0.8494732975959778,-2.049269199371338,-0.3509785830974579,1.1408498287200928
10.28368878364563,0.06084839254617691,-0.9028236269950867,0.849378228187561,-2.049252986907959,-0.3509368598461151,1.140849232673645
10.303763628005981,0.0608317032456398,-0.9028024077415466,0.8494592308998108,-2.0492448806762695,-0.3510463237762451,1.1408618688583374
10.32381296157837,0.060946203768253326,-0.9026905298233032,0.849453866481781,-2.0492327213287354,-0.3510075509548187,1.140860915184021
10.343882083892822,0.06102440506219864,-0.9028016328811646,0.8491321802139282,-2.0491809844970703,-0.35072416067123413,1.1408623456954956
10.364096879959106,0.06082562357187271,-0.9026281237602234,0.8497248888015747,-2.0492653846740723,-0.351277232170105,1.140857219696045
10.384235382080078,0.06089440733194351,-0.9025819897651672,0.8496871590614319,-2.0492982864379883,-0.3512278199195862,1.1408603191375732
10.4043550491333,0.06070993095636368,-0.9027488827705383,0.8496359586715698,-2.049318790435791,-0.35118699073791504,1.1408427953720093
10.42441987991333,0.060794927179813385,-0.9028220772743225,0.8493504524230957,-2.0492866039276123,-0.35086172819137573,1.1408442258834839
10.444541215896606,0.06088534742593765,-0.9027489423751831,0.8494225740432739,-2.049260139465332,-0.3509714901447296,1.1408566236495972
10.464654684066772,0.06076810508966446,-0.9027831554412842,0.849492073059082,-2.0493087768554688,-0.3510105609893799,1.1408395767211914
10.484695672988892,0.0608205571770668,-0.9027841091156006,0.8494274616241455,-2.0492594242095947,-0.35097235441207886,1.140849232673645
10.504745721817017,0.06088820844888687,-0.902913510799408,0.8491471409797668,-2.049250602722168,-0.3505955636501312,1.1408276557922363
10.524833679199219,0.06069890409708023,-0.9028756022453308,0.8494088053703308,-2.0492255687713623,-0.3511214852333069,1.1408745050430298
10.544927597045898,0.06094781309366226,-0.9037449955940247,0.8479071259498596,-2.049335479736328,-0.3491671681404114,1.1407485008239746
10.565012454986572,0.06051770597696304,-0.9030344486236572,0.8501980304718018,-2.0496060848236084,-0.35128146409988403,1.1408109664916992
10.585056066513062,0.060701288282871246,-0.9034155011177063,0.8494778871536255,-2.0492897033691406,-0.3507934808731079,1.140884280204773
10.605143547058105,0.060870446264743805,-0.9036001563072205,0.8491495251655579,-2.0492093563079834,-0.3506616950035095,1.1409345865249634
10.625210762023926,0.060907281935214996,-0.9033603072166443,0.8495962023735046,-2.0492944717407227,-0.3507593274116516,1.1408685445785522
10.64539909362793,0.06085512787103653,-0.9031463861465454,0.8499883413314819,-2.0493812561035156,-0.35084205865859985,1.1408237218856812
10.665649175643921,0.06063727289438248,-0.9038463830947876,0.8488641977310181,-2.0489964485168457,-0.35107430815696716,1.1412526369094849
10.685734987258911,0.06065467745065689,-0.9033259153366089,0.8500564098358154,-2.0496034622192383,-0.351267009973526,1.1409271955490112
10.705854892730713,0.06077400594949722,-0.9034299254417419,0.8495869040489197,-2.0493786334991455,-0.3512512445449829,1.1410061120986938
10.72588062286377,0.060820914804935455,-0.9035452008247375,0.8493919372558594,-2.0492823123931885,-0.3511485755443573,1.141028642654419
10.746112823486328,0.06076035648584366,-0.903626561164856,0.8494729995727539,-2.0492732524871826,-0.3511940836906433,1.1410348415374756
10.766189336776733,0.06068209558725357,-0.9019864201545715,0.8511196374893188,-2.0491459369659424,-0.3527711033821106,1.140956997871399
10.786201477050781,0.060884393751621246,-0.903843104839325,0.8493736982345581,-2.049173593521118,-0.3509219288825989,1.1409022808074951
10.806355953216553,0.06073895841836929,-0.9040127396583557,0.8495674133300781,-2.049170732498169,-0.3510669469833374,1.140956163406372
10.826361179351807,0.060675837099552155,-0.903861939907074,0.8496412038803101,-2.049229383468628,-0.3512139320373535,1.1409721374511719
10.846412181854248,0.06074545532464981,-0.9039382934570312,0.8499003648757935,-2.0491878986358643,-0.35132312774658203,1.1410131454467773
10.866492748260498,0.060701884329319,-0.9034139513969421,0.849583089351654,-2.0492348670959473,-0.3515684902667999,1.140985131263733
10.886556625366211,0.0609230175614357,-0.9036600589752197,0.8492900133132935,-2.049168586730957,-0.3512507677078247,1.1410259008407593
10.906625747680664,0.06092796474695206,-0.9034578800201416,0.8497961163520813,-2.049264430999756,-0.3515099287033081,1.1410037279129028
10.92704701423645,0.060797251760959625,-0.9034807085990906,0.8498529195785522,-2.0492634773254395,-0.35152173042297363,1.1409856081008911
10.947104454040527,0.06082860380411148,-0.9034687876701355,0.8498019576072693,-2.0492353439331055,-0.35147780179977417,1.1410002708435059
10.96717381477356,0.060705460608005524,-0.9036844372749329,0.8495171666145325,-2.0492186546325684,-0.3513059914112091,1.1410070657730103
10.987431526184082,0.060673750936985016,-0.9038283824920654,0.8493096828460693,-2.0491929054260254,-0.3510921597480774,1.1409963369369507
11.007606983184814,0.06091848760843277,-0.903360903263092,0.8497196435928345,-2.0493111610412598,-0.35151565074920654,1.141029953956604
11.02765154838562,0.06075374037027359,-0.9034997820854187,0.8496747612953186,-2.049281597137451,-0.3513507843017578,1.1410058736801147
11.047707796096802,0.060870565474033356,-0.9033790230751038,0.8497656583786011,-2.0492215156555176,-0.35163795948028564,1.1410449743270874
11.067784547805786,0.06080750375986099,-0.9034935832023621,0.8497637510299683,-2.049241065979004,-0.35144659876823425,1.1410185098648071
11.087849140167236,0.06073860079050064,-0.9036240577697754,0.8496259450912476,-2.0492477416992188,-0.35127782821655273,1.1409859657287598
11.10800290107727,0.06092027574777603,-0.9033793807029724,0.8494695425033569,-2.0491702556610107,-0.35140788555145264,1.141039490699768
11.12802529335022,0.06092248111963272,-0.903480589389801,0.8494948148727417,-2.0492403507232666,-0.3513999879360199,1.1410294771194458
11.148181200027466,0.060818351805210114,-0.9032055735588074,0.8493366241455078,-2.049121141433716,-0.3515379726886749,1.141055703163147
11.16828989982605,0.06083814054727554,-0.9031623601913452,0.8497166037559509,-2.049207925796509,-0.35179126262664795,1.1410402059555054
11.18835735321045,0.06086025387048721,-0.9030115008354187,0.8499258160591125,-2.0492169857025146,-0.3519919514656067,1.1410534381866455
11.20861291885376,0.060593701899051666,-0.9029659628868103,0.8498265147209167,-2.04927396774292,-0.3522169589996338,1.1410046815872192
11.228761911392212,0.061160601675510406,-0.902298092842102,0.8492268323898315,-2.0491230487823486,-0.3515377938747406,1.1410022974014282
11.248810052871704,0.06095031648874283,-0.9025649428367615,0.8493177890777588,-2.049123764038086,-0.3518425226211548,1.1409995555877686
11.268932580947876,0.0608854666352272,-0.9032192230224609,0.8490541577339172,-2.049248218536377,-0.35140061378479004,1.1409785747528076
11.289071798324585,0.060750462114810944,-0.9032748341560364,0.848957359790802,-2.049448251724243,-0.3511897623538971,1.14104163646698
11.309195756912231,0.060961104929447174,-0.9028747081756592,0.8488304615020752,-2.0492734909057617,-0.35120099782943726,1.1410815715789795
11.32934021949768,0.06093118339776993,-0.9027355313301086,0.8490917682647705,-2.049232006072998,-0.35155490040779114,1.1410408020019531
11.349398136138916,0.060975588858127594,-0.9029452800750732,0.8487423658370972,-2.049163579940796,-0.3507821559906006,1.140978455543518
11.369462013244629,0.06115058809518814,-0.9026303887367249,0.8494990468025208,-2.0492799282073975,-0.3513490855693817,1.1409765481948853
11.389573335647583,0.06106457859277725,-0.9030488133430481,0.8492815494537354,-2.0491838455200195,-0.3510412871837616,1.1409794092178345
11.409584760665894,0.060959018766880035,-0.9024637937545776,0.8490607142448425,-2.0492284297943115,-0.3511010706424713,1.140921711921692
11.429651737213135,0.06091354042291641,-0.9021985530853271,0.849180281162262,-2.0492610931396484,-0.3514426052570343,1.1409162282943726
11.450098991394043,0.06080261617898941,-0.9032500386238098,0.8494952917098999,-2.049236297607422,-0.351156085729599,1.140982985496521
11.470239162445068,0.0607895627617836,-0.9030181765556335,0.8495234847068787,-2.0492029190063477,-0.35139453411102295,1.1409887075424194
11.490259408950806,0.060868360102176666,-0.902990996837616,0.8492881059646606,-2.049187421798706,-0.35121220350265503,1.1409845352172852
11.510484218597412,0.06095454841852188,-0.9030327200889587,0.8489658832550049,-2.0491416454315186,-0.35088592767715454,1.1409657001495361
11.53061819076538,0.06088624149560928,-0.9029293656349182,0.8490914106369019,-2.049224615097046,-0.35102009773254395,1.140944242477417
11.550689458847046,0.060899652540683746,-0.9030327200889587,0.8489390015602112,-2.049184799194336,-0.3508787155151367,1.140953540802002
11.570729970932007,0.060846902430057526,-0.9032279253005981,0.8487181663513184,-2.0490810871124268,-0.35082516074180603,1.1409856081008911
11.590824127197266,0.06092575937509537,-0.902685821056366,0.8494535684585571,-2.0492968559265137,-0.35130491852760315,1.1409467458724976
11.611022710800171,0.060975588858127594,-0.9029731750488281,0.8489769697189331,-2.049079418182373,-0.3511497676372528,1.141010046005249
11.63100814819336,0.06110469251871109,-0.902827799320221,0.8492738008499146,-2.049229860305786,-0.3510761559009552,1.1408582925796509
11.651084899902344,0.06118438392877579,-0.9025720953941345,0.8497318029403687,-2.0494425296783447,-0.3509507179260254,1.1406253576278687
11.67115592956543,0.06078139692544937,-0.9031844139099121,0.8487204313278198,-2.0489437580108643,-0.3507251739501953,1.1409322023391724
11.691226482391357,0.016749000176787376,-0.8937131762504578,0.3301597237586975,-2.1462466716766357,-0.2057374119758606,1.1133673191070557
11.711294174194336,0.02406982146203518,-0.8924543857574463,0.4632306694984436,-2.143707275390625,-0.2464938759803772,1.1469268798828125
11.73141098022461,0.03453473001718521,-0.8753224015235901,0.5121812224388123,-2.1386961936950684,-0.2652154862880707,1.1544811725616455
11.751454830169678,0.05474565178155899,-0.8503726720809937,0.5326078534126282,-2.136803150177002,-0.2672475576400757,1.1591413021087646
11.771547794342041,0.050050415098667145,-0.8447116017341614,0.529681921005249,-2.136636257171631,-0.2760135531425476,1.157871127128601
11.791697263717651,0.04697737842798233,-0.8331109881401062,0.5380563139915466,-2.135821580886841,-0.2924128472805023,1.1565616130828857
11.81169056892395,0.04556003957986832,-0.8075374960899353,0.5529350638389587,-2.1338415145874023,-0.3176153302192688,1.1556063890457153
11.831767082214355,0.04443339258432388,-0.7894317507743835,0.5665925145149231,-2.1309845447540283,-0.33798232674598694,1.1539400815963745
11.851831912994385,0.045898713171482086,-0.7762450575828552,0.5615864396095276,-2.1310739517211914,-0.34335118532180786,1.1530038118362427
11.871925592422485,0.04489252716302872,-0.7457976937294006,0.5772550106048584,-2.1290316581726074,-0.3708111345767975,1.1496729850769043
11.891972064971924,0.051465727388858795,-0.7288295030593872,0.5245749354362488,-2.133359432220459,-0.33282285928726196,1.1537178754806519
11.912068128585815,0.04856608062982559,-0.7274340391159058,0.5084668397903442,-2.1385514736175537,-0.31459251046180725,1.1546170711517334
11.932151556015015,0.041648365557193756,-0.702701985836029,0.5175028443336487,-2.1481940746307373,-0.33031365275382996,1.1539136171340942
11.95221471786499,0.04259137064218521,-0.699525773525238,0.4803364872932434,-2.155045986175537,-0.29504382610321045,1.1524807214736938
11.972295761108398,0.040873028337955475,-0.6942417025566101,0.4904491901397705,-2.15787410736084,-0.2990334928035736,1.152565360069275
11.992462635040283,0.036367274820804596,-0.6772274374961853,0.5018157958984375,-2.1581645011901855,-0.31534209847450256,1.1496247053146362
12.012475728988647,0.04354194551706314,-0.676532506942749,0.4739229083061218,-2.1581668853759766,-0.29402175545692444,1.1497987508773804
12.032538175582886,0.042059220373630524,-0.6522005200386047,0.48155009746551514,-2.155886173248291,-0.31819015741348267,1.1544841527938843
12.052639961242676,0.04402945190668106,-0.6497017741203308,0.4667937755584717,-2.1565330028533936,-0.3102499842643738,1.1536303758621216
12.072700262069702,0.04840198904275894,-0.6394574642181396,0.4420504570007324,-2.158397674560547,-0.29509517550468445,1.155720829963684
12.092958688735962,0.04320160299539566,-0.6242513656616211,0.450261652469635,-2.1593141555786133,-0.30918407440185547,1.1552958488464355
12.112943410873413,0.04609844833612442,-0.6165920495986938,0.42106348276138306,-2.162893295288086,-0.28727415204048157,1.1547287702560425
12.132999897003174,0.04465977102518082,-0.6190744638442993,0.4132126569747925,-2.164126396179199,-0.2800208628177643,1.1563860177993774
12.153111219406128,0.039562858641147614,-0.5997518301010132,0.4443029761314392,-2.1689531803131104,-0.31104978919029236,1.1545487642288208
12.173157930374146,0.04092172533273697,-0.6005986332893372,0.4148796796798706,-2.1729235649108887,-0.2829335629940033,1.152719497680664
12.193284749984741,0.03624395281076431,-0.5898752808570862,0.4279007315635681,-2.1749014854431152,-0.29637953639030457,1.1529184579849243
12.213361978530884,0.0356389656662941,-0.5850743055343628,0.43240517377853394,-2.173694610595703,-0.3019922077655792,1.1509445905685425
12.233417749404907,0.03914467245340347,-0.5868772864341736,0.40834057331085205,-2.173593282699585,-0.28101417422294617,1.151052713394165
12.253495693206787,0.03854046016931534,-0.5771593451499939,0.4063081741333008,-2.171602487564087,-0.2876357436180115,1.1523717641830444
12.273855209350586,0.03848782926797867,-0.5707637667655945,0.3976009488105774,-2.173426628112793,-0.28115081787109375,1.1518477201461792
12.293951511383057,0.03774455934762955,-0.5632088780403137,0.3989994525909424,-2.173457622528076,-0.285366028547287,1.1519664525985718
12.314056396484375,0.03767517954111099,-0.5616567730903625,0.3856924772262573,-2.1743993759155273,-0.27509042620658875,1.1506555080413818
12.33404541015625,0.033262886106967926,-0.5563216209411621,0.3884556293487549,-2.1773529052734375,-0.2775716781616211,1.1495848894119263
12.354138612747192,0.03406117111444473,-0.5517241358757019,0.3926342725753784,-2.1777238845825195,-0.28354769945144653,1.1498655080795288
12.374309062957764,0.033239997923374176,-0.5458483695983887,0.3886086344718933,-2.1804614067077637,-0.28003332018852234,1.1485258340835571
12.39437747001648,0.0328315868973732,-0.5422788858413696,0.3778630495071411,-2.181398391723633,-0.27131152153015137,1.1473902463912964
12.414504528045654,0.03057042323052883,-0.5382035374641418,0.38924938440322876,-2.1823134422302246,-0.27891895174980164,1.1468050479888916
12.43458867073059,0.03217671066522598,-0.5385528206825256,0.38105010986328125,-2.182006597518921,-0.2726484537124634,1.146238923072815
12.454664707183838,0.0308480616658926,-0.53374844789505,0.37626218795776367,-2.1815271377563477,-0.2707977294921875,1.1467995643615723
12.474738836288452,0.031004345044493675,-0.5294597744941711,0.37820693850517273,-2.181483745574951,-0.2732020914554596,1.1462757587432861
12.494837760925293,0.030984198674559593,-0.5301480889320374,0.3694417178630829,-2.181364059448242,-0.26629993319511414,1.1455695629119873
12.514883279800415,0.03068760596215725,-0.5258896946907043,0.36949828267097473,-2.180778980255127,-0.2685459554195404,1.1464648246765137
12.534961700439453,0.030068552121520042,-0.5249113440513611,0.36177486181259155,-2.1812446117401123,-0.2614896297454834,1.1453856229782104
12.555002927780151,0.029111003503203392,-0.5213600993156433,0.36362677812576294,-2.181757926940918,-0.26336443424224854,1.1438900232315063
12.575097799301147,0.029343700036406517,-0.5172057747840881,0.3615655303001404,-2.1826112270355225,-0.2617344558238983,1.143129587173462
12.595163822174072,0.027247583493590355,-0.5151361227035522,0.36736631393432617,-2.183131217956543,-0.2661709487438202,1.1424815654754639
12.615215301513672,0.02782646380364895,-0.5122671127319336,0.3591553568840027,-2.1836256980895996,-0.2585436999797821,1.1413213014602661
12.6353018283844,0.0273305531591177,-0.5132008790969849,0.3545653223991394,-2.1833183765411377,-0.25487762689590454,1.1417545080184937
12.6553635597229,0.025976872071623802,-0.5082736611366272,0.3577670454978943,-2.1830711364746094,-0.25875550508499146,1.1398380994796753
12.675433158874512,0.02571580372750759,-0.5090906620025635,0.3532552123069763,-2.1826212406158447,-0.2546286880970001,1.1395632028579712
12.695664167404175,0.02527329884469509,-0.5048994421958923,0.36070194840431213,-2.183683156967163,-0.25962117314338684,1.139114260673523
12.71575140953064,0.025542056187987328,-0.5017273426055908,0.3575955033302307,-2.1825337409973145,-0.2591914236545563,1.1387965679168701
12.735832929611206,0.024851834401488304,-0.501973032951355,0.3539193570613861,-2.184248447418213,-0.2545694410800934,1.1377074718475342
12.756322145462036,0.023680364713072777,-0.5025925040245056,0.35228902101516724,-2.184516429901123,-0.2519587576389313,1.1373296976089478
12.776406049728394,0.023205911740660667,-0.4981173276901245,0.3571411073207855,-2.1837687492370605,-0.25906237959861755,1.136696219444275
12.796472311019897,0.023613667115569115,-0.5010008215904236,0.3486621379852295,-2.184051036834717,-0.2498393952846527,1.135952353477478
12.816524744033813,0.023054635152220726,-0.49897122383117676,0.3530595302581787,-2.1836798191070557,-0.2539089024066925,1.1356884241104126
12.836610794067383,0.02311793528497219,-0.49649256467819214,0.3557153642177582,-2.184479236602783,-0.2543889284133911,1.134973406791687
12.856687068939209,0.023493802174925804,-0.4948941469192505,0.34645724296569824,-2.1828830242156982,-0.24907922744750977,1.135018229484558
12.87674593925476,0.021885549649596214,-0.4941812753677368,0.3506537675857544,-2.1835851669311523,-0.2518157958984375,1.1342333555221558
12.896849870681763,0.022851979359984398,-0.49320322275161743,0.34747159481048584,-2.183314800262451,-0.24857336282730103,1.1334903240203857
12.916945695877075,0.021328365430235863,-0.49607664346694946,0.35220807790756226,-2.183285713195801,-0.2512560486793518,1.1341663599014282
12.937052249908447,0.022346293553709984,-0.49272412061691284,0.35036227107048035,-2.1832873821258545,-0.2503013610839844,1.1334701776504517
12.957073211669922,0.021853363141417503,-0.4932047128677368,0.34945476055145264,-2.1838746070861816,-0.248702734708786,1.1329712867736816
12.977217674255371,0.02169809304177761,-0.4944283962249756,0.3483387231826782,-2.1837081909179688,-0.24782246351242065,1.1330240964889526
12.997291326522827,0.02109912596642971,-0.4921110272407532,0.3530643582344055,-2.1834754943847656,-0.2515345513820648,1.132339358329773
13.017297506332397,0.022257959470152855,-0.49141889810562134,0.34417665004730225,-2.183356523513794,-0.24376145005226135,1.1321794986724854
13.037387371063232,0.020036732777953148,-0.49253255128860474,0.3477811813354492,-2.1831564903259277,-0.24661612510681152,1.1321662664413452
13.057492017745972,0.019998347386717796,-0.49084216356277466,0.34939855337142944,-2.183096408843994,-0.24766507744789124,1.1308939456939697
13.077563524246216,0.020314550027251244,-0.49160677194595337,0.345633864402771,-2.1832404136657715,-0.24237751960754395,1.1305397748947144
13.097780466079712,0.01888892613351345,-0.49066734313964844,0.34678915143013,-2.1832735538482666,-0.24390724301338196,1.1301816701889038
13.117950201034546,0.01889721117913723,-0.4914294481277466,0.34671029448509216,-2.183751106262207,-0.24279555678367615,1.1298882961273193
13.137949466705322,0.01816091500222683,-0.4906463027000427,0.3511084318161011,-2.1844663619995117,-0.24388191103935242,1.128440499305725
13.15824031829834,0.018504535779356956,-0.48975837230682373,0.3493621051311493,-2.1833548545837402,-0.24451544880867004,1.129472017288208
13.178394556045532,0.01881716214120388,-0.4911310076713562,0.34748709201812744,-2.183180809020996,-0.24305149912834167,1.1294833421707153
13.198423624038696,0.018501317128539085,-0.4886518120765686,0.35054051876068115,-2.1836647987365723,-0.2452670931816101,1.129103183746338
13.218491792678833,0.018841957673430443,-0.49015605449676514,0.34585773944854736,-2.183070659637451,-0.24170541763305664,1.1286816596984863
13.23856806755066,0.01863340102136135,-0.48984092473983765,0.3463360667228699,-2.1828439235687256,-0.2417398989200592,1.1290004253387451
13.258778810501099,0.018438851460814476,-0.4890223741531372,0.34768104553222656,-2.1828064918518066,-0.24255266785621643,1.1282423734664917
13.27874493598938,0.01843724213540554,-0.4889169931411743,0.34732383489608765,-2.1826491355895996,-0.24242809414863586,1.1281007528305054
13.298885583877563,0.018205678090453148,-0.48962080478668213,0.3473241925239563,-2.1828768253326416,-0.24193456768989563,1.128147006034851
13.31906270980835,0.01843426190316677,-0.4884985685348511,0.34670987725257874,-2.1828041076660156,-0.24186882376670837,1.1281278133392334
13.339165687561035,0.01824716292321682,-0.4885050058364868,0.34692347049713135,-2.1827704906463623,-0.24204528331756592,1.1279398202896118
13.35921311378479,0.018160497769713402,-0.48934197425842285,0.3465104103088379,-2.1829934120178223,-0.24116113781929016,1.1281105279922485
13.379295110702515,0.0182476993650198,-0.48883700370788574,0.34606486558914185,-2.1830129623413086,-0.24095049500465393,1.1280021667480469
13.399431705474854,0.018128609284758568,-0.4886261224746704,0.34646904468536377,-2.182827949523926,-0.24135443568229675,1.1278198957443237
13.419464826583862,0.018238281831145287,-0.48868125677108765,0.3467709720134735,-2.1829423904418945,-0.24121412634849548,1.1278539896011353
13.44003415107727,0.018137549981474876,-0.4884384870529175,0.34668874740600586,-2.182891368865967,-0.24117761850357056,1.1275442838668823
13.460152387619019,0.01768735609948635,-0.4892982840538025,0.3470839858055115,-2.1829090118408203,-0.24107062816619873,1.1275615692138672
13.480194091796875,0.017599022015929222,-0.4900977611541748,0.3465645909309387,-2.1832120418548584,-0.23941057920455933,1.127341389656067
13.50036096572876,0.01760563813149929,-0.48917585611343384,0.34631773829460144,-2.182771921157837,-0.2401374876499176,1.1275336742401123
13.520493268966675,0.017490779981017113,-0.48850953578948975,0.3472912311553955,-2.1829166412353516,-0.24092841148376465,1.127267599105835
13.540475606918335,0.01753131113946438,-0.4887577295303345,0.34693780541419983,-2.1828207969665527,-0.24060189723968506,1.1272251605987549
13.560543775558472,0.017514443024992943,-0.4888370633125305,0.3465026021003723,-2.1827640533447266,-0.2402007281780243,1.1272258758544922
13.580894470214844,0.01738945208489895,-0.48850154876708984,0.34727877378463745,-2.1827001571655273,-0.24090594053268433,1.1272019147872925
13.601034879684448,0.01741734705865383,-0.48865121603012085,0.3458701968193054,-2.1827592849731445,-0.23961561918258667,1.1269651651382446
13.621092319488525,0.017266904935240746,-0.4887387752532959,0.3469069302082062,-2.18271803855896,-0.240352600812912,1.1269601583480835
13.641124486923218,0.017429804429411888,-0.48854100704193115,0.3464115858078003,-2.182525157928467,-0.24003049731254578,1.1269336938858032
13.661348819732666,0.017263388261198997,-0.4889875054359436,0.34650951623916626,-2.182638645172119,-0.239915132522583,1.1269398927688599
13.681292057037354,0.017107760533690453,-0.4888620972633362,0.34659522771835327,-2.182483196258545,-0.2401597499847412,1.1267873048782349
13.701401472091675,0.017196273431181908,-0.4889172911643982,0.3469509780406952,-2.1826114654541016,-0.240116149187088,1.1267929077148438
13.721403360366821,0.017206108197569847,-0.4882466197013855,0.3470834493637085,-2.182551383972168,-0.24032297730445862,1.126617193222046
13.741501808166504,0.017116283997893333,-0.4886299967765808,0.3474690914154053,-2.182507276535034,-0.24073708057403564,1.1267226934432983
13.761567831039429,0.01698467694222927,-0.4885150194168091,0.34641242027282715,-2.1825006008148193,-0.2393491566181183,1.126418948173523
13.781656265258789,0.01707587204873562,-0.4883686304092407,0.34661248326301575,-2.1824281215667725,-0.23976001143455505,1.1263188123703003
13.801687240600586,0.01689753495156765,-0.4884389638900757,0.3470895290374756,-2.1825931072235107,-0.23979350924491882,1.126158595085144
13.821810722351074,0.017045235261321068,-0.4881654977798462,0.3470529615879059,-2.182622194290161,-0.23967722058296204,1.1261186599731445
13.841896772384644,0.016974246129393578,-0.4880818724632263,0.3476809859275818,-2.1827874183654785,-0.23934683203697205,1.1256974935531616
13.861935138702393,0.01731083355844021,-0.48815131187438965,0.3459429144859314,-2.1822190284729004,-0.23919779062271118,1.1261094808578491
13.882016897201538,0.01676914654672146,-0.48805391788482666,0.3470444679260254,-2.182271957397461,-0.23916438221931458,1.1260149478912354
13.902129888534546,0.017065977677702904,-0.48832738399505615,0.34615394473075867,-2.1823313236236572,-0.23843857645988464,1.1259801387786865
13.922171831130981,0.01692638359963894,-0.48816895484924316,0.3470488488674164,-2.182363510131836,-0.23898592591285706,1.1259788274765015
13.942296028137207,0.016836678609251976,-0.488678514957428,0.34668684005737305,-2.1823339462280273,-0.23893868923187256,1.12594735622406
13.962402820587158,0.016856109723448753,-0.48880165815353394,0.34659725427627563,-2.182307243347168,-0.23917579650878906,1.1260231733322144
13.982485294342041,0.017084216699004173,-0.4881964325904846,0.3467422425746918,-2.182405948638916,-0.23873454332351685,1.1259346008300781
14.002808332443237,0.016875898465514183,-0.4885721206665039,0.34673047065734863,-2.182339668273926,-0.23920488357543945,1.126024603843689
14.023018836975098,0.016759848222136497,-0.48834675550460815,0.34712374210357666,-2.182434320449829,-0.2388271987438202,1.1259050369262695
14.043140411376953,0.016810810193419456,-0.48857659101486206,0.34693479537963867,-2.1823952198028564,-0.23914113640785217,1.1259628534317017
14.063118696212769,0.01680896244943142,-0.4884938597679138,0.3469124436378479,-2.182417392730713,-0.2387908697128296,1.1258600950241089
14.083210945129395,0.01665703020989895,-0.4883986711502075,0.347176730632782,-2.182410478591919,-0.238847017288208,1.1257339715957642
14.103278636932373,0.016820942983031273,-0.48862773180007935,0.34684526920318604,-2.1824121475219727,-0.23898008465766907,1.125893473625183
14.123340368270874,0.016777610406279564,-0.48850440979003906,0.34682053327560425,-2.182391405105591,-0.23855718970298767,1.1257057189941406
14.14339542388916,0.016561543568968773,-0.48847103118896484,0.347751647233963,-2.182349443435669,-0.23924124240875244,1.125697135925293
14.163496017456055,0.016766881570219994,-0.4889290928840637,0.3471742570400238,-2.182300090789795,-0.23873022198677063,1.1257256269454956
14.183612585067749,0.016559278592467308,-0.4891049861907959,0.347064346075058,-2.1822421550750732,-0.23876440525054932,1.1257582902908325
14.20365309715271,0.01674780808389187,-0.4893054962158203,0.34648460149765015,-2.182133913040161,-0.23838654160499573,1.1257798671722412
14.223761081695557,0.01678321324288845,-0.4884651303291321,0.3470529317855835,-2.182302474975586,-0.23864305019378662,1.1257357597351074
14.243849515914917,0.01672307215631008,-0.48871785402297974,0.3470400273799896,-2.1823017597198486,-0.23864850401878357,1.125726342201233
14.26392126083374,0.016592180356383324,-0.48891109228134155,0.3472844362258911,-2.1823573112487793,-0.23892104625701904,1.1256810426712036
14.283978939056396,0.016717230901122093,-0.4887081980705261,0.34728458523750305,-2.1823298931121826,-0.23876234889030457,1.125731348991394
14.304123878479004,0.016591167077422142,-0.48888808488845825,0.34727466106414795,-2.182319164276123,-0.23876148462295532,1.1257253885269165
14.324177742004395,0.01673511229455471,-0.4886363744735718,0.3475998640060425,-2.182209014892578,-0.23896050453186035,1.1257611513137817
14.34431266784668,0.01675490103662014,-0.4888014793395996,0.34717535972595215,-2.1821396350860596,-0.23887497186660767,1.1257603168487549
14.364351272583008,0.01680985651910305,-0.48886948823928833,0.3469925820827484,-2.1821610927581787,-0.2386799156665802,1.1257213354110718
14.384533882141113,0.01660231314599514,-0.48872506618499756,0.34702110290527344,-2.182126522064209,-0.2384679615497589,1.1255812644958496
14.404614210128784,0.016539132222533226,-0.48916828632354736,0.3462900221347809,-2.1819992065429688,-0.23811420798301697,1.1255652904510498
14.424680471420288,0.016541635617613792,-0.48886799812316895,0.34767523407936096,-2.182157516479492,-0.23903632164001465,1.1255426406860352
14.444764852523804,0.01664588414132595,-0.4887363314628601,0.3472350239753723,-2.182135820388794,-0.23866215348243713,1.1255214214324951
14.464921712875366,0.016651486977934837,-0.48886144161224365,0.3471178710460663,-2.1821000576019287,-0.2385077178478241,1.1255433559417725
14.485023975372314,0.01658925972878933,-0.48870617151260376,0.34809884428977966,-2.1820831298828125,-0.23918578028678894,1.1255583763122559
14.505083084106445,0.01664653979241848,-0.4887176752090454,0.3475204408168793,-2.1819849014282227,-0.2388547956943512,1.1255789995193481
14.525136947631836,0.01671377383172512,-0.4886040687561035,0.3476536273956299,-2.1820828914642334,-0.23878374695777893,1.1255079507827759
14.545303106307983,0.016600167378783226,-0.48904716968536377,0.347075879573822,-2.1819281578063965,-0.23873001337051392,1.1255593299865723
14.565358877182007,0.016748880967497826,-0.4888920187950134,0.3469855785369873,-2.1819610595703125,-0.2385661005973816,1.125533103942871
14.585402488708496,0.016709065064787865,-0.48843300342559814,0.3477931022644043,-2.1820037364959717,-0.23926779627799988,1.1254628896713257
14.605498313903809,0.016661083325743675,-0.48885679244995117,0.3474940061569214,-2.182039976119995,-0.2386247217655182,1.1254938840866089
14.625556707382202,0.016782140359282494,-0.4883989691734314,0.34809669852256775,-2.1819920539855957,-0.239352285861969,1.12545645236969
