liuyurong129/humanoid-gym/humanoid/data/target_q_20250521-003639.csv
timestamp,joint_1,joint_2,joint_3,joint_4,joint_5,joint_6
3.24249267578125e-05,0.0,0.0,0.0,0.0,0.0,0.0
0.020139694213867188,0.0,0.0,0.0,0.0,0.0,0.0
0.040220022201538086,0.0,0.0,0.0,0.0,0.0,0.0
0.0603334903717041,-1.8841309547424316,-0.5086382031440735,0.2912288308143616,2.96,-0.33700576424598694,1.5571664571762085
0.08048129081726074,-2.6455225944519043,-0.5117655992507935,0.14399248361587524,2.885542392730713,0.11029762029647827,1.9026203155517578
0.10055112838745117,-2.7037367820739746,-0.4231690764427185,0.20847903192043304,2.719771146774292,0.20878010988235474,1.9579784870147705
0.12057924270629883,-2.696202516555786,-0.4194413423538208,0.2212955206632614,2.7159812450408936,0.21592849493026733,1.9555909633636475
0.140763521194458,-2.6941909790039062,-0.42108428478240967,0.22135551273822784,2.7151761054992676,0.21546116471290588,1.955383539199829
0.16080141067504883,-2.6858162879943848,-0.4233933985233307,0.224187433719635,2.7158584594726562,0.21849122643470764,1.9545230865478516
0.18101096153259277,-2.679318904876709,-0.4249183237552643,0.2289348542690277,2.716470718383789,0.22278594970703125,1.9533723592758179
0.20093512535095215,-2.6761474609375,-0.42595598101615906,0.23260058462619781,2.7162725925445557,0.2252897024154663,1.9519858360290527
0.22105836868286133,-2.6744279861450195,-0.42670851945877075,0.23359988629817963,2.715608835220337,0.22555968165397644,1.9512665271759033
0.2411332130432129,-2.6683342456817627,-0.428317666053772,0.2361687272787094,2.7153003215789795,0.22833891212940216,1.9496036767959595
0.2611818313598633,-2.662578582763672,-0.4302675426006317,0.23882371187210083,2.715329170227051,0.22991201281547546,1.9483282566070557
0.28122544288635254,-2.65671968460083,-0.4318009614944458,0.2423039674758911,2.715440273284912,0.23266354203224182,1.946960210800171
0.3013112545013428,-2.6549744606018066,-0.4326471984386444,0.2436913400888443,2.7149624824523926,0.23354963958263397,1.946223258972168
0.3214266300201416,-2.6505112648010254,-0.4340287148952484,0.24702344834804535,2.714879035949707,0.23600316047668457,1.9449445009231567
0.3414790630340576,-2.6428611278533936,-0.4357951283454895,0.2510468363761902,2.714430809020996,0.23930181562900543,1.9430100917816162
0.3615734577178955,-2.640885829925537,-0.4369756579399109,0.2513812780380249,2.7138712406158447,0.23955854773521423,1.942333698272705
0.38163018226623535,-2.633718490600586,-0.43962085247039795,0.25409162044525146,2.7126638889312744,0.24133634567260742,1.9398434162139893
0.4017021656036377,-2.6253914833068848,-0.4417515993118286,0.2586600184440613,2.7131600379943848,0.24502305686473846,1.9381191730499268
0.42177844047546387,-2.6173367500305176,-0.443830668926239,0.2629645764827728,2.7133514881134033,0.24887603521347046,1.9367955923080444
0.44188451766967773,-2.614088773727417,-0.44473233819007874,0.26587116718292236,2.713498830795288,0.25145676732063293,1.9357478618621826
0.4619786739349365,-2.6123507022857666,-0.4458816647529602,0.26815465092658997,2.7129054069519043,0.2529070973396301,1.9344820976257324
0.4820091724395752,-2.605772018432617,-0.4477759301662445,0.2708205580711365,2.7125511169433594,0.25505971908569336,1.9325923919677734
0.5020675659179688,-2.6039328575134277,-0.4488603472709656,0.2717832922935486,2.711852550506592,0.25500622391700745,1.931725263595581
0.5222561359405518,-2.599147319793701,-0.4507460296154022,0.2743314206600189,2.711527109146118,0.25665172934532166,1.9305607080459595
0.5422556400299072,-2.590358018875122,-0.45282402634620667,0.27870646119117737,2.710925579071045,0.2599935829639435,1.9287269115447998
0.5623226165771484,-2.5845539569854736,-0.45477256178855896,0.28358685970306396,2.7108893394470215,0.26346293091773987,1.9270658493041992
0.5824201107025146,-2.584371328353882,-0.455196350812912,0.2850193977355957,2.7106540203094482,0.26409289240837097,1.9266130924224854
0.6025269031524658,-2.5808563232421875,-0.456370085477829,0.2867099642753601,2.7103805541992188,0.26603907346725464,1.9253323078155518
0.62255859375,-2.57234525680542,-0.45913025736808777,0.2899661660194397,2.709137439727783,0.2679283320903778,1.922598123550415
0.6426353454589844,-2.5663280487060547,-0.46048012375831604,0.2917405664920807,2.7093944549560547,0.2697974741458893,1.921391487121582
0.6627309322357178,-2.5600147247314453,-0.4628634452819824,0.2959113121032715,2.7084033489227295,0.2722349166870117,1.9195021390914917
0.6828222274780273,-2.5537941455841064,-0.4651332199573517,0.2981623113155365,2.708204746246338,0.27424538135528564,1.917984962463379
0.7028927803039551,-2.552914619445801,-0.46648934483528137,0.29871636629104614,2.70768404006958,0.2756870985031128,1.916628122329712
0.7237637042999268,-2.5476973056793213,-0.4680798053741455,0.3002294898033142,2.7071096897125244,0.2769334316253662,1.9149665832519531
0.7438516616821289,-2.5430479049682617,-0.46894294023513794,0.30212950706481934,2.707228899002075,0.27809998393058777,1.9137818813323975
0.7640049457550049,-2.536592483520508,-0.4705301821231842,0.305169939994812,2.70782470703125,0.2802295684814453,1.9131431579589844
0.7840025424957275,-2.5323519706726074,-0.4716635048389435,0.30963796377182007,2.7078402042388916,0.2833031713962555,1.9114487171173096
0.8043496608734131,-2.5277044773101807,-0.4729776978492737,0.3126918375492096,2.7073373794555664,0.28567415475845337,1.9098856449127197
0.8244409561157227,-2.5247130393981934,-0.4733676016330719,0.3147224187850952,2.7077317237854004,0.2873460650444031,1.909294843673706
0.8445076942443848,-2.522157669067383,-0.475175678730011,0.3170751929283142,2.7064101696014404,0.2890554368495941,1.9073412418365479
0.8646016120910645,-2.5133538246154785,-0.47793182730674744,0.31890201568603516,2.705385684967041,0.29068830609321594,1.904853343963623
0.8849501609802246,-2.5078420639038086,-0.4797147810459137,0.32239019870758057,2.705422878265381,0.2925833761692047,1.9035775661468506
0.9050564765930176,-2.5049924850463867,-0.4806038439273834,0.3228535056114197,2.7052555084228516,0.2932533919811249,1.903249979019165
0.9251065254211426,-2.5018205642700195,-0.4820120930671692,0.3248075544834137,2.705242156982422,0.29454097151756287,1.9022958278656006
0.9451816082000732,-2.4943532943725586,-0.48386961221694946,0.3279101550579071,2.7050304412841797,0.29727864265441895,1.9007067680358887
0.9652416706085205,-2.4903817176818848,-0.4856068789958954,0.33093881607055664,2.704685926437378,0.30016255378723145,1.8982203006744385
0.9853582382202148,-2.4886858463287354,-0.4862312078475952,0.3327265977859497,2.7043538093566895,0.30072706937789917,1.8974902629852295
1.00559663772583,-2.4828436374664307,-0.4875137507915497,0.3358340263366699,2.704383134841919,0.3032374680042267,1.8961701393127441
1.0254933834075928,-2.479849338531494,-0.48905789852142334,0.33834171295166016,2.703636646270752,0.30411577224731445,1.8952993154525757
1.045548677444458,-2.4738197326660156,-0.4908673167228699,0.34118878841400146,2.7032060623168945,0.306197851896286,1.8940461874008179
1.0656352043151855,-2.470813512802124,-0.4914838671684265,0.34331443905830383,2.7033944129943848,0.3076988458633423,1.8933581113815308
1.085710048675537,-2.463982105255127,-0.49284401535987854,0.34757521748542786,2.7036759853363037,0.31137901544570923,1.8919211626052856
1.1057751178741455,-2.461862564086914,-0.4944368004798889,0.35029733180999756,2.7031803131103516,0.31390559673309326,1.8904627561569214
1.1260223388671875,-2.4552161693573,-0.49653947353363037,0.3529541492462158,2.7026376724243164,0.3159884512424469,1.888542890548706
1.1461431980133057,-2.452244281768799,-0.4973317086696625,0.3545142710208893,2.7023894786834717,0.3160856366157532,1.8877004384994507
1.16624116897583,-2.4464144706726074,-0.49899378418922424,0.3558739721775055,2.702514410018921,0.3175157904624939,1.8866264820098877
1.1862709522247314,-2.442138910293579,-0.4998914301395416,0.3596555292606354,2.702786445617676,0.32035863399505615,1.885119915008545
1.2063381671905518,-2.43734073638916,-0.5015045404434204,0.3623954653739929,2.7022323608398438,0.3223702907562256,1.8836455345153809
1.2264654636383057,-2.43605375289917,-0.5020922422409058,0.3633549213409424,2.7023355960845947,0.3229793310165405,1.8833885192871094
1.2465507984161377,-2.4321374893188477,-0.5037131309509277,0.36666128039360046,2.7016961574554443,0.3260592222213745,1.8812086582183838
1.2666616439819336,-2.4244673252105713,-0.5060557723045349,0.3680560290813446,2.700225353240967,0.32769420742988586,1.8787925243377686
1.2870023250579834,-2.420233726501465,-0.5073089599609375,0.3699319660663605,2.7002310752868652,0.3276383876800537,1.877532958984375
1.3070917129516602,-2.4170331954956055,-0.5084393620491028,0.37095892429351807,2.7002170085906982,0.32840368151664734,1.8772456645965576
1.3272290229797363,-2.411607265472412,-0.509648323059082,0.37423476576805115,2.7004048824310303,0.3311185836791992,1.875971794128418
1.3472669124603271,-2.4071149826049805,-0.5110772848129272,0.37769946455955505,2.700223445892334,0.33351585268974304,1.8745933771133423
1.3673462867736816,-2.4054923057556152,-0.5115625858306885,0.37993109226226807,2.7002346515655518,0.335444837808609,1.8736867904663086
1.38740873336792,-2.404132843017578,-0.5133259296417236,0.38205093145370483,2.698826551437378,0.33672821521759033,1.8718335628509521
1.4075582027435303,-2.3968896865844727,-0.5157424807548523,0.3846016526222229,2.697803258895874,0.3382694125175476,1.8696889877319336
1.4275708198547363,-2.3909964561462402,-0.5176365375518799,0.38673725724220276,2.697481155395508,0.33870041370391846,1.8686881065368652
1.447688102722168,-2.389591932296753,-0.5181739330291748,0.3873133659362793,2.6972646713256836,0.3385825753211975,1.8683397769927979
1.4677295684814453,-2.383704662322998,-0.5196834802627563,0.3899245262145996,2.6971583366394043,0.3407232165336609,1.8671762943267822
1.4878251552581787,-2.3776304721832275,-0.5207061767578125,0.39293012022972107,2.6975762844085693,0.3440457284450531,1.8654229640960693
1.507925271987915,-2.373373508453369,-0.5227040648460388,0.39559316635131836,2.6966288089752197,0.34681573510169983,1.862788438796997
1.528017282485962,-2.371201753616333,-0.5240284204483032,0.39667487144470215,2.696030855178833,0.34672975540161133,1.8615257740020752
1.5480847358703613,-2.3687806129455566,-0.525421142578125,0.40049850940704346,2.69590425491333,0.34966230392456055,1.8594284057617188
1.5681490898132324,-2.362679958343506,-0.5271551012992859,0.40303075313568115,2.6953701972961426,0.35049378871917725,1.8587286472320557
1.588216781616211,-2.360313892364502,-0.5274043679237366,0.40430939197540283,2.695500612258911,0.35043102502822876,1.8586666584014893
1.6083111763000488,-2.35477352142334,-0.5286043882369995,0.4069451093673706,2.6953072547912598,0.3526569902896881,1.8575294017791748
1.6284165382385254,-2.351602077484131,-0.5300990343093872,0.40952298045158386,2.6952714920043945,0.35488349199295044,1.8563028573989868
1.6484806537628174,-2.34615421295166,-0.5322625637054443,0.41201382875442505,2.6943535804748535,0.35649755597114563,1.8540451526641846
1.6688458919525146,-2.34077525138855,-0.5339937210083008,0.41549694538116455,2.6945767402648926,0.36008402705192566,1.8515100479125977
1.68898344039917,-2.340433359146118,-0.5346273183822632,0.4161323010921478,2.694270133972168,0.3603517711162567,1.8510313034057617
1.709049940109253,-2.335986614227295,-0.5355360507965088,0.4185745120048523,2.6941239833831787,0.36169198155403137,1.8500912189483643
1.7291409969329834,-2.330652952194214,-0.5363922715187073,0.4209570586681366,2.6943540573120117,0.3627113103866577,1.8493648767471313
1.7491626739501953,-2.324673891067505,-0.537594199180603,0.4239940643310547,2.694084405899048,0.36516278982162476,1.8476238250732422
1.769277811050415,-2.3222460746765137,-0.5387805700302124,0.42443668842315674,2.6932501792907715,0.3655475080013275,1.8465213775634766
1.789332389831543,-2.3167099952697754,-0.5409680604934692,0.4261849522590637,2.6929023265838623,0.3678189814090729,1.844466209411621
1.8093864917755127,-2.3113203048706055,-0.5431205034255981,0.430098295211792,2.6922366619110107,0.3703800439834595,1.8424568176269531
1.829521656036377,-2.310002326965332,-0.5439900755882263,0.43135976791381836,2.691911220550537,0.3705238103866577,1.8419954776763916
1.8496088981628418,-2.3078832626342773,-0.5450496673583984,0.43227022886276245,2.6915640830993652,0.3711227476596832,1.8411166667938232
1.8696725368499756,-2.302044153213501,-0.5457724332809448,0.4348958730697632,2.6916580200195312,0.3729403018951416,1.8401052951812744
1.8897380828857422,-2.2991445064544678,-0.5469321012496948,0.43622076511383057,2.6908512115478516,0.3731590807437897,1.8390660285949707
1.909982681274414,-2.2921390533447266,-0.5490143895149231,0.4402085244655609,2.690403699874878,0.37572795152664185,1.8365346193313599
1.9300851821899414,-2.288364887237549,-0.549933910369873,0.4423989951610565,2.6902036666870117,0.3779223561286926,1.834966778755188
1.9501614570617676,-2.2833383083343506,-0.551990270614624,0.44439607858657837,2.689648151397705,0.37981098890304565,1.8335306644439697
1.970273733139038,-2.2800731658935547,-0.5536696314811707,0.4472711384296417,2.6893835067749023,0.38204625248908997,1.832154393196106
1.9903056621551514,-2.2787795066833496,-0.5542029142379761,0.44807446002960205,2.6895012855529785,0.3819570243358612,1.832179307937622
2.01055908203125,-2.275424003601074,-0.5549410581588745,0.4499605894088745,2.6893482208251953,0.38346531987190247,1.830869197845459
2.030538320541382,-2.2711029052734375,-0.5559012293815613,0.45216190814971924,2.689077138900757,0.3835253119468689,1.8299925327301025
2.050776958465576,-2.268087387084961,-0.5565078258514404,0.45264357328414917,2.6887366771698,0.3841858506202698,1.8290719985961914
2.070873975753784,-2.2617239952087402,-0.558355450630188,0.4555843472480774,2.6888110637664795,0.38682156801223755,1.827103853225708
2.090989828109741,-2.2550244331359863,-0.5605770349502563,0.45929351449012756,2.688530921936035,0.3901720643043518,1.824872374534607
2.111018180847168,-2.2511210441589355,-0.5622294545173645,0.4620932340621948,2.688490867614746,0.39185988903045654,1.824031114578247
2.131098747253418,-2.2505931854248047,-0.5626063942909241,0.4635714292526245,2.688386917114258,0.39333587884902954,1.8230695724487305
2.1511714458465576,-2.247075080871582,-0.564153790473938,0.4635317623615265,2.6868138313293457,0.39347773790359497,1.8210808038711548
2.1712489128112793,-2.243081569671631,-0.565579891204834,0.46497854590415955,2.6861677169799805,0.3927268087863922,1.8194260597229004
2.191291332244873,-2.2374629974365234,-0.5666797757148743,0.4679844081401825,2.686595916748047,0.3944169580936432,1.8185672760009766
2.211374282836914,-2.2347259521484375,-0.5669312477111816,0.4696464538574219,2.686522960662842,0.3959229290485382,1.8177212476730347
2.2314484119415283,-2.2301294803619385,-0.568291187286377,0.47243374586105347,2.686203956604004,0.39789748191833496,1.8165512084960938
2.251539468765259,-2.225356101989746,-0.5701992511749268,0.4760344624519348,2.6861166954040527,0.4013010263442993,1.8147794008255005
2.2715814113616943,-2.2186737060546875,-0.5726275444030762,0.4793786406517029,2.685622215270996,0.4040839970111847,1.8124397993087769
2.2916839122772217,-2.2179036140441895,-0.5734396576881409,0.4797648787498474,2.685001850128174,0.40372511744499207,1.811589002609253
2.3117423057556152,-2.215329647064209,-0.5746997594833374,0.481628954410553,2.68454647064209,0.40448614954948425,1.8100731372833252
2.331800937652588,-2.209005832672119,-0.5759487152099609,0.48321330547332764,2.6840591430664062,0.40527862310409546,1.808905005455017
2.3523077964782715,-2.203402042388916,-0.5769156217575073,0.48601341247558594,2.6840338706970215,0.4069744348526001,1.8077934980392456
2.372422933578491,-2.2029643058776855,-0.5774243474006653,0.48775196075439453,2.683624744415283,0.4071204364299774,1.8070287704467773
2.3924832344055176,-2.196674108505249,-0.5790683627128601,0.489595502614975,2.683246612548828,0.4096878468990326,1.805448055267334
2.4125328063964844,-2.190822124481201,-0.5814781188964844,0.49268612265586853,2.682833671569824,0.413171648979187,1.8022520542144775
2.4327127933502197,-2.185793399810791,-0.583411455154419,0.49607008695602417,2.6826934814453125,0.4146695137023926,1.800658941268921
2.452815532684326,-2.184683322906494,-0.5837507247924805,0.4978421926498413,2.682880163192749,0.41513487696647644,1.8003112077713013
2.4729437828063965,-2.18381667137146,-0.584455668926239,0.49841010570526123,2.682197093963623,0.4156470000743866,1.7993087768554688
2.492955207824707,-2.1791152954101562,-0.585294246673584,0.49813133478164673,2.6820144653320312,0.41599711775779724,1.7985386848449707
2.5132036209106445,-2.1728079319000244,-0.5869240164756775,0.5003268122673035,2.68149995803833,0.4171460270881653,1.796802282333374
2.533310651779175,-2.1706900596618652,-0.5876501798629761,0.5006828308105469,2.6811347007751465,0.4169747233390808,1.7958545684814453
2.553384780883789,-2.164059638977051,-0.5897190570831299,0.5050377249717712,2.6808266639709473,0.42001086473464966,1.7936285734176636
2.5735228061676025,-2.1576600074768066,-0.5916257500648499,0.5097363591194153,2.6805880069732666,0.4236043095588684,1.7916558980941772
2.5935468673706055,-2.156327962875366,-0.5924164652824402,0.5112502574920654,2.680558681488037,0.4244903326034546,1.7913110256195068
2.613603353500366,-2.1527671813964844,-0.5939310789108276,0.5146756768226624,2.680055618286133,0.4271347224712372,1.789405107498169
2.633676052093506,-2.1483540534973145,-0.5953919887542725,0.5153956413269043,2.6789464950561523,0.4272529184818268,1.7875425815582275
2.653823137283325,-2.1432721614837646,-0.5966310501098633,0.5154256820678711,2.678497552871704,0.427309513092041,1.786317229270935
2.673915147781372,-2.1376352310180664,-0.5981610417366028,0.5172212719917297,2.678471565246582,0.4272156357765198,1.7854316234588623
2.6939921379089355,-2.1342849731445312,-0.5993887186050415,0.5203705430030823,2.678022623062134,0.4289841949939728,1.7840142250061035
2.7140285968780518,-2.128735065460205,-0.6014918088912964,0.5248937010765076,2.6772146224975586,0.43196725845336914,1.7819442749023438
2.734133720397949,-2.1250576972961426,-0.602575957775116,0.5276192426681519,2.6768436431884766,0.4348880648612976,1.779947280883789
2.754199504852295,-2.1196675300598145,-0.6045024991035461,0.5298019051551819,2.6765880584716797,0.4365079402923584,1.7779194116592407
2.7742581367492676,-2.118967056274414,-0.6055357456207275,0.5310612916946411,2.6761927604675293,0.436994731426239,1.776942253112793
2.7943081855773926,-2.1159543991088867,-0.6056522130966187,0.5306814908981323,2.6760497093200684,0.43628960847854614,1.7767763137817383
2.8143982887268066,-2.1133642196655273,-0.6058854460716248,0.5313185453414917,2.6762595176696777,0.43640363216400146,1.7766720056533813
2.8345541954040527,-2.1088719367980957,-0.6070976257324219,0.5333842039108276,2.676077365875244,0.43725281953811646,1.7757701873779297
2.8545708656311035,-2.105624198913574,-0.6082378625869751,0.5352810621261597,2.675745964050293,0.43899303674697876,1.774583339691162
2.8746557235717773,-2.099816083908081,-0.6102445721626282,0.5392178297042847,2.6747782230377197,0.44178226590156555,1.7719025611877441
2.894747734069824,-2.0975215435028076,-0.6113764047622681,0.5416615605354309,2.674450397491455,0.44363272190093994,1.7701833248138428
2.9148502349853516,-2.095059871673584,-0.6128470301628113,0.5428693890571594,2.673806667327881,0.4442290663719177,1.768797755241394
2.934889078140259,-2.089259147644043,-0.6140433549880981,0.543451726436615,2.673856496810913,0.4441388249397278,1.7683422565460205
2.9551076889038086,-2.087864875793457,-0.6144581437110901,0.5439968705177307,2.673680543899536,0.44397592544555664,1.7679924964904785
2.9751861095428467,-2.0862529277801514,-0.6144847869873047,0.5460249185562134,2.673569679260254,0.4453180432319641,1.7668805122375488
2.99532151222229,-2.082057237625122,-0.6154409646987915,0.5482379198074341,2.6733269691467285,0.4475353956222534,1.7648131847381592
3.015343189239502,-2.076775550842285,-0.6175533533096313,0.549980640411377,2.67266845703125,0.44806328415870667,1.7630524635314941
3.035482168197632,-2.0739173889160156,-0.6182526350021362,0.5512641668319702,2.6730690002441406,0.44963836669921875,1.762418270111084
3.055521249771118,-2.0706348419189453,-0.6192757487297058,0.5538517236709595,2.672696113586426,0.4513866901397705,1.761265754699707
3.0756101608276367,-2.064640522003174,-0.6205214262008667,0.5554603338241577,2.672626495361328,0.4531444311141968,1.7603068351745605
3.0956716537475586,-2.0614094734191895,-0.6213825345039368,0.5576704144477844,2.672516345977783,0.45448073744773865,1.759122610092163
3.1157779693603516,-2.059807538986206,-0.6223742365837097,0.5582296848297119,2.6718854904174805,0.4540608823299408,1.7588169574737549
3.1358470916748047,-2.0559680461883545,-0.6239678859710693,0.5613131523132324,2.670936107635498,0.45540252327919006,1.7572612762451172
3.155977725982666,-2.0532023906707764,-0.6248778104782104,0.5630864500999451,2.6702234745025635,0.4565402865409851,1.7553445100784302
3.175997495651245,-2.049124002456665,-0.6262937784194946,0.564228355884552,2.669649839401245,0.4571913778781891,1.7536886930465698
3.1960816383361816,-2.0463128089904785,-0.6269990801811218,0.5655514001846313,2.669980764389038,0.4581212103366852,1.753202199935913
3.216162919998169,-2.041646957397461,-0.6280894875526428,0.5672379732131958,2.6698169708251953,0.4589884579181671,1.7522213459014893
3.2362706661224365,-2.0383987426757812,-0.6289856433868408,0.569817304611206,2.669306755065918,0.46047836542129517,1.7509528398513794
3.256329298019409,-2.0348987579345703,-0.630064845085144,0.5703740119934082,2.6687731742858887,0.4611437916755676,1.7501788139343262
3.276385545730591,-2.030604600906372,-0.6321676969528198,0.5748467445373535,2.667558431625366,0.4634414315223694,1.7473622560501099
3.296461820602417,-2.0249085426330566,-0.6345518231391907,0.5766555070877075,2.6669342517852783,0.4641234874725342,1.745359182357788
3.3165042400360107,-2.021754264831543,-0.6357176303863525,0.5793945789337158,2.66715931892395,0.46580618619918823,1.744131326675415
3.3366005420684814,-2.0201096534729004,-0.635932981967926,0.5797510147094727,2.6669349670410156,0.4663209915161133,1.7437756061553955
3.356659173965454,-2.016613721847534,-0.6364263296127319,0.5801090002059937,2.6669974327087402,0.46701523661613464,1.742887020111084
3.376732587814331,-2.012572765350342,-0.6368265151977539,0.5835797786712646,2.6670215129852295,0.46880489587783813,1.7415086030960083
3.3972203731536865,-2.008704662322998,-0.638312578201294,0.5848325490951538,2.666252851486206,0.4697754979133606,1.7402384281158447
3.4174184799194336,-2.006823778152466,-0.6389627456665039,0.5856047868728638,2.666189193725586,0.4708119034767151,1.7393336296081543
3.4374988079071045,-2.00138783454895,-0.6410302519798279,0.5875319838523865,2.6653430461883545,0.470642626285553,1.737428903579712
3.457517385482788,-1.9963345527648926,-0.6430137157440186,0.5894914269447327,2.664949417114258,0.47240209579467773,1.7359619140625
3.4775948524475098,-1.9926964044570923,-0.6444019079208374,0.5923806428909302,2.6641716957092285,0.4738267958164215,1.7345305681228638
3.4976882934570312,-1.9894700050354004,-0.645208477973938,0.5929561257362366,2.664156913757324,0.47444504499435425,1.734157919883728
3.5177550315856934,-1.988951325416565,-0.6453588008880615,0.5948593616485596,2.6638576984405518,0.47548747062683105,1.7327327728271484
3.5378265380859375,-1.985870361328125,-0.6468592286109924,0.5959341526031494,2.6629350185394287,0.47584521770477295,1.7307689189910889
3.557879686355591,-1.98080313205719,-0.6480426788330078,0.5994936227798462,2.663250684738159,0.47799646854400635,1.728677749633789
3.577955484390259,-1.9792753458023071,-0.6485415101051331,0.6006526947021484,2.6632957458496094,0.4788476228713989,1.7284142971038818
3.5981385707855225,-1.9762823581695557,-0.6490476131439209,0.6014909744262695,2.6627273559570312,0.47916117310523987,1.7277278900146484
3.6181557178497314,-1.970412015914917,-0.6503490209579468,0.6037259101867676,2.662626266479492,0.48079589009284973,1.726496934890747
3.6386306285858154,-1.964745283126831,-0.6525784730911255,0.6072472333908081,2.661398410797119,0.48305726051330566,1.7243731021881104
3.6587471961975098,-1.9638726711273193,-0.6533451676368713,0.6078530550003052,2.660824775695801,0.4827432632446289,1.72344970703125
3.678880453109741,-1.9581124782562256,-0.6550878286361694,0.6093494892120361,2.660038709640503,0.4838639795780182,1.7210371494293213
3.698887586593628,-1.9548907279968262,-0.6563053131103516,0.6110953092575073,2.6603357791900635,0.4847652018070221,1.7199795246124268
3.71899676322937,-1.954923391342163,-0.6565538048744202,0.6114054322242737,2.660341262817383,0.48488035798072815,1.7199475765228271
3.739058256149292,-1.9527897834777832,-0.6566859483718872,0.6126272678375244,2.660187244415283,0.4858930706977844,1.7188529968261719
3.7591428756713867,-1.9473130702972412,-0.6576134562492371,0.6144670248031616,2.660088300704956,0.48702532052993774,1.7180898189544678
3.779189348220825,-1.9423516988754272,-0.6587939858436584,0.6176785826683044,2.6599106788635254,0.48965948820114136,1.716017723083496
3.7992799282073975,-1.941994071006775,-0.6595745086669922,0.6186577081680298,2.6596264839172363,0.4892939329147339,1.7155730724334717
3.8193557262420654,-1.9368656873703003,-0.660741925239563,0.6221109628677368,2.659238338470459,0.4915470778942108,1.713231086730957
3.839423418045044,-1.9333645105361938,-0.6623200178146362,0.6249887943267822,2.659116268157959,0.4935992360115051,1.711771845817566
3.8594882488250732,-1.9314510822296143,-0.6635057330131531,0.6265424489974976,2.65873384475708,0.4942622780799866,1.710964322090149
3.879612684249878,-1.928289771080017,-0.6642875671386719,0.6266018748283386,2.658473014831543,0.49476537108421326,1.7103960514068604
3.8996801376342773,-1.9253400564193726,-0.6648354530334473,0.628219723701477,2.6582233905792236,0.49507418274879456,1.7098326683044434
3.9197537899017334,-1.92281174659729,-0.6654794812202454,0.6301009058952332,2.6573660373687744,0.4956130385398865,1.7083693742752075
3.939798355102539,-1.9190943241119385,-0.666023850440979,0.6314200162887573,2.6575145721435547,0.49732911586761475,1.706524133682251
3.9599194526672363,-1.9180530309677124,-0.6667226552963257,0.6322446465492249,2.6567952632904053,0.4975738525390625,1.7054654359817505
3.97996187210083,-1.9119760990142822,-0.6684781908988953,0.6333503127098083,2.656435966491699,0.49719759821891785,1.7043088674545288
4.000075578689575,-1.908860206604004,-0.6696795225143433,0.6355533599853516,2.656423568725586,0.4991317391395569,1.703087329864502
4.020476579666138,-1.9050464630126953,-0.6707029938697815,0.6367732882499695,2.6562180519104004,0.5006798505783081,1.7017769813537598
4.040558576583862,-1.9037407636642456,-0.671189546585083,0.6375159025192261,2.6560070514678955,0.5005114078521729,1.7013890743255615
4.060636758804321,-1.8999123573303223,-0.67200767993927,0.6395134329795837,2.6557343006134033,0.5018924474716187,1.6996082067489624
4.080713748931885,-1.8972105979919434,-0.673338770866394,0.6408993005752563,2.6547293663024902,0.5021981000900269,1.6982349157333374
4.100751638412476,-1.8915170431137085,-0.6755442023277283,0.6436135768890381,2.6535024642944336,0.5033707022666931,1.6960058212280273
4.120840072631836,-1.888566493988037,-0.6761972308158875,0.6458767652511597,2.6538169384002686,0.5046671032905579,1.6951836347579956
4.140923500061035,-1.888161063194275,-0.6769332885742188,0.6482102274894714,2.653679132461548,0.505820631980896,1.6942651271820068
4.16096830368042,-1.8863086700439453,-0.6772611737251282,0.6484596133232117,2.653177261352539,0.5061668157577515,1.6935020685195923
4.181048154830933,-1.8810734748840332,-0.6786257028579712,0.6482846736907959,2.6527957916259766,0.5065270662307739,1.6925565004348755
4.2011425495147705,-1.878154993057251,-0.6792275905609131,0.6490204334259033,2.6527037620544434,0.506563663482666,1.692042589187622
4.221209526062012,-1.8758915662765503,-0.6795909404754639,0.6508188843727112,2.6523783206939697,0.5071093440055847,1.690378189086914
4.241287708282471,-1.8700679540634155,-0.6814905405044556,0.6521929502487183,2.651735305786133,0.5078513026237488,1.6883400678634644
4.2617926597595215,-1.8654401302337646,-0.6828437447547913,0.6553488969802856,2.6515252590179443,0.5101895332336426,1.6865483522415161
4.281892776489258,-1.8636835813522339,-0.6838247776031494,0.6570512652397156,2.6510238647460938,0.5108844637870789,1.6856441497802734
4.301977157592773,-1.861093282699585,-0.6849735975265503,0.6607053279876709,2.6508538722991943,0.5131717324256897,1.6838274002075195
4.322033882141113,-1.8562328815460205,-0.686005175113678,0.6619797945022583,2.6500959396362305,0.5139644742012024,1.6822938919067383
4.342193841934204,-1.854027509689331,-0.6870282888412476,0.662060558795929,2.6497063636779785,0.5133835673332214,1.6814138889312744
4.362298011779785,-1.8534674644470215,-0.6874608993530273,0.662280797958374,2.6497254371643066,0.51329505443573,1.6808834075927734
4.382369041442871,-1.8527874946594238,-0.6875109672546387,0.663790225982666,2.649733066558838,0.5140345096588135,1.67985200881958
4.402445077896118,-1.8500515222549438,-0.6880002021789551,0.6649713516235352,2.6496100425720215,0.5149953365325928,1.679120421409607
4.422495365142822,-1.843667984008789,-0.6895027160644531,0.6653443574905396,2.6490752696990967,0.5158997774124146,1.6780555248260498
4.442588567733765,-1.8436932563781738,-0.6898584365844727,0.665655791759491,2.64910888671875,0.5151453614234924,1.6780545711517334
4.462709665298462,-1.8405025005340576,-0.6904135942459106,0.6666638851165771,2.648810625076294,0.5161044597625732,1.6770985126495361
4.482763767242432,-1.8346885442733765,-0.6915942430496216,0.6698075532913208,2.648277997970581,0.5181112885475159,1.674315333366394
4.502825975418091,-1.829035997390747,-0.693299412727356,0.6741093993186951,2.6478471755981445,0.5201880931854248,1.6714684963226318
4.5229339599609375,-1.8287837505340576,-0.6940016746520996,0.675621509552002,2.6475820541381836,0.5205938816070557,1.6710222959518433
4.543001174926758,-1.8265750408172607,-0.6953479051589966,0.6772526502609253,2.6465015411376953,0.5210438966751099,1.6701189279556274
4.563068866729736,-1.8221286535263062,-0.6964949369430542,0.6778956055641174,2.6461453437805176,0.5212606191635132,1.6695103645324707
4.583116292953491,-1.8201656341552734,-0.697228193283081,0.677322268486023,2.6455929279327393,0.5196702480316162,1.6692979335784912
4.603211402893066,-1.8199143409729004,-0.6970924139022827,0.6775956153869629,2.645540237426758,0.5198556184768677,1.6687090396881104
4.623276472091675,-1.8170790672302246,-0.6983199119567871,0.6788719892501831,2.6451408863067627,0.5208251476287842,1.666778564453125
4.643380165100098,-1.8134046792984009,-0.6991126537322998,0.6819921731948853,2.6451566219329834,0.5220440626144409,1.6650992631912231
4.663415431976318,-1.8088657855987549,-0.6999256610870361,0.6835733652114868,2.644826889038086,0.5234124660491943,1.6639180183410645
4.683502435684204,-1.8085918426513672,-0.7003249526023865,0.684087872505188,2.644479990005493,0.5228264331817627,1.6638953685760498
4.703589200973511,-1.8043073415756226,-0.7015209197998047,0.6854926347732544,2.6430394649505615,0.5235040783882141,1.662283182144165
4.7236597537994385,-1.7996070384979248,-0.7028197050094604,0.6879183053970337,2.6433284282684326,0.5254701375961304,1.6607962846755981
4.743837356567383,-1.7953386306762695,-0.704041600227356,0.6903321743011475,2.643207550048828,0.5271062850952148,1.6597599983215332
4.764019012451172,-1.7953605651855469,-0.704094648361206,0.691545844078064,2.6432881355285645,0.5270797610282898,1.6595704555511475
4.784031867980957,-1.7896912097930908,-0.7057362198829651,0.6936378479003906,2.6422553062438965,0.5284844636917114,1.6570290327072144
4.804107666015625,-1.7860075235366821,-0.7067411541938782,0.6946744322776794,2.6421971321105957,0.5286589860916138,1.6557844877243042
4.824548244476318,-1.785430669784546,-0.7074470520019531,0.6951596140861511,2.64200496673584,0.5291202068328857,1.6549293994903564
4.844630718231201,-1.7838689088821411,-0.7078146934509277,0.6955975294113159,2.6418471336364746,0.5295354723930359,1.6544225215911865
4.864700078964233,-1.780003309249878,-0.7084261178970337,0.697205662727356,2.6414408683776855,0.530105710029602,1.6529041528701782
4.884786128997803,-1.7747929096221924,-0.7092938423156738,0.6982677578926086,2.6410956382751465,0.5305894613265991,1.651249647140503
4.904842376708984,-1.772933006286621,-0.7095837593078613,0.6996190547943115,2.640942335128784,0.531964898109436,1.6500940322875977
4.92495059967041,-1.7689687013626099,-0.7112408876419067,0.7010137438774109,2.6401195526123047,0.5325533151626587,1.6485810279846191
4.945058822631836,-1.763705849647522,-0.713072657585144,0.7036848068237305,2.639470100402832,0.5337047576904297,1.6471328735351562
4.9651453495025635,-1.7603816986083984,-0.7144521474838257,0.70452481508255,2.6390740871429443,0.5340413451194763,1.6461567878723145
4.9852423667907715,-1.7603702545166016,-0.7147334218025208,0.705119788646698,2.63936710357666,0.5343431830406189,1.6460390090942383
5.005419015884399,-1.758405089378357,-0.7149800062179565,0.7076694369316101,2.6392197608947754,0.5358014702796936,1.6447608470916748
5.02545428276062,-1.753973364830017,-0.7155392169952393,0.7091239094734192,2.638829469680786,0.5359806418418884,1.6440932750701904
5.045496940612793,-1.7515772581100464,-0.7160030007362366,0.7112723588943481,2.6385536193847656,0.537778377532959,1.6418263912200928
5.065727949142456,-1.7506989240646362,-0.7167198657989502,0.7118738889694214,2.637932300567627,0.5378208756446838,1.6408343315124512
5.085811138153076,-1.7463358640670776,-0.7185792922973633,0.7127233743667603,2.6370596885681152,0.5378862023353577,1.6392812728881836
5.105993032455444,-1.7407035827636719,-0.7203502655029297,0.7148016691207886,2.636125087738037,0.5388857126235962,1.6373560428619385
5.126018047332764,-1.7375904321670532,-0.7211416959762573,0.7147610187530518,2.635875701904297,0.5386614203453064,1.636655569076538
5.146060466766357,-1.733901023864746,-0.7217251062393188,0.7156325578689575,2.6356043815612793,0.5395617485046387,1.635251522064209
5.16617751121521,-1.7317163944244385,-0.7224442958831787,0.716201901435852,2.6353659629821777,0.5397982597351074,1.6341580152511597
5.186237096786499,-1.7278892993927002,-0.7241869568824768,0.7180463075637817,2.6350245475769043,0.5403997898101807,1.6322153806686401
5.206341505050659,-1.7259986400604248,-0.7246493101119995,0.7210298180580139,2.63543963432312,0.5421064496040344,1.6309150457382202
5.226629018783569,-1.7242430448532104,-0.7250145673751831,0.722746729850769,2.6349599361419678,0.5431091785430908,1.6299479007720947
5.246711492538452,-1.722936987876892,-0.7252008318901062,0.7234475016593933,2.635331153869629,0.543647825717926,1.629753828048706
5.266796827316284,-1.719177007675171,-0.7264171242713928,0.7239330410957336,2.6346383094787598,0.544089138507843,1.628570318222046
5.2868664264678955,-1.7138400077819824,-0.7273024320602417,0.7264454364776611,2.6343116760253906,0.5452074408531189,1.6261528730392456
5.307048797607422,-1.711111307144165,-0.7287377119064331,0.725908100605011,2.6336073875427246,0.5447793006896973,1.6249589920043945
5.327136754989624,-1.7108023166656494,-0.729168713092804,0.7263177633285522,2.6335983276367188,0.5446352958679199,1.6246790885925293
5.347196817398071,-1.706181287765503,-0.729941725730896,0.727767825126648,2.6333417892456055,0.5458489060401917,1.6234936714172363
5.367257833480835,-1.7025060653686523,-0.7307952046394348,0.7297841310501099,2.632887601852417,0.5464990735054016,1.6218936443328857
5.387308597564697,-1.7006213665008545,-0.7311853766441345,0.731400728225708,2.632676124572754,0.546722948551178,1.6210801601409912
5.407408952713013,-1.698671817779541,-0.731788694858551,0.7321094274520874,2.6323165893554688,0.5477418899536133,1.6198387145996094
5.427483320236206,-1.6942462921142578,-0.7333873510360718,0.7351011037826538,2.631791114807129,0.5489675402641296,1.6174798011779785
5.447541952133179,-1.6907401084899902,-0.7347314357757568,0.7358742356300354,2.6313672065734863,0.5487968325614929,1.6168066263198853
5.467638731002808,-1.6890674829483032,-0.7351953983306885,0.7374123334884644,2.6310648918151855,0.5495630502700806,1.6158015727996826
5.4877331256866455,-1.68770170211792,-0.7354915142059326,0.7382514476776123,2.6311776638031006,0.5500249862670898,1.6155169010162354
5.507806301116943,-1.6844351291656494,-0.7364664673805237,0.740074872970581,2.6310887336730957,0.5511905550956726,1.6146082878112793
5.527860641479492,-1.6798992156982422,-0.7371341586112976,0.7420705556869507,2.630445957183838,0.551419734954834,1.61319100856781
5.548081874847412,-1.6780810356140137,-0.7374039888381958,0.7424867749214172,2.629920244216919,0.5524590015411377,1.6110081672668457
5.56813383102417,-1.6772557497024536,-0.7378346920013428,0.7427655458450317,2.629666328430176,0.5523000359535217,1.6103639602661133
5.5881993770599365,-1.6730515956878662,-0.7395029067993164,0.7437163591384888,2.62865948677063,0.5523475408554077,1.6091282367706299
5.608261346817017,-1.6693904399871826,-0.7409012317657471,0.7444573044776917,2.6276252269744873,0.5518640279769897,1.6083025932312012
5.6283345222473145,-1.6665455102920532,-0.7412489652633667,0.7461482882499695,2.6277341842651367,0.5523818731307983,1.607464075088501
5.648401737213135,-1.6663788557052612,-0.7412672638893127,0.7473436594009399,2.627988815307617,0.5529289245605469,1.6070277690887451
5.6684815883636475,-1.6613001823425293,-0.7421694993972778,0.7488057017326355,2.6274240016937256,0.5543572902679443,1.6051805019378662
5.688539981842041,-1.655888557434082,-0.7438322305679321,0.7520034313201904,2.627002239227295,0.55589359998703,1.6027095317840576
5.708608865737915,-1.65277099609375,-0.7444581985473633,0.7543196678161621,2.62728214263916,0.5572872757911682,1.6015315055847168
5.728682994842529,-1.6500866413116455,-0.7456818222999573,0.7547711133956909,2.626474380493164,0.5574508905410767,1.6004626750946045
5.748764514923096,-1.6469883918762207,-0.7465534210205078,0.7561878561973572,2.6262378692626953,0.5581024289131165,1.5994515419006348
5.768839359283447,-1.6433806419372559,-0.747349739074707,0.7583792209625244,2.6257858276367188,0.5587683320045471,1.5982234477996826
5.788916349411011,-1.6427810192108154,-0.7478333115577698,0.7590449452400208,2.625247001647949,0.5588664412498474,1.597551941871643
5.808980941772461,-1.6414484977722168,-0.7488386631011963,0.7594436407089233,2.6243209838867188,0.5586893558502197,1.5961816310882568
5.829040050506592,-1.6373260021209717,-0.7499783039093018,0.7602921724319458,2.624321699142456,0.5592072010040283,1.5942633152008057
5.8491294384002686,-1.6312365531921387,-0.7507542371749878,0.7631728649139404,2.624260425567627,0.5607279539108276,1.5927547216415405
5.869243621826172,-1.6310830116271973,-0.7510867118835449,0.7635192275047302,2.6239447593688965,0.5601736307144165,1.5924750566482544
5.889349699020386,-1.6277961730957031,-0.7522317171096802,0.7655467987060547,2.6236953735351562,0.5617205500602722,1.5911386013031006
5.909393310546875,-1.624380111694336,-0.752971887588501,0.7691280841827393,2.6239137649536133,0.5642293691635132,1.589306116104126
5.929439306259155,-1.6187665462493896,-0.7546488046646118,0.76888108253479,2.622490167617798,0.5640426278114319,1.5876004695892334
5.94954252243042,-1.6180139780044556,-0.7553340196609497,0.7692527174949646,2.6222665309906006,0.5630620121955872,1.5870473384857178
5.9696044921875,-1.6155903339385986,-0.7560538053512573,0.7695006132125854,2.6219279766082764,0.5632060766220093,1.5857486724853516
5.989678382873535,-1.6106246709823608,-0.7574137449264526,0.7705800533294678,2.6214935779571533,0.5644700527191162,1.584409236907959
6.0097174644470215,-1.606831669807434,-0.758465051651001,0.7744710445404053,2.6206774711608887,0.565443217754364,1.5826752185821533
6.029806613922119,-1.6060428619384766,-0.7590044736862183,0.7762786746025085,2.6203811168670654,0.566083550453186,1.5816504955291748
6.049874305725098,-1.6042392253875732,-0.7599424123764038,0.7775886058807373,2.6196413040161133,0.5673494935035706,1.5792183876037598
6.069922208786011,-1.6013691425323486,-0.7613478899002075,0.77850741147995,2.619058132171631,0.5666455030441284,1.5776978731155396
6.089988470077515,-1.5993003845214844,-0.7623345851898193,0.7787291407585144,2.6185522079467773,0.5665249824523926,1.5772716999053955
6.11009669303894,-1.5971558094024658,-0.7631058692932129,0.779353141784668,2.61753511428833,0.5658962726593018,1.576659917831421
6.130181789398193,-1.5936813354492188,-0.7636522054672241,0.7813239097595215,2.6174702644348145,0.567068874835968,1.5751887559890747
6.150241374969482,-1.5886691808700562,-0.7645860314369202,0.7830178737640381,2.6172685623168945,0.5683717727661133,1.573517084121704
6.170327425003052,-1.5864453315734863,-0.765555202960968,0.7841614484786987,2.616597890853882,0.5687783360481262,1.5722813606262207
6.190414905548096,-1.582195520401001,-0.7670038938522339,0.7871078252792358,2.6167263984680176,0.5702168941497803,1.569814920425415
6.210452079772949,-1.5786731243133545,-0.7679855823516846,0.7884573340415955,2.616253137588501,0.5711071491241455,1.568681001663208
6.230543613433838,-1.5772833824157715,-0.7682898044586182,0.789400577545166,2.616457462310791,0.572230339050293,1.5681183338165283
6.250622272491455,-1.574249029159546,-0.7685124278068542,0.7911747694015503,2.6164443492889404,0.5724263191223145,1.5673518180847168
6.270752906799316,-1.5705678462982178,-0.769324541091919,0.7911607027053833,2.615833044052124,0.5727707147598267,1.5662473440170288
6.290812015533447,-1.568312644958496,-0.77022385597229,0.7909200191497803,2.615093231201172,0.5731732845306396,1.5649492740631104
6.310857057571411,-1.5661042928695679,-0.7713576555252075,0.7922683954238892,2.6146583557128906,0.5735251903533936,1.5625007152557373
6.330923318862915,-1.5641052722930908,-0.7716566920280457,0.7918603420257568,2.6144509315490723,0.5727200508117676,1.5619271993637085
6.351013898849487,-1.5617562532424927,-0.7724021673202515,0.7917614579200745,2.614065647125244,0.5732738971710205,1.5609909296035767
6.371129035949707,-1.555572271347046,-0.7735915184020996,0.7947074174880981,2.61348819732666,0.5735330581665039,1.5596749782562256
6.391157865524292,-1.5519143342971802,-0.774569034576416,0.797166109085083,2.612781524658203,0.5742090940475464,1.5578649044036865
6.411253452301025,-1.5509111881256104,-0.7753510475158691,0.7970248460769653,2.612428665161133,0.5739681720733643,1.5572614669799805
6.43132472038269,-1.5462887287139893,-0.7764947414398193,0.7994316816329956,2.612224817276001,0.5752378702163696,1.555471420288086
6.451398611068726,-1.5422184467315674,-0.7780625224113464,0.8014887571334839,2.61196231842041,0.5768887996673584,1.553727626800537
6.471437931060791,-1.541893482208252,-0.7781370878219604,0.8015223741531372,2.6119842529296875,0.5770392417907715,1.5535101890563965
6.491536378860474,-1.5413646697998047,-0.7783639430999756,0.8001238107681274,2.6114397048950195,0.5764427185058594,1.553293228149414
6.511611461639404,-1.5394388437271118,-0.7784733772277832,0.8008828163146973,2.6114368438720703,0.5761805772781372,1.5525727272033691
6.531667470932007,-1.5362845659255981,-0.7786071300506592,0.8030796647071838,2.6111817359924316,0.5761798024177551,1.5516107082366943
6.55180549621582,-1.5310673713684082,-0.779773473739624,0.8048398494720459,2.6101090908050537,0.5764812231063843,1.5498604774475098
6.571894407272339,-1.5310003757476807,-0.7807064056396484,0.8043941259384155,2.609224796295166,0.5758225917816162,1.548964500427246
6.591965436935425,-1.5285754203796387,-0.7813730239868164,0.806670069694519,2.6094822883605957,0.5766832828521729,1.5471320152282715
6.612010717391968,-1.5266389846801758,-0.7816212773323059,0.8071694374084473,2.6092915534973145,0.5773184299468994,1.546401858329773
6.632365942001343,-1.5229114294052124,-0.7824443578720093,0.8080261945724487,2.6086483001708984,0.5779160261154175,1.54489266872406
6.65248441696167,-1.5192759037017822,-0.7830790281295776,0.8094913959503174,2.6082754135131836,0.5782897472381592,1.5433123111724854
6.672546863555908,-1.515660285949707,-0.7840425968170166,0.8092925548553467,2.6080784797668457,0.5776429176330566,1.5423463582992554
6.692599058151245,-1.5108273029327393,-0.7849259376525879,0.8107988834381104,2.6079115867614746,0.5786356329917908,1.5409544706344604
6.712720155715942,-1.5104835033416748,-0.7852387428283691,0.8125460147857666,2.607957363128662,0.5793770551681519,1.540008783340454
6.732794284820557,-1.5087308883666992,-0.7855644822120667,0.8136264681816101,2.60801100730896,0.5801788568496704,1.5394854545593262
6.752975702285767,-1.5052417516708374,-0.7866595387458801,0.8151317238807678,2.6074748039245605,0.5808612108230591,1.538118839263916
6.773056745529175,-1.503432035446167,-0.7870243787765503,0.8165954947471619,2.6072263717651367,0.5809742212295532,1.5373704433441162
6.793120622634888,-1.499922752380371,-0.7872655391693115,0.8172426223754883,2.606873035430908,0.5806740522384644,1.5366307497024536
6.813177108764648,-1.4991689920425415,-0.7875895500183105,0.81683349609375,2.6061222553253174,0.5803430676460266,1.5358495712280273
6.833261966705322,-1.4948031902313232,-0.7889634370803833,0.8168046474456787,2.605750322341919,0.5800997614860535,1.5340769290924072
6.853304386138916,-1.4908473491668701,-0.789902925491333,0.8181337118148804,2.6053600311279297,0.5814417600631714,1.5322821140289307
6.873406171798706,-1.4902279376983643,-0.7903795838356018,0.8185504674911499,2.6048498153686523,0.5808055400848389,1.5319265127182007
6.893466234207153,-1.4863897562026978,-0.79133141040802,0.8201678991317749,2.6043684482574463,0.5815623998641968,1.5299787521362305
6.913579940795898,-1.4821445941925049,-0.7930810451507568,0.8224026560783386,2.6038036346435547,0.5818593502044678,1.5278499126434326
6.93362832069397,-1.480344295501709,-0.7935395836830139,0.8231347799301147,2.603753089904785,0.5822316408157349,1.527266025543213
6.953724145889282,-1.4797385931015015,-0.7937981486320496,0.8244677782058716,2.603820323944092,0.5828495025634766,1.526416540145874
6.973799705505371,-1.475990653038025,-0.7942843437194824,0.8261663317680359,2.603389263153076,0.5840400457382202,1.5246559381484985
6.9938719272613525,-1.4716426134109497,-0.7949308156967163,0.8278201818466187,2.6032590866088867,0.5840399265289307,1.52384352684021
7.013951301574707,-1.4681496620178223,-0.7956066727638245,0.8277089595794678,2.6027414798736572,0.5842617750167847,1.5231738090515137
7.034041166305542,-1.4668669700622559,-0.7966223955154419,0.8279637694358826,2.6018333435058594,0.5838603973388672,1.5216604471206665
7.054113149642944,-1.4639968872070312,-0.7976390719413757,0.8304711580276489,2.601606845855713,0.5847009420394897,1.5193471908569336
7.074174165725708,-1.4600632190704346,-0.7987862825393677,0.8325390815734863,2.6006720066070557,0.5848231315612793,1.5184060335159302
7.094254970550537,-1.456712245941162,-0.7994747757911682,0.8328350782394409,2.5999884605407715,0.5846040844917297,1.5178933143615723
7.114323854446411,-1.4547892808914185,-0.7997832298278809,0.8353651762008667,2.600043296813965,0.5858769416809082,1.5161468982696533
7.134396314620972,-1.45369553565979,-0.8004765510559082,0.8347336053848267,2.5994062423706055,0.5855515003204346,1.5153450965881348
7.154486894607544,-1.4501489400863647,-0.8018971681594849,0.8350086808204651,2.5983996391296387,0.5858968496322632,1.5128254890441895
7.174577474594116,-1.44801664352417,-0.802424430847168,0.8350920081138611,2.5987305641174316,0.5846853256225586,1.5123732089996338
7.194665193557739,-1.4438263177871704,-0.8027256727218628,0.837775707244873,2.598771572113037,0.5865266919136047,1.5110394954681396
7.214743375778198,-1.4432562589645386,-0.8031597137451172,0.8374605774879456,2.598360061645508,0.5856351256370544,1.511136531829834
7.2348151206970215,-1.4410792589187622,-0.8032570481300354,0.8414322137832642,2.598188877105713,0.5881121754646301,1.5087822675704956
7.254886627197266,-1.436692237854004,-0.8050757646560669,0.8432804346084595,2.5969767570495605,0.5885928869247437,1.507022738456726
7.274903059005737,-1.4310325384140015,-0.8071938753128052,0.8456827998161316,2.596167802810669,0.5888216495513916,1.5046895742416382
7.29505467414856,-1.4303643703460693,-0.8075783252716064,0.8463873863220215,2.596385955810547,0.5898166298866272,1.5040156841278076
7.3150835037231445,-1.428633689880371,-0.8077821731567383,0.8467086553573608,2.596074342727661,0.5897318124771118,1.503563642501831
7.335186243057251,-1.4266109466552734,-0.8084955215454102,0.8473711013793945,2.595817804336548,0.5897254943847656,1.5026936531066895
7.355275869369507,-1.424485445022583,-0.8088818788528442,0.8470159769058228,2.5954785346984863,0.5899333953857422,1.5019428730010986
7.375626802444458,-1.4222944974899292,-0.8091195821762085,0.8487852215766907,2.595714569091797,0.5908950567245483,1.5003536939620972
7.395749568939209,-1.420520544052124,-0.8095394968986511,0.849591851234436,2.595183849334717,0.5912607908248901,1.4996116161346436
7.4158899784088135,-1.4162566661834717,-0.8107807636260986,0.8512526750564575,2.5948996543884277,0.5920800566673279,1.4974734783172607
7.435937404632568,-1.4152541160583496,-0.8116554021835327,0.8533509969711304,2.594693899154663,0.5926012992858887,1.4962937831878662
7.455977916717529,-1.4133901596069336,-0.8118691444396973,0.8535085916519165,2.594426155090332,0.5929511785507202,1.495560884475708
7.476061582565308,-1.4129061698913574,-0.8122498989105225,0.8536586165428162,2.5939273834228516,0.5928394794464111,1.4950587749481201
7.496168375015259,-1.4101202487945557,-0.8132792711257935,0.8545508980751038,2.592878818511963,0.5928016901016235,1.4937798976898193
7.516205072402954,-1.4050145149230957,-0.8149436712265015,0.8556674122810364,2.5913562774658203,0.5919318199157715,1.4914166927337646
7.536263704299927,-1.4009180068969727,-0.8158555626869202,0.8556624054908752,2.591264009475708,0.5918567776679993,1.4900946617126465
7.556380987167358,-1.3993805646896362,-0.8160372972488403,0.8569784760475159,2.591411590576172,0.5933129787445068,1.4890204668045044
7.576467990875244,-1.3982402086257935,-0.8172860741615295,0.8591150045394897,2.590899705886841,0.594359815120697,1.4877302646636963
7.596586465835571,-1.3947837352752686,-0.8181197047233582,0.8604841232299805,2.590127944946289,0.5942984819412231,1.4870442152023315
7.616671323776245,-1.3898496627807617,-0.8191500902175903,0.8621672987937927,2.5894970893859863,0.5946412086486816,1.485489845275879
7.636770486831665,-1.387815237045288,-0.8194258213043213,0.8636939525604248,2.5896286964416504,0.5955798625946045,1.4845428466796875
7.656909227371216,-1.38547945022583,-0.820054292678833,0.8644704222679138,2.5887908935546875,0.5954265594482422,1.483419418334961
7.676965236663818,-1.3822441101074219,-0.8213315606117249,0.8656548857688904,2.588437080383301,0.5968731641769409,1.4808757305145264
7.697048902511597,-1.3815006017684937,-0.8217428922653198,0.8659055829048157,2.5884079933166504,0.5970109701156616,1.480177640914917
7.717134952545166,-1.3771053552627563,-0.822230339050293,0.8668654561042786,2.5882997512817383,0.596725344657898,1.4795132875442505
7.73723292350769,-1.375490665435791,-0.822489857673645,0.8662853837013245,2.588172197341919,0.5965423583984375,1.4793224334716797
7.757367134094238,-1.3743435144424438,-0.822881817817688,0.8661537766456604,2.587630271911621,0.5964633226394653,1.4782558679580688
7.7775044441223145,-1.3720555305480957,-0.8232961893081665,0.8676308393478394,2.5876429080963135,0.5971969366073608,1.4768054485321045
7.797587633132935,-1.3713711500167847,-0.8234902024269104,0.8682050704956055,2.5873217582702637,0.597499430179596,1.4757580757141113
7.817655086517334,-1.3685424327850342,-0.8248921036720276,0.8696570992469788,2.587000608444214,0.5983457565307617,1.4737083911895752
7.837848663330078,-1.3663585186004639,-0.8255952596664429,0.8704632520675659,2.5869319438934326,0.5982100963592529,1.4729883670806885
7.85782790184021,-1.3617055416107178,-0.8258755207061768,0.8700789213180542,2.58650279045105,0.597467303276062,1.4724959135055542
7.8779072761535645,-1.3614246845245361,-0.8258297443389893,0.8704914450645447,2.586212396621704,0.5975773334503174,1.4717743396759033
7.897993564605713,-1.3586111068725586,-0.8264184594154358,0.8703818321228027,2.5857646465301514,0.5975659489631653,1.470131278038025
7.918086528778076,-1.3551948070526123,-0.8276626467704773,0.8714672327041626,2.584897518157959,0.5976437330245972,1.4680119752883911
7.938111066818237,-1.3529295921325684,-0.8288514614105225,0.873119592666626,2.584308385848999,0.5973720550537109,1.4671835899353027
7.958191871643066,-1.349949836730957,-0.829408586025238,0.8742812275886536,2.584232807159424,0.5980044603347778,1.4666959047317505
7.978333234786987,-1.3470715284347534,-0.8298295736312866,0.8765571713447571,2.584132671356201,0.5980817079544067,1.4659640789031982
7.998356580734253,-1.3448116779327393,-0.8301010131835938,0.8775913715362549,2.5833773612976074,0.598177433013916,1.4646704196929932
8.018959760665894,-1.3417032957077026,-0.8313300609588623,0.8766476511955261,2.582576036453247,0.5989378690719604,1.462754726409912
8.039117574691772,-1.3405835628509521,-0.8318227529525757,0.8774746656417847,2.5823559761047363,0.5990304946899414,1.4614617824554443
8.05916714668274,-1.3365755081176758,-0.8328479528427124,0.8788124322891235,2.582181930541992,0.5991089940071106,1.460085153579712
8.079241037368774,-1.3339557647705078,-0.8325612545013428,0.8783167004585266,2.5821468830108643,0.5981213450431824,1.460181713104248
8.099306344985962,-1.3317325115203857,-0.8333296775817871,0.8794764876365662,2.5815184116363525,0.5978774428367615,1.4591114521026611
8.119395971298218,-1.3316105604171753,-0.8333308696746826,0.880515456199646,2.581866502761841,0.5989227294921875,1.4584767818450928
8.139523029327393,-1.3302440643310547,-0.834020733833313,0.8807821273803711,2.5809590816497803,0.5988461971282959,1.4572429656982422
8.159607648849487,-1.3278518915176392,-0.8355569243431091,0.8825993537902832,2.579496383666992,0.5988039374351501,1.4547138214111328
8.179737329483032,-1.325746774673462,-0.8359760642051697,0.8853195905685425,2.5800328254699707,0.6000838279724121,1.4532856941223145
8.19988203048706,-1.3242757320404053,-0.8361355662345886,0.8849848508834839,2.579759120941162,0.5996476411819458,1.4534845352172852
8.219889402389526,-1.3208094835281372,-0.8363007307052612,0.884274959564209,2.579342842102051,0.5992594957351685,1.4529179334640503
8.239952325820923,-1.3177582025527954,-0.8368831872940063,0.8851929903030396,2.579002857208252,0.5996325016021729,1.4519469738006592
8.259969472885132,-1.3169081211090088,-0.8370203971862793,0.8863941431045532,2.579148292541504,0.6002848148345947,1.4508793354034424
8.280070543289185,-1.314946174621582,-0.8374433517456055,0.8865911364555359,2.578652858734131,0.6005280017852783,1.449967622756958
8.300117015838623,-1.312576174736023,-0.8385001420974731,0.8879266977310181,2.5786046981811523,0.6008517146110535,1.448591947555542
8.320197343826294,-1.3072102069854736,-0.8398185968399048,0.8893209099769592,2.5779104232788086,0.6009811162948608,1.4466701745986938
8.3402578830719,-1.3052377700805664,-0.8399646282196045,0.8897554278373718,2.5776782035827637,0.6003081798553467,1.4463361501693726
8.360360383987427,-1.3051342964172363,-0.8396708965301514,0.8901012539863586,2.577925682067871,0.600515604019165,1.4460744857788086
8.380510568618774,-1.3026037216186523,-0.8405063152313232,0.8901944160461426,2.5771987438201904,0.6011297106742859,1.444691777229309
8.4005708694458,-1.2999966144561768,-0.8411475419998169,0.8918779492378235,2.577183723449707,0.6019918322563171,1.4429752826690674
8.420595169067383,-1.2984883785247803,-0.8420605659484863,0.8915444612503052,2.5762228965759277,0.6008455157279968,1.4415135383605957
8.44066047668457,-1.2965507507324219,-0.8425750732421875,0.8911305069923401,2.576117753982544,0.600550651550293,1.4412400722503662
8.460731744766235,-1.292161226272583,-0.8430688381195068,0.8929831981658936,2.5759172439575195,0.6004107594490051,1.4403657913208008
8.480810165405273,-1.2900075912475586,-0.8432848453521729,0.8952836394309998,2.5757017135620117,0.6017536520957947,1.439000129699707
8.500885963439941,-1.2889982461929321,-0.8438440561294556,0.8955636620521545,2.574864387512207,0.6022152304649353,1.4378905296325684
8.520985841751099,-1.2883332967758179,-0.8442434072494507,0.8959633111953735,2.574922800064087,0.6021952033042908,1.4372931718826294
8.541059017181396,-1.2876946926116943,-0.8442492485046387,0.8972276449203491,2.5746114253997803,0.6021615266799927,1.4361587762832642
8.561110258102417,-1.284938097000122,-0.8449524641036987,0.8954058885574341,2.5739269256591797,0.6014504432678223,1.4353348016738892
8.581163167953491,-1.2840654850006104,-0.8453503847122192,0.8950135707855225,2.5735952854156494,0.6005018353462219,1.4347290992736816
8.601244926452637,-1.2805097103118896,-0.8459808826446533,0.8958021402359009,2.5735816955566406,0.6009150743484497,1.433546543121338
8.621395111083984,-1.2757294178009033,-0.8467522859573364,0.8983478546142578,2.5732674598693848,0.6023222804069519,1.4316956996917725
8.64140510559082,-1.2745652198791504,-0.847464919090271,0.8996420502662659,2.5728185176849365,0.6027179956436157,1.430621862411499
8.66201138496399,-1.2713305950164795,-0.8486518859863281,0.9029647707939148,2.57241153717041,0.604655921459198,1.42756986618042
8.682122945785522,-1.2692159414291382,-0.8494853973388672,0.9041690826416016,2.572157382965088,0.6050071120262146,1.4267003536224365
8.70218563079834,-1.266636610031128,-0.8504955768585205,0.905359148979187,2.571274995803833,0.6045639514923096,1.4256515502929688
8.722267389297485,-1.2637537717819214,-0.8518000841140747,0.9053946733474731,2.5698633193969727,0.6035386323928833,1.424654483795166
8.742301940917969,-1.2619519233703613,-0.8519162535667419,0.9067783355712891,2.5702505111694336,0.6043680906295776,1.4238057136535645
8.762391567230225,-1.2601068019866943,-0.8522909879684448,0.9064376950263977,2.5698275566101074,0.6050420999526978,1.423067331314087
8.78246521949768,-1.2588367462158203,-0.8532008528709412,0.9071046710014343,2.5694527626037598,0.6048593521118164,1.4218692779541016
8.802534818649292,-1.2551803588867188,-0.8540502190589905,0.9083536863327026,2.569049596786499,0.6056839823722839,1.4203559160232544
8.822584390640259,-1.2536535263061523,-0.8545318841934204,0.9089236259460449,2.568960666656494,0.6052724719047546,1.4187774658203125
8.842641830444336,-1.2522107362747192,-0.8546655178070068,0.909243106842041,2.568805694580078,0.6053913831710815,1.4185035228729248
8.862742185592651,-1.24894380569458,-0.8547712564468384,0.9122929573059082,2.5691890716552734,0.6071956157684326,1.4169886112213135
8.882807970046997,-1.2466418743133545,-0.8556687831878662,0.9126574993133545,2.5685861110687256,0.6072301268577576,1.4161686897277832
8.902974128723145,-1.2442784309387207,-0.8564450740814209,0.9151263236999512,2.5677976608276367,0.6080058813095093,1.4147460460662842
8.923054456710815,-1.242271900177002,-0.8581092953681946,0.9150064587593079,2.5660390853881836,0.6074310541152954,1.4129211902618408
8.943201303482056,-1.241100788116455,-0.8586053848266602,0.9146216511726379,2.5659079551696777,0.6071071624755859,1.4118249416351318
8.963261127471924,-1.2387089729309082,-0.8589774370193481,0.9135842323303223,2.5660457611083984,0.6061445474624634,1.4112614393234253
8.983319520950317,-1.2382605075836182,-0.8585436344146729,0.9120194911956787,2.5659048557281494,0.6050500273704529,1.4111427068710327
9.003384828567505,-1.2363379001617432,-0.8586492538452148,0.9131731986999512,2.5659353733062744,0.6062520146369934,1.4099178314208984
9.023525953292847,-1.2348487377166748,-0.8586939573287964,0.9149601459503174,2.5662360191345215,0.6071898937225342,1.409264087677002
9.04353928565979,-1.2309682369232178,-0.8595099449157715,0.9165608882904053,2.565744400024414,0.6082875728607178,1.4077155590057373
9.063610792160034,-1.2282553911209106,-0.8609896302223206,0.9183567762374878,2.5649876594543457,0.609226405620575,1.4055538177490234
9.083660364151001,-1.2266703844070435,-0.8615717887878418,0.9184621572494507,2.5649282932281494,0.6092907786369324,1.4041467905044556
9.10374665260315,-1.2250057458877563,-0.8618634939193726,0.9174288511276245,2.564602851867676,0.6084038019180298,1.4040279388427734
9.123811721801758,-1.2230019569396973,-0.8621752262115479,0.9163823127746582,2.564453601837158,0.6078188419342041,1.4037914276123047
9.143884897232056,-1.2213863134384155,-0.8618912100791931,0.9184902906417847,2.5647377967834473,0.6084761023521423,1.4027953147888184
9.163931608200073,-1.2197034358978271,-0.8618218898773193,0.91993248462677,2.5645885467529297,0.6095086336135864,1.401951789855957
9.18401312828064,-1.2163300514221191,-0.8625757098197937,0.9214169383049011,2.564281940460205,0.6101953983306885,1.400937557220459
9.20411229133606,-1.2122608423233032,-0.8638166785240173,0.9246143102645874,2.5636191368103027,0.6122424602508545,1.3985271453857422
9.224182367324829,-1.2096426486968994,-0.8659143447875977,0.9256609082221985,2.561896324157715,0.611612856388092,1.3964428901672363
9.244218826293945,-1.207709789276123,-0.8674631118774414,0.9242677688598633,2.5608348846435547,0.6103060245513916,1.395392656326294
9.264330387115479,-1.2076267004013062,-0.8675441741943359,0.9239540100097656,2.561082601547241,0.6093910932540894,1.3955994844436646
9.284401893615723,-1.2061810493469238,-0.8672527074813843,0.9235741496086121,2.5610668659210205,0.6096639037132263,1.395402193069458
9.304478883743286,-1.2026468515396118,-0.8673679828643799,0.9246561527252197,2.56064510345459,0.6092908382415771,1.3942075967788696
9.32455039024353,-1.1991225481033325,-0.8679013252258301,0.9273574948310852,2.5608508586883545,0.6105897426605225,1.3927148580551147
9.344705820083618,-1.1987184286117554,-0.8676517009735107,0.9291066527366638,2.560699462890625,0.6115988492965698,1.3917269706726074
9.364878416061401,-1.1969026327133179,-0.8691809177398682,0.9309806227684021,2.5596799850463867,0.6129930019378662,1.3893907070159912
9.384921550750732,-1.194644570350647,-0.8711151480674744,0.931084156036377,2.558098554611206,0.6120452880859375,1.3876265287399292
9.404963731765747,-1.1927093267440796,-0.8716576099395752,0.9293930530548096,2.5582640171051025,0.6107662916183472,1.3878382444381714
9.425133466720581,-1.1923980712890625,-0.8710675239562988,0.9277111291885376,2.557980537414551,0.609154224395752,1.3880678415298462
9.44520354270935,-1.190401315689087,-0.8707194328308105,0.9276832938194275,2.5576610565185547,0.6088687777519226,1.3873817920684814
9.46526551246643,-1.1871145963668823,-0.8711923956871033,0.9291431307792664,2.5578691959381104,0.610170841217041,1.3860352039337158
9.48540997505188,-1.1831722259521484,-0.8719677329063416,0.9330121278762817,2.5575809478759766,0.6121779084205627,1.3835139274597168
9.505405902862549,-1.182546854019165,-0.8726890087127686,0.9338778257369995,2.557380437850952,0.6127951741218567,1.3825583457946777
9.525503873825073,-1.1812782287597656,-0.8735037446022034,0.9345558881759644,2.557154893875122,0.6130157709121704,1.3813388347625732
9.545586109161377,-1.1796236038208008,-0.8738953471183777,0.9337944388389587,2.556985855102539,0.6127408742904663,1.3812458515167236
9.565616846084595,-1.177431344985962,-0.8737243413925171,0.9344013333320618,2.557133436203003,0.6120842099189758,1.3806113004684448
9.585695028305054,-1.1757785081863403,-0.8737995624542236,0.933229386806488,2.556307315826416,0.6105611324310303,1.3807616233825684
9.60581111907959,-1.1725084781646729,-0.8739324808120728,0.9345324039459229,2.5565667152404785,0.6119171977043152,1.379323124885559
9.625910758972168,-1.169980525970459,-0.8748377561569214,0.9369568824768066,2.5563817024230957,0.6135482788085938,1.3770596981048584
9.645934343338013,-1.1676750183105469,-0.8762096166610718,0.9377923607826233,2.55551815032959,0.6135043501853943,1.3747897148132324
9.666049003601074,-1.1660923957824707,-0.8763738870620728,0.9389002919197083,2.5556254386901855,0.6141626834869385,1.3739393949508667
9.686089277267456,-1.1636583805084229,-0.8773422241210938,0.9394210577011108,2.55515718460083,0.6136081218719482,1.373289942741394
9.706159830093384,-1.1616947650909424,-0.8772969245910645,0.9406546354293823,2.5552003383636475,0.6144862174987793,1.3721420764923096
9.726198196411133,-1.159959077835083,-0.8782764673233032,0.9396687746047974,2.554203510284424,0.6137403845787048,1.370849847793579
9.746371269226074,-1.1565256118774414,-0.8791249990463257,0.9404313564300537,2.5537819862365723,0.6139821410179138,1.3695464134216309
9.766418933868408,-1.1532301902770996,-0.8802781105041504,0.9427340626716614,2.553210735321045,0.6145644187927246,1.3673839569091797
9.78650450706482,-1.1500840187072754,-0.8806687593460083,0.9444178342819214,2.5529329776763916,0.6149246692657471,1.366773247718811
9.806624412536621,-1.1495912075042725,-0.8805972933769226,0.9463070631027222,2.553107261657715,0.6164827942848206,1.3654377460479736
9.826692342758179,-1.1485776901245117,-0.8812760710716248,0.9464271068572998,2.5528478622436523,0.6164203882217407,1.3648455142974854
9.846734046936035,-1.1477776765823364,-0.8814729452133179,0.9467782974243164,2.5523593425750732,0.6158438920974731,1.363969326019287
9.866883039474487,-1.146138310432434,-0.8821057677268982,0.9459065794944763,2.5515527725219727,0.6147675514221191,1.3624616861343384
9.886975765228271,-1.14389169216156,-0.8823610544204712,0.9454629421234131,2.551311731338501,0.6147456169128418,1.361340045928955
9.90706181526184,-1.1405177116394043,-0.8829809427261353,0.9456486701965332,2.551440954208374,0.614668607711792,1.3606736660003662
9.927108764648438,-1.1364445686340332,-0.8835285902023315,0.9476760625839233,2.551046848297119,0.6158789992332458,1.358764410018921
9.947176694869995,-1.1353429555892944,-0.8843276500701904,0.9476961493492126,2.5501840114593506,0.6155152916908264,1.3580334186553955
9.967248916625977,-1.1322100162506104,-0.8855715990066528,0.9485028982162476,2.5493195056915283,0.6154334545135498,1.3560371398925781
9.987321615219116,-1.1302716732025146,-0.8871450424194336,0.9495390057563782,2.5486083030700684,0.6150779724121094,1.3542282581329346
10.00744366645813,-1.1288032531738281,-0.8872125148773193,0.9507921934127808,2.54891037940979,0.6158081293106079,1.3537319898605347
10.027552127838135,-1.127196192741394,-0.8871749639511108,0.9507989287376404,2.5484156608581543,0.6150088310241699,1.3535903692245483
10.047637462615967,-1.1252727508544922,-0.887200117111206,0.9508881568908691,2.548398971557617,0.6156823039054871,1.3527758121490479
10.067896842956543,-1.1214971542358398,-0.887827455997467,0.9519823789596558,2.548126697540283,0.6157996654510498,1.3514900207519531
10.08803939819336,-1.121006727218628,-0.8877906799316406,0.9521539211273193,2.5481173992156982,0.6159892082214355,1.3511483669281006
10.108126163482666,-1.1188194751739502,-0.887995719909668,0.9523785710334778,2.5477442741394043,0.616346001625061,1.3499317169189453
10.128166913986206,-1.115904688835144,-0.8886390924453735,0.9549964666366577,2.5474894046783447,0.6174282431602478,1.3476181030273438
10.148267269134521,-1.1150996685028076,-0.8892454504966736,0.9554144144058228,2.5472216606140137,0.6174049973487854,1.3466565608978271
10.16843581199646,-1.1132402420043945,-0.8900221586227417,0.9566019773483276,2.5473270416259766,0.6177875995635986,1.3458094596862793
10.188506841659546,-1.109586477279663,-0.8905900716781616,0.9572892189025879,2.5468201637268066,0.6176865100860596,1.3449797630310059
10.208758115768433,-1.1076819896697998,-0.8907498121261597,0.9577508568763733,2.5466699600219727,0.6174867749214172,1.3443620204925537
10.228870153427124,-1.1038016080856323,-0.8906807899475098,0.9589823484420776,2.546419143676758,0.6186665296554565,1.342440128326416
10.248968362808228,-1.103213906288147,-0.8916120529174805,0.9577909111976624,2.545698642730713,0.6175450086593628,1.341177225112915
10.269004106521606,-1.1014375686645508,-0.8920942544937134,0.9578475952148438,2.5456831455230713,0.6173316836357117,1.3404710292816162
10.289011478424072,-1.1021486520767212,-0.8923889398574829,0.9577794671058655,2.545480966567993,0.6170780658721924,1.340106725692749
10.309112548828125,-1.100715160369873,-0.892145037651062,0.9572895169258118,2.545478343963623,0.6159224510192871,1.3403542041778564
10.32917594909668,-1.100228190422058,-0.8918482661247253,0.9570335149765015,2.544820547103882,0.6145146489143372,1.3402125835418701
10.349231958389282,-1.0976881980895996,-0.8920202255249023,0.9558464288711548,2.5439352989196777,0.614052414894104,1.339414358139038
10.36931586265564,-1.0970081090927124,-0.8920257091522217,0.9557225704193115,2.5438179969787598,0.6139828562736511,1.3390562534332275
10.389410495758057,-1.093261957168579,-0.8924852013587952,0.9562462568283081,2.5435938835144043,0.61435866355896,1.3375194072723389
10.40947699546814,-1.0892657041549683,-0.8932562470436096,0.9570282697677612,2.542731523513794,0.6142048835754395,1.335844874382019
10.429542064666748,-1.0877125263214111,-0.8944056034088135,0.957717776298523,2.542574405670166,0.6140626072883606,1.3342655897140503
10.449622392654419,-1.087187647819519,-0.8949370384216309,0.958108127117157,2.5422730445861816,0.6139563322067261,1.3336762189865112
10.469688892364502,-1.0854662656784058,-0.8948884010314941,0.9594846367835999,2.5425467491149902,0.6149041056632996,1.332944631576538
10.48973536491394,-1.0844013690948486,-0.8950111865997314,0.9593441486358643,2.5421524047851562,0.6147816181182861,1.3321470022201538
10.509879112243652,-1.0809450149536133,-0.8952560424804688,0.9592049717903137,2.541736364364624,0.6138529777526855,1.3313984870910645
10.529969215393066,-1.0785850286483765,-0.8957281708717346,0.9604135751724243,2.541022777557373,0.6144051551818848,1.3296141624450684
10.550093412399292,-1.0742558240890503,-0.897171139717102,0.9613972306251526,2.5405306816101074,0.6144416332244873,1.327925205230713
10.57011604309082,-1.072213888168335,-0.898705005645752,0.9633080363273621,2.5395030975341797,0.6149245500564575,1.3260915279388428
10.590160846710205,-1.070786952972412,-0.899526834487915,0.9660248756408691,2.539008855819702,0.6157684922218323,1.3242952823638916
10.610255002975464,-1.0706101655960083,-0.8997056484222412,0.9665859937667847,2.5390563011169434,0.6159427165985107,1.3241450786590576
10.630369186401367,-1.068626046180725,-0.9001047611236572,0.9657789468765259,2.5384578704833984,0.6151543855667114,1.3239487409591675
10.650431871414185,-1.0660223960876465,-0.9008776545524597,0.9641724228858948,2.537916660308838,0.6144081354141235,1.3230197429656982
10.670485734939575,-1.0636597871780396,-0.9009697437286377,0.9656646251678467,2.5378637313842773,0.6146208643913269,1.3212754726409912
10.690585613250732,-1.063022494316101,-0.901099443435669,0.9665810465812683,2.5377659797668457,0.6149052381515503,1.320422649383545
10.710652589797974,-1.0592507123947144,-0.9017740488052368,0.9679791927337646,2.5379605293273926,0.6162701845169067,1.3189020156860352
10.730741500854492,-1.0574350357055664,-0.9021891355514526,0.97051602602005,2.5380029678344727,0.6174882650375366,1.3177313804626465
10.75078535079956,-1.0549052953720093,-0.9028642773628235,0.9711811542510986,2.537285089492798,0.6177746653556824,1.3163425922393799
10.770892858505249,-1.0541481971740723,-0.903378963470459,0.9713298082351685,2.536871910095215,0.6170693039894104,1.3156753778457642
10.790952920913696,-1.0514250993728638,-0.9042519330978394,0.9718896150588989,2.536506414413452,0.6170685887336731,1.3141660690307617
10.811033010482788,-1.0495731830596924,-0.9049950838088989,0.9708725810050964,2.5352602005004883,0.616284191608429,1.312920331954956
10.83112359046936,-1.0488734245300293,-0.9052644968032837,0.9715677499771118,2.535306215286255,0.6163253784179688,1.3120532035827637
10.851296186447144,-1.048621654510498,-0.9054192304611206,0.9720271825790405,2.5354132652282715,0.6164101362228394,1.3118817806243896
10.87135910987854,-1.0468114614486694,-0.9052261114120483,0.9727146625518799,2.5352985858917236,0.6171790361404419,1.3109419345855713
10.891388416290283,-1.0445611476898193,-0.9053446054458618,0.9731892943382263,2.5351779460906982,0.6163780689239502,1.3104968070983887
10.911472797393799,-1.043027400970459,-0.9052858352661133,0.9741173386573792,2.534912586212158,0.6169318556785583,1.3096320629119873
10.931545495986938,-1.0402803421020508,-0.9062082767486572,0.9743051528930664,2.5344412326812744,0.6169021129608154,1.3084355592727661
10.951618671417236,-1.0376768112182617,-0.9070385694503784,0.9760907292366028,2.5344252586364746,0.6181057691574097,1.3061505556106567
10.971666097640991,-1.0368731021881104,-0.907796323299408,0.976000189781189,2.5341954231262207,0.6179744005203247,1.3056596517562866
10.991772174835205,-1.0351247787475586,-0.907920777797699,0.9760723114013672,2.5339372158050537,0.6180667877197266,1.3052103519439697
11.011815071105957,-1.032699704170227,-0.9077374935150146,0.9754685163497925,2.5338265895843506,0.6175669431686401,1.304500937461853
11.031864404678345,-1.0311408042907715,-0.9074479341506958,0.9761618375778198,2.5337977409362793,0.6175504922866821,1.3039191961288452
11.051924467086792,-1.0292389392852783,-0.9075121879577637,0.9764726161956787,2.533661365509033,0.6179714798927307,1.3031266927719116
11.072005987167358,-1.02701735496521,-0.9080302119255066,0.9772727489471436,2.5333056449890137,0.6181641817092896,1.302256464958191
11.092085599899292,-1.0244747400283813,-0.9090582132339478,0.9774202108383179,2.532958984375,0.6180188655853271,1.3010241985321045
11.112159252166748,-1.0235257148742676,-0.9099922180175781,0.9780723452568054,2.532522678375244,0.617850661277771,1.2999080419540405
11.132197380065918,-1.0211313962936401,-0.9102360606193542,0.9811148643493652,2.5322680473327637,0.6191776990890503,1.2978160381317139
11.152298927307129,-1.0203678607940674,-0.9105721712112427,0.9811039566993713,2.5321669578552246,0.6191232204437256,1.2976245880126953
11.172399997711182,-1.0178439617156982,-0.910780668258667,0.9813226461410522,2.531125068664551,0.6186867952346802,1.296653151512146
11.192464590072632,-1.0166523456573486,-0.9116579294204712,0.9817691445350647,2.5302462577819824,0.618139386177063,1.2957701683044434
11.212523221969604,-1.0140724182128906,-0.9121216535568237,0.9813055992126465,2.5300893783569336,0.6180576086044312,1.294891357421875
11.232614755630493,-1.0134745836257935,-0.9125584959983826,0.9810622930526733,2.5297203063964844,0.6178276538848877,1.294092059135437
11.252726554870605,-1.009167194366455,-0.9131796956062317,0.9841240644454956,2.529575824737549,0.6192600131034851,1.2915810346603394
11.272812128067017,-1.0058369636535645,-0.9138491749763489,0.986615002155304,2.5297508239746094,0.6197570562362671,1.2904421091079712
11.292850255966187,-1.005327820777893,-0.9139611721038818,0.9893420934677124,2.5295801162719727,0.6209887862205505,1.2891783714294434
11.313009023666382,-1.0047351121902466,-0.9142622351646423,0.9890494346618652,2.5291624069213867,0.6207460165023804,1.2890506982803345
11.333128213882446,-1.0036150217056274,-0.9151185750961304,0.9884488582611084,2.5279834270477295,0.6199706196784973,1.288401484489441
11.35324478149414,-1.00253427028656,-0.9153947830200195,0.9880496263504028,2.5277130603790283,0.6195660829544067,1.2876124382019043
11.373282670974731,-1.000840663909912,-0.9151979684829712,0.9874184131622314,2.5273091793060303,0.61843341588974,1.2875407934188843
11.393328666687012,-1.0001012086868286,-0.9154080152511597,0.9860660433769226,2.526992082595825,0.6177877187728882,1.2871975898742676
11.413400411605835,-0.998724102973938,-0.915765643119812,0.9863330125808716,2.526754140853882,0.6175969839096069,1.2855174541473389
11.433498859405518,-0.9979192018508911,-0.9158725738525391,0.9878486394882202,2.526951313018799,0.6182804703712463,1.2840616703033447
11.453554391860962,-0.9944987297058105,-0.9163734912872314,0.9883077144622803,2.526604175567627,0.6181581020355225,1.283495545387268
11.473634958267212,-0.9929566383361816,-0.9165778756141663,0.9887691736221313,2.5266599655151367,0.6183409690856934,1.283189296722412
11.493709564208984,-0.989281177520752,-0.9174311757087708,0.9921258687973022,2.5267176628112793,0.6203354001045227,1.2813076972961426
11.513911962509155,-0.9880733489990234,-0.9180842638015747,0.9916439652442932,2.525926113128662,0.619598925113678,1.2805211544036865
11.533921241760254,-0.9864075779914856,-0.9186012744903564,0.9896697998046875,2.5253028869628906,0.6192814111709595,1.2789634466171265
11.55408263206482,-0.984257698059082,-0.919762134552002,0.9880269765853882,2.52462100982666,0.6173378229141235,1.2774326801300049
11.574183702468872,-0.9829471707344055,-0.919921875,0.9881542325019836,2.5249550342559814,0.6173641681671143,1.2772228717803955
11.59425139427185,-0.9813555479049683,-0.9195722937583923,0.9896734356880188,2.525050640106201,0.6178409457206726,1.2764257192611694
11.614341974258423,-0.9794406294822693,-0.9195473194122314,0.9913995265960693,2.524925708770752,0.6182206869125366,1.2756224870681763
11.634440660476685,2.09,-1.9271632432937622,1.794451117515564,0.20972871780395508,1.0485038757324219,-0.8178417682647705
11.65457010269165,2.09,-1.9032272100448608,1.8086210489273071,0.3345690667629242,1.076204776763916,-0.8650097250938416
11.674595832824707,2.09,-1.87648606300354,1.7990906238555908,0.3813939392566681,1.0709218978881836,-0.8721404075622559
11.694777250289917,2.09,-1.8703354597091675,1.7910922765731812,0.38412442803382874,1.0677886009216309,-0.8724031448364258
11.71483039855957,2.09,-1.868701696395874,1.7882423400878906,0.38406381011009216,1.0657315254211426,-0.8726053833961487
11.734970808029175,2.09,-1.8677451610565186,1.7879115343093872,0.38403502106666565,1.0653572082519531,-0.8725799322128296
11.75505542755127,2.09,-1.866736888885498,1.7857093811035156,0.3833533525466919,1.0638164281845093,-0.872530460357666
11.775099992752075,2.09,-1.8656351566314697,1.7825313806533813,0.3821868300437927,1.0618277788162231,-0.8726855516433716
11.795170783996582,2.09,-1.8653252124786377,1.7818586826324463,0.38228264451026917,1.0614755153656006,-0.8727070093154907
11.815251350402832,2.09,-1.864593505859375,1.7792608737945557,0.38116827607154846,1.0589964389801025,-0.8726863861083984
11.83536434173584,2.09,-1.8633173704147339,1.7766342163085938,0.3798716068267822,1.0568037033081055,-0.8727356195449829
11.855613708496094,2.09,-1.8625431060791016,1.7752329111099243,0.3796451687812805,1.0556893348693848,-0.8726984262466431
11.875700235366821,2.09,-1.8617802858352661,1.7750401496887207,0.37953847646713257,1.0554296970367432,-0.8726727962493896
11.895758390426636,2.09,-1.8609216213226318,1.7739460468292236,0.3789299726486206,1.0541207790374756,-0.8725135326385498
11.915852546691895,2.09,-1.860403060913086,1.7701696157455444,0.37731680274009705,1.0512537956237793,-0.8727182149887085
11.935940265655518,2.09,-1.8597854375839233,1.7689318656921387,0.3765548765659332,1.0497509241104126,-0.8726815581321716
11.956002235412598,2.09,-1.8591113090515137,1.7649203538894653,0.3753854036331177,1.0471205711364746,-0.872748613357544
11.976099491119385,2.09,-1.8574528694152832,1.7648167610168457,0.3755149841308594,1.0461468696594238,-0.872480034828186
11.996133804321289,2.09,-1.8566269874572754,1.763773798942566,0.374729722738266,1.0442802906036377,-0.8721910715103149
12.01621389389038,2.09,-1.8553211688995361,1.7631475925445557,0.3739413619041443,1.043198823928833,-0.8721455335617065
12.036285638809204,2.09,-1.8539561033248901,1.760785460472107,0.37277889251708984,1.0410985946655273,-0.8720579147338867
12.056357622146606,2.09,-1.8537036180496216,1.7576833963394165,0.3722250461578369,1.0397841930389404,-0.8722645044326782
12.076446294784546,2.09,-1.8528873920440674,1.7543854713439941,0.3707847595214844,1.0363328456878662,-0.8721317052841187
12.096519470214844,2.09,-1.852797269821167,1.7525725364685059,0.36980465054512024,1.0353727340698242,-0.8723521828651428
12.116631984710693,2.09,-1.8514962196350098,1.7518290281295776,0.3699258863925934,1.0344583988189697,-0.8722046613693237
12.136703491210938,2.09,-1.8508095741271973,1.7509385347366333,0.3696076273918152,1.033097743988037,-0.8720196485519409
12.156778335571289,2.09,-1.8498905897140503,1.7494773864746094,0.3689279556274414,1.0323389768600464,-0.8720878958702087
12.17689037322998,2.09,-1.849151372909546,1.7490267753601074,0.36876940727233887,1.0320204496383667,-0.8720649480819702
12.196937799453735,2.09,-1.8484323024749756,1.7469044923782349,0.36774688959121704,1.0304348468780518,-0.872125506401062
12.217077016830444,2.09,-1.8476850986480713,1.745224952697754,0.36743682622909546,1.0293575525283813,-0.8722273707389832
12.237117290496826,2.09,-1.847130537033081,1.741774559020996,0.3661201596260071,1.0263758897781372,-0.8721827268600464
12.25718355178833,2.09,-1.8470492362976074,1.7401331663131714,0.3653983473777771,1.0248442888259888,-0.8721523284912109
12.27729868888855,2.09,-1.8460516929626465,1.7379283905029297,0.3645392954349518,1.0226564407348633,-0.8720395565032959
12.297400951385498,2.09,-1.8445687294006348,1.736928939819336,0.36414051055908203,1.0217512845993042,-0.8719629049301147
12.317437171936035,2.09,-1.8431825637817383,1.7358765602111816,0.3639879822731018,1.0209550857543945,-0.8718847632408142
12.337477684020996,2.09,-1.842908263206482,1.7324354648590088,0.36240872740745544,1.0184935331344604,-0.8720008134841919
12.357555627822876,2.09,-1.8428666591644287,1.730877161026001,0.3621930778026581,1.017479419708252,-0.8719931244850159
12.37767481803894,2.09,-1.8420571088790894,1.7284023761749268,0.3616206645965576,1.0154651403427124,-0.8719788193702698
12.397696733474731,2.09,-1.8409123420715332,1.7274177074432373,0.3613954186439514,1.01311457157135,-0.8715832829475403
12.41777229309082,2.09,-1.8399571180343628,1.7255841493606567,0.36083632707595825,1.010827660560608,-0.8711909651756287
12.43790888786316,2.09,-1.839063048362732,1.7256513833999634,0.36104658246040344,1.0116007328033447,-0.8712171316146851
12.457968473434448,2.09,-1.8382055759429932,1.7240655422210693,0.36050093173980713,1.011101484298706,-0.8713969588279724
12.47802209854126,2.09,-1.8374812602996826,1.722428321838379,0.3601915240287781,1.0098124742507935,-0.8713590502738953
12.498125076293945,2.09,-1.8369355201721191,1.7211425304412842,0.3595789074897766,1.008415699005127,-0.8713260889053345
12.518215656280518,2.09,-1.8369510173797607,1.7162439823150635,0.35728734731674194,1.004270315170288,-0.8714025020599365
12.53827166557312,2.09,-1.835258960723877,1.7157922983169556,0.3579941391944885,1.0032358169555664,-0.8710455894470215
12.558324575424194,2.09,-1.8336069583892822,1.714340329170227,0.35701966285705566,1.0018761157989502,-0.8709462881088257
12.578404426574707,2.09,-1.833009958267212,1.712214708328247,0.3556640148162842,0.9998937845230103,-0.8710227012634277
12.598498821258545,2.09,-1.8320800065994263,1.7110824584960938,0.35639041662216187,1.0004971027374268,-0.8710970878601074
12.618600606918335,2.09,-1.8317961692810059,1.7093684673309326,0.3562353253364563,0.9988498687744141,-0.8709795475006104
12.638648748397827,2.09,-1.8318078517913818,1.7063301801681519,0.3545495867729187,0.9955195188522339,-0.8708469867706299
12.658759593963623,2.09,-1.8311679363250732,1.7048792839050293,0.3539065718650818,0.9947173595428467,-0.8709492087364197
12.67886734008789,2.09,-1.8294165134429932,1.7037601470947266,0.3542160093784332,0.9939330816268921,-0.8707664012908936
12.698979377746582,2.09,-1.8278450965881348,1.7031071186065674,0.3544500768184662,0.993371307849884,-0.8705581426620483
12.718963146209717,2.09,-1.8269193172454834,1.7021301984786987,0.3541729152202606,0.9922195672988892,-0.8703728914260864
12.739052295684814,2.09,-1.8268893957138062,1.7002882957458496,0.35348719358444214,0.9916129112243652,-0.8706002235412598
12.759134292602539,2.09,-1.8258637189865112,1.6976070404052734,0.35242772102355957,0.9895554780960083,-0.8707517385482788
12.779196500778198,2.09,-1.8255743980407715,1.694867491722107,0.3513585329055786,0.9868177771568298,-0.8706457614898682
12.79926609992981,2.09,-1.8239881992340088,1.6941618919372559,0.35129159688949585,0.985787034034729,-0.870474100112915
12.819361925125122,2.09,-1.8231127262115479,1.6940113306045532,0.35142770409584045,0.9864777326583862,-0.8705050349235535
12.839421272277832,2.09,-1.822231650352478,1.6930872201919556,0.35064369440078735,0.9848166704177856,-0.8703644871711731
12.859512567520142,2.09,-1.8208653926849365,1.6910631656646729,0.3499245047569275,0.9834944009780884,-0.8703901767730713
12.879568099975586,2.09,-1.8203576803207397,1.6890746355056763,0.3492796719074249,0.9823877811431885,-0.8704105615615845
12.899814367294312,2.09,-1.820486068725586,1.687988042831421,0.3488653600215912,0.9812544584274292,-0.8703941106796265
12.919889688491821,2.09,-1.8191832304000854,1.6862901449203491,0.34868091344833374,0.9806973338127136,-0.8704996109008789
12.939998388290405,2.09,-1.818276286125183,1.6837711334228516,0.3471047580242157,0.9777559041976929,-0.8703469634056091
12.960052490234375,2.09,-1.8165621757507324,1.6827380657196045,0.3469200134277344,0.976757287979126,-0.8701673746109009
12.980148077011108,2.09,-1.8166520595550537,1.681657075881958,0.3465665578842163,0.975738525390625,-0.8701581358909607
13.000222444534302,2.09,-1.8160831928253174,1.6799108982086182,0.34596291184425354,0.9738208651542664,-0.8700093626976013
13.020320177078247,2.09,-1.8149785995483398,1.678552508354187,0.3454129695892334,0.9728773832321167,-0.8699432015419006
13.04041314125061,2.09,-1.8138933181762695,1.6768298149108887,0.3448594808578491,0.971429705619812,-0.8699789643287659
13.060465574264526,2.09,-1.8131632804870605,1.6748652458190918,0.34416311979293823,0.969833254814148,-0.8699390888214111
13.080542087554932,2.09,-1.8127037286758423,1.6721967458724976,0.34295332431793213,0.9672735929489136,-0.869941234588623
13.100590705871582,2.09,-1.8119173049926758,1.6708892583847046,0.3427201509475708,0.9660027027130127,-0.8697705268859863
13.120635747909546,2.09,-1.8104305267333984,1.6692044734954834,0.34233230352401733,0.9637070894241333,-0.8693250417709351
13.140769720077515,2.09,-1.8102612495422363,1.6673877239227295,0.3413879871368408,0.9620251655578613,-0.8693234920501709
13.16082501411438,2.09,-1.8086802959442139,1.6651430130004883,0.3406696617603302,0.960335373878479,-0.8692232966423035
13.18093204498291,2.09,-1.8077445030212402,1.6646966934204102,0.341167688369751,0.9601873159408569,-0.8690742254257202
13.200929403305054,2.09,-1.8074430227279663,1.6640675067901611,0.34088563919067383,0.9588615894317627,-0.8688638210296631
13.221017360687256,2.09,-1.8068537712097168,1.6627860069274902,0.33965668082237244,0.9578642845153809,-0.8690221309661865
13.241085529327393,2.09,-1.8061119318008423,1.6593053340911865,0.338441401720047,0.9554966688156128,-0.869080662727356
13.261171102523804,2.09,-1.8050594329833984,1.657824993133545,0.3387176990509033,0.9539589881896973,-0.8687063455581665
13.281213283538818,2.09,-1.8038887977600098,1.6562587022781372,0.3376595973968506,0.9522154331207275,-0.8686997890472412
13.301297426223755,2.09,-1.803868055343628,1.6541767120361328,0.3368360102176666,0.9507707357406616,-0.8687916398048401
13.32138991355896,2.09,-1.8021759986877441,1.6538481712341309,0.33736300468444824,0.950880765914917,-0.8687433004379272
13.341455459594727,2.09,-1.8012135028839111,1.6518945693969727,0.3365103304386139,0.950181245803833,-0.8688845634460449
13.361510515213013,2.09,-1.8010207414627075,1.649738073348999,0.33559900522232056,0.9475101232528687,-0.8686814308166504
13.38161325454712,2.09,-1.800347089767456,1.6493206024169922,0.33540305495262146,0.9469890594482422,-0.8686431646347046
13.401658773422241,2.09,-1.7988563776016235,1.6483476161956787,0.3353310227394104,0.9457430839538574,-0.8683297634124756
13.421746969223022,2.09,-1.7970786094665527,1.646752953529358,0.3353428244590759,0.9439864158630371,-0.8678886890411377
13.441789865493774,2.09,-1.7967448234558105,1.6443217992782593,0.3348572254180908,0.9425896406173706,-0.8679965734481812
13.461888313293457,2.09,-1.7966212034225464,1.6428196430206299,0.33415305614471436,0.9417411088943481,-0.8681135177612305
13.482011079788208,2.09,-1.7958612442016602,1.6414196491241455,0.33388131856918335,0.9404259920120239,-0.8680513501167297
13.502090454101562,2.09,-1.7947611808776855,1.6394476890563965,0.3324834704399109,0.9378092288970947,-0.8679623603820801
13.52213191986084,2.09,-1.7941585779190063,1.635961890220642,0.3306490182876587,0.9346030950546265,-0.8678020238876343
13.54227590560913,2.09,-1.793365478515625,1.6348507404327393,0.3305433392524719,0.9339956045150757,-0.8677700757980347
13.562390804290771,2.09,-1.7923719882965088,1.6355241537094116,0.331110417842865,0.9343624114990234,-0.8674984574317932
13.582466125488281,2.09,-1.7917845249176025,1.633484959602356,0.3304401636123657,0.931765079498291,-0.8672043085098267
13.602526903152466,2.09,-1.790576696395874,1.6315875053405762,0.3297402262687683,0.930794358253479,-0.8674737811088562
13.622562885284424,2.09,-1.789473056793213,1.6289141178131104,0.3292918801307678,0.9298684597015381,-0.8674623370170593
13.642656087875366,2.09,-1.7894415855407715,1.6274361610412598,0.32843393087387085,0.9277426600456238,-0.8674966096878052
13.662734985351562,2.09,-1.7881178855895996,1.6256608963012695,0.32761919498443604,0.9262974858283997,-0.8675113916397095
13.682799816131592,2.09,-1.7870817184448242,1.6248239278793335,0.3279262185096741,0.9259190559387207,-0.8673700094223022
13.70284104347229,2.09,-1.785213589668274,1.6251407861709595,0.32823845744132996,0.9252907037734985,-0.8667832016944885
13.722954750061035,2.09,-1.7849998474121094,1.6241776943206787,0.3275599777698517,0.9239164590835571,-0.8666378259658813
13.74311089515686,2.09,-1.7853164672851562,1.6183524131774902,0.32534244656562805,0.9203307628631592,-0.8670617341995239
13.76310420036316,2.09,-1.7838194370269775,1.617578387260437,0.32558250427246094,0.9188717603683472,-0.866817831993103
13.783191204071045,2.09,-1.7826237678527832,1.6166092157363892,0.32601773738861084,0.9184103012084961,-0.8665164709091187
13.803389549255371,2.09,-1.78202223777771,1.6155569553375244,0.3254009485244751,0.9171755313873291,-0.8664270639419556
13.823381423950195,2.09,-1.780091643333435,1.6128273010253906,0.32371339201927185,0.9155529737472534,-0.8665564656257629
13.843441724777222,2.09,-1.7797762155532837,1.6114211082458496,0.32349950075149536,0.9133867025375366,-0.8662172555923462
13.863924980163574,2.09,-1.7793190479278564,1.6094073057174683,0.32326093316078186,0.9123960733413696,-0.8662854433059692
13.884008407592773,2.09,-1.7786149978637695,1.607599139213562,0.32236021757125854,0.9108636975288391,-0.8663039207458496
13.904078245162964,2.09,-1.7777059078216553,1.6055166721343994,0.3217378258705139,0.9095511436462402,-0.86634361743927
13.924185991287231,2.09,-1.776029348373413,1.6041176319122314,0.32144081592559814,0.9090175628662109,-0.866352915763855
13.944193601608276,2.09,-1.775139331817627,1.6025129556655884,0.3207927644252777,0.9074561595916748,-0.8663354516029358
13.964346885681152,2.09,-1.7742407321929932,1.6027851104736328,0.32118600606918335,0.9076590538024902,-0.8661792278289795
13.984435081481934,2.09,-1.773549199104309,1.6004598140716553,0.31986165046691895,0.905357301235199,-0.8660733103752136
14.004451513290405,2.09,-1.7732858657836914,1.5971689224243164,0.31850188970565796,0.9029071927070618,-0.8661641478538513
14.024548053741455,2.09,-1.7713639736175537,1.5956772565841675,0.3180999755859375,0.9010042548179626,-0.8660983443260193
14.044646501541138,2.09,-1.7715692520141602,1.5934343338012695,0.3173229694366455,0.9007786512374878,-0.8662726879119873
14.06471848487854,2.09,-1.7699217796325684,1.5908329486846924,0.3157908618450165,0.8974548578262329,-0.8660813570022583
14.084778070449829,2.09,-1.7689521312713623,1.587641716003418,0.31465035676956177,0.8950966596603394,-0.8659719228744507
14.104842185974121,2.09,-1.7686426639556885,1.5864624977111816,0.3147376775741577,0.8937318325042725,-0.8657755851745605
14.12509298324585,2.09,-1.7681281566619873,1.5859293937683105,0.314775675535202,0.8928382396697998,-0.8656062483787537
14.14513087272644,2.09,-1.7664916515350342,1.5848684310913086,0.31464192271232605,0.8924573659896851,-0.8655096888542175
14.16516900062561,2.09,-1.7650361061096191,1.5828580856323242,0.3145371675491333,0.8924466371536255,-0.8658623099327087
14.185304403305054,2.09,-1.7641196250915527,1.582374930381775,0.3145897090435028,0.8913682699203491,-0.865614652633667
14.205400466918945,2.09,-1.763588547706604,1.5801279544830322,0.3133576512336731,0.889711856842041,-0.8656813502311707
14.225460290908813,2.09,-1.7617346048355103,1.5786420106887817,0.3124733865261078,0.8870820999145508,-0.8653101921081543
14.24556016921997,2.09,-1.7615025043487549,1.5760756731033325,0.3115769922733307,0.8848650455474854,-0.8651567101478577
14.265601634979248,2.09,-1.7599042654037476,1.5724146366119385,0.30982279777526855,0.8801019787788391,-0.8646739721298218
14.285689353942871,2.09,-1.759460210800171,1.5687446594238281,0.30893364548683167,0.8791252374649048,-0.8649520874023438
14.305859088897705,2.09,-1.7581169605255127,1.5678319931030273,0.30902159214019775,0.8783591985702515,-0.8650374412536621
14.326030731201172,2.09,-1.7572134733200073,1.568066954612732,0.30910724401474,0.8781641721725464,-0.8648651838302612
14.34605360031128,2.09,-1.7569327354431152,1.564762830734253,0.3076127767562866,0.8753610849380493,-0.8648357391357422
14.366090774536133,2.09,-1.7561542987823486,1.5620269775390625,0.30654793977737427,0.8738149404525757,-0.8649714589118958
14.386196374893188,2.09,-1.7553582191467285,1.5620348453521729,0.3066192865371704,0.8732317686080933,-0.8648293018341064
14.406243801116943,2.09,-1.7544922828674316,1.5605335235595703,0.30636316537857056,0.8714473247528076,-0.8645175695419312
14.426320552825928,2.09,-1.7529405355453491,1.5598714351654053,0.3057987093925476,0.8706663846969604,-0.8644130229949951
14.446407079696655,2.09,-1.7524776458740234,1.5579040050506592,0.30493491888046265,0.868882417678833,-0.8642696142196655
14.46645450592041,2.09,-1.7519395351409912,1.5559401512145996,0.3038541078567505,0.8671415448188782,-0.8642982244491577
14.486534833908081,2.09,-1.7502331733703613,1.5546162128448486,0.30417078733444214,0.8670117855072021,-0.8643523454666138
14.506617784500122,2.09,-1.7492966651916504,1.552337884902954,0.3034886121749878,0.8648927807807922,-0.8641428351402283
14.526673555374146,2.09,-1.747382640838623,1.5502755641937256,0.3029112219810486,0.8626822233200073,-0.8636555671691895
14.546764135360718,2.09,-1.7473044395446777,1.5484089851379395,0.3021993041038513,0.8605550527572632,-0.863498330116272
14.566839933395386,2.09,-1.7463328838348389,1.546033501625061,0.30109360814094543,0.8588203191757202,-0.8635497093200684
14.586895227432251,2.09,-1.7451469898223877,1.5454516410827637,0.30111101269721985,0.8583008050918579,-0.8633873462677002
14.60697078704834,2.09,-1.744633436203003,1.5445184707641602,0.30085283517837524,0.8579552173614502,-0.8634099960327148
14.627063035964966,2.09,-1.7428289651870728,1.5436439514160156,0.30063456296920776,0.8569895029067993,-0.8632375001907349
14.64712905883789,2.09,-1.7421066761016846,1.5396648645401,0.29902660846710205,0.8543767333030701,-0.8633311986923218
14.667261600494385,2.09,-1.7404837608337402,1.5375308990478516,0.2984108328819275,0.8521609306335449,-0.8631314039230347
14.687317132949829,2.09,-1.740317702293396,1.5358178615570068,0.29802370071411133,0.8513486385345459,-0.8631940484046936
14.707480430603027,2.09,-1.7401683330535889,1.532818078994751,0.29692837595939636,0.8486111164093018,-0.8631711006164551
14.727498054504395,2.09,-1.7391624450683594,1.5315861701965332,0.2966685891151428,0.8478418588638306,-0.8631436824798584
14.747541189193726,2.09,-1.737428903579712,1.5309759378433228,0.29600274562835693,0.8473436832427979,-0.8631317615509033
14.767618894577026,2.09,-1.7361724376678467,1.5305782556533813,0.296130508184433,0.8476247191429138,-0.8631781339645386
14.78772759437561,2.09,-1.7358288764953613,1.5281696319580078,0.2954503893852234,0.8452968597412109,-0.8630169630050659
14.80776596069336,2.09,-1.7358038425445557,1.525078296661377,0.2940447926521301,0.8413780927658081,-0.8627574443817139
14.82787299156189,2.09,-1.73506498336792,1.5212098360061646,0.29199326038360596,0.8384747505187988,-0.8628790378570557
14.848044157028198,2.09,-1.7347204685211182,1.5205553770065308,0.2922719717025757,0.8392270803451538,-0.8629708290100098
14.868065118789673,2.09,-1.7327232360839844,1.520282506942749,0.2926090657711029,0.8383715152740479,-0.8627729415893555
14.888184547424316,2.09,-1.7308335304260254,1.5205260515213013,0.29286786913871765,0.8384304046630859,-0.8625415563583374
14.90830397605896,2.09,-1.7302758693695068,1.5187246799468994,0.29162198305130005,0.8372205495834351,-0.8624593019485474
14.928386211395264,2.09,-1.730294942855835,1.5159645080566406,0.29046759009361267,0.8347951173782349,-0.8625206351280212
14.948462009429932,2.09,-1.728272795677185,1.515052080154419,0.29130274057388306,0.8343714475631714,-0.862211287021637
14.968852996826172,2.09,-1.7270318269729614,1.5136663913726807,0.29067176580429077,0.8317252397537231,-0.8617846369743347
14.98898720741272,2.09,-1.7264785766601562,1.5110290050506592,0.28961676359176636,0.8309080600738525,-0.861971378326416
15.00917387008667,2.09,-1.7257921695709229,1.5082873106002808,0.28894713521003723,0.8285956382751465,-0.8618659973144531
15.029162645339966,2.09,-1.7241264581680298,1.5077950954437256,0.28890660405158997,0.8281916379928589,-0.861739993095398
15.04935336112976,2.09,-1.7234077453613281,1.5063703060150146,0.2881934642791748,0.8268400430679321,-0.8616848587989807
15.069478750228882,2.09,-1.723090648651123,1.504203200340271,0.28720760345458984,0.8241217732429504,-0.861417293548584
15.089550495147705,2.09,-1.722256064414978,1.501082181930542,0.2862600088119507,0.8221435546875,-0.8612899780273438
15.109641313552856,2.09,-1.720663070678711,1.4984102249145508,0.28520673513412476,0.819756269454956,-0.8611355423927307
15.130042552947998,2.09,-1.7204985618591309,1.4968810081481934,0.28442952036857605,0.8187916278839111,-0.8613633513450623
15.150068998336792,2.09,-1.7200015783309937,1.4958956241607666,0.28466758131980896,0.8172798156738281,-0.8609033823013306
15.17013692855835,2.09,-1.7185066938400269,1.49388587474823,0.28326016664505005,0.8155179023742676,-0.8608258366584778
15.190246343612671,2.09,-1.7178094387054443,1.4900610446929932,0.28144925832748413,0.8117533922195435,-0.8607336282730103
15.210296392440796,2.09,-1.7175567150115967,1.489092469215393,0.28111183643341064,0.8106272220611572,-0.8605970144271851
15.230391025543213,2.09,-1.7160296440124512,1.4881600141525269,0.28133195638656616,0.8099443316459656,-0.86039137840271
15.25044322013855,2.09,-1.715104341506958,1.4855170249938965,0.2810370922088623,0.8086127042770386,-0.8602712154388428
15.270752906799316,2.09,-1.7133052349090576,1.4853534698486328,0.2813090980052948,0.8079811334609985,-0.8601052761077881
15.290841102600098,2.09,-1.7128112316131592,1.4841797351837158,0.2809005081653595,0.8062783479690552,-0.8597131967544556
15.310929536819458,2.09,-1.7116820812225342,1.482680082321167,0.2804897725582123,0.8055574893951416,-0.8596361875534058
15.330991506576538,2.09,-1.7111177444458008,1.4804191589355469,0.27972084283828735,0.8034144043922424,-0.8595262765884399
