liuyurong129/humanoid-gym/humanoid/data/target_q_20250522-040102.csv
timestamp,joint_1,joint_2,joint_3,joint_4,joint_5,joint_6
6.008148193359375e-05,0.0,0.0,0.0,0.0,0.0,0.0
0.020130395889282227,0.0,0.0,0.0,0.0,0.0,0.0
0.040212392807006836,0.0,0.0,0.0,0.0,0.0,0.0
0.06028389930725098,0.0,0.0,0.0,0.0,0.0,0.0
0.08035159111022949,0.0,0.0,0.0,0.0,0.0,0.0
0.10042858123779297,-0.07375408709049225,-0.48126092553138733,0.6011688113212585,-0.3925389349460602,0.02239770069718361,0.11986017227172852
0.12049245834350586,-0.08760697394609451,-0.4820532202720642,0.5957014560699463,-0.39302173256874084,0.029396627098321915,0.12524889409542084
0.1406261920928955,-0.08940142393112183,-0.4833916127681732,0.595015287399292,-0.39195147156715393,0.032949671149253845,0.12841756641864777
0.16066813468933105,-0.08689400553703308,-0.4887952208518982,0.5947326421737671,-0.3874473571777344,0.04051991179585457,0.1349944770336151
0.18072009086608887,-0.07803016155958176,-0.4985145926475525,0.5934910178184509,-0.38154932856559753,0.04996311292052269,0.14208996295928955
0.20081353187561035,-0.06777118146419525,-0.5070710778236389,0.597632646560669,-0.37601715326309204,0.05586744099855423,0.14632827043533325
0.22089719772338867,-0.05279822275042534,-0.5228514075279236,0.6016025543212891,-0.367689847946167,0.06631182879209518,0.15354487299919128
0.24097657203674316,-0.03536456823348999,-0.5508618950843811,0.5968140363693237,-0.3574616611003876,0.08092629164457321,0.1610705554485321
0.26109910011291504,-0.03274238482117653,-0.5660153031349182,0.5817678570747375,-0.35022473335266113,0.08799412846565247,0.16358865797519684
0.28117799758911133,-0.019934963434934616,-0.6005125045776367,0.5734856724739075,-0.3370884358882904,0.10129544138908386,0.1689589023590088
0.30139899253845215,-0.00758026959374547,-0.6395254135131836,0.5655426979064941,-0.32375046610832214,0.11596411466598511,0.17413786053657532
0.3214907646179199,0.0006758184172213078,-0.6597849726676941,0.5717654824256897,-0.3169398307800293,0.12304677069187164,0.17747177183628082
0.3415672779083252,0.00832359679043293,-0.7040747404098511,0.5659734010696411,-0.30280381441116333,0.1369192749261856,0.1821940392255783
0.36172986030578613,0.01294583361595869,-0.7264149188995361,0.5646110773086548,-0.2962994873523712,0.14433306455612183,0.1845233142375946
0.3818018436431885,0.02398614212870598,-0.7697619199752808,0.5751209259033203,-0.28348270058631897,0.15819071233272552,0.19004285335540771
0.401796817779541,0.038341179490089417,-0.7851906418800354,0.5996731519699097,-0.2770721912384033,0.16463033854961395,0.19282317161560059
0.42186951637268066,0.04465001821517944,-0.7890325784683228,0.6093193292617798,-0.27471238374710083,0.16649100184440613,0.19319424033164978
0.4420013427734375,0.056704893708229065,-0.7828972339630127,0.6323971152305603,-0.274268239736557,0.1653733253479004,0.19188906252384186
0.46279311180114746,0.06598895788192749,-0.7717130780220032,0.650530993938446,-0.2768683433532715,0.16173632442951202,0.18889684975147247
0.4829978942871094,0.06807506084442139,-0.7669352293014526,0.6563054323196411,-0.27652111649513245,0.15903924405574799,0.18678754568099976
0.503126859664917,0.07355872541666031,-0.7638407945632935,0.6723301410675049,-0.2756277322769165,0.1543295681476593,0.18418645858764648
0.5233266353607178,0.0763755664229393,-0.7656842470169067,0.6796415448188782,-0.2770058512687683,0.1529061496257782,0.1839025318622589
0.5433967113494873,0.07443064451217651,-0.7658634781837463,0.6892337799072266,-0.27485427260398865,0.14777091145515442,0.18262667953968048
0.5634927749633789,0.07128862291574478,-0.7612283825874329,0.7053607106208801,-0.2760435938835144,0.13976779580116272,0.18168829381465912
0.5836338996887207,0.06097254157066345,-0.7604168057441711,0.7092469930648804,-0.2740325927734375,0.1333453506231308,0.1810976266860962
0.6036942005157471,0.049996767193078995,-0.7559554576873779,0.7282483577728271,-0.27398860454559326,0.1207955926656723,0.18114860355854034
0.6237602233886719,0.025615692138671875,-0.7425428628921509,0.7509428262710571,-0.2718614935874939,0.10092980414628983,0.17961028218269348
0.6438713073730469,0.010957956314086914,-0.7353609800338745,0.7656290531158447,-0.26817020773887634,0.08976349979639053,0.1774718016386032
0.6639723777770996,-0.024839317426085472,-0.7332668304443359,0.7901797890663147,-0.2551330029964447,0.06944648921489716,0.1724473237991333
0.6846449375152588,-0.0678156241774559,-0.7462552785873413,0.7926696538925171,-0.24240073561668396,0.05859186127781868,0.1701313704252243
0.7047398090362549,-0.07527543604373932,-0.7589382529258728,0.7818936705589294,-0.23777629435062408,0.0635555163025856,0.17033235728740692
0.7248399257659912,-0.0726325735449791,-0.7836408615112305,0.7539506554603577,-0.2369086742401123,0.07784789800643921,0.17120732367038727
0.7449061870574951,-0.06603670120239258,-0.7906533479690552,0.7462049722671509,-0.23889672756195068,0.08548402786254883,0.17236506938934326
0.7650718688964844,-0.03389202058315277,-0.7905037999153137,0.7571784257888794,-0.24888703227043152,0.10521932691335678,0.17678134143352509
0.7854321002960205,0.0010046884417533875,-0.7838180661201477,0.7828429341316223,-0.25735539197921753,0.12133105844259262,0.18178683519363403
0.8055448532104492,0.002427168656140566,-0.7764401435852051,0.7978242635726929,-0.2610328793525696,0.12040416896343231,0.18433144688606262
0.825659990310669,-0.015573084354400635,-0.7633949518203735,0.8209601044654846,-0.26559585332870483,0.10780097544193268,0.18958298861980438
0.8460309505462646,-0.029483545571565628,-0.7630096077919006,0.8164995908737183,-0.26183149218559265,0.10215526819229126,0.19677503407001495
0.8661277294158936,-0.0439792200922966,-0.7639998197555542,0.813664436340332,-0.25858092308044434,0.09521768987178802,0.19974735379219055
0.8861958980560303,-0.08215021342039108,-0.7731837034225464,0.785990297794342,-0.259516179561615,0.08510875701904297,0.20370014011859894
0.9062862396240234,-0.08921350538730621,-0.7808698415756226,0.7642157077789307,-0.26490163803100586,0.08817016333341599,0.20557786524295807
0.926382303237915,-0.053823139518499374,-0.7878165245056152,0.764194667339325,-0.2758052945137024,0.10385806858539581,0.21007362008094788
0.9464409351348877,-0.045015182346105576,-0.7823143601417542,0.7845484614372253,-0.2813778221607208,0.10241220146417618,0.21381928026676178
0.9665544033050537,-0.039175502955913544,-0.7786406874656677,0.7958682775497437,-0.2837117612361908,0.10094117373228073,0.21627914905548096
0.9866559505462646,-0.01392817497253418,-0.772456169128418,0.8246176242828369,-0.28463709354400635,0.10242743790149689,0.22192785143852234
1.006777048110962,0.0032882890664041042,-0.7687994241714478,0.8492786884307861,-0.2808115482330322,0.10125655680894852,0.22779276967048645
1.0268917083740234,0.002416894305497408,-0.769680380821228,0.8511434197425842,-0.2772795557975769,0.0994839295744896,0.23124055564403534
1.0469341278076172,-0.02230488695204258,-0.7741822600364685,0.8326061367988586,-0.2794615626335144,0.09553973376750946,0.23908303678035736
1.067051649093628,-0.049257077276706696,-0.7853625416755676,0.7939835786819458,-0.289851576089859,0.09894977509975433,0.2442181408405304
1.0871434211730957,-0.05937865749001503,-0.7916293144226074,0.7739908695220947,-0.2979329526424408,0.1027497723698616,0.24617356061935425
1.1072180271148682,-0.07282320410013199,-0.7922739386558533,0.7650856971740723,-0.31124347448349,0.10207105427980423,0.2512291669845581
1.1274142265319824,-0.055681731551885605,-0.7914037704467773,0.7788962721824646,-0.31369006633758545,0.10619155317544937,0.25297850370407104
1.1474685668945312,-0.029156122356653214,-0.7854733467102051,0.8062066435813904,-0.31497448682785034,0.10637141019105911,0.25706571340560913
1.1675605773925781,-0.020088128745555878,-0.78229820728302,0.8191647529602051,-0.3132362961769104,0.10391093045473099,0.2597757875919342
1.1876659393310547,0.0009442740119993687,-0.7764843702316284,0.8572158813476562,-0.3071575462818146,0.09752519428730011,0.26395952701568604
1.2077968120574951,-0.019311532378196716,-0.775357723236084,0.8557288646697998,-0.30088624358177185,0.08892171829938889,0.27141427993774414
1.2278907299041748,-0.03344927728176117,-0.7798168659210205,0.841670036315918,-0.2991359531879425,0.08531366288661957,0.27527281641960144
1.2479729652404785,-0.05962303280830383,-0.7914749383926392,0.8027155995368958,-0.30821260809898376,0.08721474558115005,0.2808683514595032
1.2682690620422363,-0.06979421526193619,-0.7975285053253174,0.7820361256599426,-0.31476494669914246,0.09070439636707306,0.2823345363140106
1.2883656024932861,-0.06340087950229645,-0.8038032054901123,0.7634455561637878,-0.3294191062450409,0.10171036422252655,0.2864656150341034
1.3085575103759766,-0.04271772503852844,-0.8042681217193604,0.7740523219108582,-0.3355382978916168,0.11149289458990097,0.2899337410926819
1.328563928604126,-0.029171578586101532,-0.8014835715293884,0.7875031232833862,-0.3374449610710144,0.11388857662677765,0.2914133071899414
1.348634958267212,-0.00061037577688694,-0.7918497920036316,0.8261831402778625,-0.33962181210517883,0.11339186877012253,0.29414933919906616
1.3687200546264648,-0.0069367247633636,-0.7830071449279785,0.848841667175293,-0.33991289138793945,0.1048133596777916,0.29829734563827515
1.3888130187988281,-0.014934280887246132,-0.7789908051490784,0.8584399223327637,-0.33121931552886963,0.09747393429279327,0.3015083372592926
1.4090595245361328,-0.03206556290388107,-0.7797945737838745,0.8589216470718384,-0.3215394616127014,0.0823892205953598,0.3075915277004242
1.4290754795074463,-0.05655815452337265,-0.7912943959236145,0.8181316256523132,-0.3254355490207672,0.08257216960191727,0.3125028610229492
1.4491524696350098,-0.0699220672249794,-0.7968130707740784,0.798409640789032,-0.33039215207099915,0.08327829092741013,0.31389108300209045
1.4692389965057373,-0.06083637848496437,-0.8069757223129272,0.7709365487098694,-0.34289783239364624,0.09889961034059525,0.31797340512275696
1.4893159866333008,-0.04979225993156433,-0.8097872734069824,0.771877646446228,-0.34805887937545776,0.10538268089294434,0.31911394000053406
1.509411334991455,-0.01921720989048481,-0.8039277791976929,0.8056130409240723,-0.34999722242355347,0.10762940347194672,0.3211023509502411
1.529470682144165,0.0009037894196808338,-0.7964041233062744,0.8314685225486755,-0.3536067008972168,0.10848315805196762,0.3243696093559265
1.549562692642212,0.001666063442826271,-0.7913384437561035,0.8455358743667603,-0.35351428389549255,0.10460279881954193,0.3263207674026489
1.5696430206298828,-0.007371785584837198,-0.7833881974220276,0.8771381974220276,-0.3492313027381897,0.09100092202425003,0.3293459415435791
1.5898420810699463,-0.01786157861351967,-0.784317135810852,0.8793553113937378,-0.3407617211341858,0.08105828613042831,0.3318319320678711
1.6099309921264648,-0.044401779770851135,-0.7915977835655212,0.8524028062820435,-0.336733341217041,0.07353117316961288,0.33819326758384705
1.62998628616333,-0.0653107538819313,-0.8028443455696106,0.8101028203964233,-0.34546419978141785,0.07827616482973099,0.34175726771354675
1.6500813961029053,-0.07365979254245758,-0.8080489635467529,0.7886959314346313,-0.3518918454647064,0.08331325650215149,0.34356406331062317
1.670161247253418,-0.05059698224067688,-0.8147966861724854,0.7785969972610474,-0.36209943890571594,0.10112671554088593,0.3468467593193054
1.6902382373809814,-0.026309732347726822,-0.8106095194816589,0.8076119422912598,-0.36323630809783936,0.10369475930929184,0.3488743007183075
1.7103044986724854,-0.010240989737212658,-0.8069899082183838,0.8238009810447693,-0.36636990308761597,0.10659144818782806,0.3501712381839752
1.730384349822998,0.006808680482208729,-0.800065279006958,0.8508324027061462,-0.36725565791130066,0.10250358283519745,0.3530428409576416
1.7504699230194092,-0.013384845107793808,-0.7915169596672058,0.8774549961090088,-0.36341583728790283,0.08463617414236069,0.35510507225990295
1.7705893516540527,-0.02316834032535553,-0.7925426959991455,0.8751327991485596,-0.35645875334739685,0.0776280090212822,0.3578425645828247
1.7906231880187988,-0.03738484904170036,-0.7974228262901306,0.8599328994750977,-0.35283347964286804,0.07240571081638336,0.36377525329589844
1.8107433319091797,-0.05707118660211563,-0.8084831237792969,0.8170573711395264,-0.3601495027542114,0.07854434102773666,0.36689773201942444
1.8308289051055908,-0.06639929115772247,-0.81369549036026,0.7956839799880981,-0.3658659756183624,0.08293946832418442,0.36831235885620117
1.850886583328247,-0.05225647613406181,-0.8190708756446838,0.7805524468421936,-0.37604963779449463,0.09830674529075623,0.3713754415512085
1.8709716796875,-0.04177626222372055,-0.8186911940574646,0.7922598719596863,-0.37644851207733154,0.10183041542768478,0.3722800612449646
1.8913350105285645,-0.018509987741708755,-0.8139449954032898,0.8178829550743103,-0.377177894115448,0.10318945348262787,0.37365326285362244
1.9113922119140625,0.009224221110343933,-0.8072395324707031,0.8491160273551941,-0.3784388601779938,0.10464067757129669,0.3755638003349304
1.9315006732940674,0.014720449224114418,-0.8025473952293396,0.8700997233390808,-0.37953823804855347,0.10094606876373291,0.375951886177063
1.951582908630371,-0.019485916942358017,-0.7944188117980957,0.8886898159980774,-0.3731187582015991,0.07706914842128754,0.3782138228416443
1.971806287765503,-0.04376679286360741,-0.796992301940918,0.8735889196395874,-0.367802232503891,0.06600157916545868,0.38331055641174316
1.9919610023498535,-0.05157272145152092,-0.8024457693099976,0.8528035283088684,-0.36944589018821716,0.06850617378950119,0.3859327733516693
2.012052059173584,-0.0722019150853157,-0.8127190470695496,0.8092349171638489,-0.375892698764801,0.07325493544340134,0.3883037567138672
2.032524824142456,-0.052902285009622574,-0.8229244947433472,0.7848588824272156,-0.3816986382007599,0.09278316795825958,0.390388548374176
2.052675485610962,-0.04077890142798424,-0.8233054876327515,0.7940450310707092,-0.3829977810382843,0.09784938395023346,0.390984445810318
2.072739601135254,-0.01510998047888279,-0.8188518285751343,0.823503315448761,-0.38349831104278564,0.10136956721544266,0.3920152187347412
2.0935091972351074,0.004778492730110884,-0.81201171875,0.8498163223266602,-0.3845646381378174,0.10146059840917587,0.3940184712409973
2.113640785217285,0.009527012705802917,-0.8094429969787598,0.8584057688713074,-0.3854023218154907,0.1010129526257515,0.3953297734260559
2.1338515281677246,-0.02390340343117714,-0.8004205226898193,0.8809508681297302,-0.3819095194339752,0.07773313671350479,0.3965262174606323
2.1538708209991455,-0.0361560583114624,-0.8014875650405884,0.878129780292511,-0.37179380655288696,0.06853224337100983,0.398255318403244
2.1739537715911865,-0.05132089927792549,-0.8084436655044556,0.8520108461380005,-0.368404746055603,0.06643635779619217,0.40261128544807434
2.1940677165985107,-0.06905743479728699,-0.8182709813117981,0.8080576658248901,-0.37558165192604065,0.07409488409757614,0.4048735797405243
2.2142274379730225,-0.06180940940976143,-0.8226462602615356,0.791316568851471,-0.3797124922275543,0.08456577360630035,0.4064965844154358
2.2342560291290283,-0.03159349411725998,-0.8274179697036743,0.7965500354766846,-0.3887231647968292,0.10349642485380173,0.4078051745891571
2.2543749809265137,-0.012032819911837578,-0.8247970938682556,0.8209495544433594,-0.3897984027862549,0.10813355445861816,0.408745139837265
2.2744483947753906,-0.0035110521130263805,-0.8209205865859985,0.835798978805542,-0.3915216624736786,0.10810670256614685,0.4092875123023987
2.2945289611816406,0.004443550948053598,-0.8127118349075317,0.861135721206665,-0.3928191661834717,0.1015484407544136,0.410778284072876
2.3146073818206787,-0.010139545425772667,-0.8043423295021057,0.8884814977645874,-0.39046210050582886,0.08596178889274597,0.41193634271621704
2.3347256183624268,-0.021250657737255096,-0.8054208755493164,0.8835471272468567,-0.38322123885154724,0.0775134488940239,0.41314220428466797
2.354853391647339,-0.039798296988010406,-0.8105045557022095,0.8625438809394836,-0.3791036009788513,0.07009771466255188,0.4165721833705902
2.3750967979431152,-0.061225567013025284,-0.8201010823249817,0.8193100690841675,-0.3838479220867157,0.07488790154457092,0.4186890423297882
2.3952269554138184,-0.06878732144832611,-0.825067937374115,0.7979419231414795,-0.3898383677005768,0.08197290450334549,0.4193737506866455
2.415344476699829,-0.041019175201654434,-0.8306452035903931,0.7968499064445496,-0.3968304991722107,0.10142455250024796,0.4207404851913452
2.4360220432281494,-0.0218968465924263,-0.8293312788009644,0.8147563338279724,-0.39603012800216675,0.10703545808792114,0.4214750826358795
2.4561939239501953,-0.00856146588921547,-0.8260155320167542,0.8303461074829102,-0.39714908599853516,0.10867542028427124,0.4219566881656647
2.4762933254241943,0.013667759485542774,-0.8181256651878357,0.8641490936279297,-0.39752668142318726,0.1069149449467659,0.42283859848976135
2.4964206218719482,-0.01060261856764555,-0.8076432347297668,0.8907316327095032,-0.3973921239376068,0.0888454020023346,0.4237872064113617
2.5165207386016846,-0.028709061443805695,-0.8066220879554749,0.8861997127532959,-0.3918750286102295,0.07685878872871399,0.4246962070465088
2.5366106033325195,-0.04213963449001312,-0.8109484314918518,0.8704556226730347,-0.38474780321121216,0.06733701378107071,0.4278155565261841
2.5566678047180176,-0.04854944720864296,-0.8165854811668396,0.8472813963890076,-0.38539791107177734,0.0709460899233818,0.42909833788871765
2.5768024921417236,-0.07009291648864746,-0.826176643371582,0.8046901822090149,-0.3931492567062378,0.0770544782280922,0.43058261275291443
2.596891164779663,-0.04868323728442192,-0.8342492580413818,0.789295494556427,-0.4007982611656189,0.09866935014724731,0.4318147301673889
2.6169798374176025,-0.03223493695259094,-0.8347808122634888,0.8023959398269653,-0.400752454996109,0.10431524366140366,0.43181532621383667
2.637079954147339,-0.005379284732043743,-0.8307678699493408,0.8264540433883667,-0.40220120549201965,0.11086538434028625,0.43223845958709717
2.657158613204956,0.01506786234676838,-0.8225405812263489,0.8605622053146362,-0.4022069573402405,0.10794419795274734,0.43250223994255066
2.6772286891937256,0.012296696193516254,-0.8171142339706421,0.8760366439819336,-0.4040226638317108,0.10312915593385696,0.4330364465713501
2.697338104248047,-0.019445912912487984,-0.8091771006584167,0.8909645080566406,-0.39858633279800415,0.0803181529045105,0.4334164261817932
2.7174015045166016,-0.03138675540685654,-0.8088173270225525,0.889814555644989,-0.39289966225624084,0.07102038711309433,0.434484601020813
2.737523317337036,-0.044010866433382034,-0.8164365887641907,0.8595103025436401,-0.3906160295009613,0.07086290419101715,0.437386691570282
2.7575957775115967,-0.054872818291187286,-0.8209565877914429,0.8376522064208984,-0.39274197816848755,0.07285668700933456,0.43794843554496765
2.777772903442383,-0.05475563183426857,-0.8303735256195068,0.8029682636260986,-0.40142133831977844,0.08915141969919205,0.43959054350852966
2.79787540435791,-0.026109520345926285,-0.8333936929702759,0.8138230443000793,-0.40237295627593994,0.10338751971721649,0.44036057591438293
2.8179759979248047,-0.019659413024783134,-0.8313145637512207,0.8264120817184448,-0.4019399881362915,0.1029868870973587,0.4403807520866394
2.8380489349365234,0.004409919027239084,-0.8243933916091919,0.8564493656158447,-0.4059414863586426,0.10501456260681152,0.44065478444099426
2.8593201637268066,-0.00132038164883852,-0.8165723085403442,0.8817216753959656,-0.4067544639110565,0.0954468622803688,0.44111132621765137
2.8794095516204834,-0.01341967098414898,-0.8114956617355347,0.895277738571167,-0.4029732942581177,0.08300136774778366,0.44098740816116333
2.8994860649108887,-0.033427946269512177,-0.8114489316940308,0.8906874656677246,-0.3922072649002075,0.06784969568252563,0.442974716424942
2.919661045074463,-0.0455927737057209,-0.8208758234977722,0.8522177934646606,-0.39038604497909546,0.07130938023328781,0.4461001753807068
2.939749240875244,-0.05807884782552719,-0.8250902891159058,0.8311800956726074,-0.393124520778656,0.07234928756952286,0.44651246070861816
2.9598207473754883,-0.05389385297894478,-0.8343309760093689,0.8005703687667847,-0.4007625877857208,0.0892329216003418,0.44821351766586304
2.9799017906188965,-0.0428939014673233,-0.8391993045806885,0.7912850379943848,-0.4049234390258789,0.10106392204761505,0.4485345780849457
2.999972343444824,-0.026150885969400406,-0.8388306498527527,0.8061960935592651,-0.405468612909317,0.10710128396749496,0.44858503341674805
3.020033359527588,-0.009942290373146534,-0.832384467124939,0.8347360491752625,-0.40698811411857605,0.10701172053813934,0.4485737085342407
3.0401787757873535,0.0037203989923000336,-0.8291003108024597,0.8553963899612427,-0.4066285490989685,0.1063586175441742,0.4482000768184662
3.0602521896362305,-0.0025312001816928387,-0.8196327686309814,0.8812415599822998,-0.407248318195343,0.0959407240152359,0.44842907786369324
3.0802762508392334,-0.021562479436397552,-0.8118826746940613,0.8977759480476379,-0.3993123173713684,0.07293912768363953,0.4480361342430115
3.100384473800659,-0.021488910540938377,-0.8138742446899414,0.8904544115066528,-0.39742475748062134,0.07277791202068329,0.44943922758102417
3.1204886436462402,-0.03765714168548584,-0.8224210739135742,0.8516537547111511,-0.3973636031150818,0.07510090619325638,0.4513608515262604
3.1405303478240967,-0.06133018061518669,-0.8306561708450317,0.8096936345100403,-0.40432974696159363,0.07991060614585876,0.45173975825309753
3.160748243331909,-0.06184760853648186,-0.8327364325523376,0.7989952564239502,-0.4081328511238098,0.08727042376995087,0.4527416229248047
3.1807661056518555,-0.03967943787574768,-0.8340053558349609,0.8068347573280334,-0.4100591242313385,0.09843481332063675,0.4532470703125
3.2008140087127686,-0.01610814407467842,-0.8293853402137756,0.8364777565002441,-0.4096991717815399,0.099462129175663,0.45258811116218567
3.2209653854370117,-0.002266223542392254,-0.8261524438858032,0.8538527488708496,-0.40922194719314575,0.10063797235488892,0.4528028964996338
3.2409908771514893,0.00321971601806581,-0.819177508354187,0.8814634680747986,-0.4088969826698303,0.09351575374603271,0.4525802433490753
3.2610652446746826,-0.021519027650356293,-0.8120438456535339,0.8975781202316284,-0.4008622169494629,0.07083471864461899,0.45230114459991455
3.281179904937744,-0.02449113503098488,-0.8136005401611328,0.8943369388580322,-0.39720574021339417,0.06770077347755432,0.453336238861084
3.3012282848358154,-0.038739606738090515,-0.8225991725921631,0.858330249786377,-0.39504915475845337,0.06844055652618408,0.4558072090148926
3.3213493824005127,-0.049218758940696716,-0.8271276354789734,0.8364211916923523,-0.3975997567176819,0.07125984132289886,0.4562765657901764
3.341458559036255,-0.05832778662443161,-0.8355400562286377,0.796538233757019,-0.4073910713195801,0.08761283755302429,0.4577864408493042
3.361576795578003,-0.04364753141999245,-0.8392515182495117,0.7904731631278992,-0.4128449559211731,0.10280857980251312,0.45869195461273193
3.3817551136016846,-0.04004757106304169,-0.8386303186416626,0.7916447520256042,-0.41266319155693054,0.10538099706172943,0.45888805389404297
3.401756763458252,-0.013243665918707848,-0.8335239291191101,0.8233155608177185,-0.4134211838245392,0.10933233052492142,0.45860108733177185
3.4218201637268066,-0.002037142403423786,-0.8305603861808777,0.8453667759895325,-0.41263630986213684,0.1075887456536293,0.4577535092830658
3.441934108734131,0.00863637775182724,-0.8221490383148193,0.8821887373924255,-0.4115825891494751,0.10097544640302658,0.4567684531211853
3.4620048999786377,-0.009507758542895317,-0.8168511986732483,0.8900955319404602,-0.4082755744457245,0.08706805855035782,0.45584428310394287
3.4821951389312744,-0.036805879324674606,-0.8159518241882324,0.878801703453064,-0.4027325212955475,0.07238565385341644,0.45762550830841064
3.502457618713379,-0.0541636198759079,-0.8260214924812317,0.8341905474662781,-0.4047798216342926,0.07691992819309235,0.4596140682697296
3.522636890411377,-0.06465521454811096,-0.8305078744888306,0.8125281929969788,-0.4085140824317932,0.08031567931175232,0.4598682224750519
3.5427372455596924,-0.0459960401058197,-0.8390311002731323,0.7914144992828369,-0.41199013590812683,0.09974845498800278,0.4613395929336548
3.56282639503479,-0.04121967777609825,-0.8397560715675354,0.7914872765541077,-0.41209858655929565,0.10408279299736023,0.4618390202522278
3.5829384326934814,-0.02418503910303116,-0.8383835554122925,0.8050558567047119,-0.41321155428886414,0.11042292416095734,0.4620683193206787
3.6029627323150635,0.0011069625616073608,-0.8319982886314392,0.8475422263145447,-0.41308704018592834,0.10820447653532028,0.46069246530532837
3.6230738162994385,0.012279398739337921,-0.8285003304481506,0.8695153594017029,-0.4121098220348358,0.10627593845129013,0.4600222408771515
3.6431455612182617,-0.004136721603572369,-0.8182502388954163,0.8935214877128601,-0.4110267758369446,0.0921013206243515,0.4603864848613739
3.6633267402648926,-0.020402127876877785,-0.816209614276886,0.8877830505371094,-0.4024355113506317,0.07787828892469406,0.4622649550437927
3.683424711227417,-0.022584153339266777,-0.8182873129844666,0.8800007104873657,-0.40247833728790283,0.07650930434465408,0.46333810687065125
3.7035157680511475,-0.04980834573507309,-0.8262149691581726,0.8391405344009399,-0.4050912857055664,0.07761010527610779,0.4638916254043579
3.723633289337158,-0.06307786703109741,-0.8304720520973206,0.8187455534934998,-0.4085446298122406,0.0793180987238884,0.46388962864875793
3.7437424659729004,-0.054861705750226974,-0.8356132507324219,0.8016758561134338,-0.41345804929733276,0.09330593049526215,0.4645613431930542
3.7639167308807373,-0.03478259965777397,-0.8373064994812012,0.8013242483139038,-0.4139263927936554,0.10450226068496704,0.4649055600166321
3.784017562866211,-0.01807784102857113,-0.8354933857917786,0.8161143660545349,-0.41485795378685,0.10732248425483704,0.4643424153327942
3.804102897644043,0.006250295788049698,-0.8293628692626953,0.8571959137916565,-0.41311779618263245,0.10411538183689117,0.4626055061817169
3.824866533279419,-0.0007685553282499313,-0.81853187084198,0.8934429287910461,-0.4123888611793518,0.08850127458572388,0.4613158106803894
3.845005989074707,-0.017396675422787666,-0.8133949637413025,0.901822566986084,-0.40738147497177124,0.0744185671210289,0.46100369095802307
3.8651115894317627,-0.017305348068475723,-0.8148308396339417,0.8963302969932556,-0.4003552794456482,0.0704331174492836,0.46364524960517883
3.88515567779541,-0.025434687733650208,-0.8199583292007446,0.8764856457710266,-0.40061062574386597,0.07106989622116089,0.4645000994205475
3.9052250385284424,-0.04852117970585823,-0.8285533785820007,0.8335145711898804,-0.4051716923713684,0.07540122419595718,0.4647469222545624
3.925511360168457,-0.05537164583802223,-0.8329434394836426,0.8112553358078003,-0.4096701443195343,0.08195269852876663,0.4651568531990051
3.9455974102020264,-0.05421185493469238,-0.8351837396621704,0.7962833642959595,-0.41429153084754944,0.09414669126272202,0.4665954113006592
3.9656898975372314,-0.038727521896362305,-0.8329311013221741,0.8128706216812134,-0.4141599237918854,0.0981002226471901,0.4666220545768738
3.9858903884887695,-0.029239699244499207,-0.8306281566619873,0.8248629570007324,-0.41449666023254395,0.09874139726161957,0.4663442373275757
4.005936861038208,-0.001376146450638771,-0.8253630995750427,0.8659307360649109,-0.41266292333602905,0.0968857854604721,0.46484968066215515
4.026009559631348,0.00524207204580307,-0.8224974274635315,0.8893853425979614,-0.4120161831378937,0.09237974137067795,0.46338459849357605
4.046155214309692,-0.01501387543976307,-0.8149335980415344,0.9101115465164185,-0.4045870304107666,0.0699099749326706,0.462180495262146
4.067004680633545,-0.029047373682260513,-0.8184075355529785,0.890699565410614,-0.40340080857276917,0.0671968013048172,0.46459975838661194
4.08708643913269,-0.03833432123064995,-0.8228687644004822,0.8682262301445007,-0.4047504663467407,0.07045939564704895,0.46575379371643066
4.107146978378296,-0.05945344269275665,-0.8308283090591431,0.8243495225906372,-0.40985792875289917,0.0758746787905693,0.4663885533809662
4.127228736877441,-0.06605157256126404,-0.8350287079811096,0.8025944232940674,-0.41549545526504517,0.0835321843624115,0.46673041582107544
4.147307872772217,-0.04711811617016792,-0.8373792171478271,0.7991952300071716,-0.414656400680542,0.09593136608600616,0.4673943817615509
4.167553424835205,-0.03935131058096886,-0.8367642164230347,0.8071144819259644,-0.4135372042655945,0.09813433885574341,0.4672290086746216
4.187676668167114,-0.009131092578172684,-0.8328452706336975,0.841122031211853,-0.41454368829727173,0.10252624750137329,0.4662894904613495
4.2077956199646,0.004693032242357731,-0.830130398273468,0.8617451786994934,-0.4136717617511749,0.10230366885662079,0.46565744280815125
4.227947950363159,-0.0009762123227119446,-0.8212746977806091,0.8903395533561707,-0.4131650924682617,0.09164859354496002,0.4652186334133148
4.247942209243774,-0.026627400889992714,-0.8149412870407104,0.8980785608291626,-0.4068230390548706,0.0700966864824295,0.46533721685409546
4.268045902252197,-0.03030376136302948,-0.8172386288642883,0.8886975646018982,-0.40595707297325134,0.0687999352812767,0.46634843945503235
4.288117408752441,-0.046876460313797,-0.8269522190093994,0.843330442905426,-0.407787024974823,0.07459971308708191,0.467672735452652
4.308194637298584,-0.057557687163352966,-0.8313845992088318,0.8216723203659058,-0.41119590401649475,0.07785025238990784,0.46760690212249756
4.328297138214111,-0.05735255777835846,-0.8361756801605225,0.7965902090072632,-0.41598981618881226,0.09111051261425018,0.4685353934764862
4.348365306854248,-0.03988875448703766,-0.8358817100524902,0.8120549917221069,-0.41426607966423035,0.09775026142597198,0.4688904285430908
4.368481397628784,-0.02944800816476345,-0.8353317379951477,0.8219872713088989,-0.4135754108428955,0.10007602721452713,0.4687507748603821
4.388555288314819,-0.00030192453414201736,-0.8304727673530579,0.8592323064804077,-0.4127482771873474,0.10186242312192917,0.46827179193496704
4.408798694610596,0.0030090962536633015,-0.8241791129112244,0.8819817900657654,-0.4125492572784424,0.09559039026498795,0.4680934548377991
4.428894281387329,-0.013063235208392143,-0.8183282017707825,0.8935230374336243,-0.4108829200267792,0.08159390091896057,0.46734002232551575
4.448975324630737,-0.018171945586800575,-0.8177177906036377,0.8920275568962097,-0.40829184651374817,0.07463019341230392,0.46851539611816406
4.469045400619507,-0.03893226757645607,-0.8261991143226624,0.8493931293487549,-0.40722644329071045,0.07461212575435638,0.4696825444698334
4.4891357421875,-0.050466325134038925,-0.8302402496337891,0.8278882503509521,-0.40992599725723267,0.07703588902950287,0.46979090571403503
4.509470462799072,-0.05156230926513672,-0.836114764213562,0.8008384704589844,-0.41700121760368347,0.09282852709293365,0.4710664451122284
4.529536962509155,-0.037113696336746216,-0.8377788066864014,0.8079493641853333,-0.4175121784210205,0.10303904116153717,0.4713224768638611
4.549623966217041,-0.03455716371536255,-0.835719883441925,0.8162416815757751,-0.4168146848678589,0.10228387266397476,0.471149206161499
4.569720268249512,-0.01610427349805832,-0.8298491835594177,0.8475037813186646,-0.4174278676509857,0.10103275626897812,0.47047367691993713
4.589802503585815,0.0053417193703353405,-0.8238766193389893,0.8814161419868469,-0.4160599708557129,0.09792838245630264,0.46963268518447876
4.609891414642334,0.001400770153850317,-0.8201707005500793,0.8935900330543518,-0.4152057468891144,0.09095770120620728,0.4691570997238159
4.629961729049683,-0.01753988303244114,-0.8165910243988037,0.8988465070724487,-0.4086478650569916,0.07285671681165695,0.4690901041030884
4.6500420570373535,-0.028447315096855164,-0.819200873374939,0.8859620690345764,-0.406894713640213,0.06912147253751755,0.4699302017688751
4.6701133251190186,-0.049094390124082565,-0.8282361626625061,0.8419715762138367,-0.41004854440689087,0.07447383552789688,0.47104012966156006
4.690220832824707,-0.05927938595414162,-0.8326629400253296,0.8202548027038574,-0.4140051603317261,0.07826660573482513,0.47114285826683044
4.710310220718384,-0.03862747177481651,-0.8396690487861633,0.806792140007019,-0.41801705956459045,0.09864185005426407,0.47232770919799805
4.730747938156128,-0.027759449556469917,-0.8395346999168396,0.8155121803283691,-0.4164685308933258,0.10407310724258423,0.4724399149417877
4.750880479812622,-0.01640418916940689,-0.8374627232551575,0.8295209407806396,-0.41666901111602783,0.10654447972774506,0.4724518954753876
4.770950555801392,0.006572706159204245,-0.8312937617301941,0.8673318028450012,-0.4157381057739258,0.10537697374820709,0.47159790992736816
4.79106068611145,-0.0033612772822380066,-0.8224087357521057,0.8894296288490295,-0.41597771644592285,0.09303096681833267,0.47103172540664673
4.811172246932983,-0.02247537486255169,-0.8175134062767029,0.892581045627594,-0.412309855222702,0.07847493886947632,0.47038012742996216
4.831241607666016,-0.029202397912740707,-0.8176648616790771,0.890956699848175,-0.4052674174308777,0.06730244308710098,0.4710933268070221
4.851293325424194,-0.04580273479223251,-0.8275691866874695,0.848674476146698,-0.4054493010044098,0.07133983820676804,0.47245684266090393
4.8713836669921875,-0.05977034196257591,-0.831282913684845,0.8284507989883423,-0.4080732464790344,0.0718218982219696,0.4724471867084503
4.8914525508880615,-0.04668698087334633,-0.8389653563499451,0.8057823181152344,-0.41487932205200195,0.09135034680366516,0.4736635982990265
4.911686897277832,-0.027126070111989975,-0.842144787311554,0.811113715171814,-0.417190283536911,0.10311415791511536,0.47369787096977234
4.931838274002075,-0.013272205367684364,-0.8393430113792419,0.8312772512435913,-0.4164634644985199,0.1068100705742836,0.4735419452190399
4.951895475387573,0.005987328477203846,-0.8318616151809692,0.8645375967025757,-0.4165114760398865,0.10588423162698746,0.4732605516910553
4.972008228302002,0.014357803389430046,-0.8283627033233643,0.878119945526123,-0.41641730070114136,0.10442887246608734,0.47316426038742065
4.992112874984741,-0.013727840036153793,-0.8186759352684021,0.8986167311668396,-0.4136785566806793,0.08211533725261688,0.4717113673686981
5.01217794418335,-0.03944917023181915,-0.8154242634773254,0.9033182263374329,-0.4083290696144104,0.06236066669225693,0.4714881181716919
5.032367944717407,-0.05040335655212402,-0.8194218873977661,0.8845707178115845,-0.40585023164749146,0.05945703387260437,0.4721352756023407
5.05248498916626,-0.06808827072381973,-0.8280843496322632,0.8403379321098328,-0.4093175232410431,0.06615781784057617,0.4734274744987488
5.072636604309082,-0.05094142630696297,-0.8392772078514099,0.8047593832015991,-0.41396722197532654,0.088521309196949,0.4743499755859375
5.0927488803863525,-0.03839458152651787,-0.8425168395042419,0.8033736944198608,-0.4170302152633667,0.09805292636156082,0.47426268458366394
5.112820386886597,-0.020769009366631508,-0.8417425155639648,0.8248158097267151,-0.41482681035995483,0.1040867269039154,0.4739955961704254
5.132923364639282,-0.010698840022087097,-0.8400241732597351,0.8365976810455322,-0.41616037487983704,0.10747460275888443,0.47392332553863525
5.1529927253723145,0.012694813311100006,-0.8328338861465454,0.8713563680648804,-0.4160231053829193,0.10604900866746902,0.4732291102409363
5.173062562942505,-0.010268365032970905,-0.8223583698272705,0.8951879739761353,-0.41632571816444397,0.08897701650857925,0.47281211614608765
