liuyurong129/humanoid-gym/humanoid/data/target_q_20250522-054234.csv
timestamp,joint_1,joint_2,joint_3,joint_4,joint_5,joint_6
5.125999450683594e-05,0.0,0.0,0.0,0.0,0.0,0.0
0.020159482955932617,0.0,0.0,0.0,0.0,0.0,0.0
0.04019618034362793,0.0,0.0,0.0,0.0,0.0,0.0
0.06023740768432617,-0.9677029848098755,-0.4393491744995117,1.0837295055389404,-0.9365327954292297,-0.10681439936161041,-0.29054883122444153
0.0803220272064209,-1.2644864320755005,-0.32909613847732544,1.0521459579467773,-0.8283759951591492,-0.10127086937427521,-0.325390487909317
0.1003885269165039,-1.3753290176391602,-0.3557686507701874,1.062475323677063,-0.8068938255310059,-0.05701294168829918,-0.33461886644363403
0.12044978141784668,-1.421891450881958,-0.3830496072769165,1.0288922786712646,-0.8125163912773132,-0.036187928169965744,-0.33204391598701477
0.14050912857055664,-1.3972976207733154,-0.359898179769516,1.0545755624771118,-0.8060382604598999,-0.05221039429306984,-0.3345463275909424
0.16060781478881836,-1.3954185247421265,-0.35955503582954407,1.0580096244812012,-0.804855465888977,-0.05525499954819679,-0.3346063494682312
0.18072772026062012,-1.3958706855773926,-0.36879605054855347,1.0666855573654175,-0.8059998154640198,-0.054322730749845505,-0.33499762415885925
0.20076227188110352,-1.397210717201233,-0.3658405542373657,1.0586971044540405,-0.8065903186798096,-0.0518222413957119,-0.3341418504714966
0.22082924842834473,-1.3982744216918945,-0.36592337489128113,1.0560102462768555,-0.8073277473449707,-0.05106482282280922,-0.3341725468635559
0.2409195899963379,-1.3997342586517334,-0.3662931025028229,1.0509371757507324,-0.8081555366516113,-0.04913199320435524,-0.33376169204711914
0.2609734535217285,-1.3988724946975708,-0.36537957191467285,1.0584163665771484,-0.8063516616821289,-0.052751172333955765,-0.3347093164920807
0.2811918258666992,-1.396336317062378,-0.3656751811504364,1.0609636306762695,-0.8066954612731934,-0.05230661854147911,-0.33486682176589966
0.3011758327484131,-1.3869541883468628,-0.36516234278678894,1.0591174364089966,-0.8062742948532104,-0.050697196274995804,-0.3353120684623718
0.3212873935699463,-1.3720498085021973,-0.3586699068546295,1.0622222423553467,-0.8062306642532349,-0.052003953605890274,-0.33552566170692444
0.3413729667663574,-1.3822604417800903,-0.36574357748031616,1.0556234121322632,-0.8077809810638428,-0.04933726415038109,-0.335136741399765
0.36145997047424316,-1.388012409210205,-0.3663614094257355,1.055591344833374,-0.8069362640380859,-0.04769815132021904,-0.33423683047294617
0.3815600872039795,-1.394294023513794,-0.3659720718860626,1.055504560470581,-0.808090090751648,-0.0500459261238575,-0.33489468693733215
0.40158820152282715,-1.3823511600494385,-0.3633740246295929,1.0521197319030762,-0.810369610786438,-0.04634147509932518,-0.3348964750766754
0.42170023918151855,-1.3724656105041504,-0.36417701840400696,1.052392601966858,-0.8071998357772827,-0.04435991123318672,-0.3356623947620392
0.4417691230773926,-1.3728938102722168,-0.3654484152793884,1.0524632930755615,-0.8075013160705566,-0.04427611455321312,-0.33562102913856506
0.46185803413391113,-1.3851349353790283,-0.36515873670578003,1.0488700866699219,-0.8085167407989502,-0.04521229490637779,-0.3348592221736908
0.48233842849731445,-1.3849234580993652,-0.36661195755004883,1.059603214263916,-0.8025916814804077,-0.047227028757333755,-0.3353847563266754
0.5024263858795166,-1.386160135269165,-0.36816760897636414,1.0593409538269043,-0.803176999092102,-0.04777193441987038,-0.33558741211891174
0.522573709487915,-1.3684184551239014,-0.3662252426147461,1.0558545589447021,-0.8046945929527283,-0.04304347559809685,-0.33584752678871155
0.5425844192504883,-1.3701872825622559,-0.36317315697669983,1.061460256576538,-0.8027055859565735,-0.04877592250704765,-0.3364655077457428
0.5627446174621582,-1.3753961324691772,-0.3686632215976715,1.0554736852645874,-0.8044561147689819,-0.04419276490807533,-0.3361816704273224
0.5828723907470703,-1.3760020732879639,-0.36718353629112244,1.0576114654541016,-0.806486964225769,-0.04436877742409706,-0.33630165457725525
0.6029260158538818,-1.3792736530303955,-0.3693632185459137,1.0513715744018555,-0.8055141568183899,-0.042180124670267105,-0.33584079146385193
0.622969388961792,-1.3733012676239014,-0.3673555254936218,1.0518360137939453,-0.8061234354972839,-0.042362380772829056,-0.3365415036678314
0.6430559158325195,-1.369605541229248,-0.3644566237926483,1.057427167892456,-0.8075011968612671,-0.044489096850156784,-0.33689919114112854
0.6631243228912354,-1.376356840133667,-0.3652260899543762,1.0619821548461914,-0.8046953082084656,-0.04673144593834877,-0.3366534411907196
0.6832032203674316,-1.3774914741516113,-0.3689461946487427,1.059546947479248,-0.8056355118751526,-0.043732982128858566,-0.33583864569664
0.7032456398010254,-1.376190423965454,-0.36807993054389954,1.0588483810424805,-0.8047966957092285,-0.04509112611413002,-0.33666229248046875
0.7234876155853271,-1.368790864944458,-0.3682481348514557,1.058208703994751,-0.805091381072998,-0.04179517552256584,-0.3365505039691925
0.7436223030090332,-1.369832992553711,-0.36906930804252625,1.0555351972579956,-0.8054825663566589,-0.04130811616778374,-0.3365723192691803
0.7637619972229004,-1.3654348850250244,-0.36786022782325745,1.0536766052246094,-0.8058198690414429,-0.041507329791784286,-0.33718088269233704
0.7838551998138428,-1.3718698024749756,-0.36825302243232727,1.0582671165466309,-0.8047133684158325,-0.042682383209466934,-0.3365173041820526
0.8038854598999023,-1.3751134872436523,-0.369790256023407,1.0605272054672241,-0.8015813827514648,-0.04360349848866463,-0.33650901913642883
0.8239655494689941,-1.369216799736023,-0.36717861890792847,1.0606229305267334,-0.800879955291748,-0.04259559139609337,-0.33636897802352905
0.8440275192260742,-1.3614083528518677,-0.36805978417396545,1.055321216583252,-0.8019700050354004,-0.03942396864295006,-0.3365141451358795
0.8640897274017334,-1.3502455949783325,-0.37030914425849915,1.055230975151062,-0.8035346269607544,-0.03566719964146614,-0.3370468020439148
0.8842484951019287,-1.360190510749817,-0.3698274791240692,1.0576469898223877,-0.8038232326507568,-0.040065448731184006,-0.3368918299674988
0.904268741607666,-1.3657073974609375,-0.3700893521308899,1.0587944984436035,-0.8056414127349854,-0.04012265428900719,-0.336261123418808
0.9243323802947998,-1.3637001514434814,-0.36975476145744324,1.059751272201538,-0.8024762272834778,-0.03961033746600151,-0.3364368677139282
0.9444115161895752,-1.3582980632781982,-0.3698596656322479,1.0545587539672852,-0.8065800666809082,-0.03716251626610756,-0.3366098999977112
0.9644825458526611,-1.359543800354004,-0.36828935146331787,1.054304599761963,-0.8041866421699524,-0.03851521387696266,-0.33677563071250916
0.9845831394195557,-1.3596051931381226,-0.3689464330673218,1.0566296577453613,-0.8047714829444885,-0.03938673809170723,-0.3369554579257965
1.0046236515045166,-1.3424495458602905,-0.37016233801841736,1.0574169158935547,-0.8044989109039307,-0.032607730478048325,-0.33713462948799133
1.02469801902771,-1.3424656391143799,-0.3710489273071289,1.0556402206420898,-0.8037580847740173,-0.03120185062289238,-0.33691537380218506
1.0448241233825684,-1.3567010164260864,-0.3714536726474762,1.0529545545578003,-0.803582489490509,-0.03707053139805794,-0.33691397309303284
1.0649254322052002,-1.3625015020370483,-0.3692982792854309,1.0531431436538696,-0.8044294118881226,-0.03776771202683449,-0.3366027772426605
1.084996223449707,-1.3629181385040283,-0.3712257146835327,1.056553602218628,-0.8050217628479004,-0.03765865042805672,-0.33685892820358276
1.105149507522583,-1.3613288402557373,-0.3708644509315491,1.059916377067566,-0.8029201626777649,-0.03838743641972542,-0.33691126108169556
1.125321388244629,-1.3569748401641846,-0.37010782957077026,1.061172366142273,-0.8023462295532227,-0.03802606090903282,-0.33710554242134094
1.1453959941864014,-1.3433120250701904,-0.3676556944847107,1.063212513923645,-0.8013153076171875,-0.03758181259036064,-0.33763137459754944
1.1655163764953613,-1.3369956016540527,-0.37228596210479736,1.0560719966888428,-0.8018707633018494,-0.029526110738515854,-0.33686360716819763
1.185657024383545,-1.3513307571411133,-0.3731066584587097,1.0605767965316772,-0.8015283346176147,-0.034747783094644547,-0.3370268642902374
1.2057609558105469,-1.3567466735839844,-0.37358036637306213,1.057875394821167,-0.8027759790420532,-0.035458896309137344,-0.3366550803184509
1.225926399230957,-1.3543367385864258,-0.37165331840515137,1.0486699342727661,-0.804822564125061,-0.031320225447416306,-0.33578160405158997
1.24592924118042,-1.3442764282226562,-0.3691945970058441,1.0598875284194946,-0.8029618263244629,-0.03442597761750221,-0.33728060126304626
1.265977382659912,-1.3425629138946533,-0.3678290843963623,1.0599968433380127,-0.8021748065948486,-0.03710583969950676,-0.33744359016418457
1.2861106395721436,-1.3241674900054932,-0.3694049119949341,1.059337854385376,-0.8048652410507202,-0.028966311365365982,-0.3374493420124054
1.306300401687622,-1.348273515701294,-0.3762761354446411,1.054565191268921,-0.8035520315170288,-0.029838260263204575,-0.336629182100296
1.3263740539550781,-1.3461884260177612,-0.3731325566768646,1.058786153793335,-0.8060617446899414,-0.03312728926539421,-0.3373061716556549
1.346496343612671,-1.3310202360153198,-0.37120717763900757,1.0545308589935303,-0.8054752349853516,-0.027211669832468033,-0.3371675908565521
1.366576910018921,-1.3461577892303467,-0.3746502995491028,1.0545787811279297,-0.8026772737503052,-0.03321761265397072,-0.33776840567588806
1.3867347240447998,-1.343954086303711,-0.37394145131111145,1.0562355518341064,-0.8031704425811768,-0.0319615863263607,-0.3371369540691376
1.4067821502685547,-1.3299858570098877,-0.37049856781959534,1.057923674583435,-0.8046501278877258,-0.030407603830099106,-0.3380928337574005
1.426924467086792,-1.330462098121643,-0.3723033368587494,1.0610251426696777,-0.803581953048706,-0.032786961644887924,-0.3384989798069
1.4470107555389404,-1.3357572555541992,-0.37482818961143494,1.0597116947174072,-0.8042395114898682,-0.029890362173318863,-0.3375660479068756
1.467128038406372,-1.345902442932129,-0.37522876262664795,1.0572062730789185,-0.803503155708313,-0.029578987509012222,-0.3375086486339569
1.4871649742126465,-1.3468332290649414,-0.3727731704711914,1.055635690689087,-0.8030495643615723,-0.02981625869870186,-0.33736738562583923
1.5072619915008545,-1.3446178436279297,-0.3735605478286743,1.0545923709869385,-0.8044012784957886,-0.029536981135606766,-0.3377269506454468
1.527374029159546,-1.3431469202041626,-0.37289848923683167,1.0475130081176758,-0.8061563968658447,-0.027314674109220505,-0.3371727764606476
1.5474412441253662,-1.339755654335022,-0.3734557628631592,1.0562925338745117,-0.8043659925460815,-0.029930006712675095,-0.33818110823631287
1.5674962997436523,-1.3298227787017822,-0.37470972537994385,1.0591708421707153,-0.8012470602989197,-0.028185155242681503,-0.3387533128261566
1.587660312652588,-1.334226369857788,-0.37551820278167725,1.0602740049362183,-0.8001139163970947,-0.029168400913476944,-0.338575154542923
1.6076576709747314,-1.3210170269012451,-0.3697279989719391,1.0622260570526123,-0.7996535301208496,-0.030029285699129105,-0.3385331332683563
1.6277670860290527,-1.336313247680664,-0.3763324022293091,1.0587127208709717,-0.7996113300323486,-0.02825351431965828,-0.3375512659549713
1.6479110717773438,-1.34157133102417,-0.37541431188583374,1.0546154975891113,-0.8057801127433777,-0.02824094519019127,-0.33761581778526306
1.6680283546447754,-1.3387458324432373,-0.37436443567276,1.0554378032684326,-0.802538275718689,-0.027580592781305313,-0.33768126368522644
1.6881299018859863,-1.3275306224822998,-0.375532865524292,1.0533653497695923,-0.8038266897201538,-0.025057125836610794,-0.33824634552001953
1.7082829475402832,-1.3251957893371582,-0.3747352361679077,1.0506608486175537,-0.8037596344947815,-0.022449206560850143,-0.3377884328365326
1.7283458709716797,-1.3159880638122559,-0.37523746490478516,1.061271071434021,-0.8045082092285156,-0.026020381599664688,-0.3388170301914215
1.748403549194336,-1.3271734714508057,-0.3772447109222412,1.0626493692398071,-0.8022525310516357,-0.02810271456837654,-0.3389815390110016
1.7686593532562256,-1.319593071937561,-0.3763434886932373,1.0621834993362427,-0.8026673197746277,-0.024460259824991226,-0.3389536440372467
1.7888035774230957,-1.3227304220199585,-0.37697482109069824,1.0601327419281006,-0.8014724254608154,-0.024953287094831467,-0.3385733366012573
1.8088538646697998,-1.3326818943023682,-0.3782106637954712,1.056710958480835,-0.80292147397995,-0.025523032993078232,-0.3383801281452179
1.8289387226104736,-1.3130040168762207,-0.3771020174026489,1.045351505279541,-0.804305911064148,-0.01537509635090828,-0.3379286229610443
1.849015474319458,-1.3133296966552734,-0.371634304523468,1.0530414581298828,-0.8040022253990173,-0.023156631737947464,-0.3390931189060211
1.8690874576568604,-1.312187910079956,-0.3707979917526245,1.0630617141723633,-0.8017539978027344,-0.028663743287324905,-0.33946898579597473
1.8892056941986084,-1.32389497756958,-0.3764825463294983,1.058495283126831,-0.8021023273468018,-0.022997315973043442,-0.3382622003555298
1.909233808517456,-1.3306279182434082,-0.38030850887298584,1.059037208557129,-0.7989844083786011,-0.023926395922899246,-0.3383730351924896
1.9293212890625,-1.3262293338775635,-0.37818723917007446,1.0636141300201416,-0.7967046499252319,-0.02378525212407112,-0.33824923634529114
1.9493827819824219,-1.3255631923675537,-0.37924063205718994,1.0630643367767334,-0.7987565994262695,-0.02352791652083397,-0.3381330072879791
1.9694671630859375,-1.3189088106155396,-0.37792280316352844,1.0605460405349731,-0.8021484613418579,-0.02262585237622261,-0.33850881457328796
1.990025520324707,-1.307827353477478,-0.37552204728126526,1.0593959093093872,-0.8037275075912476,-0.021916810423135757,-0.3387831151485443
2.0101845264434814,-1.300086259841919,-0.37050116062164307,1.0636253356933594,-0.8032701015472412,-0.02307933196425438,-0.3388507068157196
2.0302915573120117,-1.3147523403167725,-0.3783982992172241,1.054053783416748,-0.8043997883796692,-0.020610418170690536,-0.33818158507347107
2.0503339767456055,-1.3198353052139282,-0.37767493724823,1.0528788566589355,-0.805311381816864,-0.019132275134325027,-0.33799687027931213
2.0703883171081543,-1.3155277967453003,-0.3774825632572174,1.0572834014892578,-0.8034616112709045,-0.020320814102888107,-0.3384212553501129
2.090466022491455,-1.3056652545928955,-0.3790377974510193,1.055478572845459,-0.802617609500885,-0.01538391038775444,-0.338363915681839
2.1105363368988037,-1.2985334396362305,-0.37780070304870605,1.0548911094665527,-0.8036679625511169,-0.015993919223546982,-0.33909448981285095
2.1305971145629883,-1.3059648275375366,-0.3790433406829834,1.0566372871398926,-0.8031826019287109,-0.01803174987435341,-0.33903658390045166
2.150753974914551,-1.309393048286438,-0.3758474290370941,1.0593942403793335,-0.8028891086578369,-0.02154983952641487,-0.3388150930404663
2.1709277629852295,-1.2981319427490234,-0.3736780285835266,1.0610920190811157,-0.8020914196968079,-0.017930228263139725,-0.33860334753990173
2.191020965576172,-1.3038432598114014,-0.37840044498443604,1.056246280670166,-0.8031350374221802,-0.018443774431943893,-0.3392787277698517
2.211052179336548,-1.3002532720565796,-0.379128098487854,1.0515633821487427,-0.8009368181228638,-0.015249226242303848,-0.33920052647590637
2.2312095165252686,-1.2973418235778809,-0.3781226873397827,1.0534578561782837,-0.8039602041244507,-0.013341892510652542,-0.33889850974082947
2.2513480186462402,-1.3085267543792725,-0.37969115376472473,1.0612229108810425,-0.8000785708427429,-0.01968313381075859,-0.33943989872932434
2.2714173793792725,-1.3039658069610596,-0.37910908460617065,1.0602222681045532,-0.8004156351089478,-0.0170590840280056,-0.33897194266319275
2.2915492057800293,-1.2974879741668701,-0.3802978992462158,1.0581488609313965,-0.7997317314147949,-0.013678830116987228,-0.33855971693992615
2.3116872310638428,-1.3050951957702637,-0.3775328993797302,1.0651745796203613,-0.7967978119850159,-0.02042323723435402,-0.3390807807445526
2.331760883331299,-1.3081693649291992,-0.38210031390190125,1.0614885091781616,-0.8018715381622314,-0.017430800944566727,-0.33849331736564636
2.3517911434173584,-1.3070353269577026,-0.3813742399215698,1.0603746175765991,-0.802430272102356,-0.015903692692518234,-0.33889585733413696
2.3718764781951904,-1.3073339462280273,-0.381935179233551,1.0605634450912476,-0.8007871508598328,-0.0161488838493824,-0.3388231098651886
2.3919448852539062,-1.2960751056671143,-0.38055482506752014,1.0578362941741943,-0.8023732304573059,-0.012677740305662155,-0.3388660252094269
2.412081241607666,-1.2931392192840576,-0.38091397285461426,1.0574265718460083,-0.8010998368263245,-0.012716364115476608,-0.3390680253505707
2.432091236114502,-1.2856203317642212,-0.37845778465270996,1.0541291236877441,-0.8015550374984741,-0.01139790192246437,-0.3391384184360504
2.452167272567749,-1.2824276685714722,-0.3747049868106842,1.056755781173706,-0.8036620616912842,-0.012798648327589035,-0.33940961956977844
2.4722301959991455,-1.2963740825653076,-0.3792043924331665,1.056077241897583,-0.804735541343689,-0.014966834336519241,-0.33967873454093933
2.4923062324523926,-1.2818560600280762,-0.38079366087913513,1.0551927089691162,-0.8017907738685608,-0.006965983659029007,-0.33925625681877136
2.512343645095825,-1.2888524532318115,-0.37959110736846924,1.0564824342727661,-0.8028714656829834,-0.011791955679655075,-0.33976152539253235
2.5324277877807617,-1.2808122634887695,-0.3805946707725525,1.0542376041412354,-0.8008532524108887,-0.0075221918523311615,-0.33937275409698486
2.552503824234009,-1.2839810848236084,-0.3809410333633423,1.0578534603118896,-0.8014087080955505,-0.008112188428640366,-0.33935675024986267
2.572556257247925,-1.2903804779052734,-0.38203319907188416,1.0558772087097168,-0.8031145334243774,-0.009263742715120316,-0.3396001160144806
2.5927958488464355,-1.2842457294464111,-0.3810734748840332,1.0394017696380615,-0.804646372795105,-0.0031606964766979218,-0.3390532433986664
2.613020181655884,-1.291207194328308,-0.37610724568367004,1.052818775177002,-0.8006188869476318,-0.013278324156999588,-0.34053775668144226
2.6332128047943115,-1.2844200134277344,-0.37671899795532227,1.0637892484664917,-0.8017687797546387,-0.013273943215608597,-0.3408019542694092
2.653272867202759,-1.27962327003479,-0.3800048232078552,1.060065746307373,-0.7992581129074097,-0.009177807718515396,-0.3409614861011505
2.673462152481079,-1.2779749631881714,-0.38315847516059875,1.0600769519805908,-0.7993804216384888,-0.00791771337389946,-0.34091445803642273
2.693570375442505,-1.2717581987380981,-0.381685733795166,1.0619746446609497,-0.7998392581939697,-0.00642496719956398,-0.34097203612327576
2.713655471801758,-1.2784850597381592,-0.3824372887611389,1.0571999549865723,-0.8032693862915039,-0.004515688866376877,-0.33993205428123474
2.7336926460266113,-1.282837152481079,-0.3798578977584839,1.0592710971832275,-0.7986592650413513,-0.008973333984613419,-0.3398507833480835
2.7537784576416016,-1.28048574924469,-0.37769678235054016,1.0587413311004639,-0.8025211095809937,-0.009563509374856949,-0.34016844630241394
2.7738680839538574,-1.2888251543045044,-0.3826066851615906,1.0536866188049316,-0.8009846210479736,-0.007231619209051132,-0.33985039591789246
2.7939369678497314,-1.2821937799453735,-0.38156768679618835,1.0602529048919678,-0.8017920851707458,-0.008393149822950363,-0.34070509672164917
2.8139941692352295,-1.2754390239715576,-0.3826993703842163,1.055205225944519,-0.8002632856369019,-0.0042449720203876495,-0.340347021818161
2.8341562747955322,-1.2774357795715332,-0.3820391595363617,1.0536562204360962,-0.8025962710380554,-0.005255233496427536,-0.3405384123325348
2.854269027709961,-1.2707473039627075,-0.38150709867477417,1.0550587177276611,-0.8025546073913574,-0.004772927612066269,-0.34104445576667786
2.8742599487304688,-1.2777070999145508,-0.3828186094760895,1.0568605661392212,-0.8006970286369324,-0.005996007472276688,-0.3407919108867645
2.8943138122558594,-1.2664048671722412,-0.3820408880710602,1.0589680671691895,-0.8013070821762085,-0.00309884175658226,-0.34099143743515015
2.914494037628174,-1.2594356536865234,-0.3787998855113983,1.0606274604797363,-0.8005033731460571,-0.0051293037831783295,-0.3417206108570099
2.9345195293426514,-1.2630324363708496,-0.38345736265182495,1.0578902959823608,-0.8013786673545837,-0.003936599940061569,-0.34152719378471375
2.9545936584472656,-1.2683396339416504,-0.3837701976299286,1.0574979782104492,-0.8024810552597046,-0.0015217773616313934,-0.34070613980293274
2.9746875762939453,-1.273061990737915,-0.3835260570049286,1.0526564121246338,-0.8011425733566284,-0.0013200826942920685,-0.34034308791160583
2.9947855472564697,-1.2607312202453613,-0.37964850664138794,1.0542442798614502,-0.8031173348426819,0.0004758872091770172,-0.3407425284385681
3.014843463897705,-1.26363205909729,-0.38312727212905884,1.0490049123764038,-0.8023595809936523,-0.0010174848139286041,-0.34131279587745667
3.0351028442382812,-1.2713401317596436,-0.3810095489025116,1.063208818435669,-0.7984508275985718,-0.009333323687314987,-0.3421875536441803
3.0560617446899414,-1.259749174118042,-0.38495633006095886,1.0595698356628418,-0.7992927432060242,-0.0016538016498088837,-0.3422999680042267
3.076183795928955,-1.2550287246704102,-0.38482537865638733,1.0634546279907227,-0.7966196537017822,-0.00019204989075660706,-0.34199753403663635
3.0963146686553955,-1.2575204372406006,-0.38433051109313965,1.0596204996109009,-0.799068033695221,0.0005055628716945648,-0.3412209451198578
3.1163291931152344,-1.2711364030838013,-0.3853350877761841,1.0590966939926147,-0.7993243932723999,-0.0026119910180568695,-0.3409694731235504
3.1364591121673584,-1.2671682834625244,-0.3828648030757904,1.0488972663879395,-0.8025176525115967,0.0018280111253261566,-0.34088459610939026
3.1566288471221924,-1.2648038864135742,-0.3799261152744293,1.058388590812683,-0.7985113859176636,-0.004099804908037186,-0.342018723487854
3.1767046451568604,-1.2558491230010986,-0.3835158944129944,1.0563933849334717,-0.7996030449867249,0.001564864069223404,-0.34146225452423096
3.1969246864318848,-1.2625700235366821,-0.385258287191391,1.060378074645996,-0.7991743683815002,-0.0031120888888835907,-0.3426875174045563
3.2170910835266113,-1.2409636974334717,-0.38442516326904297,1.0581943988800049,-0.7996587753295898,0.0057603828608989716,-0.34210464358329773
3.2371761798858643,-1.2475895881652832,-0.3845737874507904,1.0577360391616821,-0.8030110597610474,0.0046663470566272736,-0.3416953384876251
3.257211446762085,-1.2481234073638916,-0.38128650188446045,1.0604310035705566,-0.8005874156951904,0.0019079707562923431,-0.3425561487674713
3.277416467666626,-1.2443759441375732,-0.38303184509277344,1.0566728115081787,-0.7991775870323181,0.003835577517747879,-0.3422389626502991
3.297516345977783,-1.248438835144043,-0.38468605279922485,1.0588821172714233,-0.7986869215965271,0.0018639229238033295,-0.34267887473106384
3.3175058364868164,-1.2467163801193237,-0.38773149251937866,1.0583903789520264,-0.7976685762405396,0.005256664007902145,-0.34274721145629883
3.3375892639160156,-1.2438634634017944,-0.38611680269241333,1.0569429397583008,-0.8006542325019836,0.006940979510545731,-0.34232208132743835
3.35770320892334,-1.2442905902862549,-0.38499316573143005,1.0561730861663818,-0.8020001649856567,0.007008615881204605,-0.3422243595123291
3.377739906311035,-1.2452784776687622,-0.38460859656333923,1.055754542350769,-0.7994155883789062,0.004654292017221451,-0.3426561653614044
3.3978350162506104,-1.2462613582611084,-0.38147905468940735,1.062161922454834,-0.7987970113754272,0.0016647763550281525,-0.3426494896411896
3.417896270751953,-1.2428724765777588,-0.384796679019928,1.0588586330413818,-0.800655722618103,0.00636141374707222,-0.34231308102607727
3.437999725341797,-1.2418830394744873,-0.38748934864997864,1.0558407306671143,-0.7957577705383301,0.006600167602300644,-0.34306666254997253
3.4581186771392822,-1.2473528385162354,-0.388515830039978,1.0613114833831787,-0.7969963550567627,0.0031043700873851776,-0.343148797750473
3.4782516956329346,-1.2468299865722656,-0.3893038034439087,1.0601623058319092,-0.7972095012664795,0.007944818586111069,-0.3419187366962433
3.498293399810791,-1.2450780868530273,-0.38660115003585815,1.0606480836868286,-0.799569308757782,0.006846841424703598,-0.3421129286289215
3.5183422565460205,-1.2478225231170654,-0.38559871912002563,1.0597286224365234,-0.7984029054641724,0.004463080316781998,-0.3426193296909332
3.538525342941284,-1.2384496927261353,-0.3820882737636566,1.0641118288040161,-0.7976409792900085,0.0033833421766757965,-0.3428398668766022
3.558650255203247,-1.2387031316757202,-0.38646167516708374,1.0611844062805176,-0.798235297203064,0.005987081676721573,-0.342691570520401
3.578792095184326,-1.2389676570892334,-0.38891005516052246,1.058692216873169,-0.7983847856521606,0.008155103772878647,-0.3427312672138214
3.5988540649414062,-1.2297453880310059,-0.38792726397514343,1.0598948001861572,-0.7996630668640137,0.010437320917844772,-0.3429892957210541
3.6189842224121094,-1.228604793548584,-0.38644373416900635,1.0579602718353271,-0.8005377054214478,0.010688785463571548,-0.342759907245636
3.639183759689331,-1.2411354780197144,-0.38928064703941345,1.0517678260803223,-0.8010579347610474,0.008672650903463364,-0.3424076735973358
3.6592395305633545,-1.221956491470337,-0.38661548495292664,1.0572130680084229,-0.7995079159736633,0.015427891165018082,-0.3427412509918213
3.6792490482330322,-1.2229771614074707,-0.38879701495170593,1.0546168088912964,-0.799500584602356,0.01593836024403572,-0.34277811646461487
3.6993319988250732,-1.223135232925415,-0.3880854547023773,1.0539294481277466,-0.7995864748954773,0.013704072684049606,-0.34341415762901306
3.7194008827209473,-1.2302930355072021,-0.3876575827598572,1.0569953918457031,-0.8012809157371521,0.01263963058590889,-0.3427896797657013
3.739494800567627,-1.2301025390625,-0.388383686542511,1.0606157779693604,-0.800265371799469,0.012768853455781937,-0.3428371250629425
3.759612560272217,-1.2139554023742676,-0.38682660460472107,1.0581554174423218,-0.7980113625526428,0.01651148870587349,-0.3431326448917389
3.779726028442383,-1.2160890102386475,-0.38366782665252686,1.0635524988174438,-0.7967612743377686,0.011295642703771591,-0.34338685870170593
3.799793004989624,-1.216430425643921,-0.3854418992996216,1.0536229610443115,-0.7979539632797241,0.015370849519968033,-0.3438633978366852
3.819849967956543,-1.2227460145950317,-0.391567200422287,1.0586307048797607,-0.7927342653274536,0.01442374661564827,-0.34384068846702576
3.8399691581726074,-1.226670265197754,-0.3943074941635132,1.0498950481414795,-0.7984281778335571,0.019582536071538925,-0.34242963790893555
3.8600261211395264,-1.2306522130966187,-0.3906692862510681,1.0590479373931885,-0.7975910902023315,0.012992698699235916,-0.34290561079978943
3.880077600479126,-1.2283620834350586,-0.3888339102268219,1.0572772026062012,-0.7991830110549927,0.013750586658716202,-0.34294429421424866
3.9002304077148438,-1.2221451997756958,-0.3914695084095001,1.053402066230774,-0.799684464931488,0.016542043536901474,-0.34273335337638855
3.9203760623931885,-1.220591425895691,-0.3884584307670593,1.0580153465270996,-0.7959212064743042,0.015200305730104446,-0.3432442247867584
3.940446615219116,-1.2188268899917603,-0.39097467064857483,1.0588531494140625,-0.7997177243232727,0.017260391265153885,-0.34354421496391296
3.9605369567871094,-1.2218486070632935,-0.39024224877357483,1.0557217597961426,-0.7980800867080688,0.017528686672449112,-0.3431972861289978
3.980569839477539,-1.206618309020996,-0.38960063457489014,1.0572950839996338,-0.796974778175354,0.02078164741396904,-0.34397628903388977
4.000672817230225,-1.2045509815216064,-0.3887917399406433,1.060642957687378,-0.8004882335662842,0.020316366106271744,-0.34383711218833923
4.020799875259399,-1.2054234743118286,-0.38607120513916016,1.06333589553833,-0.7987210750579834,0.016769584268331528,-0.34455010294914246
4.040864944458008,-1.2078076601028442,-0.389194518327713,1.0603264570236206,-0.7995710372924805,0.01769336685538292,-0.34465518593788147
4.061253786087036,-1.218596339225769,-0.39389768242836,1.0609259605407715,-0.7964487075805664,0.01807812973856926,-0.344383180141449
4.081359148025513,-1.2112689018249512,-0.3918282389640808,1.0588836669921875,-0.7961877584457397,0.020530465990304947,-0.3444632589817047
4.101424217224121,-1.1980245113372803,-0.39029812812805176,1.0515949726104736,-0.7987033128738403,0.026533741503953934,-0.34413406252861023
4.121508359909058,-1.2080411911010742,-0.3929215371608734,1.0625495910644531,-0.7947178483009338,0.020885106176137924,-0.344815194606781
4.141655445098877,-1.2110223770141602,-0.3944021761417389,1.0481414794921875,-0.7975839972496033,0.02666943147778511,-0.34291020035743713
4.161741733551025,-1.1938681602478027,-0.3824070394039154,1.0685052871704102,-0.7954612374305725,0.01723426952958107,-0.34494835138320923
4.181808233261108,-1.196876049041748,-0.3931904435157776,1.0605672597885132,-0.7945761680603027,0.021489020437002182,-0.34545591473579407
4.201855897903442,-1.20541512966156,-0.3930419385433197,1.0595746040344238,-0.7981977462768555,0.019466158002614975,-0.3452882468700409
4.221935510635376,-1.2097259759902954,-0.393129825592041,1.06195867061615,-0.7963370680809021,0.020038623362779617,-0.3449242413043976
4.242004632949829,-1.211916208267212,-0.39391472935676575,1.0567047595977783,-0.7982797622680664,0.022384699434041977,-0.34437063336372375
4.2621002197265625,-1.2078537940979004,-0.3860929012298584,1.0567173957824707,-0.7985275983810425,0.018350575119256973,-0.3449060916900635
4.282178640365601,-1.2142479419708252,-0.3956364393234253,1.0531501770019531,-0.7973455190658569,0.023843754082918167,-0.3443678915500641
4.302255153656006,-1.213369369506836,-0.39384162425994873,1.0554325580596924,-0.7968764305114746,0.02322913333773613,-0.34462299942970276
4.322308778762817,-1.2011414766311646,-0.3925669491291046,1.0613274574279785,-0.7961798906326294,0.024534162133932114,-0.344921737909317
4.342329978942871,-1.1899569034576416,-0.3922869563102722,1.0591154098510742,-0.7982062101364136,0.026944655925035477,-0.3452802300453186
4.362430572509766,-1.1926000118255615,-0.3927169144153595,1.0567494630813599,-0.7980348467826843,0.025893453508615494,-0.34564700722694397
4.382513999938965,-1.1954827308654785,-0.39177367091178894,1.0569384098052979,-0.7992589473724365,0.026510033756494522,-0.34523871541023254
4.402585506439209,-1.2069321870803833,-0.3932800889015198,1.0534086227416992,-0.7970432043075562,0.02477746084332466,-0.3458322584629059
4.422682046890259,-1.1763957738876343,-0.3845233619213104,1.065551996231079,-0.7953811883926392,0.023374777287244797,-0.34740781784057617
4.44282865524292,-1.1879825592041016,-0.3945489227771759,1.0559577941894531,-0.7958880662918091,0.02927890047430992,-0.3464033305644989
4.462920904159546,-1.1881239414215088,-0.3931247591972351,1.0606818199157715,-0.7957481145858765,0.026043478399515152,-0.34723618626594543
4.482992172241211,-1.1979293823242188,-0.39178717136383057,1.0653102397918701,-0.7934380769729614,0.021506663411855698,-0.34670862555503845
4.5030364990234375,-1.1924270391464233,-0.39531409740448,1.060641884803772,-0.7974944114685059,0.028770674020051956,-0.34566012024879456
4.523122072219849,-1.187676191329956,-0.39678955078125,1.0589361190795898,-0.7920216917991638,0.030678536742925644,-0.3462425172328949
4.543240308761597,-1.184279203414917,-0.3968506455421448,1.0606333017349243,-0.7919827699661255,0.03134697303175926,-0.346041738986969
4.563276529312134,-1.1860253810882568,-0.39779627323150635,1.0489555597305298,-0.7960236668586731,0.03503550961613655,-0.34553590416908264
4.583363771438599,-1.1877684593200684,-0.3931610882282257,1.0563756227493286,-0.7989162802696228,0.027934033423662186,-0.34659263491630554
4.60342812538147,-1.1924140453338623,-0.39470505714416504,1.061646819114685,-0.7959131002426147,0.026417437940835953,-0.3465876281261444
4.62349271774292,-1.181572437286377,-0.3941293954849243,1.0581629276275635,-0.7957924008369446,0.03238285705447197,-0.34605517983436584
4.643558979034424,-1.1776766777038574,-0.3938245177268982,1.0559165477752686,-0.7970882654190063,0.0328112430870533,-0.34598061442375183
4.663729429244995,-1.1930243968963623,-0.3951949179172516,1.062269926071167,-0.7966815233230591,0.02359432354569435,-0.3469412624835968
4.683816194534302,-1.1876437664031982,-0.3949768543243408,1.0611652135849,-0.7974223494529724,0.029627222567796707,-0.34629371762275696
4.703896760940552,-1.181061029434204,-0.39685481786727905,1.0597772598266602,-0.7967920899391174,0.032772671431303024,-0.3465224504470825
4.723964214324951,-1.182960033416748,-0.39634430408477783,1.056298017501831,-0.7968974113464355,0.032975178211927414,-0.34626567363739014
4.744042634963989,-1.1841330528259277,-0.39600658416748047,1.0532435178756714,-0.7966693639755249,0.0336625836789608,-0.3460468649864197
4.764106035232544,-1.1669187545776367,-0.39210498332977295,1.059015154838562,-0.7974056005477905,0.03262852504849434,-0.3473828136920929
4.7842817306518555,-1.1831380128860474,-0.39812004566192627,1.059290885925293,-0.795682430267334,0.031053561717271805,-0.34656181931495667
4.804274559020996,-1.168501377105713,-0.39642584323883057,1.0609054565429688,-0.7946712970733643,0.03508972004055977,-0.34673166275024414
4.824355125427246,-1.1661869287490845,-0.3976212739944458,1.0589704513549805,-0.7938306927680969,0.03741082176566124,-0.3464229702949524
4.84455132484436,-1.1654584407806396,-0.39773786067962646,1.0550847053527832,-0.7969591617584229,0.03802517428994179,-0.3466222584247589
4.864580869674683,-1.1717721223831177,-0.39746347069740295,1.0581392049789429,-0.7958872318267822,0.033392954617738724,-0.34716272354125977
4.884704351425171,-1.1742061376571655,-0.39793890714645386,1.0565733909606934,-0.7964584827423096,0.03706236556172371,-0.34618276357650757
4.904747247695923,-1.1629717350006104,-0.3867059051990509,1.0617014169692993,-0.7973260879516602,0.03233328089118004,-0.34717318415641785
4.924908638000488,-1.1696586608886719,-0.39755383133888245,1.0583207607269287,-0.7970320582389832,0.03622780367732048,-0.34704330563545227
4.945400714874268,-1.1646473407745361,-0.395823210477829,1.0571355819702148,-0.7961024045944214,0.035108212381601334,-0.3478195369243622
4.965568780899048,-1.151989459991455,-0.3966880142688751,1.057291030883789,-0.7942789793014526,0.04134983941912651,-0.34743961691856384
4.985725164413452,-1.158691644668579,-0.39241302013397217,1.064244031906128,-0.7961592674255371,0.03487636521458626,-0.3472718298435211
5.005781173706055,-1.171433687210083,-0.39921313524246216,1.0577019453048706,-0.795316219329834,0.037984032183885574,-0.34674909710884094
5.025918245315552,-1.1688312292099,-0.3971267640590668,1.0552722215652466,-0.7995227575302124,0.0398290790617466,-0.34675362706184387
5.046036243438721,-1.168816089630127,-0.39712536334991455,1.056577444076538,-0.7966520190238953,0.038285110145807266,-0.3473416566848755
5.066102504730225,-1.160966396331787,-0.39879560470581055,1.0536876916885376,-0.7954990863800049,0.04142271354794502,-0.3474123775959015
5.086170673370361,-1.1544667482376099,-0.3968448042869568,1.058308720588684,-0.7950820326805115,0.04275037720799446,-0.347454309463501
5.106338739395142,-1.1440597772598267,-0.3935691714286804,1.0595629215240479,-0.7928816676139832,0.04072951152920723,-0.34843909740448
5.12637186050415,-1.1550180912017822,-0.39815086126327515,1.0562175512313843,-0.7980151176452637,0.04301527515053749,-0.3475394546985626
5.146449089050293,-1.1619634628295898,-0.4010854959487915,1.0546166896820068,-0.7952173352241516,0.043836671859025955,-0.34732621908187866
5.166665315628052,-1.1538779735565186,-0.3981669545173645,1.058309555053711,-0.7922390699386597,0.039576154202222824,-0.34933724999427795
5.186778783798218,-1.13116455078125,-0.4000014364719391,1.05857515335083,-0.7913961410522461,0.050466541200876236,-0.3487445116043091
5.206920623779297,-1.1579535007476807,-0.40080827474594116,1.0586477518081665,-0.7912799715995789,0.04453517124056816,-0.3476458191871643
5.227054834365845,-1.1596275568008423,-0.40027156472206116,1.0626360177993774,-0.7914111614227295,0.041572052985429764,-0.34799107909202576
5.247196674346924,-1.1502442359924316,-0.3973428010940552,1.0681861639022827,-0.7904399633407593,0.04010215029120445,-0.3488200604915619
5.267288684844971,-1.14310884475708,-0.399852991104126,1.06386137008667,-0.7938791513442993,0.04260943457484245,-0.34845536947250366
5.28739595413208,-1.1428579092025757,-0.40114301443099976,1.063347339630127,-0.7935343384742737,0.0432903878390789,-0.34849902987480164
5.30743670463562,-1.1477817296981812,-0.40059396624565125,1.0561553239822388,-0.7957777380943298,0.045585501939058304,-0.3485320508480072
5.327569484710693,-1.1568660736083984,-0.4039042294025421,1.0447707176208496,-0.7970463037490845,0.04864313080906868,-0.34770193696022034
5.347718954086304,-1.146486520767212,-0.40014660358428955,1.0559648275375366,-0.7962678074836731,0.04726918414235115,-0.34831658005714417
5.367732763290405,-1.1448907852172852,-0.4008667469024658,1.0529474020004272,-0.7948445081710815,0.04790627583861351,-0.34826406836509705
5.38778829574585,-1.1524481773376465,-0.40071403980255127,1.064457654953003,-0.7954667806625366,0.04174334183335304,-0.3491574823856354
5.407864809036255,-1.1481901407241821,-0.4015631079673767,1.0618491172790527,-0.7957178354263306,0.046283576637506485,-0.34851357340812683
5.427955865859985,-1.143283724784851,-0.40186169743537903,1.0652847290039062,-0.7899661064147949,0.045465487986803055,-0.34878572821617126
5.448001861572266,-1.132660150527954,-0.39839160442352295,1.0579477548599243,-0.792569637298584,0.046712491661310196,-0.34900912642478943
5.468070030212402,-1.1374318599700928,-0.40242061018943787,1.0590693950653076,-0.791824460029602,0.04725674167275429,-0.34913769364356995
5.488195896148682,-1.1380367279052734,-0.40472695231437683,1.062281608581543,-0.7901623249053955,0.05034983530640602,-0.34850844740867615
5.508252143859863,-1.1432240009307861,-0.4008347988128662,1.0591320991516113,-0.7956746816635132,0.04932806268334389,-0.3483194410800934
5.528326988220215,-1.1355996131896973,-0.40242838859558105,1.059282898902893,-0.7923293113708496,0.04867516830563545,-0.34910687804222107
5.548448085784912,-1.1330628395080566,-0.40248772501945496,1.0622587203979492,-0.7915754318237305,0.0488198883831501,-0.34934815764427185
5.568495512008667,-1.129449725151062,-0.4016874432563782,1.060660481452942,-0.7935842871665955,0.050626542419195175,-0.34923288226127625
5.5885467529296875,-1.1397621631622314,-0.4033006429672241,1.0586555004119873,-0.7937121987342834,0.0459764264523983,-0.3492480218410492
5.608606815338135,-1.125983715057373,-0.4004659056663513,1.058799147605896,-0.7935813665390015,0.054228927940130234,-0.34954431653022766
5.628711462020874,-1.129145622253418,-0.4019289016723633,1.059194803237915,-0.7931400537490845,0.05251380428671837,-0.35007190704345703
5.6488165855407715,-1.1372783184051514,-0.4039841592311859,1.0574778318405151,-0.791922926902771,0.05019654706120491,-0.35002201795578003
5.668909072875977,-1.1158549785614014,-0.40321874618530273,1.0585079193115234,-0.7918068170547485,0.056427378207445145,-0.35063931345939636
5.6890764236450195,-1.1261706352233887,-0.40058034658432007,1.0641264915466309,-0.7926710247993469,0.047170791774988174,-0.3515206277370453
5.709172248840332,-1.1321094036102295,-0.40485677123069763,1.0591427087783813,-0.7966859340667725,0.05345890298485756,-0.3501380383968353
5.729362726211548,-1.1345114707946777,-0.4042128324508667,1.0614187717437744,-0.7912940979003906,0.051850575953722,-0.35028764605522156
5.749352216720581,-1.1347429752349854,-0.4046584367752075,1.0485804080963135,-0.7954760789871216,0.05627578869462013,-0.34946057200431824
5.769411087036133,-1.1282353401184082,-0.4008901119232178,1.0579897165298462,-0.7938650846481323,0.05280816927552223,-0.3504922091960907
5.789544105529785,-1.1213605403900146,-0.4020126461982727,1.0608036518096924,-0.7916580438613892,0.05391349270939827,-0.3507525622844696
5.8095903396606445,-1.111055850982666,-0.39873358607292175,1.0592002868652344,-0.7949613332748413,0.054911766201257706,-0.3510102927684784
5.829655408859253,-1.1190359592437744,-0.40566474199295044,1.0593825578689575,-0.79189133644104,0.05506071820855141,-0.3510102927684784
5.849942207336426,-1.1169708967208862,-0.40429937839508057,1.0625841617584229,-0.7925212383270264,0.05785238370299339,-0.35037684440612793
5.870065212249756,-1.1211000680923462,-0.4025338292121887,1.0604411363601685,-0.794310450553894,0.056033987551927567,-0.3504434823989868
5.890162944793701,-1.1158041954040527,-0.40580153465270996,1.050527811050415,-0.7905494570732117,0.058685313910245895,-0.3504028916358948
5.910212755203247,-1.1126619577407837,-0.4090083837509155,1.0613466501235962,-0.7858288884162903,0.06013068929314613,-0.3511320650577545
5.930347681045532,-1.1179890632629395,-0.4102935492992401,1.058330774307251,-0.7863636016845703,0.058578651398420334,-0.35132136940956116
5.950382232666016,-1.1201870441436768,-0.40616685152053833,1.060407280921936,-0.7915434837341309,0.05776764079928398,-0.35053369402885437
5.970461368560791,-1.1135526895523071,-0.4058503210544586,1.0611870288848877,-0.7940368056297302,0.05972928926348686,-0.35065263509750366
5.990516901016235,-1.0987865924835205,-0.4030399024486542,1.062135100364685,-0.790271520614624,0.060475368052721024,-0.3512163460254669
6.010610342025757,-1.1000661849975586,-0.4052353501319885,1.0600850582122803,-0.7916814684867859,0.061808157712221146,-0.3510798513889313
6.030729055404663,-1.112922191619873,-0.4080412983894348,1.0554847717285156,-0.7917892336845398,0.05688260868191719,-0.3515756130218506
6.0508599281311035,-1.1138646602630615,-0.4023750424385071,1.0596730709075928,-0.7898780107498169,0.054774921387434006,-0.35124343633651733
6.070883274078369,-1.0995945930480957,-0.40780699253082275,1.0524576902389526,-0.7910699844360352,0.06761765480041504,-0.3506545126438141
6.091021537780762,-1.1100594997406006,-0.40751972794532776,1.0609610080718994,-0.7914510369300842,0.06203504279255867,-0.35089239478111267
6.1111156940460205,-1.118528962135315,-0.409145712852478,1.0629041194915771,-0.7902889251708984,0.05877208337187767,-0.35129663348197937
6.131181001663208,-1.1118206977844238,-0.4066213369369507,1.062842607498169,-0.7922781705856323,0.060696471482515335,-0.35125359892845154
6.151248931884766,-1.1130491495132446,-0.4095987379550934,1.057710886001587,-0.7877342700958252,0.06297473609447479,-0.35081759095191956
6.17142915725708,-1.1010991334915161,-0.4082503318786621,1.0598206520080566,-0.7859398126602173,0.0648312121629715,-0.35129114985466003
6.191533803939819,-1.103478193283081,-0.4086145758628845,1.0585218667984009,-0.7856624126434326,0.06313702464103699,-0.35141128301620483
6.21161961555481,-1.0904695987701416,-0.4050319492816925,1.059639811515808,-0.7912904024124146,0.06446368992328644,-0.3523971736431122
6.23165225982666,-1.1064530611038208,-0.40875598788261414,1.063964605331421,-0.7912306785583496,0.05910060182213783,-0.3519141972064972
6.251698970794678,-1.1067163944244385,-0.4096963405609131,1.064639687538147,-0.7917653322219849,0.06345781683921814,-0.35174456238746643
6.271786689758301,-1.096116542816162,-0.4077287018299103,1.066081166267395,-0.7886926531791687,0.06455326080322266,-0.35201871395111084
6.291853666305542,-1.0908344984054565,-0.4079259932041168,1.0560511350631714,-0.791387677192688,0.06824655830860138,-0.3518141806125641
6.311971664428711,-1.0914511680603027,-0.40778228640556335,1.0551190376281738,-0.7922043800354004,0.06561793386936188,-0.3525073230266571
6.332040786743164,-1.091331958770752,-0.4088711440563202,1.0576679706573486,-0.7919013500213623,0.068079873919487,-0.35256221890449524
6.352126836776733,-1.0842106342315674,-0.40752094984054565,1.0616341829299927,-0.7914532423019409,0.06902115046977997,-0.35266366600990295
6.372230529785156,-1.0875064134597778,-0.4072653353214264,1.0631747245788574,-0.7915288209915161,0.06715850532054901,-0.35245281457901
6.392315149307251,-1.088053822517395,-0.4095630645751953,1.0659188032150269,-0.7897226214408875,0.06786732375621796,-0.35264909267425537
6.412398338317871,-1.0764797925949097,-0.41071635484695435,1.0604026317596436,-0.7874959111213684,0.07234326004981995,-0.3528672158718109
6.432538747787476,-1.082481861114502,-0.40569064021110535,1.0598948001861572,-0.788904070854187,0.06756457686424255,-0.3526201546192169
6.45257043838501,-1.0983130931854248,-0.4106876254081726,1.0613975524902344,-0.7906665802001953,0.06663389503955841,-0.35253003239631653
6.472623109817505,-1.0928677320480347,-0.4101465344429016,1.0577702522277832,-0.7904082536697388,0.07068437337875366,-0.35197320580482483
6.492719411849976,-1.089034914970398,-0.40758341550827026,1.0653979778289795,-0.7879674434661865,0.06804396212100983,-0.3523097336292267
6.512786626815796,-1.0900053977966309,-0.409802109003067,1.0640729665756226,-0.7865678071975708,0.06802892684936523,-0.35240092873573303
6.53294825553894,-1.0818626880645752,-0.41161420941352844,1.0524495840072632,-0.7854334115982056,0.07389819622039795,-0.3514023423194885
6.553005933761597,-1.0756584405899048,-0.41097626090049744,1.0595191717147827,-0.7911419868469238,0.07413706183433533,-0.35270360112190247
6.573096513748169,-1.0684782266616821,-0.4116813838481903,1.0604114532470703,-0.78895103931427,0.07610507309436798,-0.3527885377407074
6.593173265457153,-1.0830169916152954,-0.4104415774345398,1.0627217292785645,-0.7902845144271851,0.0712043046951294,-0.35265132784843445
6.613209009170532,-1.0791740417480469,-0.4065113961696625,1.0642503499984741,-0.793042778968811,0.07063567638397217,-0.352414071559906
6.633641004562378,-1.0658626556396484,-0.4107499122619629,1.0610905885696411,-0.7915232181549072,0.07482978701591492,-0.35324516892433167
6.653804540634155,-1.0754096508026123,-0.4122230112552643,1.0608179569244385,-0.788080632686615,0.07242953777313232,-0.35311999917030334
6.673833131790161,-1.0798532962799072,-0.41433092951774597,1.0626816749572754,-0.7853931188583374,0.07006615400314331,-0.3535226285457611
6.693886041641235,-1.0898303985595703,-0.4128083288669586,1.056990623474121,-0.7881213426589966,0.07129910588264465,-0.3525017201900482
6.714162588119507,-1.084921956062317,-0.41207602620124817,1.0592963695526123,-0.7897946834564209,0.07346861064434052,-0.35272017121315
6.734235048294067,-1.066638708114624,-0.4121030569076538,1.05814528465271,-0.7862259149551392,0.07778170704841614,-0.3527022898197174
6.754383563995361,-1.0686571598052979,-0.4117359519004822,1.0609484910964966,-0.7851877808570862,0.07731093466281891,-0.35255634784698486
6.774486303329468,-1.07441246509552,-0.4140153229236603,1.0671882629394531,-0.7838550806045532,0.07300440967082977,-0.3526964485645294
6.79451060295105,-1.0614573955535889,-0.41203391551971436,1.066164493560791,-0.7837846279144287,0.07663717865943909,-0.35287952423095703
6.814722537994385,-1.0559724569320679,-0.41010117530822754,1.0611021518707275,-0.7855207920074463,0.07842245697975159,-0.352948933839798
6.834712266921997,-1.0653057098388672,-0.41150274872779846,1.0567905902862549,-0.7914289236068726,0.07937286794185638,-0.35270223021507263
6.854781866073608,-1.079390048980713,-0.4151160717010498,1.0540950298309326,-0.7905429601669312,0.07619079947471619,-0.35306572914123535
6.874872446060181,-1.071410894393921,-0.41164523363113403,1.0599751472473145,-0.7910976409912109,0.07839658856391907,-0.35313835740089417
6.8949103355407715,-1.068894863128662,-0.41385966539382935,1.0616146326065063,-0.7884871959686279,0.07737845182418823,-0.35367849469184875
6.915018320083618,-1.0625331401824951,-0.41351747512817383,1.0609142780303955,-0.7886344194412231,0.07989300787448883,-0.3536708354949951
6.935105085372925,-1.0402297973632812,-0.4070439040660858,1.0634523630142212,-0.7854927778244019,0.08134494721889496,-0.3540254831314087
6.9552390575408936,-1.0581746101379395,-0.41419386863708496,1.0580415725708008,-0.7868838906288147,0.08189748227596283,-0.35327014327049255
6.97527813911438,-1.065140724182129,-0.4122835695743561,1.057900071144104,-0.7909272313117981,0.0822996199131012,-0.3535248935222626
6.995398283004761,-1.0568739175796509,-0.4126051068305969,1.059752106666565,-0.7892211079597473,0.08346009254455566,-0.3537382483482361
7.01542592048645,-1.0572080612182617,-0.41632646322250366,1.0621980428695679,-0.7843517661094666,0.08218488097190857,-0.3542453348636627
7.035479307174683,-1.0468748807907104,-0.4094429016113281,1.0707991123199463,-0.7823963165283203,0.07843971252441406,-0.35464969277381897
7.0555806159973145,-1.0453418493270874,-0.41509321331977844,1.0642919540405273,-0.7854213714599609,0.08260734379291534,-0.3546241521835327
7.075692176818848,-1.05359947681427,-0.4172041118144989,1.0570707321166992,-0.7843443155288696,0.08384235203266144,-0.3541792631149292
7.0957818031311035,-1.056413173675537,-0.4161229133605957,1.0559489727020264,-0.788207471370697,0.08621792495250702,-0.35368111729621887
7.115835666656494,-1.0567588806152344,-0.41271209716796875,1.0594500303268433,-0.7897012233734131,0.08387045562267303,-0.3538323938846588
7.135917901992798,-1.0477769374847412,-0.4117182493209839,1.0604760646820068,-0.7880192399024963,0.08474200963973999,-0.35407575964927673
7.155994415283203,-1.0415968894958496,-0.4129663407802582,1.0612659454345703,-0.7853052020072937,0.083245649933815,-0.355265349149704
7.1760900020599365,-1.0488572120666504,-0.4180586338043213,1.0614657402038574,-0.7854822874069214,0.08402526378631592,-0.35478267073631287
7.196239471435547,-1.0595366954803467,-0.41738003492355347,1.0563679933547974,-0.787571907043457,0.08499595522880554,-0.35391494631767273
7.216317415237427,-1.0546950101852417,-0.4147188663482666,1.06047523021698,-0.7899625301361084,0.08634142577648163,-0.35408321022987366
7.2364606857299805,-1.0477683544158936,-0.40971413254737854,1.0635745525360107,-0.7884751558303833,0.08143404126167297,-0.3549283742904663
7.256588697433472,-1.0485936403274536,-0.4121367335319519,1.0641776323318481,-0.7894941568374634,0.08361686766147614,-0.3552037179470062
7.276700973510742,-1.0425381660461426,-0.4161548912525177,1.0659403800964355,-0.7866734862327576,0.08647437393665314,-0.3552267551422119
7.296787977218628,-1.040287733078003,-0.41714152693748474,1.0635044574737549,-0.7861902713775635,0.08724860846996307,-0.3553149998188019
7.316948652267456,-1.0301791429519653,-0.4129623770713806,1.0657765865325928,-0.7813849449157715,0.08556970953941345,-0.35571184754371643
7.337045192718506,-1.0403485298156738,-0.4166310429573059,1.0623605251312256,-0.7836946249008179,0.09018568694591522,-0.354586660861969
7.357080459594727,-1.03996741771698,-0.4165555536746979,1.0667986869812012,-0.7830180525779724,0.08695997297763824,-0.35525646805763245
7.377184152603149,-1.0321030616760254,-0.41792047023773193,1.0551412105560303,-0.7855164408683777,0.09310300648212433,-0.35508862137794495
7.397234201431274,-1.0318129062652588,-0.41841286420822144,1.0606603622436523,-0.7851869463920593,0.0913718044757843,-0.35581621527671814
7.41728949546814,-1.0439722537994385,-0.41778960824012756,1.063234567642212,-0.7879940867424011,0.08758816123008728,-0.3558729290962219
7.437368869781494,-1.0402661561965942,-0.4185938239097595,1.0614497661590576,-0.7856841683387756,0.09085498750209808,-0.3555883467197418
7.457430839538574,-1.0197646617889404,-0.4129622280597687,1.0669689178466797,-0.7836401462554932,0.08959533274173737,-0.35665586590766907
7.477493047714233,-1.0336275100708008,-0.4154110550880432,1.0669173002243042,-0.7869013547897339,0.08918623626232147,-0.35610684752464294
7.4975502490997314,-1.0316866636276245,-0.41726529598236084,1.0685925483703613,-0.7844980955123901,0.09031079709529877,-0.35579296946525574
7.5176239013671875,-1.025983214378357,-0.41764435172080994,1.0630578994750977,-0.7833993434906006,0.09245868027210236,-0.3560328781604767
7.5377302169799805,-1.0279264450073242,-0.41695907711982727,1.0616495609283447,-0.7853810787200928,0.09371928870677948,-0.35643264651298523
7.5577943325042725,-1.0314233303070068,-0.42117834091186523,1.0612828731536865,-0.7846556901931763,0.09466208517551422,-0.3564930856227875
7.577864170074463,-1.031280755996704,-0.41891592741012573,1.0614656209945679,-0.7847118377685547,0.09273923933506012,-0.35629555583000183
7.59802770614624,-1.034813404083252,-0.4186086058616638,1.0606192350387573,-0.7864990234375,0.09236477315425873,-0.356310099363327
7.618042469024658,-1.026118516921997,-0.4134525656700134,1.07059645652771,-0.7845857739448547,0.08943343162536621,-0.3565427362918854
7.638109922409058,-1.030264139175415,-0.42102620005607605,1.063436508178711,-0.7810101509094238,0.09357836842536926,-0.356000155210495
7.6581666469573975,-1.0180060863494873,-0.4218282401561737,1.0621347427368164,-0.7773270010948181,0.09875813126564026,-0.3562586009502411
7.67824125289917,-1.0142786502838135,-0.4232882857322693,1.0547077655792236,-0.781367301940918,0.10219073295593262,-0.3559066653251648
7.698349475860596,-1.0195834636688232,-0.4177596867084503,1.0585978031158447,-0.7860218286514282,0.09717382490634918,-0.3560105860233307
7.718409776687622,-1.011560320854187,-0.41980403661727905,1.063226342201233,-0.7858777046203613,0.09965088963508606,-0.3566540777683258
7.73854398727417,-1.0175837278366089,-0.42187535762786865,1.065962314605713,-0.7817538380622864,0.09835334122180939,-0.3564261496067047
7.758662700653076,-1.0234706401824951,-0.42186087369918823,1.065129280090332,-0.7842007875442505,0.09599880874156952,-0.35656484961509705
7.778824329376221,-1.0128892660140991,-0.4186759889125824,1.0587152242660522,-0.7828168869018555,0.09653285145759583,-0.35698139667510986
7.798841953277588,-1.0237348079681396,-0.42358142137527466,1.0546410083770752,-0.7854140400886536,0.09896467626094818,-0.35648220777511597
7.8189380168914795,-1.0199007987976074,-0.42191678285598755,1.0608872175216675,-0.7855020761489868,0.10048642754554749,-0.35675129294395447
7.839113235473633,-1.0191566944122314,-0.4220718741416931,1.0654687881469727,-0.782638430595398,0.09832511842250824,-0.35685795545578003
7.85919189453125,-1.0185041427612305,-0.42226850986480713,1.0655272006988525,-0.7823938131332397,0.09875659644603729,-0.35691776871681213
7.879197597503662,-1.0035709142684937,-0.4208563566207886,1.0625486373901367,-0.7838132977485657,0.10111744701862335,-0.35759374499320984
7.8992931842803955,-0.9831807613372803,-0.415090411901474,1.0671253204345703,-0.777916669845581,0.10310594737529755,-0.35743364691734314
7.9193644523620605,-1.0177972316741943,-0.42473304271698,1.058416724205017,-0.7839608788490295,0.10322912037372589,-0.35615888237953186
7.939484596252441,-1.0171699523925781,-0.4226415157318115,1.060972809791565,-0.7830690741539001,0.10216391086578369,-0.3565334379673004
7.959625959396362,-1.0132578611373901,-0.4214385151863098,1.0674318075180054,-0.7813626527786255,0.09889097511768341,-0.35707488656044006
7.979814052581787,-1.0055699348449707,-0.42048323154449463,1.0656826496124268,-0.7834116220474243,0.10180889070034027,-0.35701194405555725
7.999825954437256,-0.9997163414955139,-0.4218937158584595,1.0667285919189453,-0.780025839805603,0.10133299231529236,-0.35770007967948914
8.019872903823853,-0.9841763973236084,-0.4203093349933624,1.057640552520752,-0.7838834524154663,0.11146454513072968,-0.3575385510921478
8.039958000183105,-1.0021026134490967,-0.4247387647628784,1.0540132522583008,-0.7824816107749939,0.10550720989704132,-0.3579188287258148
8.060049057006836,-1.0022565126419067,-0.42250514030456543,1.0584368705749512,-0.785004734992981,0.10630837082862854,-0.3580213487148285
8.080143928527832,-0.9932425022125244,-0.4238898754119873,1.0514485836029053,-0.7801344394683838,0.1107526570558548,-0.3581528067588806
8.100167512893677,-0.9771502614021301,-0.4190511405467987,1.0709755420684814,-0.777612566947937,0.10567019879817963,-0.3596285879611969
8.12028980255127,-0.9964026212692261,-0.42605072259902954,1.0662117004394531,-0.7809433937072754,0.10436342656612396,-0.35908159613609314
8.14033579826355,-1.00165855884552,-0.4252881109714508,1.0654948949813843,-0.7812802791595459,0.10517105460166931,-0.3586686849594116
8.16047191619873,-0.9823894500732422,-0.4231715798377991,1.0618165731430054,-0.7815263867378235,0.11045251786708832,-0.3587115406990051
8.180544376373291,-0.9933295249938965,-0.42690426111221313,1.0566487312316895,-0.7778416872024536,0.11132243275642395,-0.35825878381729126
8.200680017471313,-0.994473397731781,-0.42468154430389404,1.0626490116119385,-0.7822061777114868,0.10888159275054932,-0.3588699996471405
8.220770835876465,-0.9845964312553406,-0.42651864886283875,1.062420129776001,-0.7788670063018799,0.11213934421539307,-0.35869789123535156
8.240816831588745,-0.97869873046875,-0.4278629720211029,1.0582057237625122,-0.7761887311935425,0.11592982709407806,-0.35843369364738464
8.260906219482422,-0.9873780012130737,-0.41986083984375,1.0648250579833984,-0.782561182975769,0.10772770643234253,-0.35866355895996094
8.2809739112854,-1.0013436079025269,-0.4284168779850006,1.050112247467041,-0.7813021540641785,0.1122395247220993,-0.35791486501693726
8.301041603088379,-0.9925520420074463,-0.4227638840675354,1.0653281211853027,-0.7801543474197388,0.10856591165065765,-0.35921812057495117
8.321111679077148,-0.985194206237793,-0.42677146196365356,1.0629889965057373,-0.7803295850753784,0.1134893000125885,-0.3588525950908661
8.341221809387207,-0.9803606271743774,-0.4201808273792267,1.0688819885253906,-0.7797924280166626,0.10808718204498291,-0.35967323184013367
8.361244201660156,-0.9701964855194092,-0.42646920680999756,1.0651745796203613,-0.7808768153190613,0.11808401346206665,-0.3592491149902344
8.381380558013916,-0.9756212830543518,-0.4261739253997803,1.0676462650299072,-0.7795907258987427,0.11380583047866821,-0.3598732650279999
8.401414394378662,-0.9809510707855225,-0.4265461564064026,1.064868688583374,-0.7795822620391846,0.11430104076862335,-0.3599109947681427
8.421578884124756,-0.9769115447998047,-0.4262820780277252,1.0614793300628662,-0.7783819437026978,0.11373402178287506,-0.3602624833583832
8.44158148765564,-0.9860413074493408,-0.4295848608016968,1.0593855381011963,-0.7786285877227783,0.11498194932937622,-0.3599710166454315
8.461688995361328,-0.976868748664856,-0.4298739433288574,1.0599658489227295,-0.7780219316482544,0.11795525252819061,-0.36027130484580994
8.481815576553345,-0.9704747200012207,-0.4280071258544922,1.0654151439666748,-0.7792940139770508,0.11779792606830597,-0.36048293113708496
8.501837491989136,-0.9723101854324341,-0.42757725715637207,1.065194845199585,-0.7809754610061646,0.11781464517116547,-0.3603315055370331
8.521897077560425,-0.9662178754806519,-0.4228818118572235,1.0719956159591675,-0.7770721316337585,0.11355039477348328,-0.36049073934555054
8.54198169708252,-0.9775868654251099,-0.43016698956489563,1.0565156936645508,-0.7823614478111267,0.11865265667438507,-0.35935500264167786
8.562081336975098,-0.963992714881897,-0.42970889806747437,1.05521821975708,-0.7801269292831421,0.12332150340080261,-0.3602692782878876
8.582087278366089,-0.9652198553085327,-0.42609578371047974,1.061267375946045,-0.7785829305648804,0.11822770535945892,-0.36092033982276917
8.60216999053955,-0.9680804014205933,-0.4255889058113098,1.0653321743011475,-0.779452919960022,0.11647194623947144,-0.3608185946941376
8.622259378433228,-0.9787642359733582,-0.42989233136177063,1.0606436729431152,-0.7823784351348877,0.11821551620960236,-0.36025115847587585
8.64231538772583,-0.975689709186554,-0.428445965051651,1.061022400856018,-0.7804902791976929,0.11876954138278961,-0.3607223927974701
8.662361860275269,-0.9701141715049744,-0.4321330189704895,1.0590459108352661,-0.7777061462402344,0.122048020362854,-0.36036381125450134
8.68244743347168,-0.9620646238327026,-0.428082138299942,1.0623630285263062,-0.7778406143188477,0.12027846276760101,-0.36136022210121155
8.702517986297607,-0.9505302309989929,-0.42770159244537354,1.0691015720367432,-0.7738975286483765,0.11919240653514862,-0.36179783940315247
8.722571849822998,-0.9717774391174316,-0.4339022636413574,1.0639418363571167,-0.7683190107345581,0.12123754620552063,-0.3602067530155182
8.742702007293701,-0.9589765667915344,-0.428473562002182,1.060991644859314,-0.7781915664672852,0.12364077568054199,-0.36039605736732483
8.762784719467163,-0.9439196586608887,-0.4214218854904175,1.0665326118469238,-0.7790902853012085,0.12097254395484924,-0.3612714111804962
8.782853364944458,-0.9418284893035889,-0.4309130907058716,1.0630629062652588,-0.7776793241500854,0.12872503697872162,-0.3610897958278656
8.80291199684143,-0.960791289806366,-0.4312971830368042,1.059808611869812,-0.7769613265991211,0.12580861151218414,-0.36078116297721863
8.822980880737305,-0.9652811288833618,-0.43041932582855225,1.0655120611190796,-0.7774703502655029,0.12081365287303925,-0.361361026763916
8.843061447143555,-0.939808189868927,-0.42335182428359985,1.0646631717681885,-0.7790286540985107,0.12466968595981598,-0.3617185652256012
8.863198280334473,-0.9464927911758423,-0.43141472339630127,1.0627233982086182,-0.7791115641593933,0.12917602062225342,-0.3613103926181793
8.883219957351685,-0.9524928331375122,-0.43437695503234863,1.0556466579437256,-0.777266263961792,0.1296006292104721,-0.3614481985569
8.903312683105469,-0.9564844369888306,-0.4309103190898895,1.0662841796875,-0.7745475769042969,0.12338875234127045,-0.36216965317726135
8.923369884490967,-0.9433951377868652,-0.43533188104629517,1.0639357566833496,-0.7734218835830688,0.12944675981998444,-0.3617490231990814
8.943441152572632,-0.9548028707504272,-0.43368494510650635,1.0682203769683838,-0.774016797542572,0.1266264170408249,-0.3619367480278015
8.96348762512207,-0.962145209312439,-0.4348670244216919,1.0691313743591309,-0.7734047174453735,0.12479014694690704,-0.3619762659072876
8.983569860458374,-0.9561077952384949,-0.43327802419662476,1.0633196830749512,-0.7773755788803101,0.12749476730823517,-0.36189183592796326
9.0036461353302,-0.950635552406311,-0.4318353831768036,1.058518886566162,-0.7756357192993164,0.12671884894371033,-0.3617992699146271
9.023736000061035,-0.9414353966712952,-0.4304666221141815,1.0618067979812622,-0.7757315635681152,0.12758804857730865,-0.36294326186180115
9.043766021728516,-0.948284924030304,-0.4361964464187622,1.0613839626312256,-0.7778079509735107,0.12995405495166779,-0.362777978181839
9.063854932785034,-0.945947527885437,-0.4351535141468048,1.06128990650177,-0.7779134511947632,0.1340288519859314,-0.3620437681674957
9.083915948867798,-0.9565100073814392,-0.4335602819919586,1.0583113431930542,-0.7764487862586975,0.12824082374572754,-0.362684041261673
9.103976488113403,-0.9395389556884766,-0.43310457468032837,1.0689657926559448,-0.778708815574646,0.12806682288646698,-0.3634290397167206
9.12402057647705,-0.9328098297119141,-0.43695372343063354,1.0593053102493286,-0.7756969928741455,0.13657180964946747,-0.3629172444343567
9.144109964370728,-0.9434441328048706,-0.4358251690864563,1.0647497177124023,-0.7766767740249634,0.12930390238761902,-0.36400938034057617
9.164172410964966,-0.9433257579803467,-0.4338204264640808,1.06719970703125,-0.7771976590156555,0.1303134560585022,-0.36320674419403076
9.18426513671875,-0.9336702227592468,-0.4318605363368988,1.0682837963104248,-0.7775722742080688,0.1323183923959732,-0.3632117211818695
9.204659461975098,-0.9390020966529846,-0.435138076543808,1.0612998008728027,-0.7730162143707275,0.13223059475421906,-0.3634120523929596
9.2247474193573,-0.9294127225875854,-0.4357128441333771,1.0645601749420166,-0.7713500261306763,0.13518434762954712,-0.3636241853237152
9.244812965393066,-0.9332807064056396,-0.43797165155410767,1.0592501163482666,-0.774015486240387,0.1374625712633133,-0.3633005917072296
9.264887571334839,-0.9422895312309265,-0.4393463730812073,1.0692954063415527,-0.7686156034469604,0.13028189539909363,-0.3638622462749481
9.284942626953125,-0.9363855123519897,-0.43860191106796265,1.0653302669525146,-0.7706458568572998,0.13527308404445648,-0.3630227744579315
9.305207967758179,-0.9387431740760803,-0.4348626732826233,1.0653939247131348,-0.7743685841560364,0.13201475143432617,-0.3632854223251343
9.32522201538086,-0.9333337545394897,-0.43117380142211914,1.068241834640503,-0.7735874652862549,0.13102275133132935,-0.36334753036499023
9.345281839370728,-0.9355859756469727,-0.43724775314331055,1.0672345161437988,-0.7740583419799805,0.13367463648319244,-0.3632603585720062
9.365429639816284,-0.9202859401702881,-0.43822339177131653,1.063011884689331,-0.7716467380523682,0.13931114971637726,-0.36378592252731323
9.385447978973389,-0.9326317310333252,-0.44283148646354675,1.0535252094268799,-0.7723722457885742,0.13929559290409088,-0.36336782574653625
9.405491352081299,-0.9324637651443481,-0.4368444085121155,1.0582034587860107,-0.7733415365219116,0.1383276730775833,-0.3642747700214386
9.42556881904602,-0.9278361201286316,-0.4367528557777405,1.0607373714447021,-0.7739378213882446,0.1389658898115158,-0.36458614468574524
9.445630311965942,-0.9132854342460632,-0.4412787854671478,1.0589208602905273,-0.7687309384346008,0.14170996844768524,-0.3649490177631378
9.465693950653076,-0.9224191904067993,-0.4410015642642975,1.0631985664367676,-0.7702007293701172,0.14068621397018433,-0.3649847209453583
9.485774993896484,-0.9265384674072266,-0.43973180651664734,1.0672743320465088,-0.772939920425415,0.13741540908813477,-0.3656531274318695
9.505866765975952,-0.9205904603004456,-0.4385486841201782,1.0629839897155762,-0.7748668193817139,0.14295880496501923,-0.3647499978542328
9.525981426239014,-0.9175984263420105,-0.43768781423568726,1.0642755031585693,-0.7746901512145996,0.14029864966869354,-0.36518189311027527
9.54606294631958,-0.9174667596817017,-0.44092804193496704,1.0572007894515991,-0.7713609933853149,0.14214210212230682,-0.36560943722724915
9.56611704826355,-0.9041008949279785,-0.4377027750015259,1.0647306442260742,-0.773052990436554,0.14623910188674927,-0.3656105697154999
9.58626103401184,-0.919731080532074,-0.4413505792617798,1.0616909265518188,-0.7702367901802063,0.13963961601257324,-0.36589041352272034
9.606287479400635,-0.9193777441978455,-0.43833982944488525,1.065119981765747,-0.7719965577125549,0.1404072493314743,-0.36560893058776855
9.626392126083374,-0.9236162900924683,-0.4409889280796051,1.062570333480835,-0.7720773220062256,0.14328789710998535,-0.36530157923698425
9.646451234817505,-0.9179919362068176,-0.43999576568603516,1.071987509727478,-0.7700068950653076,0.14032414555549622,-0.3662268817424774
9.666632175445557,-0.8961180448532104,-0.43470093607902527,1.0725243091583252,-0.7682141661643982,0.1442660093307495,-0.36624082922935486
9.68669319152832,-0.8884439468383789,-0.4428478479385376,1.0530848503112793,-0.7691465616226196,0.15455429255962372,-0.365760862827301
9.706759929656982,-0.9057044982910156,-0.44354507327079773,1.0602911710739136,-0.7707281112670898,0.15059830248355865,-0.3655930459499359
9.726814985275269,-0.9092780351638794,-0.4393433928489685,1.065948724746704,-0.7676746845245361,0.1439349204301834,-0.3661557734012604
9.746923446655273,-0.9049783945083618,-0.44212183356285095,1.063477873802185,-0.7703084945678711,0.14972946047782898,-0.3658299148082733
9.766998767852783,-0.9082961082458496,-0.4459729492664337,1.055993914604187,-0.7697749137878418,0.1511206477880478,-0.36571723222732544
9.787091255187988,-0.9091288447380066,-0.44388723373413086,1.066053032875061,-0.7681152820587158,0.14469487965106964,-0.36721763014793396
9.807282209396362,-0.9057881832122803,-0.4398805499076843,1.0662137269973755,-0.7693700194358826,0.14501653611660004,-0.3673228323459625
9.827377557754517,-0.8923691511154175,-0.4348822236061096,1.0752067565917969,-0.7702772617340088,0.14433284103870392,-0.3678697943687439
9.84743046760559,-0.8930044770240784,-0.440946102142334,1.0640918016433716,-0.7689093947410583,0.15057791769504547,-0.3672352135181427
9.86771297454834,-0.8787750005722046,-0.44225433468818665,1.066057562828064,-0.7676868438720703,0.15493439137935638,-0.36760053038597107
9.887802124023438,-0.8772901296615601,-0.4421689212322235,1.0597360134124756,-0.7684285044670105,0.15860390663146973,-0.3668346107006073
9.90786337852478,-0.8998637795448303,-0.4468315541744232,1.0636730194091797,-0.7674098610877991,0.15402168035507202,-0.36668074131011963
9.927922487258911,-0.9041374325752258,-0.4440542459487915,1.0657331943511963,-0.7691597938537598,0.15147152543067932,-0.36708641052246094
9.948001623153687,-0.900223433971405,-0.44409939646720886,1.067352294921875,-0.7667518258094788,0.1504175066947937,-0.36720892786979675
9.968155145645142,-0.8773595094680786,-0.43961814045906067,1.0635420083999634,-0.7653549313545227,0.1545112282037735,-0.36738166213035583
9.988189935684204,-0.8816296458244324,-0.44453442096710205,1.0582432746887207,-0.7696034908294678,0.158012256026268,-0.36737239360809326
10.00833797454834,-0.8969986438751221,-0.44663479924201965,1.0571565628051758,-0.7694141864776611,0.1555757373571396,-0.36721208691596985
10.028501510620117,-0.8973318338394165,-0.44500502943992615,1.0622241497039795,-0.7699873447418213,0.15488897264003754,-0.3673081398010254
10.048598527908325,-0.88981032371521,-0.4414432942867279,1.0603160858154297,-0.769319474697113,0.15368759632110596,-0.3674473762512207
10.06861686706543,-0.8905264735221863,-0.4483206272125244,1.0632965564727783,-0.7660372257232666,0.15350903570652008,-0.3682994246482849
10.08872127532959,-0.8924070596694946,-0.4503841698169708,1.0544184446334839,-0.766844630241394,0.15508168935775757,-0.36804941296577454
10.108801364898682,-0.8731859922409058,-0.4452197551727295,1.0650832653045654,-0.7620108723640442,0.15886281430721283,-0.36859580874443054
10.129019021987915,-0.8820014595985413,-0.4485151767730713,1.0546374320983887,-0.7703075408935547,0.16230930387973785,-0.36727607250213623
10.148998260498047,-0.8847163319587708,-0.445976197719574,1.063875436782837,-0.7701857089996338,0.15973566472530365,-0.36796364188194275
10.169083833694458,-0.8739743232727051,-0.443631112575531,1.0675870180130005,-0.7664077877998352,0.158230260014534,-0.3685348331928253
10.189176559448242,-0.869324266910553,-0.4471585750579834,1.066511631011963,-0.7631430625915527,0.16023795306682587,-0.3682914078235626
10.20932126045227,-0.8824900388717651,-0.44934186339378357,1.0651133060455322,-0.7658654451370239,0.15812228620052338,-0.3683657646179199
10.2294282913208,-0.8803724050521851,-0.4429817199707031,1.0695438385009766,-0.7687358856201172,0.15607360005378723,-0.36870238184928894
10.249465942382812,-0.8822485208511353,-0.4472354054450989,1.0660629272460938,-0.769547700881958,0.15908484160900116,-0.3679943382740021
10.269577741622925,-0.8804983496665955,-0.4474860429763794,1.0666296482086182,-0.7652428150177002,0.1587529480457306,-0.3686515986919403
10.289638757705688,-0.8768625855445862,-0.45081189274787903,1.0578314065933228,-0.7679719924926758,0.16559118032455444,-0.36792728304862976
10.309802055358887,-0.8643785715103149,-0.4482707977294922,1.0653811693191528,-0.7640959024429321,0.16345913708209991,-0.3693062961101532
10.329859733581543,-0.8710746169090271,-0.4477330148220062,1.0721909999847412,-0.7643671035766602,0.15921981632709503,-0.3696023225784302
10.349975824356079,-0.8771694302558899,-0.4519830346107483,1.061518907546997,-0.765184760093689,0.16262389719486237,-0.3685169219970703
10.370033740997314,-0.8647493124008179,-0.44393104314804077,1.0719523429870605,-0.765394926071167,0.1613297462463379,-0.36945196986198425
10.390102863311768,-0.8719410300254822,-0.4539424777030945,1.0624048709869385,-0.7615994811058044,0.16229574382305145,-0.36963000893592834
10.410245418548584,-0.8499126434326172,-0.4519570767879486,1.0651427507400513,-0.7595822811126709,0.1701555699110031,-0.3696970045566559
10.430274486541748,-0.8537648320198059,-0.4512459933757782,1.0659701824188232,-0.7631889581680298,0.17068815231323242,-0.36976417899131775
10.450422763824463,-0.8655034303665161,-0.4496731460094452,1.062736988067627,-0.7669298648834229,0.1672147959470749,-0.36986055970191956
10.47041392326355,-0.8595307469367981,-0.44440263509750366,1.0734155178070068,-0.7682337164878845,0.1627575308084488,-0.37030163407325745
10.490516424179077,-0.867145299911499,-0.45274439454078674,1.0591132640838623,-0.7661006450653076,0.16742897033691406,-0.3690928518772125
10.51057767868042,-0.8435771465301514,-0.4492618143558502,1.0697513818740845,-0.7620479464530945,0.1699049174785614,-0.3709240257740021
10.530647277832031,-0.8360291123390198,-0.44482776522636414,1.0746382474899292,-0.7607365250587463,0.16988177597522736,-0.37061551213264465
10.550714492797852,-0.8682392239570618,-0.4519425332546234,1.0629043579101562,-0.7638735771179199,0.16650162637233734,-0.3703690469264984
10.57081413269043,-0.870124340057373,-0.4539761543273926,1.061936378479004,-0.7641241550445557,0.16765828430652618,-0.37014254927635193
10.590899229049683,-0.8674805164337158,-0.4540277421474457,1.0613816976547241,-0.7630177736282349,0.17027737200260162,-0.36982443928718567
10.610952138900757,-0.860745370388031,-0.453285813331604,1.067264199256897,-0.7588843703269958,0.16845951974391937,-0.3701762855052948
10.631107091903687,-0.8468708992004395,-0.45363178849220276,1.0611727237701416,-0.7646979093551636,0.17208437621593475,-0.3706493377685547
10.651196241378784,-0.841688334941864,-0.4535892903804779,1.0545748472213745,-0.7633454203605652,0.17544490098953247,-0.37069252133369446
10.671261072158813,-0.8543168306350708,-0.446780800819397,1.0682086944580078,-0.7663872241973877,0.16641785204410553,-0.3711142838001251
10.691326141357422,-0.8550665378570557,-0.45152193307876587,1.0667403936386108,-0.7655397653579712,0.17084090411663055,-0.3713594377040863
10.711433410644531,-0.84572434425354,-0.4546285569667816,1.0580679178237915,-0.7632303833961487,0.1765197068452835,-0.37142059206962585
10.731543064117432,-0.8447543382644653,-0.4534365236759186,1.065669059753418,-0.7618587613105774,0.17356400191783905,-0.3721083998680115
10.751618146896362,-0.8487860560417175,-0.45453721284866333,1.0611608028411865,-0.7611986994743347,0.17074240744113922,-0.37201955914497375
10.771652460098267,-0.8419966697692871,-0.45382437109947205,1.0643450021743774,-0.7638987302780151,0.1759667843580246,-0.37200871109962463
10.792080402374268,-0.8443176746368408,-0.457218736410141,1.0579735040664673,-0.7620001435279846,0.17801637947559357,-0.37173914909362793
10.812175512313843,-0.8395888805389404,-0.45569688081741333,1.0640583038330078,-0.7593545317649841,0.17739060521125793,-0.37234002351760864
10.832297086715698,-0.8332345485687256,-0.44923338294029236,1.067880392074585,-0.7620058655738831,0.17367178201675415,-0.3727782368659973
10.852318048477173,-0.8372659087181091,-0.45402467250823975,1.0696687698364258,-0.757597029209137,0.17271174490451813,-0.3727366030216217
10.872405290603638,-0.8428741693496704,-0.45636090636253357,1.0708016157150269,-0.760879635810852,0.17476394772529602,-0.37237146496772766
10.892491579055786,-0.8471799492835999,-0.4549812972545624,1.0730150938034058,-0.7629802227020264,0.17237229645252228,-0.37262162566185
10.91256046295166,-0.8490775227546692,-0.45645982027053833,1.0594635009765625,-0.7628593444824219,0.17716477811336517,-0.3720853328704834
10.932619333267212,-0.8488457202911377,-0.4587163031101227,1.0623514652252197,-0.7603205442428589,0.1760038286447525,-0.37226998805999756
10.952714920043945,-0.8387796878814697,-0.4569862186908722,1.0670788288116455,-0.7595157623291016,0.1783176064491272,-0.3724324405193329
10.972779273986816,-0.8306739926338196,-0.45992806553840637,1.0558743476867676,-0.7575104236602783,0.18244872987270355,-0.3719402849674225
10.992858409881592,-0.8380522727966309,-0.4570312201976776,1.0654845237731934,-0.7605836391448975,0.17584282159805298,-0.373453289270401
11.012915134429932,-0.823046088218689,-0.45701470971107483,1.0741076469421387,-0.7556848526000977,0.177226260304451,-0.37335601449012756
11.032994508743286,-0.8321466445922852,-0.46232667565345764,1.071136236190796,-0.7540479898452759,0.18044187128543854,-0.3722890317440033
11.053067684173584,-0.8155423402786255,-0.46112731099128723,1.0655264854431152,-0.7554309964179993,0.18612821400165558,-0.3726889193058014
11.073116064071655,-0.8208203911781311,-0.46024101972579956,1.0572634935379028,-0.7579455375671387,0.18680115044116974,-0.37283673882484436
11.09317660331726,-0.8351199626922607,-0.4590258300304413,1.0583231449127197,-0.7597476243972778,0.17883537709712982,-0.3732836842536926
11.113256216049194,-0.8337656259536743,-0.45920515060424805,1.058680772781372,-0.7622165679931641,0.1814408004283905,-0.37282809615135193
11.133370876312256,-0.8275384306907654,-0.4589141309261322,1.0614176988601685,-0.7612653970718384,0.18596379458904266,-0.3730267286300659
11.15340781211853,-0.803300142288208,-0.4543059468269348,1.0710999965667725,-0.7554605007171631,0.18415728211402893,-0.3741292357444763
11.173567533493042,-0.816710352897644,-0.45797187089920044,1.0681571960449219,-0.7609269022941589,0.18443019688129425,-0.37396639585494995
11.193726301193237,-0.8292908668518066,-0.4636674225330353,1.0565247535705566,-0.7573620080947876,0.1849115639925003,-0.3738745152950287
11.213741540908813,-0.8240834474563599,-0.4575449824333191,1.0662654638290405,-0.7599601745605469,0.18201188743114471,-0.3747948706150055
11.233790636062622,-0.8338485956192017,-0.4639583230018616,1.0520821809768677,-0.7586618661880493,0.1876963973045349,-0.3737291991710663
11.253893375396729,-0.8342053890228271,-0.46164727210998535,1.0638593435287476,-0.7555133700370789,0.1823350340127945,-0.37481603026390076
11.273963451385498,-0.8279211521148682,-0.4641868770122528,1.0627644062042236,-0.7545580863952637,0.18589039146900177,-0.3743462562561035
11.294055938720703,-0.8073728084564209,-0.45827528834342957,1.0617039203643799,-0.7561839818954468,0.18851937353610992,-0.37510213255882263
11.314114809036255,-0.8091747760772705,-0.45815128087997437,1.0682058334350586,-0.7556366324424744,0.1844506859779358,-0.37578025460243225
11.334214210510254,-0.7856580018997192,-0.45266321301460266,1.0648612976074219,-0.7612444162368774,0.19430184364318848,-0.37516555190086365
11.354263305664062,-0.8019633293151855,-0.46160468459129333,1.0615745782852173,-0.7568342089653015,0.19506512582302094,-0.37516671419143677
11.374358415603638,-0.8128121495246887,-0.4629371464252472,1.0604650974273682,-0.7571583390235901,0.18974900245666504,-0.3760140836238861
11.394554138183594,-0.8040139079093933,-0.4575069546699524,1.0734970569610596,-0.7520052194595337,0.18505455553531647,-0.37704506516456604
11.414662837982178,-0.8122050166130066,-0.46900269389152527,1.0577855110168457,-0.752556324005127,0.19275318086147308,-0.37610629200935364
11.434727191925049,-0.8106667399406433,-0.4669080078601837,1.060326337814331,-0.7524690628051758,0.1936284601688385,-0.37669607996940613
11.4547438621521,-0.8069477081298828,-0.46125784516334534,1.073578119277954,-0.7503302097320557,0.18742536008358002,-0.3776787221431732
11.474836826324463,-0.8046987056732178,-0.46891549229621887,1.0688802003860474,-0.7482752799987793,0.19324812293052673,-0.37663766741752625
11.494911670684814,-0.8100492358207703,-0.4682289659976959,1.0603842735290527,-0.7534104585647583,0.19314128160476685,-0.3770209848880768
11.515003204345703,-0.7979557514190674,-0.4579741060733795,1.068827748298645,-0.7549495697021484,0.1899193823337555,-0.3774346113204956
11.535139083862305,-0.8126314878463745,-0.4647962749004364,1.0679163932800293,-0.7575024366378784,0.18981026113033295,-0.37720364332199097
11.55516266822815,-0.8081575632095337,-0.46812552213668823,1.060847520828247,-0.754534125328064,0.19373928010463715,-0.3774659037590027
11.575310230255127,-0.7792861461639404,-0.4573109745979309,1.0766465663909912,-0.7517293691635132,0.19343626499176025,-0.3783717751502991
11.595328569412231,-0.7952900528907776,-0.4674556851387024,1.0651997327804565,-0.753082275390625,0.1942608654499054,-0.3775128126144409
11.615509271621704,-0.8016090393066406,-0.46604493260383606,1.071407675743103,-0.754149317741394,0.193964883685112,-0.37778252363204956
11.63555359840393,-0.7941157221794128,-0.4699576795101166,1.06254243850708,-0.7516164779663086,0.1988544911146164,-0.3774136006832123
11.655677080154419,-0.7940857410430908,-0.4696877896785736,1.063498616218567,-0.7494003772735596,0.19969983398914337,-0.3772936165332794
11.675687789916992,-0.8023470640182495,-0.4728160798549652,1.059840440750122,-0.750512957572937,0.1979246437549591,-0.3775789439678192
11.695716381072998,-1.4498318433761597,-0.6859692931175232,1.03851318359375,-0.8429356813430786,0.18036878108978271,-0.3969862759113312
11.715811491012573,-1.4539974927902222,-0.6851968169212341,1.0547481775283813,-0.8403750658035278,0.18545961380004883,-0.3975140452384949
11.735901832580566,-1.4551962614059448,-0.6899358034133911,1.0470809936523438,-0.8409923315048218,0.18942679464817047,-0.39698973298072815
11.755985975265503,-1.4350740909576416,-0.6880273222923279,1.0528466701507568,-0.8377924561500549,0.19379596412181854,-0.3976990282535553
11.776010751724243,-1.4556082487106323,-0.6931878328323364,1.0437726974487305,-0.8430036306381226,0.19058124721050262,-0.39738577604293823
11.796153783798218,-1.4645581245422363,-0.6915864944458008,1.0416465997695923,-0.8412203788757324,0.19066081941127777,-0.3984115421772003
11.816274404525757,-1.4696431159973145,-0.6914204359054565,1.0390429496765137,-0.8405303955078125,0.19010455906391144,-0.3984937071800232
11.836333513259888,-1.4462321996688843,-0.6920360326766968,1.038604497909546,-0.840210497379303,0.1964731216430664,-0.3982125222682953
11.85649561882019,-1.4252547025680542,-0.687586784362793,1.0527833700180054,-0.8330672383308411,0.19428324699401855,-0.39798715710639954
11.876660823822021,-1.44899320602417,-0.6924892663955688,1.0512120723724365,-0.8359878659248352,0.19223609566688538,-0.3986146152019501
11.89677882194519,-1.4411206245422363,-0.694282054901123,1.0543866157531738,-0.8321213722229004,0.19306562840938568,-0.39790236949920654
11.916800737380981,-1.4423153400421143,-0.6970930099487305,1.0499829053878784,-0.8368871212005615,0.1943061649799347,-0.39796212315559387
11.936895847320557,-1.435180902481079,-0.6929759979248047,1.0479514598846436,-0.8393820524215698,0.19935296475887299,-0.3982723355293274
11.956962585449219,-1.4494227170944214,-0.6951074600219727,1.043799877166748,-0.8378384113311768,0.19517840445041656,-0.39891499280929565
11.97709584236145,-1.435417652130127,-0.6916266679763794,1.042596697807312,-0.8379335403442383,0.1983433961868286,-0.3988734781742096
11.997148990631104,-1.437631607055664,-0.6943885087966919,1.0419291257858276,-0.8396948575973511,0.19983647763729095,-0.3986751139163971
12.017231464385986,-1.4351191520690918,-0.694399356842041,1.0495731830596924,-0.8354425430297852,0.19766245782375336,-0.39926040172576904
12.037266969680786,-1.4364169836044312,-0.6962602138519287,1.0512213706970215,-0.8375600576400757,0.19968728721141815,-0.39930102229118347
12.057313680648804,-1.4271762371063232,-0.6964002847671509,1.058687686920166,-0.8346168994903564,0.1972920447587967,-0.3984796702861786
12.077381610870361,-1.4356653690338135,-0.6967231035232544,1.0496355295181274,-0.8352265954017639,0.19850800931453705,-0.39903971552848816
12.097509860992432,-1.4174513816833496,-0.6963357925415039,1.0419477224349976,-0.8359761238098145,0.2075233906507492,-0.3982413113117218
12.117574214935303,-1.426710844039917,-0.6941118240356445,1.0548734664916992,-0.834539532661438,0.20073099434375763,-0.3991641104221344
12.137638330459595,-1.4320461750030518,-0.697869062423706,1.0431153774261475,-0.838942289352417,0.2017136663198471,-0.3991294503211975
12.157801389694214,-1.4242315292358398,-0.6975911855697632,1.0529015064239502,-0.8349674940109253,0.2007877379655838,-0.39983779191970825
12.177863836288452,-1.42178213596344,-0.6975164413452148,1.052284836769104,-0.8357202410697937,0.20253805816173553,-0.3998957574367523
12.198024034500122,-1.4180903434753418,-0.6971076726913452,1.0599584579467773,-0.8324739336967468,0.19868747889995575,-0.39965561032295227
12.218051671981812,-1.3925483226776123,-0.6936376094818115,1.0656938552856445,-0.8302719593048096,0.20465624332427979,-0.39910927414894104
12.238218545913696,-1.4208030700683594,-0.7022874355316162,1.049191951751709,-0.8369545936584473,0.20334868133068085,-0.39955076575279236
12.258316278457642,-1.4232436418533325,-0.6991716623306274,1.045872688293457,-0.835934042930603,0.20371241867542267,-0.40091341733932495
12.278436660766602,-1.4227122068405151,-0.6971997022628784,1.0508131980895996,-0.8349558115005493,0.20340342819690704,-0.4009348750114441
12.298548221588135,-1.4126800298690796,-0.6966089010238647,1.0531067848205566,-0.8340723514556885,0.20728184282779694,-0.4007992744445801
12.31860613822937,-1.4017035961151123,-0.7003113031387329,1.050241231918335,-0.8326736688613892,0.2125171422958374,-0.401174932718277
12.338775396347046,-1.4111558198928833,-0.6985659599304199,1.0544748306274414,-0.8318585157394409,0.20507033169269562,-0.40214288234710693
12.358850955963135,-1.3962937593460083,-0.6953128576278687,1.0656596422195435,-0.8318893909454346,0.20673207938671112,-0.40161004662513733
12.379050016403198,-1.3958194255828857,-0.7004636526107788,1.0474109649658203,-0.8344134092330933,0.2134973257780075,-0.40128692984580994
12.399045705795288,-1.3979713916778564,-0.7020705938339233,1.051478624343872,-0.8307051658630371,0.21138353645801544,-0.40144458413124084
12.419137001037598,-1.3956307172775269,-0.7034022808074951,1.0516892671585083,-0.8290202021598816,0.21396182477474213,-0.40153685212135315
12.439197063446045,-1.387601613998413,-0.7041094303131104,1.0471720695495605,-0.8283200860023499,0.2191072553396225,-0.4012642800807953
12.45954966545105,-1.3701109886169434,-0.6972328424453735,1.0663831233978271,-0.8278537392616272,0.2158188372850418,-0.40162089467048645
12.47972559928894,-1.3997892141342163,-0.7060552835464478,1.053356647491455,-0.831974983215332,0.2099025398492813,-0.40166279673576355
12.499730825424194,-1.3930866718292236,-0.7006264925003052,1.0567175149917603,-0.8320600986480713,0.21282704174518585,-0.40214183926582336
12.519755601882935,-1.3880674839019775,-0.7043020725250244,1.0550364255905151,-0.831501305103302,0.2171298712491989,-0.4023970663547516
12.53996205329895,-1.3748764991760254,-0.7056095600128174,1.0529781579971313,-0.8273314237594604,0.22145633399486542,-0.4016948342323303
12.559980392456055,-1.3836288452148438,-0.7046635150909424,1.055241346359253,-0.8296876549720764,0.21998511254787445,-0.4022813141345978
12.580112218856812,-1.3820172548294067,-0.7024949789047241,1.055063009262085,-0.830134391784668,0.21768958866596222,-0.4021053612232208
12.600097179412842,-1.3830528259277344,-0.703479528427124,1.0587117671966553,-0.826682448387146,0.21331308782100677,-0.40247640013694763
12.620264291763306,-1.3582676649093628,-0.7067408561706543,1.0507996082305908,-0.8259975910186768,0.22837485373020172,-0.40125101804733276
12.640280485153198,-1.372971534729004,-0.7060080766677856,1.0543618202209473,-0.8286618590354919,0.22593553364276886,-0.4025404453277588
12.660388708114624,-1.3782172203063965,-0.7072981595993042,1.052779197692871,-0.8299443125724792,0.22338439524173737,-0.4030552804470062
12.680419921875,-1.3864750862121582,-0.7068336009979248,1.046630620956421,-0.8296831846237183,0.22055791318416595,-0.40369537472724915
12.70050859451294,-1.3853659629821777,-0.7044824361801147,1.0537831783294678,-0.8309659957885742,0.22078149020671844,-0.40416666865348816
12.720568180084229,-1.39170503616333,-0.7079591751098633,1.0436968803405762,-0.8305908441543579,0.22102592885494232,-0.4037666618824005
12.740632057189941,-1.3706469535827637,-0.7076117992401123,1.0499217510223389,-0.8317826390266418,0.22612808644771576,-0.4043900668621063
12.760677099227905,-1.342294454574585,-0.7049325704574585,1.0529917478561401,-0.8285094499588013,0.23298437893390656,-0.40375232696533203
12.780824422836304,-1.3702400922775269,-0.708249568939209,1.0560222864151,-0.8289373517036438,0.21909154951572418,-0.40457096695899963
12.801026344299316,-1.368100643157959,-0.7103695869445801,1.0501116514205933,-0.826149582862854,0.22112594544887543,-0.40487533807754517
12.821022987365723,-1.364356517791748,-0.7133769989013672,1.0524089336395264,-0.8303300142288208,0.2277657836675644,-0.40452128648757935
12.841103076934814,-1.3622355461120605,-0.7092376947402954,1.0520439147949219,-0.8306043148040771,0.23121751844882965,-0.4051482081413269
12.861161470413208,-1.3562930822372437,-0.7088184356689453,1.0521526336669922,-0.8284465074539185,0.2299738973379135,-0.4053429663181305
12.881221055984497,-1.3406198024749756,-0.7072356939315796,1.0673773288726807,-0.8219186067581177,0.22848577797412872,-0.40512213110923767
12.9013032913208,-1.3667399883270264,-0.7118008136749268,1.0543594360351562,-0.826246440410614,0.22931285202503204,-0.4050474464893341
12.921374082565308,-1.368007779121399,-0.7090996503829956,1.0620319843292236,-0.8260488510131836,0.22536902129650116,-0.405904084444046
12.941437244415283,-1.356123685836792,-0.7133407592773438,1.0575807094573975,-0.8278528451919556,0.2309579700231552,-0.4050954580307007
12.961677312850952,-1.3301180601119995,-0.7132571935653687,1.057119607925415,-0.8216562867164612,0.23841477930545807,-0.4047420918941498
12.981805801391602,-1.3395968675613403,-0.7124489545822144,1.0587750673294067,-0.8239880204200745,0.2377057522535324,-0.4052453935146332
13.00187063217163,-1.3333088159561157,-0.7094922065734863,1.068220615386963,-0.8216105699539185,0.23271004855632782,-0.40514588356018066
13.021931409835815,-1.337958812713623,-0.7103093862533569,1.062977910041809,-0.8229026794433594,0.23265622556209564,-0.40545764565467834
13.041987419128418,-1.324625849723816,-0.7102830410003662,1.0640885829925537,-0.8223864436149597,0.23712964355945587,-0.4046967625617981
13.062079906463623,-1.3513076305389404,-0.7139581441879272,1.0565022230148315,-0.8253405690193176,0.23517261445522308,-0.40624991059303284
13.082160949707031,-1.3229976892471313,-0.7142179012298584,1.0630841255187988,-0.8211401104927063,0.24045558273792267,-0.40577587485313416
13.10221815109253,-1.3139244318008423,-0.7121773958206177,1.0628266334533691,-0.8182964324951172,0.242038294672966,-0.40497925877571106
13.122350692749023,-1.3459728956222534,-0.7179901599884033,1.0547714233398438,-0.8223966360092163,0.23310159146785736,-0.40576156973838806
13.142457962036133,-1.3125555515289307,-0.7095556259155273,1.074650526046753,-0.8195813894271851,0.23801828920841217,-0.40590065717697144
13.16252326965332,-1.3039859533309937,-0.7140300273895264,1.061988115310669,-0.8198233842849731,0.24729715287685394,-0.4058525264263153
13.182695627212524,-1.3374477624893188,-0.7184628248214722,1.0612447261810303,-0.8211096525192261,0.23390351235866547,-0.40647944808006287
13.202802658081055,-1.338893175125122,-0.7235903739929199,1.054192304611206,-0.818027675151825,0.23610027134418488,-0.40595749020576477
13.222770690917969,-1.3250352144241333,-0.7193635702133179,1.0622501373291016,-0.821643590927124,0.24280790984630585,-0.406878799200058
13.242828130722046,-1.325775384902954,-0.716270923614502,1.0643277168273926,-0.820976734161377,0.24055655300617218,-0.4069039523601532
13.262911796569824,-1.308203101158142,-0.7182121276855469,1.0644714832305908,-0.8187565207481384,0.2462831288576126,-0.4066905677318573
13.282990455627441,-1.3094942569732666,-0.7177499532699585,1.0656018257141113,-0.8181238174438477,0.2462424486875534,-0.407116174697876
13.303067445755005,-1.3284704685211182,-0.7200877666473389,1.0613889694213867,-0.8191961050033569,0.24203242361545563,-0.4073322117328644
13.323126077651978,-1.3319895267486572,-0.720218300819397,1.055312156677246,-0.82280033826828,0.2444949597120285,-0.4082598090171814
13.343196153640747,-1.3118476867675781,-0.7191164493560791,1.0641086101531982,-0.8201255798339844,0.2466636449098587,-0.40849465131759644
13.363340139389038,-1.3223297595977783,-0.7251459360122681,1.0548441410064697,-0.8194069266319275,0.2433791309595108,-0.4081454575061798
13.38339638710022,-1.3134005069732666,-0.7211068868637085,1.0657353401184082,-0.8179666996002197,0.2437942773103714,-0.4087093770503998
13.40347671508789,-1.2955909967422485,-0.7229869365692139,1.0491666793823242,-0.8195669651031494,0.25819113850593567,-0.40803760290145874
13.423541069030762,-1.3035154342651367,-0.7211660146713257,1.0641765594482422,-0.8168991208076477,0.251789391040802,-0.4092564284801483
13.443631410598755,-1.3174266815185547,-0.7274703979492188,1.0529263019561768,-0.8183618783950806,0.2500297725200653,-0.4080616533756256
13.463697910308838,-1.3248960971832275,-0.7248038053512573,1.0582574605941772,-0.8177821636199951,0.24745367467403412,-0.40936049818992615
13.483743906021118,-1.3110780715942383,-0.7257797718048096,1.0621683597564697,-0.8141268491744995,0.24739034473896027,-0.40915825963020325
13.50382137298584,-1.286211371421814,-0.7221170663833618,1.0679348707199097,-0.8126543164253235,0.25440359115600586,-0.4085221290588379
13.523954629898071,-1.3185527324676514,-0.7236462831497192,1.0605031251907349,-0.8199917078018188,0.24941261112689972,-0.41002658009529114
13.54402780532837,-1.2932765483856201,-0.7236793041229248,1.064220905303955,-0.8200559020042419,0.25686100125312805,-0.40904638171195984
13.564162969589233,-1.287928819656372,-0.7236758470535278,1.066405177116394,-0.8177804946899414,0.25603610277175903,-0.409810334444046
13.584247589111328,-1.2721195220947266,-0.7254378795623779,1.063213586807251,-0.813977837562561,0.2621202766895294,-0.40957286953926086
13.604283571243286,-1.2769931554794312,-0.7218575477600098,1.07333242893219,-0.8103164434432983,0.25512176752090454,-0.41046151518821716
13.624377489089966,-1.2794307470321655,-0.7249898910522461,1.0642969608306885,-0.8119722604751587,0.259342223405838,-0.41047483682632446
13.644449472427368,-1.2930275201797485,-0.7276685237884521,1.0641529560089111,-0.8150163888931274,0.25551778078079224,-0.41108936071395874
13.664619445800781,-1.2897584438323975,-0.7315695285797119,1.066022276878357,-0.8133456707000732,0.2559574246406555,-0.4103643298149109
13.684657096862793,-1.3034214973449707,-0.7314016819000244,1.0560262203216553,-0.8092823028564453,0.2534809410572052,-0.41095417737960815
13.704718351364136,-1.28354811668396,-0.7259162664413452,1.071568489074707,-0.8159730434417725,0.256723552942276,-0.41165152192115784
13.724825620651245,-1.2860126495361328,-0.7275705337524414,1.0665760040283203,-0.8146932125091553,0.2588084042072296,-0.41076239943504333
13.744993925094604,-1.2921491861343384,-0.7279183864593506,1.0681804418563843,-0.8157063722610474,0.2570376694202423,-0.4117337167263031
13.765011310577393,-1.269234299659729,-0.7278107404708862,1.0731956958770752,-0.8093396425247192,0.2611192762851715,-0.4108782410621643
13.785154104232788,-1.2640485763549805,-0.7304015159606934,1.067699670791626,-0.8077861070632935,0.2637215554714203,-0.41120460629463196
13.805304527282715,-1.2733383178710938,-0.7297995090484619,1.06852126121521,-0.8114426732063293,0.2596037983894348,-0.4113873541355133
13.825448989868164,-1.2753989696502686,-0.735816478729248,1.0645575523376465,-0.8128489851951599,0.2624758183956146,-0.4108491837978363
13.845471620559692,-1.2611215114593506,-0.730994462966919,1.0749661922454834,-0.8081448078155518,0.26168325543403625,-0.4114392399787903
13.865545272827148,-1.2457711696624756,-0.7348325252532959,1.058436632156372,-0.8058420419692993,0.27501508593559265,-0.4101769030094147
13.885597467422485,-1.2542697191238403,-0.73288893699646,1.0699917078018188,-0.8098755478858948,0.27087491750717163,-0.41127467155456543
13.905667066574097,-1.274372935295105,-0.7333489656448364,1.06228768825531,-0.8144291043281555,0.26832321286201477,-0.4125142991542816
13.925802230834961,-1.2709335088729858,-0.7316206693649292,1.0710399150848389,-0.8120999932289124,0.26589831709861755,-0.4127662777900696
13.945931434631348,-1.2459540367126465,-0.7319449186325073,1.0716898441314697,-0.8083407282829285,0.2720392048358917,-0.4114495813846588
13.966052293777466,-1.234855055809021,-0.7310757637023926,1.0776513814926147,-0.8056215047836304,0.2724759876728058,-0.41200849413871765
13.98616361618042,-1.247670292854309,-0.7371892929077148,1.0611815452575684,-0.8102262020111084,0.27695736289024353,-0.4118012487888336
14.006155490875244,-1.2503421306610107,-0.7355571985244751,1.0620867013931274,-0.8106459975242615,0.2744462788105011,-0.41300350427627563
14.026327133178711,-1.2332940101623535,-0.735633373260498,1.0628936290740967,-0.8064650893211365,0.27982598543167114,-0.41247764229774475
14.046371459960938,-1.2227351665496826,-0.7336925268173218,1.071449875831604,-0.803382158279419,0.2783854305744171,-0.4122542440891266
14.066558837890625,-1.231522798538208,-0.7337865829467773,1.0744297504425049,-0.8053920865058899,0.2784154713153839,-0.413034588098526
14.086688995361328,-1.2551456689834595,-0.7387264966964722,1.0702145099639893,-0.8054473996162415,0.267923504114151,-0.4132869243621826
14.106831073760986,-1.2526569366455078,-0.7391258478164673,1.074365496635437,-0.8037978410720825,0.2688480615615845,-0.41365310549736023
14.126965761184692,-1.2544103860855103,-0.7427353858947754,1.058656930923462,-0.8057237863540649,0.27743273973464966,-0.4118622839450836
14.14707899093628,-1.2182197570800781,-0.7296547889709473,1.0894992351531982,-0.80291748046875,0.2747953534126282,-0.4132010042667389
14.167242527008057,-1.2009050846099854,-0.7329821586608887,1.0912292003631592,-0.7985899448394775,0.27770981192588806,-0.41398313641548157
14.187255144119263,-1.2442851066589355,-0.7408255338668823,1.0650842189788818,-0.807056188583374,0.27976542711257935,-0.414768785238266
14.207442045211792,-1.2441109418869019,-0.7407971620559692,1.065467119216919,-0.8062978386878967,0.2792942225933075,-0.41525766253471375
14.227549314498901,-1.216200590133667,-0.7394580841064453,1.075082778930664,-0.8016163110733032,0.2837739586830139,-0.41471314430236816
14.247610807418823,-1.2047128677368164,-0.742279052734375,1.0732710361480713,-0.8034839630126953,0.2903057336807251,-0.41398385167121887
14.267630100250244,-1.193115234375,-0.738155722618103,1.0864322185516357,-0.797857403755188,0.28754910826683044,-0.41422152519226074
14.287755250930786,-1.236036777496338,-0.7465542554855347,1.0590128898620605,-0.8082330226898193,0.28316086530685425,-0.4149048328399658
14.30786943435669,-1.2174513339996338,-0.7425186634063721,1.0731520652770996,-0.7985913753509521,0.28207218647003174,-0.41476890444755554
14.32790732383728,-1.2160500288009644,-0.7437251806259155,1.0653765201568604,-0.8036168813705444,0.2879224717617035,-0.4152333438396454
14.348002195358276,-1.2098714113235474,-0.7418738603591919,1.0722434520721436,-0.80257648229599,0.2870346009731293,-0.4159230887889862
14.368158102035522,-1.2015430927276611,-0.745760440826416,1.079288125038147,-0.7997426390647888,0.28975844383239746,-0.415779173374176
14.388165950775146,-1.2192356586456299,-0.7431151866912842,1.075805902481079,-0.8026939034461975,0.28733915090560913,-0.4173436462879181
14.408320665359497,-1.210560917854309,-0.7457658052444458,1.0779075622558594,-0.8026872873306274,0.28762295842170715,-0.41672250628471375
14.428414583206177,-1.1913992166519165,-0.745132327079773,1.0609805583953857,-0.8029325008392334,0.3011954724788666,-0.41664111614227295
14.448465347290039,-1.1687425374984741,-0.7440314292907715,1.0779496431350708,-0.7965915203094482,0.3011387288570404,-0.41668635606765747
14.468590259552002,-1.196739673614502,-0.7452042102813721,1.0769665241241455,-0.7981396317481995,0.29359981417655945,-0.4177008271217346
14.488651275634766,-1.2158957719802856,-0.746369481086731,1.0688899755477905,-0.8019230961799622,0.2899802029132843,-0.41811951994895935
