liuyurong129/humanoid-gym/humanoid/data/target_q_20250522-225321.csv
timestamp,joint_1,joint_2,joint_3,joint_4,joint_5,joint_6
8.177757263183594e-05,0.0,0.0,0.0,0.0,0.0,0.0
0.020151138305664062,0.0,0.0,0.0,0.0,0.0,0.0
0.04024457931518555,0.0,0.0,0.0,0.0,0.0,0.0
0.06029367446899414,2.09,-0.15920665860176086,2.2844862937927246,-2.6284146308898926,0.7742403745651245,-0.9262531399726868
0.08037805557250977,2.09,-0.1804850548505783,2.447007417678833,-2.3240504264831543,0.5430698990821838,-0.8066850900650024
0.10046505928039551,2.09,-0.22621369361877441,2.477769374847412,-2.295168876647949,0.6163421869277954,-0.8163018822669983
0.12052536010742188,2.09,-0.24472403526306152,2.4262237548828125,-2.285457134246826,0.6535727977752686,-0.8447579741477966
0.14056968688964844,2.09,-0.24368642270565033,2.4228811264038086,-2.2895243167877197,0.6451470851898193,-0.835442841053009
0.16065549850463867,2.09,-0.24623988568782806,2.4234232902526855,-2.2888505458831787,0.6420080065727234,-0.8319418430328369
0.18071484565734863,2.09,-0.24304743111133575,2.444033145904541,-2.289595603942871,0.6221762895584106,-0.8231218457221985
0.20077037811279297,2.09,-0.23763692378997803,2.4380457401275635,-2.2944211959838867,0.6016432642936707,-0.8160150647163391
0.2208843231201172,2.09,-0.24251067638397217,2.4259631633758545,-2.294013261795044,0.6130721569061279,-0.8190777897834778
0.24105310440063477,2.09,-0.24223968386650085,2.431535243988037,-2.29465913772583,0.6143074035644531,-0.8236332535743713
0.26117682456970215,2.09,-0.249444842338562,2.407085657119751,-2.2949166297912598,0.6242408752441406,-0.8251267075538635
0.2812361717224121,2.09,-0.25191158056259155,2.392749071121216,-2.2922310829162598,0.6225028038024902,-0.8289679884910583
0.3012871742248535,2.09,-0.24858421087265015,2.4179468154907227,-2.2958128452301025,0.612514853477478,-0.8230551481246948
0.3213624954223633,2.09,-0.24882732331752777,2.423034906387329,-2.2957959175109863,0.6071295738220215,-0.8154653906822205
0.34142231941223145,2.09,-0.2511185109615326,2.415194034576416,-2.2949509620666504,0.6066597700119019,-0.8149307370185852
0.3623042106628418,2.09,-0.2532997131347656,2.3980255126953125,-2.297229051589966,0.6076535582542419,-0.8192340731620789
0.38239026069641113,2.09,-0.25483042001724243,2.3935272693634033,-2.296764373779297,0.6057835221290588,-0.8190658092498779
0.40245532989501953,2.09,-0.25784528255462646,2.374701738357544,-2.293476104736328,0.6090887188911438,-0.8225528597831726
0.422515869140625,2.09,-0.253831148147583,2.385732650756836,-2.300684928894043,0.5894535779953003,-0.8090600967407227
0.4425976276397705,2.09,-0.2575591206550598,2.383481502532959,-2.2994022369384766,0.6021121144294739,-0.8154110312461853
0.46274423599243164,2.09,-0.26095736026763916,2.3764073848724365,-2.2999982833862305,0.6031485199928284,-0.817383348941803
0.4828603267669678,2.09,-0.2631543278694153,2.373213291168213,-2.299022912979126,0.5989392399787903,-0.8136143088340759
0.5028748512268066,2.09,-0.26415637135505676,2.36386775970459,-2.3009939193725586,0.6042925715446472,-0.8229303359985352
0.5230422019958496,2.09,-0.2666415572166443,2.3542323112487793,-2.296940326690674,0.6032166481018066,-0.8196442723274231
0.5430569648742676,2.09,-0.2679564952850342,2.341540813446045,-2.2972044944763184,0.5960140228271484,-0.8148107528686523
0.5630989074707031,2.09,-0.2711218297481537,2.3381361961364746,-2.2998437881469727,0.6018252968788147,-0.8115336298942566
0.5831527709960938,2.09,-0.2691952586174011,2.3559088706970215,-2.2988548278808594,0.5927758812904358,-0.8074400424957275
0.6032366752624512,2.09,-0.2688641846179962,2.3417091369628906,-2.300647735595703,0.5798957347869873,-0.8046260476112366
0.623497724533081,2.09,-0.271359384059906,2.346210479736328,-2.3028464317321777,0.5860830545425415,-0.8076860904693604
0.6435842514038086,2.09,-0.2761480510234833,2.3268136978149414,-2.2990522384643555,0.5940999984741211,-0.8099051713943481
0.6636741161346436,2.09,-0.27335405349731445,2.3327858448028564,-2.3009748458862305,0.5805925130844116,-0.811122715473175
0.683753252029419,2.09,-0.27599775791168213,2.332350492477417,-2.3011374473571777,0.5832458138465881,-0.8041722178459167
0.7038984298706055,2.09,-0.2803076505661011,2.3187127113342285,-2.300316333770752,0.5892410278320312,-0.8043007850646973
0.7238967418670654,2.09,-0.27603772282600403,2.3242483139038086,-2.303032398223877,0.5687397718429565,-0.7965803146362305
0.7440071105957031,2.09,-0.2778778076171875,2.326098680496216,-2.3035888671875,0.5746549367904663,-0.7972481846809387
0.7640566825866699,2.09,-0.280525267124176,2.305544853210449,-2.304028272628784,0.5746464729309082,-0.8043394088745117
0.7841277122497559,2.09,-0.280814528465271,2.2999844551086426,-2.3041796684265137,0.5724985599517822,-0.8035240173339844
0.80430006980896,2.09,-0.28133147954940796,2.3092308044433594,-2.3052945137023926,0.5705403089523315,-0.8002005815505981
0.8243656158447266,2.09,-0.2871685028076172,2.2876741886138916,-2.3030238151550293,0.5709705948829651,-0.7990427613258362
0.8443853855133057,2.09,-0.2858695685863495,2.296431541442871,-2.3068976402282715,0.5667784810066223,-0.7943218946456909
0.8646037578582764,2.09,-0.28975939750671387,2.2796125411987305,-2.3056445121765137,0.5693243741989136,-0.7960765957832336
0.8847427368164062,2.09,-0.2880215048789978,2.2915093898773193,-2.3081889152526855,0.5617244839668274,-0.7943832278251648
0.9049160480499268,2.09,-0.28596556186676025,2.289252996444702,-2.3090391159057617,0.5579854846000671,-0.7915077209472656
0.9248790740966797,2.09,-0.2893920838832855,2.2971627712249756,-2.3065803050994873,0.5592074990272522,-0.7902275919914246
0.9450137615203857,2.09,-0.2942659854888916,2.2597603797912598,-2.3021345138549805,0.5677387118339539,-0.7997458577156067
0.9650702476501465,2.088515520095825,-0.29362258315086365,2.270411729812622,-2.3070080280303955,0.5576391220092773,-0.7914363741874695
0.9852702617645264,2.070845127105713,-0.2976319193840027,2.2516212463378906,-2.3069519996643066,0.5536829233169556,-0.7903574109077454
1.0053138732910156,2.0803592205047607,-0.3000926971435547,2.2489917278289795,-2.3075361251831055,0.5645055770874023,-0.7942439317703247
1.0253980159759521,2.0880165100097656,-0.2976152300834656,2.2739548683166504,-2.308994770050049,0.5563499927520752,-0.7904698848724365
1.045567274093628,2.071093797683716,-0.2993617653846741,2.257699489593506,-2.3069636821746826,0.550813615322113,-0.7892149686813354
1.0656495094299316,2.0550789833068848,-0.29446399211883545,2.2606115341186523,-2.310730218887329,0.5310215950012207,-0.7824477553367615
1.0858352184295654,2.0682525634765625,-0.2921607494354248,2.266467332839966,-2.3140082359313965,0.530877947807312,-0.7739263772964478
1.1058909893035889,2.0725228786468506,-0.30159109830856323,2.258639097213745,-2.309694528579712,0.5473684072494507,-0.7827031016349792
1.1259140968322754,2.047630786895752,-0.30293574929237366,2.2329888343811035,-2.3105742931365967,0.5392496585845947,-0.783816397190094
1.1459782123565674,2.059845209121704,-0.30255866050720215,2.247742176055908,-2.313642740249634,0.5394574999809265,-0.7790384888648987
1.1660494804382324,2.0623133182525635,-0.30496060848236084,2.244762420654297,-2.310079336166382,0.545971691608429,-0.7834850549697876
1.186121940612793,2.052492141723633,-0.30452436208724976,2.242239475250244,-2.3113412857055664,0.5361000299453735,-0.7794753313064575
1.206223726272583,2.0433003902435303,-0.30665168166160583,2.2240078449249268,-2.3099923133850098,0.538082480430603,-0.7817264199256897
1.2262675762176514,2.033489465713501,-0.30223777890205383,2.23052978515625,-2.313110828399658,0.5208693742752075,-0.7765824794769287
1.2464485168457031,2.0423226356506348,-0.30358123779296875,2.230743169784546,-2.3131020069122314,0.529748260974884,-0.7769721150398254
1.2666571140289307,2.0460691452026367,-0.3087131977081299,2.230445146560669,-2.3129467964172363,0.5342087745666504,-0.7760065197944641
1.2867391109466553,2.0345382690429688,-0.3092944920063019,2.221864700317383,-2.31376576423645,0.5285656452178955,-0.7784083485603333
1.3068156242370605,2.036065101623535,-0.3123141825199127,2.219106674194336,-2.312734603881836,0.5327407121658325,-0.776360034942627
1.326857328414917,2.0219569206237793,-0.31257614493370056,2.210911989212036,-2.311685562133789,0.5249695777893066,-0.7758586406707764
1.3470332622528076,2.0130622386932373,-0.3146136999130249,2.19702410697937,-2.313601493835449,0.5241307020187378,-0.7760136723518372
1.3670105934143066,2.0210890769958496,-0.3139179050922394,2.213095188140869,-2.316190481185913,0.5195599794387817,-0.7713906168937683
1.387589454650879,2.0050621032714844,-0.31599828600883484,2.193899154663086,-2.3106143474578857,0.5180696249008179,-0.774934709072113
1.407759666442871,2.007420063018799,-0.3159008026123047,2.1964807510375977,-2.315615653991699,0.5155060291290283,-0.770682156085968
1.4277839660644531,2.0122053623199463,-0.31611257791519165,2.2014577388763428,-2.3166656494140625,0.5150947570800781,-0.7659591436386108
1.447880506515503,2.0120620727539062,-0.31949564814567566,2.1967461109161377,-2.3143067359924316,0.5196647644042969,-0.7685036659240723
1.4680140018463135,2.000784397125244,-0.31964635848999023,2.189598798751831,-2.315032482147217,0.512171745300293,-0.7665583491325378
1.4880280494689941,2.000413417816162,-0.3244401216506958,2.165756940841675,-2.3137450218200684,0.5254145264625549,-0.7742230296134949
1.508147954940796,1.9895620346069336,-0.320698618888855,2.1852495670318604,-2.3141674995422363,0.5059849619865417,-0.7685312032699585
1.5281484127044678,1.986171841621399,-0.3248259127140045,2.168557643890381,-2.3142662048339844,0.5109299421310425,-0.766211986541748
1.5482375621795654,1.9922665357589722,-0.32221367955207825,2.183300495147705,-2.3176450729370117,0.5057750344276428,-0.7626092433929443
1.5683043003082275,1.9951218366622925,-0.322650671005249,2.1825780868530273,-2.317150115966797,0.5047897100448608,-0.7592934966087341
1.5884544849395752,1.982224464416504,-0.32430213689804077,2.18009877204895,-2.3176724910736084,0.49639248847961426,-0.7582842707633972
1.608544111251831,1.9644241333007812,-0.3251684010028839,2.1583199501037598,-2.3178796768188477,0.49237221479415894,-0.7617364525794983
1.6286299228668213,1.9786958694458008,-0.32741111516952515,2.160569429397583,-2.3186702728271484,0.5045007467269897,-0.7631081342697144
1.6487712860107422,1.9789109230041504,-0.3282451629638672,2.163300037384033,-2.316023349761963,0.5020127296447754,-0.7625613212585449
1.668792486190796,1.957880973815918,-0.3267097771167755,2.155184030532837,-2.3165884017944336,0.4862942397594452,-0.7604743838310242
1.6888682842254639,1.9678562879562378,-0.33103370666503906,2.148616313934326,-2.3205463886260986,0.49183300137519836,-0.7524592280387878
1.7089283466339111,1.9706778526306152,-0.32955896854400635,2.1584341526031494,-2.320737838745117,0.4895491898059845,-0.7518832683563232
1.7289931774139404,1.964738130569458,-0.32842355966567993,2.159027099609375,-2.321859359741211,0.48036763072013855,-0.7458548545837402
1.7491631507873535,1.9551697969436646,-0.3318234980106354,2.148716688156128,-2.3198440074920654,0.4815521836280823,-0.7523424625396729
1.7692859172821045,1.9517415761947632,-0.3331623673439026,2.135158061981201,-2.318157434463501,0.4853495657444,-0.7545719146728516
1.7893776893615723,1.9557952880859375,-0.3335553705692291,2.1415016651153564,-2.3195478916168213,0.48446694016456604,-0.7512579560279846
1.8094696998596191,1.950587511062622,-0.3363480865955353,2.1270864009857178,-2.319424629211426,0.4842762351036072,-0.7488946914672852
1.8296372890472412,1.9454394578933716,-0.33799299597740173,2.1227991580963135,-2.320241928100586,0.48355427384376526,-0.7503756880760193
1.8497130870819092,1.9413821697235107,-0.33998990058898926,2.1240627765655518,-2.320204734802246,0.47989314794540405,-0.7476791143417358
1.869805097579956,1.937888503074646,-0.3390893340110779,2.1303486824035645,-2.320584774017334,0.47420820593833923,-0.7454022765159607
1.8898141384124756,1.9283430576324463,-0.3389124572277069,2.124873638153076,-2.320822238922119,0.46857744455337524,-0.7462201714515686
1.9098854064941406,1.9296963214874268,-0.3412896394729614,2.1187002658843994,-2.322117328643799,0.4721086621284485,-0.7472599148750305
1.9299354553222656,1.9249624013900757,-0.3445066213607788,2.1041767597198486,-2.32010555267334,0.4759591519832611,-0.7496256828308105
1.9501135349273682,1.9216609001159668,-0.3419961631298065,2.120434284210205,-2.3224120140075684,0.4648626744747162,-0.7460862398147583
1.9701409339904785,1.9190382957458496,-0.34354639053344727,2.1051275730133057,-2.3211092948913574,0.4687570631504059,-0.7474011778831482
1.9902479648590088,1.9260309934616089,-0.3400471806526184,2.1162519454956055,-2.323411703109741,0.46209579706192017,-0.7380838990211487
2.0102992057800293,1.9241316318511963,-0.345906138420105,2.110433340072632,-2.322313070297241,0.4675908386707306,-0.7411482930183411
2.030372381210327,1.9243683815002441,-0.34709465503692627,2.114330768585205,-2.321002721786499,0.46843376755714417,-0.7410123348236084
2.05043625831604,1.9139074087142944,-0.34966254234313965,2.092233180999756,-2.321255683898926,0.4697722792625427,-0.7441098093986511
2.070549726486206,1.917055606842041,-0.34654685854911804,2.1111576557159424,-2.3222694396972656,0.4616999924182892,-0.7391049265861511
2.0905535221099854,1.9048501253128052,-0.3495916724205017,2.0927975177764893,-2.320317506790161,0.4605056047439575,-0.7412410974502563
2.1106820106506348,1.8995203971862793,-0.3456234037876129,2.0991923809051514,-2.321647882461548,0.4496045708656311,-0.7385050654411316
2.1307380199432373,1.9021199941635132,-0.3492910861968994,2.090857744216919,-2.3224329948425293,0.4543490409851074,-0.7364320158958435
2.1508116722106934,1.9041852951049805,-0.3519222140312195,2.087170362472534,-2.3231043815612793,0.45747435092926025,-0.7370195984840393
2.1708648204803467,1.9068603515625,-0.3520923852920532,2.0949740409851074,-2.3229613304138184,0.4569059908390045,-0.7353730797767639
2.1909284591674805,1.8904826641082764,-0.3533782362937927,2.0810203552246094,-2.3232526779174805,0.44968557357788086,-0.7347159385681152
2.210996150970459,1.892899990081787,-0.3529319763183594,2.0867748260498047,-2.3253560066223145,0.44889718294143677,-0.7315812110900879
2.231039524078369,1.8963872194290161,-0.35512471199035645,2.0775368213653564,-2.3238844871520996,0.4547553062438965,-0.7355197668075562
2.251138687133789,1.8940926790237427,-0.35319599509239197,2.084649085998535,-2.323781967163086,0.4477984607219696,-0.7324253916740417
2.2711901664733887,1.8894009590148926,-0.3530517816543579,2.0809848308563232,-2.3248472213745117,0.44362136721611023,-0.7286187410354614
2.291253089904785,1.8745076656341553,-0.3552485704421997,2.0689258575439453,-2.325298547744751,0.43919599056243896,-0.7328187227249146
2.311370849609375,1.884229302406311,-0.3586875796318054,2.0646824836730957,-2.324477195739746,0.44879794120788574,-0.7320861220359802
2.331425428390503,1.882462978363037,-0.36048534512519836,2.0598723888397217,-2.321661949157715,0.4510688781738281,-0.7358870506286621
2.351510524749756,1.8820807933807373,-0.3617241382598877,2.0642642974853516,-2.323378562927246,0.44729822874069214,-0.729831337928772
2.3715810775756836,1.8767828941345215,-0.36283940076828003,2.063244342803955,-2.323157787322998,0.44403165578842163,-0.7284560799598694
2.3916568756103516,1.869380235671997,-0.36310023069381714,2.051036834716797,-2.3244218826293945,0.44018080830574036,-0.7254693508148193
2.41174578666687,1.867727279663086,-0.3597640097141266,2.0576272010803223,-2.325786590576172,0.4322234094142914,-0.72407066822052
2.4317786693573,1.8687429428100586,-0.36462557315826416,2.0499472618103027,-2.324456214904785,0.43919938802719116,-0.7293584942817688
2.4518628120422363,1.8717882633209229,-0.3629544973373413,2.0553929805755615,-2.3232200145721436,0.43925338983535767,-0.7298932075500488
2.471923828125,1.8553428649902344,-0.3642571270465851,2.0388996601104736,-2.322706699371338,0.43032342195510864,-0.7266598343849182
2.4919910430908203,1.8650851249694824,-0.3669794201850891,2.044992208480835,-2.3252298831939697,0.435458779335022,-0.722222626209259
2.512146472930908,1.8570767641067505,-0.3677583336830139,2.0390419960021973,-2.325188398361206,0.43071484565734863,-0.7212396264076233
2.532219886779785,1.8556609153747559,-0.3658909797668457,2.0467019081115723,-2.32565975189209,0.42516329884529114,-0.7182797789573669
2.5523569583892822,1.8553651571273804,-0.36676618456840515,2.03910493850708,-2.325309991836548,0.4281325042247772,-0.7185021638870239
2.5723602771759033,1.8458712100982666,-0.37057995796203613,2.026636838912964,-2.3240723609924316,0.428225576877594,-0.7224701046943665
2.592418670654297,1.8473563194274902,-0.36928731203079224,2.039198160171509,-2.325298309326172,0.42436614632606506,-0.7216783165931702
2.6125218868255615,1.8515291213989258,-0.37331029772758484,2.0265631675720215,-2.3227176666259766,0.4336647391319275,-0.7225180268287659
2.632578134536743,1.836207628250122,-0.37550872564315796,2.009958028793335,-2.320915699005127,0.42870470881462097,-0.7247599959373474
2.652632713317871,1.8354408740997314,-0.3728637397289276,2.0220890045166016,-2.3267765045166016,0.4184499979019165,-0.716614842414856
2.6728904247283936,1.8387868404388428,-0.3723759949207306,2.0272741317749023,-2.3267464637756348,0.4160762429237366,-0.7132723927497864
2.692934989929199,1.8368065357208252,-0.3751068413257599,2.0173065662384033,-2.3248708248138428,0.419752299785614,-0.7153927683830261
2.71295428276062,1.8324103355407715,-0.37679216265678406,2.010002374649048,-2.3248836994171143,0.41918841004371643,-0.714271605014801
2.7332935333251953,1.8304095268249512,-0.3799370527267456,2.000234365463257,-2.3243656158447266,0.4238245189189911,-0.7190309762954712
2.7533984184265137,1.8296903371810913,-0.38015830516815186,2.0075178146362305,-2.323596477508545,0.4207128882408142,-0.7170524001121521
2.7734968662261963,1.8176919221878052,-0.37751439213752747,2.010464668273926,-2.3217058181762695,0.40788280963897705,-0.7137556076049805
2.793557643890381,1.8118112087249756,-0.38052552938461304,1.9929345846176147,-2.3247792720794678,0.4067615568637848,-0.7119671106338501
2.813734292984009,1.8178156614303589,-0.37767693400382996,2.003915786743164,-2.327089548110962,0.4052583575248718,-0.709578812122345
2.833756446838379,1.820881962776184,-0.3785495162010193,2.008763313293457,-2.326383590698242,0.4038773775100708,-0.7068530321121216
2.853804349899292,1.8204140663146973,-0.3809088170528412,2.0040855407714844,-2.32620906829834,0.4056912660598755,-0.7088918685913086
2.8739802837371826,1.8156721591949463,-0.3823833465576172,1.9949028491973877,-2.324629306793213,0.40530842542648315,-0.7072387337684631
2.894009828567505,1.8032331466674805,-0.3853096067905426,1.9791414737701416,-2.323789358139038,0.4035338759422302,-0.7108384370803833
2.9141414165496826,1.8079140186309814,-0.3847784996032715,1.9851053953170776,-2.3253297805786133,0.4037873446941376,-0.7091177105903625
2.934133291244507,1.8065317869186401,-0.3878691494464874,1.9825741052627563,-2.32427978515625,0.4030103087425232,-0.7064217329025269
2.954221725463867,1.8055315017700195,-0.3868413269519806,1.9881272315979004,-2.3267321586608887,0.39733654260635376,-0.7009832859039307
2.974290132522583,1.7943381071090698,-0.3861379623413086,1.981508493423462,-2.3249216079711914,0.3905948996543884,-0.7026268839836121
2.9943575859069824,1.7851113080978394,-0.3844262361526489,1.974353313446045,-2.3281283378601074,0.38236624002456665,-0.6999146938323975
3.0150625705718994,1.7993026971817017,-0.3887777030467987,1.9766716957092285,-2.3269906044006348,0.3958472013473511,-0.7020407915115356
3.0351948738098145,1.7971111536026,-0.3903704881668091,1.975973129272461,-2.325601100921631,0.39562976360321045,-0.7034650444984436
3.055241823196411,1.7937564849853516,-0.38985997438430786,1.9756979942321777,-2.3255460262298584,0.391608864068985,-0.6995835304260254
3.075324535369873,1.7817254066467285,-0.3897917866706848,1.9663020372390747,-2.3239879608154297,0.38529324531555176,-0.7021095752716064
3.095496654510498,1.7872499227523804,-0.3882398307323456,1.9737591743469238,-2.3259544372558594,0.3842848241329193,-0.6995623707771301
3.1155526638031006,1.7806544303894043,-0.39167073369026184,1.9606735706329346,-2.32612681388855,0.3828474283218384,-0.6964206695556641
3.1355955600738525,1.7822015285491943,-0.39250051975250244,1.967075228691101,-2.3277361392974854,0.3815196454524994,-0.6938868165016174
3.155686140060425,1.7860355377197266,-0.3940836489200592,1.9674750566482544,-2.327155113220215,0.3855525255203247,-0.6944170594215393
3.1757614612579346,1.7692580223083496,-0.39601224660873413,1.947801113128662,-2.325648307800293,0.3795110285282135,-0.6970117688179016
3.1958534717559814,1.7762706279754639,-0.3979204297065735,1.9526300430297852,-2.326719045639038,0.3844411075115204,-0.6962355971336365
3.215930223464966,1.7758018970489502,-0.3965674042701721,1.9574859142303467,-2.3248777389526367,0.3809170424938202,-0.6949960589408875
3.2360329627990723,1.7688584327697754,-0.3965098261833191,1.9553577899932861,-2.325159788131714,0.37490418553352356,-0.6932224035263062
3.2560577392578125,1.7670282125473022,-0.39618879556655884,1.942430019378662,-2.327008008956909,0.37466880679130554,-0.6938769817352295
3.2761480808258057,1.7673304080963135,-0.39574894309043884,1.9563034772872925,-2.326552391052246,0.3675922453403473,-0.6897376775741577
3.2962732315063477,1.7602038383483887,-0.3989880084991455,1.9468967914581299,-2.3262341022491455,0.3670303225517273,-0.6876088976860046
3.3163726329803467,1.7679741382598877,-0.39955276250839233,1.9482579231262207,-2.3271193504333496,0.3713236451148987,-0.6856773495674133
3.3365044593811035,1.761247158050537,-0.40376901626586914,1.9334478378295898,-2.324845314025879,0.3749649226665497,-0.6906068325042725
3.35672664642334,1.7553374767303467,-0.40480732917785645,1.9304230213165283,-2.3252556324005127,0.3725529909133911,-0.6908826231956482
3.3768463134765625,1.7470755577087402,-0.4019397497177124,1.935019612312317,-2.327186107635498,0.3600824177265167,-0.6864610910415649
3.3968682289123535,1.7517532110214233,-0.4007336497306824,1.939154863357544,-2.327836036682129,0.3605187237262726,-0.6841182112693787
3.4169347286224365,1.7537423372268677,-0.39795756340026855,1.9402530193328857,-2.3263750076293945,0.3596934676170349,-0.6853606700897217
3.4369990825653076,1.745450735092163,-0.4027659296989441,1.929694414138794,-2.3272275924682617,0.3565717339515686,-0.6831650137901306
3.457076072692871,1.7516348361968994,-0.4052330255508423,1.9311790466308594,-2.326916217803955,0.36208441853523254,-0.6816123723983765
3.477123260498047,1.7512037754058838,-0.40618860721588135,1.9295473098754883,-2.326125144958496,0.3633235991001129,-0.6822582483291626
3.49721360206604,1.7483949661254883,-0.40740054845809937,1.9269464015960693,-2.325685977935791,0.363080769777298,-0.6829423904418945
3.5173377990722656,1.735906720161438,-0.40596333146095276,1.923073410987854,-2.327221393585205,0.35159528255462646,-0.6789069175720215
3.537440538406372,1.742295503616333,-0.4019666612148285,1.9306379556655884,-2.3289308547973633,0.3488008677959442,-0.6758033633232117
3.557607412338257,1.7350505590438843,-0.4054332375526428,1.92122483253479,-2.3274073600769043,0.3485275208950043,-0.6775625348091125
3.57759952545166,1.7374545335769653,-0.4093312621116638,1.9162577390670776,-2.3261733055114746,0.35508519411087036,-0.6819073557853699
3.5976603031158447,1.7370433807373047,-0.41105711460113525,1.912410020828247,-2.3244595527648926,0.3556293249130249,-0.6807519197463989
3.617727518081665,1.7365310192108154,-0.4159160256385803,1.9010236263275146,-2.324270725250244,0.3618465065956116,-0.6802666187286377
3.637805223464966,1.7302391529083252,-0.41195136308670044,1.9111886024475098,-2.3265161514282227,0.350087970495224,-0.677377462387085
3.657973289489746,1.7236096858978271,-0.409915030002594,1.9124152660369873,-2.3267574310302734,0.3426702320575714,-0.674254298210144
3.678030252456665,1.7271981239318848,-0.4105966091156006,1.9094018936157227,-2.328528881072998,0.34489718079566956,-0.6734566688537598
3.6980907917022705,1.7285045385360718,-0.4177135229110718,1.8838534355163574,-2.3248305320739746,0.35810229182243347,-0.679898202419281
3.7182230949401855,1.7239763736724854,-0.4151459336280823,1.8971850872039795,-2.326509475708008,0.3482353389263153,-0.6793086528778076
3.7382922172546387,1.7243696451187134,-0.40836775302886963,1.9037292003631592,-2.3264803886413574,0.33766645193099976,-0.6721757650375366
3.7584214210510254,1.7119356393814087,-0.41666659712791443,1.8925096988677979,-2.325815200805664,0.3378112316131592,-0.6706750392913818
3.778390884399414,1.7125051021575928,-0.4162496030330658,1.8963664770126343,-2.327040195465088,0.3367115259170532,-0.6696586608886719
3.7985215187072754,1.7140477895736694,-0.41523608565330505,1.8996022939682007,-2.328911304473877,0.3331637680530548,-0.666318953037262
3.8185596466064453,1.715829849243164,-0.41473478078842163,1.8947932720184326,-2.3266959190368652,0.33533743023872375,-0.6672954559326172
3.838684558868408,1.7152209281921387,-0.41694557666778564,1.891396164894104,-2.3286001682281494,0.33483362197875977,-0.6654008626937866
3.8587076663970947,1.7144477367401123,-0.41886258125305176,1.8917194604873657,-2.3273699283599854,0.3361898362636566,-0.6659256815910339
3.8788509368896484,1.707631230354309,-0.41857776045799255,1.8877267837524414,-2.3253841400146484,0.333750456571579,-0.6680916547775269
3.8989598751068115,1.705652117729187,-0.42025619745254517,1.8794231414794922,-2.324169158935547,0.33636030554771423,-0.670777440071106
3.9190335273742676,1.7054439783096313,-0.4212653338909149,1.8768937587738037,-2.324125289916992,0.33514124155044556,-0.6692904829978943
3.939099073410034,1.7033374309539795,-0.4219636917114258,1.8771045207977295,-2.325857639312744,0.3310304284095764,-0.6654751300811768
3.9591658115386963,1.6972408294677734,-0.42274484038352966,1.8763208389282227,-2.3269479274749756,0.326280415058136,-0.6612933874130249
3.9793014526367188,1.7012150287628174,-0.42438510060310364,1.8731708526611328,-2.3262181282043457,0.33173370361328125,-0.6644183397293091
3.999417543411255,1.6885807514190674,-0.41854697465896606,1.8783578872680664,-2.326836347579956,0.31447404623031616,-0.6590172052383423
4.019546270370483,1.6920967102050781,-0.4230424165725708,1.8700292110443115,-2.3263700008392334,0.32190394401550293,-0.6597262620925903
4.039695739746094,1.6938903331756592,-0.42392170429229736,1.874902367591858,-2.3227486610412598,0.32346534729003906,-0.6621778011322021
4.059763431549072,1.684363842010498,-0.4281966984272003,1.8563915491104126,-2.3237950801849365,0.3207709789276123,-0.6587859988212585
4.079817533493042,1.6854218244552612,-0.4281875789165497,1.85886549949646,-2.3255774974823,0.3214653730392456,-0.659813642501831
4.099924087524414,1.6812676191329956,-0.4267611801624298,1.8603241443634033,-2.3256354331970215,0.31538206338882446,-0.6565251350402832
4.120002269744873,1.677772879600525,-0.42504170536994934,1.8650763034820557,-2.327725410461426,0.3067803978919983,-0.652618944644928
4.140030860900879,1.6846885681152344,-0.42892158031463623,1.860884666442871,-2.3259053230285645,0.3176645338535309,-0.657421886920929
4.160110712051392,1.6807646751403809,-0.4273887276649475,1.864980936050415,-2.32685923576355,0.3106905221939087,-0.6545300483703613
4.180155515670776,1.6758439540863037,-0.43071994185447693,1.8522450923919678,-2.3257508277893066,0.3139587640762329,-0.6554046273231506
4.200241804122925,1.6705241203308105,-0.4334836006164551,1.841813564300537,-2.3265674114227295,0.31442058086395264,-0.6576727628707886
4.220457553863525,1.6738488674163818,-0.4308111369609833,1.8542065620422363,-2.3281168937683105,0.3082480728626251,-0.6537434458732605
4.240592956542969,1.6764309406280518,-0.4319450855255127,1.8513879776000977,-2.324070453643799,0.3144295811653137,-0.6563806533813477
4.260714054107666,1.6683056354522705,-0.4298834204673767,1.8536622524261475,-2.324248790740967,0.3025719225406647,-0.6524477601051331
4.280719757080078,1.6742709875106812,-0.4295293986797333,1.8548402786254883,-2.3267362117767334,0.3028116822242737,-0.6462969183921814
4.30078387260437,1.6709833145141602,-0.43050357699394226,1.8539018630981445,-2.3260583877563477,0.3017967641353607,-0.6467225551605225
4.320963621139526,1.6684749126434326,-0.4341250956058502,1.8422422409057617,-2.3244144916534424,0.3066460192203522,-0.6504595875740051
4.34103798866272,1.6693135499954224,-0.4382077753543854,1.8290963172912598,-2.3248915672302246,0.3135336637496948,-0.6540993452072144
4.361103296279907,1.6649105548858643,-0.43656885623931885,1.836775779724121,-2.322744846343994,0.30631735920906067,-0.6527217626571655
4.381127834320068,1.6636338233947754,-0.43649137020111084,1.8388592004776,-2.322782039642334,0.3025965988636017,-0.6480718851089478
4.401220321655273,1.6528494358062744,-0.4349208176136017,1.836722731590271,-2.3239738941192627,0.29149749875068665,-0.644400954246521
4.421295642852783,1.652496099472046,-0.43221330642700195,1.8403003215789795,-2.326770782470703,0.2851925492286682,-0.6384214758872986
4.441341400146484,1.6588399410247803,-0.43666529655456543,1.8364495038986206,-2.3258378505706787,0.29451027512550354,-0.6415964961051941
4.461467981338501,1.659991979598999,-0.440306156873703,1.826890468597412,-2.3255019187927246,0.29979413747787476,-0.6424592137336731
4.481555461883545,1.6584787368774414,-0.44111305475234985,1.824591875076294,-2.324913501739502,0.3005075752735138,-0.6446554660797119
4.5016374588012695,1.6553208827972412,-0.4426265358924866,1.8237022161483765,-2.3255257606506348,0.29904603958129883,-0.6445437073707581
4.521680593490601,1.6352931261062622,-0.4428674876689911,1.8143610954284668,-2.323277473449707,0.28689125180244446,-0.6433209776878357
4.541757345199585,1.6415951251983643,-0.44032126665115356,1.819885492324829,-2.3257312774658203,0.28880807757377625,-0.6426655650138855
4.561846733093262,1.6432011127471924,-0.4400211274623871,1.8213448524475098,-2.327965259552002,0.2861006259918213,-0.6400806307792664
4.581903457641602,1.6436941623687744,-0.44556015729904175,1.809241771697998,-2.3240480422973633,0.2923415005207062,-0.641613781452179
4.601949691772461,1.6417876482009888,-0.44247445464134216,1.8193578720092773,-2.323425769805908,0.28573381900787354,-0.6407532095909119
4.622032165527344,1.6425440311431885,-0.4440956711769104,1.8174710273742676,-2.322770833969116,0.287036657333374,-0.6389672160148621
4.64212441444397,1.6397449970245361,-0.44710448384284973,1.8084030151367188,-2.3245344161987305,0.2870551645755768,-0.6371943950653076
4.662159204483032,1.626694679260254,-0.4437433183193207,1.805255651473999,-2.32448673248291,0.2764933109283447,-0.6351666450500488
4.682247161865234,1.6285922527313232,-0.43971365690231323,1.8138188123703003,-2.3270959854125977,0.27050867676734924,-0.6320961117744446
4.70231032371521,1.6368008852005005,-0.449361115694046,1.8007481098175049,-2.324429988861084,0.2876431941986084,-0.6376411318778992
4.722378730773926,1.629392385482788,-0.44567763805389404,1.8096463680267334,-2.3239049911499023,0.27495113015174866,-0.635698676109314
4.742432594299316,1.6285908222198486,-0.44792935252189636,1.8014318943023682,-2.3207809925079346,0.2766244113445282,-0.6353884339332581
4.762510538101196,1.6314114332199097,-0.4478296637535095,1.8013519048690796,-2.3239006996154785,0.2760486900806427,-0.6321361660957336
4.782576560974121,1.631190299987793,-0.4482481777667999,1.8009307384490967,-2.325535774230957,0.27447909116744995,-0.6289625763893127
4.802624225616455,1.6205202341079712,-0.45218199491500854,1.7931050062179565,-2.3223609924316406,0.27227017283439636,-0.6311644911766052
4.822795629501343,1.623924732208252,-0.45409268140792847,1.7894980907440186,-2.3225769996643066,0.27809351682662964,-0.6323825716972351
4.842972278594971,1.6233919858932495,-0.4521406292915344,1.796248435974121,-2.3228235244750977,0.2724498212337494,-0.6290156841278076
4.862921714782715,1.6134055852890015,-0.45685985684394836,1.7804358005523682,-2.3210086822509766,0.27227145433425903,-0.6311435103416443
4.883164644241333,1.6163618564605713,-0.45302093029022217,1.7936407327651978,-2.3242321014404297,0.2658659815788269,-0.6268547177314758
4.903241872787476,1.6178796291351318,-0.4533672630786896,1.7940866947174072,-2.322542667388916,0.2669299244880676,-0.6256715059280396
4.923527717590332,1.6102938652038574,-0.4531293511390686,1.787827730178833,-2.320612907409668,0.262446790933609,-0.6257140040397644
4.9433913230896,1.6096339225769043,-0.4512264132499695,1.7918312549591064,-2.3253655433654785,0.2548640966415405,-0.6183842420578003
4.963517665863037,1.6098793745040894,-0.4521029591560364,1.7927830219268799,-2.325723171234131,0.2542339563369751,-0.6175091862678528
4.983601331710815,1.611436128616333,-0.45450684428215027,1.7892320156097412,-2.3233895301818848,0.2594098150730133,-0.6199310421943665
5.003767013549805,1.6018906831741333,-0.4592224359512329,1.7683179378509521,-2.3233158588409424,0.2594473659992218,-0.6216846704483032
5.0238037109375,1.6096429824829102,-0.4570712149143219,1.7844579219818115,-2.3242831230163574,0.26009467244148254,-0.6204872727394104
5.043976783752441,1.6048741340637207,-0.4574173092842102,1.7801029682159424,-2.3225975036621094,0.25683674216270447,-0.6208683848381042
5.064001083374023,1.5922448635101318,-0.45147228240966797,1.7780075073242188,-2.3226351737976074,0.24295559525489807,-0.6178147792816162
5.084041357040405,1.6021453142166138,-0.45604008436203003,1.7805051803588867,-2.321803092956543,0.2500512897968292,-0.6168132424354553
5.104183197021484,1.598292589187622,-0.4572983980178833,1.780304193496704,-2.322812080383301,0.24521887302398682,-0.6121186017990112
5.124317407608032,1.5971713066101074,-0.45964327454566956,1.7702302932739258,-2.323057174682617,0.24825984239578247,-0.6130082011222839
5.144360542297363,1.5872687101364136,-0.46140342950820923,1.7639665603637695,-2.3236923217773438,0.24362149834632874,-0.6143895983695984
5.164432048797607,1.578573226928711,-0.46304333209991455,1.7595016956329346,-2.323042631149292,0.23840093612670898,-0.6118831634521484
5.184505224227905,1.5861625671386719,-0.46290355920791626,1.7604013681411743,-2.3239338397979736,0.24448323249816895,-0.6138425469398499
5.204616069793701,1.5891649723052979,-0.4585481286048889,1.7668068408966064,-2.3238706588745117,0.23967322707176208,-0.6106241345405579
5.224694728851318,1.5844080448150635,-0.459136962890625,1.7707748413085938,-2.319911003112793,0.23635247349739075,-0.6116732358932495
5.2447669506073,1.5856728553771973,-0.46332693099975586,1.7600581645965576,-2.3210854530334473,0.23955529928207397,-0.6087210178375244
5.264828205108643,1.5827590227127075,-0.4658699035644531,1.7523797750473022,-2.321599006652832,0.2408689558506012,-0.6093677878379822
5.284952878952026,1.583703875541687,-0.468105286359787,1.7487585544586182,-2.3223888874053955,0.24385324120521545,-0.6100642681121826
5.305030822753906,1.5828430652618408,-0.4673915505409241,1.7543563842773438,-2.3219680786132812,0.24108460545539856,-0.6089413166046143
5.325628280639648,1.5777486562728882,-0.46010899543762207,1.7620604038238525,-2.3235397338867188,0.22672021389007568,-0.6016970276832581
5.345806837081909,1.576336145401001,-0.4623025953769684,1.7604076862335205,-2.3232388496398926,0.2275715172290802,-0.601915180683136
5.365858793258667,1.5668306350708008,-0.4645147919654846,1.7538065910339355,-2.322612762451172,0.2239179015159607,-0.6032347679138184
5.385906219482422,1.571023941040039,-0.4655892848968506,1.7500112056732178,-2.3215599060058594,0.22859522700309753,-0.6051515340805054
5.406041860580444,1.5718985795974731,-0.4698358476161957,1.736243724822998,-2.3203091621398926,0.23539501428604126,-0.6077858209609985
5.426126480102539,1.5732593536376953,-0.4720050096511841,1.7332910299301147,-2.318800926208496,0.2381930649280548,-0.6094339489936829
5.446197509765625,1.5706381797790527,-0.46972641348838806,1.741692304611206,-2.3207130432128906,0.22755903005599976,-0.6015235185623169
5.466290473937988,1.5702600479125977,-0.4687626361846924,1.746687889099121,-2.3218395709991455,0.22370341420173645,-0.5959705114364624
5.486351251602173,1.5669684410095215,-0.4698217213153839,1.7439990043640137,-2.3215255737304688,0.22236493229866028,-0.5964518785476685
5.506424427032471,1.561697006225586,-0.4690096974372864,1.741919994354248,-2.3225245475769043,0.21838799118995667,-0.5960278511047363
5.526492357254028,1.5583946704864502,-0.47332343459129333,1.726004719734192,-2.3209242820739746,0.22358548641204834,-0.5993338227272034
5.546549081802368,1.56240713596344,-0.476489782333374,1.7240219116210938,-2.321509838104248,0.22759881615638733,-0.5992860198020935
5.56662654876709,1.5600247383117676,-0.4768662750720978,1.7221872806549072,-2.3202388286590576,0.22608771920204163,-0.599860429763794
5.586731910705566,1.5583012104034424,-0.47404491901397705,1.7321598529815674,-2.318178653717041,0.2194257378578186,-0.5962507128715515
5.606846809387207,1.5589818954467773,-0.4737042188644409,1.732757329940796,-2.3211557865142822,0.2158115804195404,-0.591202437877655
5.626891136169434,1.555507779121399,-0.47329071164131165,1.7284762859344482,-2.321032762527466,0.21388468146324158,-0.5893422365188599
5.646991729736328,1.550013542175293,-0.47665348649024963,1.719344139099121,-2.3209683895111084,0.21383193135261536,-0.5913166999816895
5.667067050933838,1.5399103164672852,-0.4763326048851013,1.7209577560424805,-2.321615695953369,0.20499342679977417,-0.5898041129112244
5.687166452407837,1.5531916618347168,-0.4771282374858856,1.7198212146759033,-2.3225977420806885,0.21453234553337097,-0.5902171730995178
5.707187175750732,1.5474486351013184,-0.4765617549419403,1.7224220037460327,-2.3223838806152344,0.20779410004615784,-0.5905764102935791
5.727277040481567,1.550856113433838,-0.4769850969314575,1.7227380275726318,-2.3210625648498535,0.2104874849319458,-0.5912761092185974
5.747402667999268,1.549262523651123,-0.4766162931919098,1.721620798110962,-2.3173909187316895,0.21052682399749756,-0.5923779606819153
5.767453908920288,1.5507006645202637,-0.48250463604927063,1.7071641683578491,-2.318093776702881,0.2167626917362213,-0.5903297662734985
5.787529945373535,1.5417813062667847,-0.4823305606842041,1.705772876739502,-2.3167290687561035,0.21182867884635925,-0.5921372771263123
5.807584762573242,1.54060697555542,-0.48514553904533386,1.6999104022979736,-2.3180384635925293,0.21249473094940186,-0.5905736684799194
5.827713966369629,1.5384225845336914,-0.48233315348625183,1.7107754945755005,-2.319502115249634,0.20397186279296875,-0.5850086808204651
5.847915887832642,1.5311758518218994,-0.4824446439743042,1.7059032917022705,-2.31843900680542,0.19866323471069336,-0.583088219165802
5.867985963821411,1.535008192062378,-0.48276275396347046,1.7041385173797607,-2.3195371627807617,0.20129257440567017,-0.5829614400863647
5.88803768157959,1.53798508644104,-0.48160573840141296,1.7068355083465576,-2.3195433616638184,0.20180445909500122,-0.5834342241287231
5.908126354217529,1.5350596904754639,-0.48606133460998535,1.7056007385253906,-2.317960023880005,0.20313894748687744,-0.5821921229362488
5.928306579589844,1.527134895324707,-0.4843653440475464,1.702993631362915,-2.3173623085021973,0.19638121128082275,-0.5818856358528137
5.948391914367676,1.5221645832061768,-0.4836781620979309,1.6997473239898682,-2.315380811691284,0.19403764605522156,-0.5827221274375916
5.9684929847717285,1.5305246114730835,-0.4838458299636841,1.7038283348083496,-2.318314552307129,0.19523444771766663,-0.5791544318199158
5.988537311553955,1.5269567966461182,-0.4834216833114624,1.699924349784851,-2.3189616203308105,0.19083377718925476,-0.575697660446167
6.008641958236694,1.5231889486312866,-0.4854450821876526,1.6888171434402466,-2.3183279037475586,0.19184610247612,-0.575712263584137
6.028703689575195,1.5233454704284668,-0.48807933926582336,1.6930170059204102,-2.3183846473693848,0.19289541244506836,-0.5775871872901917
6.0487706661224365,1.5241541862487793,-0.48792004585266113,1.696539044380188,-2.317145824432373,0.19355309009552002,-0.5768085718154907
6.068852424621582,1.523193597793579,-0.4875401258468628,1.696037769317627,-2.317417860031128,0.19108429551124573,-0.5749545097351074
6.089050054550171,1.5099129676818848,-0.4903062880039215,1.6819865703582764,-2.314548969268799,0.1871362328529358,-0.5777482390403748
6.109172582626343,1.515697956085205,-0.4885907471179962,1.6909186840057373,-2.317857265472412,0.18577662110328674,-0.573505699634552
6.129303216934204,1.5185426473617554,-0.48956769704818726,1.6896519660949707,-2.3159902095794678,0.18826866149902344,-0.5734934210777283
6.1495866775512695,1.5135233402252197,-0.49061697721481323,1.6871917247772217,-2.317019462585449,0.18342334032058716,-0.5703181624412537
6.170389175415039,1.5065134763717651,-0.48666295409202576,1.6795461177825928,-2.3170158863067627,0.17635110020637512,-0.5689332485198975
6.190460920333862,1.5131187438964844,-0.4910919964313507,1.680659294128418,-2.3183107376098633,0.18399590253829956,-0.570451557636261
6.210528135299683,1.5055193901062012,-0.4910585582256317,1.681889533996582,-2.3164443969726562,0.1783961057662964,-0.5697587132453918
6.2305803298950195,1.5063425302505493,-0.49133169651031494,1.6804107427597046,-2.3179969787597656,0.1775091588497162,-0.5690614581108093
6.250754356384277,1.5057754516601562,-0.4901971220970154,1.6789851188659668,-2.3164377212524414,0.1772380769252777,-0.569997251033783
6.2708728313446045,1.5048519372940063,-0.4866286516189575,1.6839678287506104,-2.3166868686676025,0.17080554366111755,-0.5655324459075928
6.29099178314209,1.5041303634643555,-0.49144667387008667,1.6792314052581787,-2.3136963844299316,0.1751231551170349,-0.5671072006225586
6.3111021518707275,1.5037665367126465,-0.4927365481853485,1.6760308742523193,-2.314629077911377,0.17362043261528015,-0.5649094581604004
6.331141471862793,1.5045313835144043,-0.49401944875717163,1.6744940280914307,-2.3155202865600586,0.17423731088638306,-0.5639004111289978
6.3511881828308105,1.504136085510254,-0.49697694182395935,1.6644763946533203,-2.3152503967285156,0.17864274978637695,-0.5665883421897888
6.371232032775879,1.5015288591384888,-0.49775469303131104,1.6646230220794678,-2.314581871032715,0.1754658818244934,-0.5638982057571411
6.391362428665161,1.4988625049591064,-0.49832770228385925,1.6652114391326904,-2.3147459030151367,0.17303237318992615,-0.5617918372154236
6.411437034606934,1.4868245124816895,-0.4941598176956177,1.6667722463607788,-2.3135838508605957,0.16070647537708282,-0.5589016079902649
6.431537628173828,1.486599326133728,-0.4933589994907379,1.6676998138427734,-2.3127307891845703,0.15952996909618378,-0.5582810044288635
6.4516003131866455,1.4996042251586914,-0.4973956346511841,1.6669719219207764,-2.315248966217041,0.16773590445518494,-0.5554240942001343
6.471650123596191,1.4948718547821045,-0.4985325336456299,1.661507248878479,-2.3157711029052734,0.16558721661567688,-0.5554394125938416
6.491738796234131,1.4935812950134277,-0.5053637623786926,1.6403536796569824,-2.3129072189331055,0.17502975463867188,-0.5590484738349915
6.511905670166016,1.4906108379364014,-0.5023306012153625,1.6505610942840576,-2.3140718936920166,0.16842120885849,-0.5588966608047485
6.53188943862915,1.4893895387649536,-0.5033479928970337,1.6533526182174683,-2.3131237030029297,0.1680288314819336,-0.5577064752578735
6.55202579498291,1.48673677444458,-0.5009263753890991,1.651343584060669,-2.312811851501465,0.16407990455627441,-0.5559038519859314
6.572116851806641,1.482672095298767,-0.4947359561920166,1.6575517654418945,-2.3138527870178223,0.15411950647830963,-0.5522241592407227
6.592182874679565,1.477196455001831,-0.49881279468536377,1.6504621505737305,-2.312653064727783,0.15394926071166992,-0.5526515245437622
6.612225770950317,1.4703245162963867,-0.5000872611999512,1.6478829383850098,-2.3098936080932617,0.15059131383895874,-0.5536879897117615
6.632428169250488,1.479978084564209,-0.503761887550354,1.6469459533691406,-2.31373929977417,0.155247300863266,-0.5504434108734131
6.652508020401001,1.4806030988693237,-0.5052258968353271,1.6433637142181396,-2.311997413635254,0.15873274207115173,-0.5511077046394348
6.6725757122039795,1.4797440767288208,-0.5059255361557007,1.6435449123382568,-2.3133187294006348,0.1565522700548172,-0.5491155385971069
6.692622184753418,1.4797805547714233,-0.5049818754196167,1.6471455097198486,-2.313075065612793,0.1555090844631195,-0.5482688546180725
6.713006496429443,1.4733514785766602,-0.5060517191886902,1.6413971185684204,-2.310877561569214,0.15355534851551056,-0.5498302578926086
6.7330992221832275,1.463189959526062,-0.5100583434104919,1.626115322113037,-2.3100907802581787,0.15263697504997253,-0.5507790446281433
6.753241300582886,1.463681697845459,-0.5059823989868164,1.6399505138397217,-2.3129115104675293,0.14386135339736938,-0.5445811748504639
6.773233652114868,1.4650591611862183,-0.5097783207893372,1.6279674768447876,-2.308434009552002,0.15147757530212402,-0.5485890507698059
6.793869256973267,1.4629976749420166,-0.5078225135803223,1.6305501461029053,-2.309952735900879,0.14560651779174805,-0.546150803565979
6.813939809799194,1.4696987867355347,-0.5069158673286438,1.6377482414245605,-2.312499523162842,0.144264817237854,-0.5403925776481628
6.834014415740967,1.4663246870040894,-0.5092564821243286,1.6342308521270752,-2.311379909515381,0.14536431431770325,-0.5424187779426575
6.8540544509887695,1.4673066139221191,-0.5155729651451111,1.6170942783355713,-2.3094558715820312,0.15456819534301758,-0.5448694229125977
6.8742029666900635,1.461355447769165,-0.5155507922172546,1.6170742511749268,-2.310060977935791,0.1507081836462021,-0.545498788356781
6.894275426864624,1.4548976421356201,-0.5126688480377197,1.6210331916809082,-2.3087873458862305,0.14260491728782654,-0.5444697737693787
6.914359092712402,1.4561673402786255,-0.5110947489738464,1.624107837677002,-2.3111348152160645,0.13948267698287964,-0.5418359637260437
6.9344165325164795,1.4552171230316162,-0.5084797739982605,1.6283104419708252,-2.310638427734375,0.13369402289390564,-0.5371768474578857
6.954540491104126,1.449558973312378,-0.5106430053710938,1.622438669204712,-2.3092098236083984,0.1328139305114746,-0.5378475785255432
6.974639177322388,1.453985333442688,-0.5129544734954834,1.623221755027771,-2.310283660888672,0.1357611119747162,-0.5364074110984802
6.994719982147217,1.455180287361145,-0.51589035987854,1.61283278465271,-2.3066868782043457,0.14335830509662628,-0.5419371724128723
7.014831304550171,1.4535161256790161,-0.5183182954788208,1.6062586307525635,-2.3076975345611572,0.14302203059196472,-0.5386745929718018
7.034871578216553,1.4452892541885376,-0.516952633857727,1.6116797924041748,-2.3082809448242188,0.1331517994403839,-0.5343896150588989
7.054949045181274,1.4476670026779175,-0.5155208110809326,1.615553617477417,-2.311096668243408,0.12975665926933289,-0.5299211144447327
7.074981212615967,1.4511017799377441,-0.5151606798171997,1.620242714881897,-2.308422565460205,0.1333709955215454,-0.5330063700675964
7.095081806182861,1.449951171875,-0.5152519941329956,1.6197428703308105,-2.3088269233703613,0.13159456849098206,-0.5320830941200256
7.115187644958496,1.4453564882278442,-0.5177404880523682,1.6107828617095947,-2.3082780838012695,0.13186395168304443,-0.5319509506225586
7.135282516479492,1.436333179473877,-0.5216046571731567,1.5971598625183105,-2.3067305088043213,0.1314900517463684,-0.5347295999526978
7.155350923538208,1.441688060760498,-0.520028829574585,1.6057415008544922,-2.3083584308624268,0.13176622986793518,-0.533176064491272
7.175431728363037,1.4361908435821533,-0.5151616334915161,1.6039085388183594,-2.304446220397949,0.12504908442497253,-0.5312572121620178
7.195489883422852,1.4284396171569824,-0.5183771848678589,1.6040863990783691,-2.3055803775787354,0.11744528263807297,-0.5254433751106262
7.215577125549316,1.433197021484375,-0.5182880759239197,1.6089727878570557,-2.3091254234313965,0.11709887534379959,-0.5232017636299133
7.235734939575195,1.4404008388519287,-0.5202163457870483,1.6053714752197266,-2.3078579902648926,0.12568655610084534,-0.5261082649230957
7.2557454109191895,1.4367338418960571,-0.5171089768409729,1.6037440299987793,-2.3081350326538086,0.12022043019533157,-0.5242316126823425
7.275808095932007,1.433452844619751,-0.5253247618675232,1.59133780002594,-2.308228015899658,0.12580013275146484,-0.5265636444091797
7.295860528945923,1.425187110900879,-0.5216960906982422,1.5975420475006104,-2.3071682453155518,0.11652716249227524,-0.5256556868553162
7.316009044647217,1.420278549194336,-0.5222066640853882,1.5938140153884888,-2.306032180786133,0.11311932653188705,-0.5234251022338867
7.336112022399902,1.4216413497924805,-0.5241710543632507,1.5884499549865723,-2.3047821521759033,0.11686297506093979,-0.5253913402557373
7.356192588806152,1.4268426895141602,-0.5243065357208252,1.5928659439086914,-2.3058979511260986,0.11639302968978882,-0.5214426517486572
7.376270771026611,1.4270213842391968,-0.5241421461105347,1.5933516025543213,-2.306647539138794,0.11508214473724365,-0.520275890827179
7.3964433670043945,1.426160216331482,-0.5255497694015503,1.5916047096252441,-2.30534029006958,0.11600469052791595,-0.5197088718414307
7.41643762588501,1.4278651475906372,-0.5214574933052063,1.5924664735794067,-2.307058811187744,0.11263411492109299,-0.5167811512947083
7.4365234375,1.4242205619812012,-0.5270097255706787,1.5813031196594238,-2.305116653442383,0.11791502684354782,-0.5217666625976562
7.456616640090942,1.4222363233566284,-0.5239050388336182,1.5849244594573975,-2.3063197135925293,0.11200983077287674,-0.5186731815338135
7.4767005443573,1.4189083576202393,-0.5304413437843323,1.5735087394714355,-2.304727077484131,0.11575517803430557,-0.5190287828445435
7.496808290481567,1.4179651737213135,-0.5286239981651306,1.5791666507720947,-2.3033127784729004,0.11331651359796524,-0.5199763774871826
7.5168678760528564,1.4148204326629639,-0.5264220833778381,1.5823391675949097,-2.2993850708007812,0.10862356424331665,-0.5180985927581787
7.537024974822998,1.419250249862671,-0.527319073677063,1.5819830894470215,-2.3023290634155273,0.108942411839962,-0.5159109830856323
7.557093858718872,1.4097185134887695,-0.5297241806983948,1.575070858001709,-2.302725076675415,0.10271275788545609,-0.5118910670280457
7.577300786972046,1.4126784801483154,-0.5342605113983154,1.566344976425171,-2.3038887977600098,0.10950279235839844,-0.5128801465034485
7.597268581390381,1.4120430946350098,-0.5333824753761292,1.5694937705993652,-2.30314564704895,0.10834816843271255,-0.5122079253196716
7.617379903793335,1.4053711891174316,-0.535894513130188,1.5628480911254883,-2.30130672454834,0.1058865487575531,-0.5125648975372314
7.6374335289001465,1.4043585062026978,-0.5328811407089233,1.5677554607391357,-2.299966335296631,0.1030193343758583,-0.5123217105865479
7.657531499862671,1.4056540727615356,-0.5298810005187988,1.5702012777328491,-2.2999355792999268,0.1001071035861969,-0.509329617023468
7.677664041519165,1.404975175857544,-0.5271377563476562,1.5699546337127686,-2.2991127967834473,0.09661319106817245,-0.5080753564834595
7.697711706161499,1.406311273574829,-0.53766930103302,1.5582711696624756,-2.3019018173217773,0.10360752046108246,-0.5074691772460938
7.7177979946136475,1.4021611213684082,-0.5368536114692688,1.5640833377838135,-2.3010292053222656,0.09972835332155228,-0.5066706538200378
7.7378246784210205,1.3909341096878052,-0.5370835065841675,1.5552524328231812,-2.2999649047851562,0.09401314705610275,-0.5057971477508545
7.757934331893921,1.3895962238311768,-0.5375579595565796,1.5531327724456787,-2.3003716468811035,0.09294486790895462,-0.5062282681465149
7.77810525894165,1.3955845832824707,-0.5315731763839722,1.5625509023666382,-2.303466796875,0.08863194286823273,-0.5006243586540222
7.798116445541382,1.3971039056777954,-0.5367321968078613,1.5589444637298584,-2.3015105724334717,0.09352795779705048,-0.5027316808700562
7.8182384967803955,1.3960654735565186,-0.5378860235214233,1.5569725036621094,-2.301069974899292,0.094369076192379,-0.5038557052612305
7.838315010070801,1.394531488418579,-0.5404350757598877,1.550558090209961,-2.2992749214172363,0.09777693450450897,-0.5060874223709106
7.858487367630005,1.3891855478286743,-0.5400028228759766,1.5503356456756592,-2.2963507175445557,0.09356722980737686,-0.5043118596076965
7.878568649291992,1.3777549266815186,-0.5422269105911255,1.5423535108566284,-2.296968936920166,0.08580489456653595,-0.500084400177002
7.898639440536499,1.3758339881896973,-0.5390515923500061,1.5472252368927002,-2.299591541290283,0.07923723757266998,-0.49656760692596436
7.918873071670532,1.383133053779602,-0.5390640497207642,1.5485987663269043,-2.302410125732422,0.08110309392213821,-0.494268000125885
7.938817977905273,1.3827574253082275,-0.5410749912261963,1.5472443103790283,-2.298966884613037,0.08407042175531387,-0.49683892726898193
7.958850622177124,1.3833842277526855,-0.5456284284591675,1.5348577499389648,-2.298722267150879,0.08991111069917679,-0.49908602237701416
7.97893500328064,1.3859081268310547,-0.5443562269210815,1.5396173000335693,-2.299698829650879,0.08973752707242966,-0.4983099699020386
7.999002933502197,1.3864682912826538,-0.5476012229919434,1.5351237058639526,-2.299070119857788,0.09274835139513016,-0.49793440103530884
8.019101619720459,1.3780162334442139,-0.5409591794013977,1.544996738433838,-2.297722578048706,0.08130524307489395,-0.4953441619873047
8.039180755615234,1.3729124069213867,-0.5401264429092407,1.5464104413986206,-2.2952184677124023,0.07565092295408249,-0.49263516068458557
8.059312343597412,1.3706001043319702,-0.5408011674880981,1.5423130989074707,-2.2975778579711914,0.07079990208148956,-0.4886711835861206
8.079422950744629,1.3702603578567505,-0.5435730218887329,1.5403718948364258,-2.2983455657958984,0.07150038331747055,-0.4876737892627716
8.099466323852539,1.366593360900879,-0.5447950959205627,1.5245893001556396,-2.297003746032715,0.07331036031246185,-0.4890953302383423
8.119528532028198,1.366377353668213,-0.5459469556808472,1.5297720432281494,-2.298517942428589,0.07257378101348877,-0.489177405834198
8.139633655548096,1.3715417385101318,-0.5490021705627441,1.527965784072876,-2.298447847366333,0.07889150083065033,-0.49116051197052
8.159652471542358,1.3687658309936523,-0.5473954677581787,1.5333588123321533,-2.29732084274292,0.07482967525720596,-0.4897707402706146
8.17970085144043,1.3666000366210938,-0.5475354194641113,1.5319533348083496,-2.2971348762512207,0.07268958538770676,-0.4881327748298645
8.199806451797485,1.3591814041137695,-0.5480345487594604,1.5298750400543213,-2.296173572540283,0.0681760311126709,-0.48720866441726685
8.219926595687866,1.3625929355621338,-0.5477655529975891,1.5299255847930908,-2.2963361740112305,0.07021310180425644,-0.4869546890258789
8.23999810218811,1.3640379905700684,-0.5476127862930298,1.5295498371124268,-2.2944178581237793,0.07077627629041672,-0.48681724071502686
8.260398626327515,1.3627851009368896,-0.5494097471237183,1.5221869945526123,-2.2956666946411133,0.07024441659450531,-0.4846329689025879
8.280478954315186,1.3595900535583496,-0.5452898740768433,1.5211679935455322,-2.2977752685546875,0.06312871724367142,-0.4805954694747925
8.300554037094116,1.3589268922805786,-0.5504164099693298,1.5197415351867676,-2.2977042198181152,0.06587997078895569,-0.4815348982810974
8.320616960525513,1.353135585784912,-0.5518559217453003,1.5174930095672607,-2.293642997741699,0.0660630539059639,-0.485085129737854
8.340698480606079,1.3434745073318481,-0.5490266680717468,1.5189859867095947,-2.293738842010498,0.05445338040590286,-0.48089003562927246
8.360771179199219,1.3540664911270142,-0.5482062101364136,1.5243124961853027,-2.296309471130371,0.05846167355775833,-0.4781302213668823
8.3808434009552,1.352118968963623,-0.5501296520233154,1.5196590423583984,-2.2917189598083496,0.06023988872766495,-0.47987425327301025
8.401196479797363,1.353881597518921,-0.5518296957015991,1.5170819759368896,-2.2924914360046387,0.06034252792596817,-0.47781217098236084
8.421295166015625,1.3561453819274902,-0.5535305738449097,1.5141246318817139,-2.293973207473755,0.0615457221865654,-0.475628137588501
8.441394090652466,1.354981541633606,-0.5583349466323853,1.502992868423462,-2.2932608127593994,0.0664043202996254,-0.47818315029144287
8.461421012878418,1.342840313911438,-0.5592010617256165,1.495436191558838,-2.2917532920837402,0.05991978943347931,-0.4774131774902344
8.481518745422363,1.3404154777526855,-0.5527858734130859,1.5040249824523926,-2.2920827865600586,0.05293131619691849,-0.4757785201072693
8.501606464385986,1.3346015214920044,-0.5533023476600647,1.5090808868408203,-2.2916831970214844,0.04550870507955551,-0.4712708592414856
8.521698951721191,1.33805513381958,-0.5537447929382324,1.5097203254699707,-2.2929317951202393,0.04626486450433731,-0.46994727849960327
8.541744709014893,1.3402340412139893,-0.5540337562561035,1.5055716037750244,-2.2873024940490723,0.050989486277103424,-0.47204992175102234
8.56193995475769,1.3445608615875244,-0.5610349178314209,1.4913408756256104,-2.291703224182129,0.056445904076099396,-0.4695795774459839
8.582082271575928,1.3418223857879639,-0.5552430152893066,1.4986717700958252,-2.292789936065674,0.04886705428361893,-0.4672226309776306
8.602150917053223,1.3407537937164307,-0.5610158443450928,1.4954757690429688,-2.2914111614227295,0.05245732516050339,-0.468000590801239
8.622189998626709,1.3358807563781738,-0.5596444606781006,1.4989686012268066,-2.290053606033325,0.048853956162929535,-0.4686007499694824
8.6423819065094,1.3335309028625488,-0.5578035116195679,1.4995110034942627,-2.289363384246826,0.04554147273302078,-0.46695658564567566
8.662395000457764,1.3368921279907227,-0.5589777231216431,1.4965651035308838,-2.290508270263672,0.046796903014183044,-0.46505028009414673
8.682463884353638,1.331497311592102,-0.5604230165481567,1.489330530166626,-2.2853941917419434,0.04704397916793823,-0.46720725297927856
8.70251202583313,1.3288228511810303,-0.5612399578094482,1.4832319021224976,-2.2864785194396973,0.04340589791536331,-0.4639430344104767
8.72260308265686,1.3242521286010742,-0.564698338508606,1.482710838317871,-2.2885680198669434,0.04015371948480606,-0.4606930613517761
8.742697477340698,1.3271594047546387,-0.5647932291030884,1.4847288131713867,-2.289212226867676,0.04144345968961716,-0.46008211374282837
8.762751817703247,1.3215303421020508,-0.5629439353942871,1.4842917919158936,-2.2884206771850586,0.03625421226024628,-0.45929765701293945
8.782792806625366,1.3244659900665283,-0.5627369284629822,1.4877701997756958,-2.2885818481445312,0.036963701248168945,-0.45807844400405884
8.802936315536499,1.3230725526809692,-0.5617856383323669,1.4881410598754883,-2.2870023250579834,0.03574579954147339,-0.4580116271972656
8.823097467422485,1.3234765529632568,-0.5661771297454834,1.473966360092163,-2.2841830253601074,0.041662976145744324,-0.459672749042511
8.84311580657959,1.3237320184707642,-0.5666402578353882,1.4807066917419434,-2.2859978675842285,0.037446029484272,-0.4558427333831787
8.863248348236084,1.3250060081481934,-0.5668121576309204,1.4807400703430176,-2.2869062423706055,0.03739922493696213,-0.4551123380661011
8.883293867111206,1.3199448585510254,-0.5686692595481873,1.4758336544036865,-2.2862982749938965,0.03643760830163956,-0.4547407627105713
8.903345823287964,1.3118305206298828,-0.5689470767974854,1.470887303352356,-2.2858965396881104,0.031543247401714325,-0.4537060260772705
8.923664569854736,1.3057054281234741,-0.5631335377693176,1.4750196933746338,-2.28627872467041,0.021292448043823242,-0.45027968287467957
8.943768501281738,1.3120661973953247,-0.567767322063446,1.4746860265731812,-2.2882156372070312,0.026409320533275604,-0.4493110775947571
8.963924407958984,1.313751220703125,-0.5702745914459229,1.4684209823608398,-2.285900831222534,0.031460992991924286,-0.4525913596153259
8.984497547149658,1.312246561050415,-0.5739884376525879,1.4597978591918945,-2.283510208129883,0.035457171499729156,-0.4553075432777405
9.004574060440063,1.314448595046997,-0.5736160278320312,1.4626691341400146,-2.2840728759765625,0.03530406206846237,-0.45304977893829346
9.024690628051758,1.3062591552734375,-0.5765304565429688,1.4526340961456299,-2.280250072479248,0.033398307859897614,-0.45277655124664307
9.044749021530151,1.2943611145019531,-0.562031626701355,1.4677212238311768,-2.2816882133483887,0.010054506361484528,-0.4429740905761719
9.064820766448975,1.2906277179718018,-0.5673521161079407,1.4661848545074463,-2.283038377761841,0.00860016793012619,-0.43980544805526733
9.085000991821289,1.3008509874343872,-0.5657567381858826,1.4725030660629272,-2.2852258682250977,0.011309623718261719,-0.43897151947021484
9.105006456375122,1.3030531406402588,-0.5696511268615723,1.4645494222640991,-2.284559726715088,0.016039542853832245,-0.4409312605857849
9.125105857849121,1.3060550689697266,-0.5736349821090698,1.4586660861968994,-2.2838640213012695,0.022496938705444336,-0.44285982847213745
9.145202398300171,1.3035396337509155,-0.5765299797058105,1.4533662796020508,-2.2823853492736816,0.025315694510936737,-0.4457813501358032
9.165257930755615,1.3019287586212158,-0.5782983899116516,1.4475934505462646,-2.2780256271362305,0.02915053814649582,-0.44800812005996704
9.185303688049316,1.2969419956207275,-0.5767244100570679,1.4511656761169434,-2.2772603034973145,0.02269379049539566,-0.4453699588775635
9.205427408218384,1.2963275909423828,-0.5745663642883301,1.4590942859649658,-2.2810492515563965,0.014923498034477234,-0.4382328987121582
9.225565671920776,1.2900242805480957,-0.5704523324966431,1.460989236831665,-2.2819151878356934,0.00651010125875473,-0.43433845043182373
9.245645523071289,1.2945458889007568,-0.573570966720581,1.4569189548492432,-2.282019853591919,0.011140532791614532,-0.43430620431900024
9.265691041946411,1.2880144119262695,-0.5733163356781006,1.454781174659729,-2.2820796966552734,0.005601122975349426,-0.43428826332092285
9.285914421081543,1.2951737642288208,-0.5769218802452087,1.4533109664916992,-2.2824301719665527,0.013363189995288849,-0.43620508909225464
9.305914878845215,1.2937884330749512,-0.5797649025917053,1.4418301582336426,-2.2825684547424316,0.016216255724430084,-0.4367983639240265
9.326120615005493,1.2887670993804932,-0.577507734298706,1.447024941444397,-2.2807583808898926,0.010949291288852692,-0.43577295541763306
9.346250295639038,1.2816567420959473,-0.5755218267440796,1.443495273590088,-2.2793731689453125,0.004963204264640808,-0.4336429238319397
9.3663330078125,1.2817888259887695,-0.5803858041763306,1.4410557746887207,-2.277662515640259,0.009815610945224762,-0.4356642961502075
9.386683940887451,1.2854365110397339,-0.5795102119445801,1.443872094154358,-2.2768826484680176,0.010550983250141144,-0.4350600838661194
9.406832933425903,1.2847280502319336,-0.5771707892417908,1.4454342126846313,-2.2782082557678223,0.005811072885990143,-0.4320715665817261
9.426989316940308,1.2822792530059814,-0.5779014825820923,1.4413330554962158,-2.2791953086853027,0.0035028085112571716,-0.4295834004878998
9.447009563446045,1.2764747142791748,-0.5858684778213501,1.421318531036377,-2.276888847351074,0.007498741149902344,-0.4312288165092468
9.46715259552002,1.2744619846343994,-0.5824922919273376,1.4311399459838867,-2.277683734893799,0.003406830132007599,-0.43121635913848877
9.487210750579834,1.2803435325622559,-0.5871427655220032,1.43056321144104,-2.2779722213745117,0.010605588555335999,-0.4325738549232483
9.507300853729248,1.2671875953674316,-0.5842576026916504,1.430296540260315,-2.2745676040649414,0.0003104209899902344,-0.4304533004760742
9.52743935585022,1.2682735919952393,-0.5854789018630981,1.4268219470977783,-2.2732534408569336,0.002361774444580078,-0.4296409487724304
9.547438621520996,1.2735400199890137,-0.5816888809204102,1.4325560331344604,-2.2761940956115723,-0.0013027265667915344,-0.42473161220550537
9.567487716674805,1.2730984687805176,-0.5876404047012329,1.4204238653182983,-2.276439666748047,0.002667166292667389,-0.4246557950973511
9.587594985961914,1.2745976448059082,-0.5880810022354126,1.4237256050109863,-2.277240514755249,0.003393732011318207,-0.42557454109191895
9.60773515701294,1.2703603506088257,-0.5885680913925171,1.4258828163146973,-2.274940252304077,0.001552194356918335,-0.42562687397003174
9.627731561660767,1.2617318630218506,-0.5894804000854492,1.416670322418213,-2.2725439071655273,-0.0008324906229972839,-0.42576730251312256
9.6481454372406,1.251651406288147,-0.5875877737998962,1.4156076908111572,-2.2736928462982178,-0.011523999273777008,-0.42197853326797485
9.66832423210144,1.2586002349853516,-0.5824791193008423,1.4278559684753418,-2.27750825881958,-0.01465105265378952,-0.41809725761413574
9.688325881958008,1.2597578763961792,-0.5863953828811646,1.4233800172805786,-2.272784471511841,-0.009404629468917847,-0.42048943042755127
9.708376407623291,1.2631680965423584,-0.5877393484115601,1.4201428890228271,-2.272160530090332,-0.007489241659641266,-0.41932010650634766
9.72847056388855,1.2635672092437744,-0.5911107659339905,1.4131711721420288,-2.2726526260375977,-0.005276843905448914,-0.41869720816612244
9.748620986938477,1.2646980285644531,-0.5946776866912842,1.4086360931396484,-2.2741475105285645,-0.0031037628650665283,-0.41748690605163574
9.76875376701355,1.2584588527679443,-0.5911286473274231,1.4145801067352295,-2.271871566772461,-0.008577749133110046,-0.4183552861213684
9.78892207145691,1.2538526058197021,-0.5930554866790771,1.407280683517456,-2.2728066444396973,-0.011441633105278015,-0.4148174524307251
9.809025526046753,1.2531777620315552,-0.5862702131271362,1.4140087366104126,-2.2731378078460693,-0.01811501383781433,-0.412361204624176
9.829105615615845,1.2524629831314087,-0.5890361666679382,1.4135760068893433,-2.2698636054992676,-0.01671646535396576,-0.41337499022483826
9.849210739135742,1.2548565864562988,-0.5906982421875,1.4112515449523926,-2.267825126647949,-0.015071690082550049,-0.411859929561615
9.869389772415161,1.2560588121414185,-0.5909454822540283,1.4105188846588135,-2.269608736038208,-0.016218870878219604,-0.40952616930007935
9.889392375946045,1.2594035863876343,-0.5955278277397156,1.3993866443634033,-2.271186590194702,-0.010695219039916992,-0.40953338146209717
9.909474849700928,1.2428200244903564,-0.5938705801963806,1.4045610427856445,-2.2684764862060547,-0.023516066372394562,-0.4075472950935364
9.929566860198975,1.2497942447662354,-0.595854640007019,1.4019309282302856,-2.269479990005493,-0.016981802880764008,-0.40770605206489563
9.949654340744019,1.2481555938720703,-0.5962530374526978,1.3996564149856567,-2.2676944732666016,-0.016581416130065918,-0.4097064733505249
9.969730854034424,1.2465500831604004,-0.5987738370895386,1.393928050994873,-2.267275333404541,-0.016369633376598358,-0.4083331823348999
9.989822626113892,1.2418746948242188,-0.595547616481781,1.39459228515625,-2.265872001647949,-0.02253124862909317,-0.4061557352542877
10.010029554367065,1.2439908981323242,-0.5924030542373657,1.3981938362121582,-2.266322612762451,-0.024397552013397217,-0.4044325351715088
10.030195236206055,1.245566964149475,-0.5979188680648804,1.3915104866027832,-2.2678534984588623,-0.021499939262866974,-0.4029948115348816
10.050246238708496,1.2449721097946167,-0.5995423197746277,1.393864631652832,-2.268187999725342,-0.021124742925167084,-0.40330472588539124
10.070397138595581,1.244771957397461,-0.5995689034461975,1.3954436779022217,-2.2691454887390137,-0.023354776203632355,-0.40092846751213074
10.090427160263062,1.2399669885635376,-0.6007257699966431,1.3889703750610352,-2.2663097381591797,-0.023275963962078094,-0.4026188850402832
10.110502243041992,1.2257020473480225,-0.5938796401023865,1.3883788585662842,-2.2664685249328613,-0.038776203989982605,-0.3972545266151428
10.13057827949524,1.225569725036621,-0.5974478721618652,1.3921501636505127,-2.266991138458252,-0.039049163460731506,-0.39532819390296936
10.150699377059937,1.2305630445480347,-0.5978813171386719,1.3927083015441895,-2.268460750579834,-0.0369640588760376,-0.39568692445755005
10.17076325416565,1.23468816280365,-0.5981463193893433,1.3909424543380737,-2.266246795654297,-0.03146955370903015,-0.3977523744106293
10.190834999084473,1.2298080921173096,-0.5960639715194702,1.386002540588379,-2.2643260955810547,-0.03669183701276779,-0.39544397592544556
10.210888862609863,1.2326284646987915,-0.6059023141860962,1.3722455501556396,-2.2629504203796387,-0.026726312935352325,-0.39877504110336304
10.23095440864563,1.2291423082351685,-0.6069554686546326,1.3727688789367676,-2.2641828060150146,-0.030004844069480896,-0.39581823348999023
10.251062631607056,1.2225416898727417,-0.6069604754447937,1.3725460767745972,-2.2635064125061035,-0.034922875463962555,-0.3942522406578064
10.271113395690918,1.2164044380187988,-0.6053089499473572,1.3735452890396118,-2.263723850250244,-0.04006726294755936,-0.3930136561393738
10.291187047958374,1.2255914211273193,-0.6039769649505615,1.3813185691833496,-2.2639193534851074,-0.0368080660700798,-0.3919675946235657
10.311384916305542,1.2235875129699707,-0.599387526512146,1.3829169273376465,-2.2650985717773438,-0.04441530257463455,-0.38808923959732056
10.331483602523804,1.223272442817688,-0.6021391153335571,1.3780312538146973,-2.2640395164489746,-0.04271795600652695,-0.38861751556396484
10.351539850234985,1.2199230194091797,-0.6061874032020569,1.367823600769043,-2.256908655166626,-0.03766670823097229,-0.3924999237060547
10.37158751487732,1.225534439086914,-0.6080524325370789,1.3691972494125366,-2.260981321334839,-0.03748945891857147,-0.38751494884490967
10.391824007034302,1.2243223190307617,-0.6089217662811279,1.3691625595092773,-2.26163387298584,-0.038664042949676514,-0.3857797384262085
10.411911964416504,1.2227237224578857,-0.6107346415519714,1.3648314476013184,-2.261357307434082,-0.037658773362636566,-0.38648051023483276
10.432002305984497,1.2149652242660522,-0.6026700139045715,1.3730275630950928,-2.2603917121887207,-0.05018732696771622,-0.3823220133781433
10.452040672302246,1.2120013236999512,-0.6072553396224976,1.3697330951690674,-2.2603206634521484,-0.04957397282123566,-0.38218605518341064
10.472105979919434,1.2128421068191528,-0.6078891754150391,1.367889642715454,-2.25986385345459,-0.048358239233493805,-0.3826572299003601
10.492186546325684,1.2185943126678467,-0.6093173623085022,1.3655428886413574,-2.2604260444641113,-0.04296176880598068,-0.3840978741645813
10.512256145477295,1.212282657623291,-0.6098691821098328,1.3601605892181396,-2.259183406829834,-0.046468086540699005,-0.3828810453414917
10.53230357170105,1.2082390785217285,-0.6112804412841797,1.3540709018707275,-2.256457805633545,-0.04617275297641754,-0.3833419680595398
10.552393198013306,1.2041163444519043,-0.6032872796058655,1.3605377674102783,-2.2576122283935547,-0.05756501108407974,-0.377812922000885
10.572542190551758,1.208073377609253,-0.6088172793388367,1.36238694190979,-2.2576756477355957,-0.053705088794231415,-0.3772454261779785
10.592624187469482,1.2063658237457275,-0.6117895245552063,1.3573304414749146,-2.257977247238159,-0.053692527115345,-0.37680625915527344
10.612632036209106,1.202711820602417,-0.6074504256248474,1.3578969240188599,-2.258347511291504,-0.05919521301984787,-0.37405920028686523
10.632715940475464,1.2066504955291748,-0.608716607093811,1.3589739799499512,-2.2592358589172363,-0.05640410631895065,-0.37443268299102783
10.652778387069702,1.204431414604187,-0.6111793518066406,1.3584048748016357,-2.257359027862549,-0.05612289905548096,-0.37567138671875
10.672831773757935,1.201566219329834,-0.61122727394104,1.3576970100402832,-2.2576842308044434,-0.059007346630096436,-0.37354159355163574
10.692978620529175,1.1997419595718384,-0.6146494746208191,1.3480746746063232,-2.254180431365967,-0.0553320050239563,-0.3749299645423889
10.713066816329956,1.1908538341522217,-0.6138026118278503,1.3446861505508423,-2.2513182163238525,-0.06155846267938614,-0.37333542108535767
10.733236312866211,1.1914706230163574,-0.6099287867546082,1.34953773021698,-2.2556405067443848,-0.06925512850284576,-0.3664233684539795
10.75321888923645,1.1888689994812012,-0.6172969341278076,1.3405897617340088,-2.2534079551696777,-0.06394408643245697,-0.3696373701095581
10.77337384223938,1.1876978874206543,-0.6147049069404602,1.347761631011963,-2.256561040878296,-0.07073608785867691,-0.36474883556365967
10.793458223342896,1.1964019536972046,-0.615385890007019,1.3493595123291016,-2.2581961154937744,-0.06493545323610306,-0.36508917808532715
10.813628911972046,1.1907283067703247,-0.6058832406997681,1.3533482551574707,-2.256186008453369,-0.07551728188991547,-0.3625491261482239
10.833603620529175,1.1899230480194092,-0.6176424026489258,1.3398213386535645,-2.2539429664611816,-0.06640586256980896,-0.36552923917770386
10.853746891021729,1.1885130405426025,-0.6212412714958191,1.3305485248565674,-2.2520546913146973,-0.06317469477653503,-0.3664693236351013
10.873857021331787,1.1811248064041138,-0.619107723236084,1.3346421718597412,-2.249445676803589,-0.06943590939044952,-0.36493679881095886
10.893928527832031,1.1843403577804565,-0.6199695467948914,1.3361989259719849,-2.25341534614563,-0.07032501697540283,-0.36139875650405884
10.914005756378174,1.1791901588439941,-0.6114104390144348,1.3389136791229248,-2.2536044120788574,-0.07998809963464737,-0.35784488916397095
10.934194564819336,1.1806070804595947,-0.6149155497550964,1.3405332565307617,-2.2561984062194824,-0.08030227571725845,-0.3556506335735321
10.954231977462769,1.182708740234375,-0.618667483329773,1.338235855102539,-2.2540063858032227,-0.07494167983531952,-0.358914315700531
10.974329471588135,1.1846778392791748,-0.6193133592605591,1.3371022939682007,-2.2531392574310303,-0.07315577566623688,-0.3585919141769409
10.994422674179077,1.18319571018219,-0.621151864528656,1.331657886505127,-2.2509288787841797,-0.0713147297501564,-0.35988664627075195
11.014635801315308,1.1801331043243408,-0.6188410520553589,1.3325908184051514,-2.2495944499969482,-0.07446672767400742,-0.35887789726257324
11.034753561019897,1.1789828538894653,-0.615710973739624,1.3257805109024048,-2.248734951019287,-0.07749737799167633,-0.3557027578353882
11.054771661758423,1.178232192993164,-0.6228572130203247,1.3247795104980469,-2.2503700256347656,-0.07650614529848099,-0.35478413105010986
11.07482385635376,1.1725256443023682,-0.6243528127670288,1.3248653411865234,-2.2483699321746826,-0.08015591651201248,-0.3534007668495178
11.094943284988403,1.1740686893463135,-0.6231483221054077,1.3255248069763184,-2.249183177947998,-0.07962052524089813,-0.35301637649536133
11.115005731582642,1.175608515739441,-0.6199668645858765,1.3233000040054321,-2.248256206512451,-0.07954075187444687,-0.3527377247810364
11.135104894638062,1.1745588779449463,-0.6272919774055481,1.315520167350769,-2.2466533184051514,-0.0757787749171257,-0.35370907187461853
11.155285835266113,1.1717021465301514,-0.6287521719932556,1.312414526939392,-2.2443933486938477,-0.07497697323560715,-0.35424041748046875
11.175294160842896,1.172384262084961,-0.6273695230484009,1.3158247470855713,-2.2452163696289062,-0.07879608124494553,-0.3519268035888672
11.195337772369385,1.167405128479004,-0.630117654800415,1.310356616973877,-2.244955062866211,-0.08135732263326645,-0.34925660490989685
11.215502738952637,1.1642937660217285,-0.6317651867866516,1.3076591491699219,-2.2442283630371094,-0.08190286159515381,-0.34843140840530396
11.235624074935913,1.167722463607788,-0.6300947070121765,1.3125982284545898,-2.245995044708252,-0.08227758854627609,-0.34689611196517944
11.255694389343262,1.1624196767807007,-0.6231479644775391,1.3187551498413086,-2.2460782527923584,-0.09208850562572479,-0.3433232307434082
11.275808095932007,1.1626605987548828,-0.6261168718338013,1.3120896816253662,-2.2448716163635254,-0.09005507826805115,-0.3432248532772064
11.295931577682495,1.1605128049850464,-0.625712513923645,1.3140816688537598,-2.246178150177002,-0.09289216250181198,-0.3419521450996399
11.31602692604065,1.1655857563018799,-0.6305431127548218,1.3057732582092285,-2.245368003845215,-0.08476138114929199,-0.3447023630142212
11.336037158966064,1.1625065803527832,-0.635694146156311,1.2971452474594116,-2.242767333984375,-0.08192756026983261,-0.346047043800354
11.356104612350464,1.1590930223464966,-0.6343529224395752,1.300499677658081,-2.240139961242676,-0.08460178971290588,-0.34478819370269775
11.376193284988403,1.15664803981781,-0.6333730816841125,1.3015832901000977,-2.2391600608825684,-0.08758226037025452,-0.3437316119670868
11.396248817443848,1.1572632789611816,-0.6336873769760132,1.3046696186065674,-2.242933988571167,-0.0911761075258255,-0.3394678235054016
11.416325092315674,1.1485595703125,-0.6329132318496704,1.299177885055542,-2.2390389442443848,-0.09568972885608673,-0.33867597579956055
11.436639308929443,1.14866304397583,-0.6342106461524963,1.294109582901001,-2.2404191493988037,-0.09532856941223145,-0.3371598720550537
11.456719160079956,1.1461015939712524,-0.6363460421562195,1.2934966087341309,-2.239642381668091,-0.09584098309278488,-0.3376299738883972
11.476815938949585,1.1479846239089966,-0.63762366771698,1.29459547996521,-2.2383205890655518,-0.09444762021303177,-0.33713483810424805
11.4968843460083,1.1440380811691284,-0.6350113153457642,1.293042540550232,-2.235064744949341,-0.09761077165603638,-0.33606666326522827
11.51711893081665,1.148252248764038,-0.6303331851959229,1.2946393489837646,-2.240121603012085,-0.10378832370042801,-0.329200804233551
11.537241458892822,1.1493109464645386,-0.6335196495056152,1.2997045516967773,-2.24141263961792,-0.10267415642738342,-0.32929885387420654
11.55729341506958,1.1508088111877441,-0.6367542743682861,1.2961502075195312,-2.240187406539917,-0.0981641560792923,-0.33112990856170654
11.577395677566528,1.1470229625701904,-0.6359779834747314,1.2963471412658691,-2.2397308349609375,-0.10189396888017654,-0.32980984449386597
11.597421884536743,1.1325606107711792,-0.6405429840087891,1.2805836200714111,-2.2374110221862793,-0.10658694058656693,-0.32892242074012756
11.617533445358276,1.1244150400161743,-0.6374282836914062,1.2824676036834717,-2.236997127532959,-0.11488839983940125,-0.3259223699569702
11.637638568878174,1.1397688388824463,-0.636649489402771,1.2872285842895508,-2.2404918670654297,-0.10676693916320801,-0.326613187789917
11.657685041427612,1.1339703798294067,-0.6413569450378418,1.2814075946807861,-2.2345528602600098,-0.10417576134204865,-0.3302415609359741
11.677789211273193,1.1361154317855835,-0.6382103562355042,1.2893424034118652,-2.236131191253662,-0.10714537650346756,-0.32758402824401855
11.697834014892578,1.1369366645812988,-0.6414898633956909,1.2813878059387207,-2.234238624572754,-0.1042187288403511,-0.32724854350090027
11.717906713485718,1.0754282474517822,-1.269718885421753,1.1966800689697266,-2.245051145553589,0.40569770336151123,-1.5855038166046143
11.737952470779419,1.1474597454071045,-1.3183320760726929,1.1166348457336426,-2.0152463912963867,0.5461597442626953,-1.7385501861572266
11.758046388626099,1.1523922681808472,-1.3216941356658936,1.1169848442077637,-2.0092387199401855,0.5511437058448792,-1.7427752017974854
11.778135776519775,1.1511363983154297,-1.3215703964233398,1.1142542362213135,-2.008676052093506,0.5496429204940796,-1.7431163787841797
11.798210382461548,1.1436134576797485,-1.3208705186843872,1.111752986907959,-2.009558916091919,0.5433378219604492,-1.7431161403656006
11.818437814712524,1.1504607200622559,-1.3227944374084473,1.1117392778396606,-2.0085368156433105,0.5488641858100891,-1.7438864707946777
11.838563680648804,1.1523879766464233,-1.3206197023391724,1.1157855987548828,-2.005052089691162,0.5440468788146973,-1.7468070983886719
11.858673810958862,1.1505109071731567,-1.3164645433425903,1.119315505027771,-2.0045464038848877,0.5366363525390625,-1.740190029144287
11.87874460220337,1.1538395881652832,-1.319894790649414,1.1136828660964966,-2.0094518661499023,0.5410059690475464,-1.7353549003601074
11.898798704147339,1.1463223695755005,-1.323049783706665,1.1085164546966553,-2.0100765228271484,0.5405805110931396,-1.7360526323318481
11.918872356414795,1.1450395584106445,-1.3216593265533447,1.1100980043411255,-2.009754180908203,0.5395379066467285,-1.736339807510376
11.938939094543457,1.1422817707061768,-1.3176236152648926,1.1050103902816772,-2.0141406059265137,0.5317409038543701,-1.7325353622436523
11.959020137786865,1.1475822925567627,-1.3209537267684937,1.112054705619812,-2.0107502937316895,0.5362064838409424,-1.7360587120056152
11.97910213470459,1.148866891860962,-1.3208189010620117,1.1117212772369385,-2.0110738277435303,0.5356508493423462,-1.7354631423950195
11.999173164367676,1.1480051279067993,-1.3210153579711914,1.1097519397735596,-2.0095858573913574,0.5359703302383423,-1.7355926036834717
12.019240617752075,1.1468349695205688,-1.3120814561843872,1.1154530048370361,-2.014796018600464,0.5224586725234985,-1.729564905166626
12.039406538009644,1.149935007095337,-1.3164114952087402,1.11356782913208,-2.012620449066162,0.5290399789810181,-1.733534812927246
12.059546709060669,1.1468908786773682,-1.3204272985458374,1.1085519790649414,-2.010902166366577,0.5325388312339783,-1.7338635921478271
12.079665660858154,1.1363593339920044,-1.3205007314682007,1.103376030921936,-2.0105862617492676,0.5272074937820435,-1.7335147857666016
12.099708795547485,1.1450774669647217,-1.3205937147140503,1.0942728519439697,-2.014671802520752,0.5294431447982788,-1.7302899360656738
12.119775533676147,1.143756628036499,-1.3221746683120728,1.097822666168213,-2.0127267837524414,0.5296101570129395,-1.7331721782684326
12.139837265014648,1.1450185775756836,-1.3209272623062134,1.1050989627838135,-2.0127859115600586,0.5256986618041992,-1.729532241821289
12.15990138053894,1.1445837020874023,-1.3195213079452515,1.1059820652008057,-2.0133183002471924,0.5242137908935547,-1.7274144887924194
12.179951906204224,1.146070957183838,-1.3184318542480469,1.1027151346206665,-2.013645648956299,0.5238784551620483,-1.7271761894226074
12.200039386749268,1.143588662147522,-1.3195383548736572,1.1049773693084717,-2.0158491134643555,0.520891547203064,-1.7256907224655151
12.220195293426514,1.136793851852417,-1.3190624713897705,1.1015548706054688,-2.015212297439575,0.5183172225952148,-1.7251489162445068
12.240248441696167,1.1368942260742188,-1.3173840045928955,1.0994242429733276,-2.0195746421813965,0.5150723457336426,-1.7223145961761475
12.260498046875,1.1413811445236206,-1.3214972019195557,1.0975556373596191,-2.0172781944274902,0.5210328102111816,-1.7254714965820312
12.2805814743042,1.1383225917816162,-1.3217766284942627,1.1012046337127686,-2.0173566341400146,0.5166491270065308,-1.7249271869659424
12.30065131187439,1.1424684524536133,-1.3140701055526733,1.1034317016601562,-2.019711494445801,0.5103592872619629,-1.7195638418197632
12.320736646652222,1.139743447303772,-1.3196654319763184,1.1018753051757812,-2.0180063247680664,0.5134464502334595,-1.7211445569992065
12.34082579612732,1.1378685235977173,-1.3199362754821777,1.0990948677062988,-2.0165066719055176,0.51494300365448,-1.7225334644317627
12.360896110534668,1.1224479675292969,-1.3204123973846436,1.0925569534301758,-2.0171260833740234,0.5084268450737,-1.7228565216064453
12.380958795547485,1.1358722448349,-1.3122313022613525,1.1002187728881836,-2.01922345161438,0.49970805644989014,-1.7181544303894043
12.4012291431427,1.1380705833435059,-1.3194162845611572,1.0897045135498047,-2.01912260055542,0.5073537826538086,-1.7235279083251953
12.421324253082275,1.1378698348999023,-1.3220077753067017,1.0835707187652588,-2.018665313720703,0.5100500583648682,-1.7214971780776978
12.441407442092896,1.1378848552703857,-1.3158106803894043,1.096692681312561,-2.0219321250915527,0.5009053945541382,-1.7133092880249023
12.46144151687622,1.1375149488449097,-1.3214166164398193,1.0904850959777832,-2.0195794105529785,0.508309543132782,-1.7168437242507935
12.481525659561157,1.1381019353866577,-1.3207485675811768,1.0929605960845947,-2.0184335708618164,0.5082790851593018,-1.7175037860870361
12.501593589782715,1.138146996498108,-1.3204538822174072,1.0935927629470825,-2.0188775062561035,0.5069448947906494,-1.7165191173553467
12.521683692932129,1.1319669485092163,-1.3181321620941162,1.0930655002593994,-2.022047281265259,0.4984651207923889,-1.7152106761932373
12.54173994064331,1.1267354488372803,-1.3183813095092773,1.0847909450531006,-2.023585796356201,0.49799349904060364,-1.7156314849853516
12.561814308166504,1.1284470558166504,-1.3186557292938232,1.0861583948135376,-2.023832321166992,0.4975757896900177,-1.7136847972869873
12.581880807876587,1.1170320510864258,-1.3199044466018677,1.081761121749878,-2.020570993423462,0.4936245381832123,-1.7180025577545166
12.601948738098145,1.1330127716064453,-1.3113775253295898,1.0938000679016113,-2.0248425006866455,0.4844905436038971,-1.709188461303711
12.62199354171753,1.1322015523910522,-1.3209402561187744,1.0816717147827148,-2.024449348449707,0.49451279640197754,-1.7123855352401733
12.642073392868042,1.1331417560577393,-1.3229684829711914,1.0798282623291016,-2.0230584144592285,0.49883776903152466,-1.7112739086151123
12.662237644195557,1.1321706771850586,-1.3214008808135986,1.0810593366622925,-2.0242631435394287,0.4956079423427582,-1.7086892127990723
12.682223796844482,1.1324821710586548,-1.3120737075805664,1.0883063077926636,-2.0284786224365234,0.48298153281211853,-1.704338550567627
12.702325820922852,1.132312297821045,-1.3199992179870605,1.0850751399993896,-2.025320529937744,0.4921402931213379,-1.706628441810608
12.722414493560791,1.132775068283081,-1.31938898563385,1.08579421043396,-2.0253219604492188,0.4913821220397949,-1.7063860893249512
12.742491483688354,1.1330389976501465,-1.3134644031524658,1.0910096168518066,-2.0269103050231934,0.4831274449825287,-1.7037853002548218
12.762546300888062,1.132748007774353,-1.3238483667373657,1.0678400993347168,-2.0256876945495605,0.49705204367637634,-1.7083837985992432
12.782659769058228,1.1320499181747437,-1.323061227798462,1.0746204853057861,-2.023946762084961,0.49634215235710144,-1.7115519046783447
12.802779197692871,1.1325072050094604,-1.3218034505844116,1.0817747116088867,-2.0226058959960938,0.4929050803184509,-1.7102640867233276
12.822852611541748,1.1284774541854858,-1.3198680877685547,1.0790923833847046,-2.0244219303131104,0.487763375043869,-1.7090266942977905
12.84311819076538,1.1276752948760986,-1.315253496170044,1.084810733795166,-2.02656626701355,0.48103684186935425,-1.7027146816253662
12.86327338218689,1.130553960800171,-1.3170534372329712,1.085106372833252,-2.0259711742401123,0.48291242122650146,-1.703526496887207
12.883289813995361,1.1214518547058105,-1.3195456266403198,1.0743237733840942,-2.02487850189209,0.4818739593029022,-1.704742670059204
12.903390169143677,1.129883050918579,-1.3211549520492554,1.0731849670410156,-2.024609327316284,0.4858141243457794,-1.7049217224121094
12.923428058624268,1.1276310682296753,-1.315574288368225,1.076797366142273,-2.026973247528076,0.47657114267349243,-1.7010676860809326
12.943533420562744,1.1290236711502075,-1.3203871250152588,1.0759531259536743,-2.0268595218658447,0.48140233755111694,-1.703607201576233
12.96357536315918,1.128112554550171,-1.3197174072265625,1.0767858028411865,-2.0258350372314453,0.47816160321235657,-1.7017468214035034
12.983654737472534,1.129130244255066,-1.3131625652313232,1.0811488628387451,-2.029151201248169,0.46993526816368103,-1.6961270570755005
13.003729104995728,1.1305629014968872,-1.3192874193191528,1.0781974792480469,-2.030583143234253,0.4766025245189667,-1.6949551105499268
13.023871421813965,1.124942660331726,-1.3209662437438965,1.0742348432540894,-2.0277767181396484,0.4773619472980499,-1.6986639499664307
13.043880224227905,1.1130857467651367,-1.3213392496109009,1.0632200241088867,-2.029862403869629,0.4729415774345398,-1.6981412172317505
13.063960552215576,1.117960810661316,-1.3232228755950928,1.05800461769104,-2.03110671043396,0.4764460623264313,-1.6987898349761963
13.084024667739868,1.1234631538391113,-1.3160600662231445,1.069201111793518,-2.0309982299804688,0.46812665462493896,-1.6949594020843506
13.104084968566895,1.1236586570739746,-1.3194512128829956,1.0678614377975464,-2.0274696350097656,0.47051239013671875,-1.697169542312622
13.124223470687866,1.124326467514038,-1.3204344511032104,1.0678764581680298,-2.027096748352051,0.4700160026550293,-1.6981841325759888
13.144343614578247,1.1251410245895386,-1.320523977279663,1.066812515258789,-2.0297141075134277,0.4686037302017212,-1.6954317092895508
13.16440749168396,1.126586675643921,-1.315836787223816,1.0687363147735596,-2.0335800647735596,0.46247148513793945,-1.6885251998901367
13.184450149536133,1.119966745376587,-1.322873592376709,1.058218240737915,-2.032228946685791,0.4685457944869995,-1.6927045583724976
13.204635381698608,1.1201951503753662,-1.3215938806533813,1.0634088516235352,-2.031904697418213,0.4652616083621979,-1.6918226480484009
13.224834442138672,1.1185789108276367,-1.3211050033569336,1.0598280429840088,-2.031430244445801,0.46497443318367004,-1.6917496919631958
13.244983434677124,1.1224522590637207,-1.3141462802886963,1.0695924758911133,-2.033797264099121,0.4568410813808441,-1.6873407363891602
13.264947414398193,1.1244418621063232,-1.3180124759674072,1.0680677890777588,-2.0320234298706055,0.4620029032230377,-1.6875059604644775
13.28508973121643,1.1231348514556885,-1.3181872367858887,1.0678160190582275,-2.0340232849121094,0.4600180685520172,-1.6875543594360352
13.30516505241394,1.1244412660598755,-1.3103439807891846,1.0734809637069702,-2.0353407859802246,0.45122605562210083,-1.6850255727767944
13.325275182723999,1.1223301887512207,-1.316949725151062,1.0686428546905518,-2.034182548522949,0.4559844732284546,-1.6864666938781738
13.34532117843628,1.1220382452011108,-1.318867564201355,1.0654571056365967,-2.032391309738159,0.459328830242157,-1.6896038055419922
13.365418195724487,1.1218271255493164,-1.3172069787979126,1.0669856071472168,-2.034210205078125,0.45528048276901245,-1.6874818801879883
13.385506868362427,1.1208581924438477,-1.3183825016021729,1.0565924644470215,-2.0336179733276367,0.4578610360622406,-1.6882619857788086
13.405551195144653,1.1177232265472412,-1.3215692043304443,1.0568127632141113,-2.033454418182373,0.4579281806945801,-1.6881791353225708
13.425631046295166,1.1115800142288208,-1.3219523429870605,1.0514535903930664,-2.033442735671997,0.4561808109283447,-1.687669038772583
13.445723295211792,1.1135274171829224,-1.3208905458450317,1.0523064136505127,-2.033596992492676,0.4544680416584015,-1.6893993616104126
13.465782403945923,1.1173059940338135,-1.3192684650421143,1.058128833770752,-2.0335168838500977,0.45157769322395325,-1.6849154233932495
13.485989093780518,1.118882656097412,-1.317774772644043,1.0566554069519043,-2.0384068489074707,0.44843995571136475,-1.6793500185012817
13.50593090057373,1.118188738822937,-1.3111392259597778,1.0614464282989502,-2.040815591812134,0.4389357268810272,-1.6757497787475586
13.526044130325317,1.1185972690582275,-1.3175673484802246,1.0609395503997803,-2.038290023803711,0.44671905040740967,-1.678300380706787
13.546191692352295,1.1199913024902344,-1.3206812143325806,1.054077386856079,-2.037168502807617,0.451767235994339,-1.6810837984085083
13.566226243972778,1.1118547916412354,-1.3194087743759155,1.0553045272827148,-2.0371792316436768,0.44622185826301575,-1.6806063652038574
13.58628249168396,1.114809274673462,-1.3201794624328613,1.05464506149292,-2.0370876789093018,0.44655919075012207,-1.6797541379928589
13.606364250183105,1.1139873266220093,-1.3185540437698364,1.0562013387680054,-2.038285255432129,0.44337621331214905,-1.6782968044281006
13.626453399658203,1.1159366369247437,-1.3120653629302979,1.0604376792907715,-2.0406997203826904,0.43525251746177673,-1.6752290725708008
13.646522283554077,1.117514729499817,-1.3183369636535645,1.056382417678833,-2.0373435020446777,0.44400715827941895,-1.6788015365600586
13.666595220565796,1.1163702011108398,-1.317581057548523,1.0569257736206055,-2.0340847969055176,0.4430595338344574,-1.6817107200622559
13.686665058135986,1.117540717124939,-1.3164712190628052,1.0572792291641235,-2.034907817840576,0.4414941072463989,-1.6788980960845947
13.706745147705078,1.11922025680542,-1.3146884441375732,1.056022047996521,-2.0392906665802,0.43719783425331116,-1.6739455461502075
13.72684907913208,1.1168898344039917,-1.3194547891616821,1.051485300064087,-2.0395030975341797,0.4397124946117401,-1.6747831106185913
13.746882915496826,1.1129462718963623,-1.318859577178955,1.0511410236358643,-2.0397934913635254,0.4371356964111328,-1.6744122505187988
13.767019748687744,1.114682912826538,-1.317907452583313,1.048112392425537,-2.0399370193481445,0.4374300241470337,-1.674735188484192
13.787168502807617,1.1058363914489746,-1.3170852661132812,1.0392318964004517,-2.0409457683563232,0.4319947063922882,-1.677358865737915
13.807241678237915,1.1136105060577393,-1.3196275234222412,1.047595739364624,-2.0423827171325684,0.43504348397254944,-1.6709007024765015
13.827311277389526,1.1117827892303467,-1.3192265033721924,1.0486301183700562,-2.0415995121002197,0.43126460909843445,-1.6701103448867798
13.847417831420898,1.108182668685913,-1.3196767568588257,1.0460296869277954,-2.0430192947387695,0.4301566779613495,-1.668712854385376
13.867474794387817,1.1018187999725342,-1.3063952922821045,1.0526078939437866,-2.0457751750946045,0.4114643633365631,-1.6645920276641846
13.887603521347046,1.1096501350402832,-1.3193527460098267,1.0425260066986084,-2.0424084663391113,0.4298139810562134,-1.6699737310409546
13.907782077789307,1.1102521419525146,-1.320934772491455,1.0383446216583252,-2.0408787727355957,0.43277835845947266,-1.6714006662368774
13.927774429321289,1.1109211444854736,-1.3201377391815186,1.0404934883117676,-2.040189743041992,0.43138745427131653,-1.6702377796173096
13.94788670539856,1.1119945049285889,-1.3157416582107544,1.0457571744918823,-2.043762445449829,0.42264524102211,-1.665749430656433
13.967921257019043,1.1107155084609985,-1.3188576698303223,1.0444310903549194,-2.0439419746398926,0.42476552724838257,-1.6649842262268066
13.988080263137817,1.1102925539016724,-1.3188973665237427,1.0437121391296387,-2.0423836708068848,0.4253076910972595,-1.6651571989059448
14.008107662200928,1.1126329898834229,-1.3179446458816528,1.042379379272461,-2.0417799949645996,0.4243612289428711,-1.6706867218017578
14.02819538116455,1.1128591299057007,-1.318697214126587,1.043247103691101,-2.0421128273010254,0.4242889881134033,-1.664587140083313
14.048231363296509,1.1114635467529297,-1.3093798160552979,1.0491952896118164,-2.0464024543762207,0.41140785813331604,-1.6593457460403442
14.068311214447021,1.1119216680526733,-1.314652681350708,1.0459052324295044,-2.0453858375549316,0.41775673627853394,-1.660682201385498
14.088379621505737,1.10816490650177,-1.3105567693710327,1.0477046966552734,-2.047494649887085,0.4093356728553772,-1.657943844795227
14.108517169952393,1.1071135997772217,-1.3161182403564453,1.0432367324829102,-2.045403242111206,0.41457599401474,-1.6610736846923828
14.128558874130249,1.1008161306381226,-1.3180807828903198,1.034122109413147,-2.0446829795837402,0.4156058728694916,-1.6626813411712646
14.148687601089478,1.1040525436401367,-1.3201183080673218,1.0335569381713867,-2.0440726280212402,0.41784927248954773,-1.663748025894165
14.16882872581482,1.1061630249023438,-1.3207188844680786,1.0292267799377441,-2.0399951934814453,0.41947200894355774,-1.6657674312591553
14.188809156417847,1.1068713665008545,-1.3197886943817139,1.035576343536377,-2.0459985733032227,0.41497573256492615,-1.6572972536087036
14.208892822265625,1.103001356124878,-1.317549228668213,1.0354063510894775,-2.0471296310424805,0.41058549284935,-1.6556003093719482
14.228955745697021,1.104364275932312,-1.3139923810958862,1.0394010543823242,-2.0498619079589844,0.40506747364997864,-1.6536136865615845
14.249032258987427,1.1011707782745361,-1.313973307609558,1.03672194480896,-2.049898624420166,0.40461936593055725,-1.6533654928207397
14.269102811813354,1.1058478355407715,-1.3143001794815063,1.038719892501831,-2.051208972930908,0.40443241596221924,-1.6515984535217285
14.289217948913574,1.104519248008728,-1.3163871765136719,1.0374486446380615,-2.0503792762756348,0.4056021273136139,-1.6525146961212158
14.309308052062988,1.104935884475708,-1.3176578283309937,1.0348553657531738,-2.04880428314209,0.40801316499710083,-1.6538468599319458
14.3293776512146,1.103621244430542,-1.31643807888031,1.0361578464508057,-2.047821521759033,0.40451082587242126,-1.6546272039413452
14.349474430084229,1.1044528484344482,-1.316092848777771,1.0318620204925537,-2.047455310821533,0.4047034978866577,-1.6561062335968018
14.3695387840271,1.1051750183105469,-1.3113092184066772,1.0380932092666626,-2.0486605167388916,0.39800477027893066,-1.6522822380065918
14.3896164894104,1.1051506996154785,-1.3154501914978027,1.0314216613769531,-2.045041561126709,0.40234118700027466,-1.654613733291626
14.409684181213379,1.1083991527557373,-1.3177852630615234,1.0307083129882812,-2.0485005378723145,0.40508660674095154,-1.652300477027893
14.430047988891602,1.1069235801696777,-1.3170864582061768,1.0303447246551514,-2.04848313331604,0.4012734889984131,-1.6495038270950317
14.450225114822388,1.1025631427764893,-1.315558910369873,1.0305023193359375,-2.050535202026367,0.39687368273735046,-1.6478259563446045
14.470267534255981,1.0958943367004395,-1.3131217956542969,1.0296669006347656,-2.052234649658203,0.39110344648361206,-1.6459450721740723
14.490375995635986,1.1029733419418335,-1.314618706703186,1.0311074256896973,-2.0518977642059326,0.3939572274684906,-1.6469922065734863
14.510776281356812,1.1032817363739014,-1.3157557249069214,1.0306944847106934,-2.0512046813964844,0.3939991593360901,-1.6469578742980957
14.530863523483276,1.1047452688217163,-1.3145807981491089,1.031097173690796,-2.0519609451293945,0.39427435398101807,-1.6458227634429932
14.550932884216309,1.1038150787353516,-1.3128881454467773,1.029789686203003,-2.0546908378601074,0.39023834466934204,-1.6435221433639526
14.571032524108887,1.101415991783142,-1.3207743167877197,1.0107365846633911,-2.0522913932800293,0.4000389575958252,-1.6486161947250366
14.591077089309692,1.1017022132873535,-1.3153867721557617,1.0274280309677124,-2.051800489425659,0.39170488715171814,-1.647133469581604
14.611157417297363,1.104415774345398,-1.3148308992385864,1.0278874635696411,-2.0519936084747314,0.39206886291503906,-1.6468985080718994
14.631223678588867,1.10566246509552,-1.3130288124084473,1.029424786567688,-2.0532193183898926,0.3896413743495941,-1.645544171333313
14.651449918746948,1.0965036153793335,-1.3131903409957886,1.0265032052993774,-2.0537819862365723,0.3841286301612854,-1.6422512531280518
14.671518325805664,1.093946099281311,-1.306381106376648,1.0300853252410889,-2.055241107940674,0.3728780746459961,-1.6404099464416504
14.691603899002075,1.0995018482208252,-1.31350839138031,1.0248878002166748,-2.052288055419922,0.3829905688762665,-1.640710473060608
14.711674928665161,1.1021255254745483,-1.3157027959823608,1.0240306854248047,-2.0544097423553467,0.38485702872276306,-1.6394083499908447
14.731775283813477,1.1016029119491577,-1.3151406049728394,1.0252318382263184,-2.055633544921875,0.38290438055992126,-1.6376827955245972
14.751843690872192,1.102853775024414,-1.3148940801620483,1.0220386981964111,-2.0564236640930176,0.3841131627559662,-1.6369450092315674
14.77190113067627,1.100766658782959,-1.3084131479263306,1.0284147262573242,-2.057939052581787,0.3737068772315979,-1.6348912715911865
14.791968822479248,1.1010627746582031,-1.3145196437835693,1.0210996866226196,-2.0562500953674316,0.3815283179283142,-1.6380490064620972
14.81209921836853,1.0961153507232666,-1.3157830238342285,1.020394206047058,-2.053537130355835,0.3808184266090393,-1.6403725147247314
14.83219313621521,1.091795563697815,-1.3147717714309692,1.0191912651062012,-2.0550649166107178,0.377704381942749,-1.639186143875122
14.852252721786499,1.0943865776062012,-1.311164379119873,1.0195908546447754,-2.0603792667388916,0.37224140763282776,-1.6338121891021729
