liuyurong129/humanoid-gym/humanoid/data/target_q_20250522-054058.csv
timestamp,joint_1,joint_2,joint_3,joint_4,joint_5,joint_6
4.4345855712890625e-05,0.0,0.0,0.0,0.0,0.0,0.0
0.020133495330810547,0.0,0.0,0.0,0.0,0.0,0.0
0.04019784927368164,0.0,0.0,0.0,0.0,0.0,0.0
0.06043577194213867,-0.8543022871017456,-0.6261614561080933,0.47985100746154785,0.5136927366256714,-0.33425629138946533,0.15605774521827698
0.0805516242980957,-1.2379525899887085,-0.9280771613121033,0.5723983645439148,0.5154129266738892,-0.14468610286712646,0.18361428380012512
0.10060358047485352,-1.2969356775283813,-1.1472395658493042,0.7038837671279907,0.4259040653705597,0.14198936522006989,0.18959152698516846
0.12065577507019043,-1.2329686880111694,-1.1790000200271606,0.7624490261077881,0.4299352765083313,0.1709621250629425,0.1753162145614624
0.14073395729064941,-1.2249867916107178,-1.175972819328308,0.756294846534729,0.4350039064884186,0.16640906035900116,0.17286726832389832
0.16079926490783691,-1.2212450504302979,-1.1742156744003296,0.7578981518745422,0.43999984860420227,0.16229607164859772,0.17202986776828766
0.18091773986816406,-1.2235535383224487,-1.1721898317337036,0.7489103674888611,0.4364733099937439,0.15921014547348022,0.17183348536491394
0.20105481147766113,-1.2133983373641968,-1.1721304655075073,0.7605282068252563,0.4380301535129547,0.1616910994052887,0.172679603099823
0.22108817100524902,-1.2051600217819214,-1.1677086353302002,0.7529192566871643,0.4411592185497284,0.16076049208641052,0.17378142476081848
0.24127650260925293,-1.2034103870391846,-1.16539466381073,0.7502123117446899,0.4425642788410187,0.15543897449970245,0.17185518145561218
0.2612617015838623,-1.196578025817871,-1.1624175310134888,0.7439273595809937,0.44337722659111023,0.15641511976718903,0.1731988936662674
0.28135013580322266,-1.199668288230896,-1.1665383577346802,0.7564845085144043,0.4468839466571808,0.15575048327445984,0.17228344082832336
0.30150818824768066,-1.20490300655365,-1.167883038520813,0.748395562171936,0.44233232736587524,0.1529688835144043,0.17123845219612122
0.32149767875671387,-1.1998069286346436,-1.1672749519348145,0.7475149631500244,0.4418782889842987,0.15487860143184662,0.17201587557792664
0.34157347679138184,-1.2026668787002563,-1.1679556369781494,0.7443332672119141,0.44225290417671204,0.15262389183044434,0.17208950221538544
0.3616616725921631,-1.198027491569519,-1.1692546606063843,0.7516162991523743,0.4401877224445343,0.1541767418384552,0.17143088579177856
0.3817315101623535,-1.2039633989334106,-1.17216956615448,0.7542140483856201,0.442327618598938,0.1536289006471634,0.1699865460395813
0.4017794132232666,-1.1958898305892944,-1.1696208715438843,0.7572299242019653,0.447001188993454,0.158238023519516,0.17087721824645996
0.4220149517059326,-1.1998037099838257,-1.1678749322891235,0.7447085380554199,0.4428938329219818,0.15337395668029785,0.1705956608057022
0.44210290908813477,-1.1969656944274902,-1.1666253805160522,0.7358657121658325,0.44150930643081665,0.1543046236038208,0.17146167159080505
0.46219468116760254,-1.1958760023117065,-1.1691838502883911,0.7509163022041321,0.4425036609172821,0.15218962728977203,0.16953995823860168
0.4822373390197754,-1.1887235641479492,-1.1672946214675903,0.7531129121780396,0.4462209641933441,0.14835664629936218,0.16883525252342224
0.5024154186248779,-1.1712788343429565,-1.1657944917678833,0.7706832885742188,0.45057645440101624,0.1555420458316803,0.17141994833946228
0.5225093364715576,-1.180721402168274,-1.164312720298767,0.7483444809913635,0.44603708386421204,0.1506883054971695,0.1711602360010147
0.5425283908843994,-1.1736009120941162,-1.165868878364563,0.756596565246582,0.4478469789028168,0.15252724289894104,0.17059578001499176
0.5629310607910156,-1.1685616970062256,-1.1650601625442505,0.7596606612205505,0.45271041989326477,0.15405166149139404,0.1708352267742157
0.5830156803131104,-1.1848798990249634,-1.1657694578170776,0.739852786064148,0.4488177001476288,0.14658552408218384,0.16806691884994507
0.6031122207641602,-1.1867080926895142,-1.1703274250030518,0.7548558712005615,0.4443979561328888,0.14693021774291992,0.16638004779815674
0.6231563091278076,-1.1736632585525513,-1.166463851928711,0.7532660961151123,0.44857579469680786,0.14709748327732086,0.16831743717193604
0.6433157920837402,-1.1675668954849243,-1.1643904447555542,0.7497437000274658,0.44942381978034973,0.14671388268470764,0.17000992596149445
0.6633443832397461,-1.1620467901229858,-1.1635667085647583,0.7542521357536316,0.4499559700489044,0.1485767960548401,0.1697893738746643
0.6834390163421631,-1.1564511060714722,-1.1637189388275146,0.7585657238960266,0.454696387052536,0.15139266848564148,0.17072740197181702
0.7034852504730225,-1.1655330657958984,-1.165959358215332,0.7520133256912231,0.45290133357048035,0.14627942442893982,0.16837777197360992
0.7235672473907471,-1.1679600477218628,-1.1681064367294312,0.7579435110092163,0.45275452733039856,0.14387454092502594,0.1671840101480484
0.7436478137969971,-1.1645852327346802,-1.1662780046463013,0.7474794983863831,0.44868478178977966,0.148554265499115,0.16925683617591858
0.7636814117431641,-1.1495829820632935,-1.1649619340896606,0.7605156302452087,0.45375826954841614,0.14783334732055664,0.16878268122673035
0.7841250896453857,-1.1684950590133667,-1.1682813167572021,0.754769504070282,0.45103785395622253,0.13900361955165863,0.16409359872341156
0.8042116165161133,-1.164150357246399,-1.1710195541381836,0.7709501385688782,0.45286282896995544,0.14441043138504028,0.16501766443252563
0.8243072032928467,-1.155922770500183,-1.1674250364303589,0.759665310382843,0.453705757856369,0.14409178495407104,0.16715815663337708
0.8443548679351807,-1.1475130319595337,-1.161702036857605,0.7449520826339722,0.4558216631412506,0.1450103521347046,0.16823941469192505
0.8644170761108398,-1.1529289484024048,-1.1661505699157715,0.7557546496391296,0.4535001814365387,0.1425197422504425,0.16648709774017334
0.8845374584197998,-1.1619786024093628,-1.1672917604446411,0.746694803237915,0.44996699690818787,0.1393468976020813,0.1654389649629593
0.9046592712402344,-1.1436861753463745,-1.1655293703079224,0.7563601732254028,0.4542531669139862,0.14454832673072815,0.16786880791187286
0.9246606826782227,-1.1475428342819214,-1.1653860807418823,0.7548426389694214,0.4555913805961609,0.14068037271499634,0.16585692763328552
0.9447450637817383,-1.15786612033844,-1.1692184209823608,0.7515138387680054,0.45252785086631775,0.1376282125711441,0.16396334767341614
0.9648258686065674,-1.156985878944397,-1.1696176528930664,0.7523910403251648,0.4523371160030365,0.13948450982570648,0.1650363951921463
0.9849035739898682,-1.1424541473388672,-1.1658724546432495,0.7544766664505005,0.45472317934036255,0.1380351483821869,0.16461245715618134
1.0050015449523926,-1.157014012336731,-1.168534278869629,0.7462118864059448,0.4571619927883148,0.1351630687713623,0.16282248497009277
1.0251400470733643,-1.1526639461517334,-1.1709867715835571,0.760882556438446,0.45802751183509827,0.13865354657173157,0.16333788633346558
1.0452322959899902,-1.1478866338729858,-1.1685221195220947,0.7550469040870667,0.4559842646121979,0.13963419198989868,0.16427484154701233
1.0653178691864014,-1.1369200944900513,-1.1636641025543213,0.7445487976074219,0.4548863172531128,0.1384129375219345,0.1652671992778778
1.0854077339172363,-1.1394751071929932,-1.165917158126831,0.7506598830223083,0.45847687125205994,0.13395658135414124,0.16357845067977905
1.1054813861846924,-1.1296360492706299,-1.1685084104537964,0.7778949737548828,0.464248389005661,0.13754534721374512,0.16308560967445374
1.1255080699920654,-1.1322994232177734,-1.1666251420974731,0.7643156051635742,0.4615536630153656,0.13217639923095703,0.16253283619880676
1.14577054977417,-1.1384190320968628,-1.1649515628814697,0.742946207523346,0.45794937014579773,0.1311650425195694,0.16298890113830566
1.1657764911651611,-1.132239818572998,-1.167239785194397,0.7558570504188538,0.4609539806842804,0.13158226013183594,0.16211853921413422
1.1858630180358887,-1.1226156949996948,-1.164923071861267,0.7567334771156311,0.4608009159564972,0.13545846939086914,0.16372895240783691
1.2059495449066162,-1.1414259672164917,-1.1695080995559692,0.7453506588935852,0.45543771982192993,0.12850981950759888,0.16071322560310364
1.2260868549346924,-1.1339280605316162,-1.1714022159576416,0.7614099979400635,0.4570338726043701,0.13656213879585266,0.1616174578666687
1.2461097240447998,-1.1311923265457153,-1.1693392992019653,0.7578345537185669,0.4568455219268799,0.1353885680437088,0.161579430103302
1.2662112712860107,-1.1177719831466675,-1.163198471069336,0.7505451440811157,0.46189185976982117,0.1335657835006714,0.16323480010032654
1.2862763404846191,-1.11737859249115,-1.1623659133911133,0.7483716011047363,0.4634540379047394,0.13101963698863983,0.16229338943958282
1.3064708709716797,-1.1191353797912598,-1.1649874448776245,0.7542693018913269,0.4629460275173187,0.13009554147720337,0.16132546961307526
1.3268215656280518,-1.1159497499465942,-1.164947509765625,0.7508836388587952,0.46315422654151917,0.12987864017486572,0.16181112825870514
1.3469138145446777,-1.1171919107437134,-1.1650276184082031,0.7523481845855713,0.4626462459564209,0.1300288438796997,0.16157642006874084
1.3670201301574707,-1.1194406747817993,-1.1696404218673706,0.7633219957351685,0.4635534882545471,0.12845027446746826,0.15951696038246155
1.3870961666107178,-1.1014024019241333,-1.166100025177002,0.7721784114837646,0.46862438321113586,0.1354411095380783,0.16173264384269714
1.4072303771972656,-1.1035590171813965,-1.1622047424316406,0.7497134804725647,0.46575188636779785,0.1289430409669876,0.16061535477638245
1.427278995513916,-1.1168935298919678,-1.165125846862793,0.7514204978942871,0.4651001989841461,0.12438225746154785,0.15834325551986694
1.4473214149475098,-1.1199451684951782,-1.1668226718902588,0.7483839392662048,0.4618564546108246,0.1267419159412384,0.15826882421970367
1.4674108028411865,-1.1094847917556763,-1.1646252870559692,0.7515155076980591,0.46650466322898865,0.1268003284931183,0.16055752336978912
1.487546443939209,-1.0970169305801392,-1.1630679368972778,0.7581775188446045,0.4671313762664795,0.12927959859371185,0.16164696216583252
1.5075769424438477,-1.1007943153381348,-1.1620699167251587,0.7457308769226074,0.4654950797557831,0.12276183068752289,0.1603960543870926
1.5276439189910889,-1.0990550518035889,-1.1618787050247192,0.7450888156890869,0.46644407510757446,0.12470667064189911,0.15988802909851074
1.5477497577667236,-1.095032811164856,-1.165481448173523,0.7588887214660645,0.46785953640937805,0.12805183231830597,0.1605897843837738
1.5678284168243408,-1.100120186805725,-1.165544867515564,0.7498080730438232,0.4641154110431671,0.12424978613853455,0.15848025679588318
1.587918758392334,-1.0919082164764404,-1.1661869287490845,0.7634787559509277,0.469875305891037,0.12617206573486328,0.1592356413602829
1.6080236434936523,-1.0890189409255981,-1.1653541326522827,0.763010561466217,0.46910780668258667,0.12366881966590881,0.15831905603408813
1.6281158924102783,-1.093435287475586,-1.166170597076416,0.760806679725647,0.4692189395427704,0.12037619948387146,0.157162606716156
1.6481835842132568,-1.0956060886383057,-1.166007161140442,0.7609972357749939,0.47035840153694153,0.1215696930885315,0.15647265315055847
1.6683213710784912,-1.089505672454834,-1.1636465787887573,0.7550362348556519,0.4696163833141327,0.12258341908454895,0.15685927867889404
1.6883506774902344,-1.0865185260772705,-1.1623553037643433,0.7523218989372253,0.47090068459510803,0.1166737973690033,0.15600477159023285
1.7084333896636963,-1.0828149318695068,-1.1618348360061646,0.7504185438156128,0.47128644585609436,0.12074245512485504,0.15819211304187775
1.728501319885254,-1.0873057842254639,-1.1640750169754028,0.7462576627731323,0.4672006666660309,0.11923061311244965,0.15751488506793976
1.7485737800598145,-1.0846612453460693,-1.165051817893982,0.7457724809646606,0.46381643414497375,0.11997625231742859,0.15761731564998627
1.7686553001403809,-1.0833730697631836,-1.1656439304351807,0.7567663192749023,0.47132691740989685,0.11843366920948029,0.1557876616716385
1.7887492179870605,-1.0725435018539429,-1.1653660535812378,0.7756369709968567,0.4820881187915802,0.123344287276268,0.1564389318227768
1.8088347911834717,-1.0605502128601074,-1.1640727519989014,0.7862753868103027,0.4823991358280182,0.11983451247215271,0.1544167399406433
1.828934907913208,-1.0712425708770752,-1.1680588722229004,0.7907671332359314,0.4832201302051544,0.11617256700992584,0.15318350493907928
1.8489534854888916,-1.0783363580703735,-1.1641606092453003,0.7655845284461975,0.4754074513912201,0.1173660159111023,0.15324187278747559
1.8691048622131348,-1.0722256898880005,-1.1623764038085938,0.7571628093719482,0.4766640067100525,0.11298750340938568,0.15452200174331665
1.889143943786621,-1.0714555978775024,-1.1650196313858032,0.7632337212562561,0.4749530255794525,0.11319532990455627,0.15410374104976654
1.909203290939331,-1.072273850440979,-1.1626431941986084,0.7481076717376709,0.47432658076286316,0.11351397633552551,0.15512676537036896
1.9293131828308105,-1.0655553340911865,-1.165692687034607,0.7690608501434326,0.48096635937690735,0.11765003204345703,0.15462927520275116
1.9493935108184814,-1.060249924659729,-1.165926456451416,0.7741981148719788,0.4799695909023285,0.11474694311618805,0.15330655872821808
1.9695217609405518,-1.0685555934906006,-1.1646379232406616,0.751105785369873,0.47331562638282776,0.11134931445121765,0.15385326743125916
1.9899952411651611,-1.054965615272522,-1.1631087064743042,0.7606037855148315,0.47807881236076355,0.11798447370529175,0.15616320073604584
2.0100746154785156,-1.0509037971496582,-1.1635390520095825,0.767846941947937,0.4785211384296417,0.1148463785648346,0.1537170261144638
2.030186891555786,-1.0553067922592163,-1.1667401790618896,0.7780483365058899,0.4852456748485565,0.11114315688610077,0.15129947662353516
2.0502350330352783,-1.0547105073928833,-1.165554165840149,0.7729360461235046,0.48292532563209534,0.11622923612594604,0.1529969871044159
2.0706050395965576,-1.0584696531295776,-1.1616557836532593,0.748786211013794,0.4780340790748596,0.11203303933143616,0.15318433940410614
2.0908727645874023,-1.0544487237930298,-1.161362648010254,0.7528854012489319,0.47816604375839233,0.10854129493236542,0.15166747570037842
2.11083722114563,-1.051857829093933,-1.1611539125442505,0.7495079040527344,0.48013192415237427,0.1077079027891159,0.1522456854581833
2.1309022903442383,-1.0398279428482056,-1.1612471342086792,0.7604882717132568,0.48363959789276123,0.11247342824935913,0.15402832627296448
2.1510095596313477,-1.0303672552108765,-1.162432074546814,0.7796975374221802,0.4886263608932495,0.11296015977859497,0.15265491604804993
2.171081304550171,-1.0264439582824707,-1.1619479656219482,0.7827215194702148,0.49012333154678345,0.11352142691612244,0.15203556418418884
2.1912827491760254,-1.0387213230133057,-1.1655479669570923,0.7813009023666382,0.4875044524669647,0.10440264642238617,0.14896678924560547
2.211367607116699,-1.052354335784912,-1.1634200811386108,0.7528296709060669,0.481899231672287,0.10277204215526581,0.14919763803482056
2.231433629989624,-1.0417604446411133,-1.1666079759597778,0.7732586860656738,0.4877088665962219,0.10890741646289825,0.15054193139076233
2.2514829635620117,-1.0381063222885132,-1.1608682870864868,0.7512876987457275,0.4841562807559967,0.10471990704536438,0.14996306598186493
2.271583080291748,-1.0274807214736938,-1.1646665334701538,0.7821629047393799,0.490418404340744,0.10824728012084961,0.14970499277114868
2.291658878326416,-1.0213652849197388,-1.1624977588653564,0.7773109674453735,0.48784947395324707,0.1067628413438797,0.15014810860157013
2.311708688735962,-1.025267243385315,-1.1653622388839722,0.7824101448059082,0.49101006984710693,0.10375253856182098,0.14838699996471405
2.331789016723633,-1.023594856262207,-1.1624139547348022,0.7709659337997437,0.48927101492881775,0.10286393761634827,0.14838095009326935
2.3518548011779785,-1.020180106163025,-1.159744143486023,0.7594501972198486,0.4867691695690155,0.10506109893321991,0.150360107421875
2.37190842628479,-1.0156360864639282,-1.16413414478302,0.7842115759849548,0.49161067605018616,0.1034562885761261,0.14884451031684875
2.392456293106079,-1.0225720405578613,-1.1650843620300293,0.776766300201416,0.4892304539680481,0.10041576623916626,0.1476917415857315
2.4125375747680664,-1.0396560430526733,-1.164390206336975,0.7488991618156433,0.4856633245944977,0.09510231018066406,0.14638200402259827
2.4326212406158447,-1.0277422666549683,-1.1629825830459595,0.7561808228492737,0.4841001331806183,0.1022523045539856,0.1483517587184906
2.4526872634887695,-1.0117849111557007,-1.1605944633483887,0.7604912519454956,0.48898056149482727,0.09841297566890717,0.14835989475250244
2.472766399383545,-1.0095936059951782,-1.1600536108016968,0.7615245580673218,0.4883866608142853,0.09987068176269531,0.1485573947429657
2.4928388595581055,-0.9976103901863098,-1.1596266031265259,0.7772630453109741,0.49434301257133484,0.10372591018676758,0.14870937168598175
2.5129106044769287,-1.0013549327850342,-1.158812165260315,0.7690384387969971,0.4967597723007202,0.10329882800579071,0.1483614146709442
2.532968282699585,-0.9990349411964417,-1.1584430932998657,0.7635160088539124,0.49147889018058777,0.09680736064910889,0.1471605896949768
2.553115129470825,-1.001307725906372,-1.1630483865737915,0.7831205129623413,0.4966875910758972,0.09409135580062866,0.14507927000522614
2.5732109546661377,-1.0095038414001465,-1.1647340059280396,0.7774790525436401,0.49532416462898254,0.09473909437656403,0.1453370451927185
2.593283176422119,-1.0053285360336304,-1.1677179336547852,0.7929707765579224,0.49704381823539734,0.098626047372818,0.14463888108730316
2.613365650177002,-1.0031955242156982,-1.1610807180404663,0.7635748982429504,0.49203556776046753,0.09575304388999939,0.14526358246803284
2.6334447860717773,-0.9919337630271912,-1.1599571704864502,0.7763729095458984,0.4977378845214844,0.09557643532752991,0.1453104317188263
2.653475284576416,-1.0029497146606445,-1.1639124155044556,0.7711693644523621,0.4914856553077698,0.09203410148620605,0.14358030259609222
2.673795223236084,-0.9988588690757751,-1.160642385482788,0.7528359889984131,0.48816606402397156,0.09369117021560669,0.1460886001586914
2.6939306259155273,-0.9800083637237549,-1.1593698263168335,0.7694379091262817,0.49536269903182983,0.09856097400188446,0.14743059873580933
2.7139809131622314,-0.9820640683174133,-1.1627668142318726,0.7878851890563965,0.5001823306083679,0.09290437400341034,0.14360561966896057
2.734046220779419,-0.9755820631980896,-1.1639924049377441,0.8092909455299377,0.5089951753616333,0.09564414620399475,0.14307256042957306
2.7541215419769287,-0.9912036061286926,-1.1580384969711304,0.7619795799255371,0.49974286556243896,0.08717066049575806,0.1419517993927002
2.774179697036743,-0.9863122701644897,-1.1598150730133057,0.7785134315490723,0.5029217600822449,0.08940869569778442,0.1413378119468689
2.7942447662353516,-0.9884087443351746,-1.1627706289291382,0.7776581048965454,0.5027119517326355,0.0897047221660614,0.14217740297317505
2.8145041465759277,-0.979369580745697,-1.1565417051315308,0.7503937482833862,0.4959065020084381,0.08963856101036072,0.14578154683113098
2.834620475769043,-0.9784697890281677,-1.161026120185852,0.7734314799308777,0.498309463262558,0.0895780473947525,0.14326301217079163
2.854763984680176,-0.9653598666191101,-1.1541540622711182,0.7583374977111816,0.5052246451377869,0.09101957082748413,0.14383725821971893
2.874765157699585,-0.9766248464584351,-1.1576989889144897,0.7634434700012207,0.5015004277229309,0.08474412560462952,0.14079229533672333
2.894869089126587,-0.9703401923179626,-1.1620179414749146,0.7910313010215759,0.5069429278373718,0.0895005464553833,0.14087054133415222
2.9149398803710938,-0.9650357365608215,-1.160828709602356,0.7833454608917236,0.5052108764648438,0.08590778708457947,0.14123788475990295
2.935046672821045,-0.9784429669380188,-1.1588753461837769,0.7516904473304749,0.4992014467716217,0.0809294581413269,0.14043626189231873
2.9551029205322266,-0.9697384238243103,-1.1633306741714478,0.785948634147644,0.5057058334350586,0.08957083523273468,0.14032605290412903
2.975175380706787,-0.9592552781105042,-1.1604034900665283,0.7824026346206665,0.5078458189964294,0.09035336971282959,0.14164979755878448
2.9952304363250732,-0.9557320475578308,-1.1616145372390747,0.7920617461204529,0.5099343657493591,0.08749622106552124,0.1410539150238037
3.0154502391815186,-0.9493166208267212,-1.159468650817871,0.7913417816162109,0.5106959939002991,0.0900564193725586,0.14131680130958557
3.035536766052246,-0.9660005569458008,-1.1574560403823853,0.7612729072570801,0.5032904148101807,0.07958056032657623,0.13846012949943542
3.055588722229004,-0.9526939988136292,-1.15738046169281,0.7744054794311523,0.507495641708374,0.08135715126991272,0.1382680982351303
3.075665235519409,-0.9503434896469116,-1.1555325984954834,0.7676243782043457,0.5089949369430542,0.08269265294075012,0.13998448848724365
3.0957839488983154,-0.9386401176452637,-1.1511839628219604,0.7622040510177612,0.5109806656837463,0.07897067070007324,0.13904191553592682
3.115861654281616,-0.962221086025238,-1.1569160223007202,0.7587702870368958,0.5030089616775513,0.07876606285572052,0.13772737979888916
3.1363420486450195,-0.9531566500663757,-1.1576825380325317,0.7619518041610718,0.5010900497436523,0.08268976211547852,0.13888558745384216
3.156420946121216,-0.9373542666435242,-1.1609148979187012,0.7971398234367371,0.51350337266922,0.08496101200580597,0.13805830478668213
3.1764917373657227,-0.9413346648216248,-1.1579103469848633,0.7834280729293823,0.5171392560005188,0.07413934171199799,0.13598468899726868
3.196666717529297,-0.9214898943901062,-1.155598521232605,0.7968989014625549,0.5192658305168152,0.07969638705253601,0.1376277208328247
3.2168595790863037,-0.9374391436576843,-1.1543570756912231,0.771772027015686,0.5145379900932312,0.06924271583557129,0.13565966486930847
3.23690128326416,-0.9412292838096619,-1.1522029638290405,0.7560131549835205,0.508406400680542,0.06854748725891113,0.13479432463645935
3.2569355964660645,-0.9436625838279724,-1.1560347080230713,0.7596995830535889,0.5085015892982483,0.06776939332485199,0.13517554104328156
3.2770416736602783,-0.9356102347373962,-1.154598355293274,0.7619781494140625,0.5072092413902283,0.07672339677810669,0.13631734251976013
3.297135353088379,-0.9327787756919861,-1.1608166694641113,0.7905501127243042,0.5127403140068054,0.07670417428016663,0.13464593887329102
3.3172788619995117,-0.9344176650047302,-1.1590776443481445,0.77713543176651,0.512397289276123,0.07653820514678955,0.13550782203674316
3.3373138904571533,-0.927340567111969,-1.1605887413024902,0.7843096852302551,0.5150704383850098,0.07193237543106079,0.13462406396865845
3.35736346244812,-0.9261217713356018,-1.1549450159072876,0.7635340690612793,0.5088154077529907,0.0729118287563324,0.1359601467847824
3.3775112628936768,-0.9280668497085571,-1.153971552848816,0.7587974667549133,0.5121735334396362,0.07178336381912231,0.1353265941143036
3.3976588249206543,-0.9104000329971313,-1.151121973991394,0.7719748020172119,0.516266405582428,0.07392808794975281,0.13530221581459045
3.417635679244995,-0.9116398692131042,-1.1538739204406738,0.780203104019165,0.5212740898132324,0.07511115074157715,0.13598892092704773
3.4377188682556152,-0.926442563533783,-1.1556226015090942,0.7652735710144043,0.5134847164154053,0.06519734859466553,0.13289417326450348
3.457782506942749,-0.9276642203330994,-1.1559909582138062,0.7602623701095581,0.5141879320144653,0.06129831075668335,0.1325983703136444
3.477839946746826,-0.9162837862968445,-1.1532113552093506,0.7679169178009033,0.5178432464599609,0.06651952862739563,0.13149797916412354
3.4979703426361084,-0.9051766991615295,-1.1583633422851562,0.8104120492935181,0.5262711048126221,0.07503607869148254,0.13162057101726532
3.518005847930908,-0.8837446570396423,-1.157591462135315,0.8291363716125488,0.5374873876571655,0.07762373983860016,0.1330946683883667
3.5380945205688477,-0.9140031933784485,-1.1504161357879639,0.7575873732566833,0.5195607542991638,0.06177295744419098,0.13262686133384705
3.558257818222046,-0.9083804488182068,-1.1574794054031372,0.7842779159545898,0.5181688070297241,0.06972788274288177,0.1326403021812439
3.5783474445343018,-0.895799458026886,-1.155354619026184,0.7875826358795166,0.5249056220054626,0.07080747187137604,0.1328069269657135
3.5984714031219482,-0.8981210589408875,-1.1554222106933594,0.784493625164032,0.5227313041687012,0.06641685962677002,0.1322259157896042
3.6184844970703125,-0.8962520956993103,-1.1559219360351562,0.7850950956344604,0.5207926034927368,0.06951344013214111,0.1314733773469925
3.6385645866394043,-0.9020280241966248,-1.1548079252243042,0.7642789483070374,0.5189743041992188,0.06155368685722351,0.13039271533489227
3.65863037109375,-0.8972362875938416,-1.1563084125518799,0.7794270515441895,0.5214194059371948,0.061846256256103516,0.12914904952049255
3.6786961555480957,-0.9037690162658691,-1.1592659950256348,0.7884657382965088,0.5259628891944885,0.06501099467277527,0.13013659417629242
3.6987926959991455,-0.8871833682060242,-1.1587324142456055,0.8048633337020874,0.5328209400177002,0.06700000166893005,0.12982970476150513
3.7189176082611084,-0.8859308362007141,-1.1497513055801392,0.7680202126502991,0.5264016389846802,0.0636322945356369,0.13117745518684387
3.7390596866607666,-0.8806169033050537,-1.147412657737732,0.7693535089492798,0.5290815830230713,0.06023070216178894,0.13024497032165527
3.759101152420044,-0.8895620703697205,-1.1500719785690308,0.7628701329231262,0.5240095853805542,0.05804064869880676,0.1297793686389923
3.779176712036133,-0.8861752152442932,-1.1531316041946411,0.7775079011917114,0.523855447769165,0.05941469967365265,0.12830385565757751
3.799278974533081,-0.8697794079780579,-1.156251072883606,0.8167300224304199,0.5371558666229248,0.06421294808387756,0.12856067717075348
3.8194031715393066,-0.8624465465545654,-1.1540237665176392,0.8163859844207764,0.5391095280647278,0.06570807099342346,0.12869319319725037
3.8394505977630615,-0.8763235211372375,-1.1554464101791382,0.8063253164291382,0.5357078313827515,0.06000925600528717,0.1267329603433609
3.859639883041382,-0.8942049741744995,-1.1521261930465698,0.7638536095619202,0.5249341726303101,0.05444943904876709,0.1263560652732849
3.8798422813415527,-0.8763329386711121,-1.152286171913147,0.7841091752052307,0.5304340124130249,0.052115634083747864,0.1257624626159668
3.8998684883117676,-0.8676611185073853,-1.1479843854904175,0.7715939879417419,0.5326204299926758,0.052198439836502075,0.1266997903585434
3.919933319091797,-0.8699139356613159,-1.1488316059112549,0.7628380060195923,0.5211054086685181,0.05341258645057678,0.1275857836008072
3.940124988555908,-0.8685715794563293,-1.1550945043563843,0.7885028719902039,0.531356692314148,0.054737746715545654,0.1261753886938095
3.9601187705993652,-0.8591465950012207,-1.158009648323059,0.8132086992263794,0.5352720618247986,0.05635447800159454,0.12472711503505707
3.980252504348755,-0.8477204442024231,-1.1524662971496582,0.8071873188018799,0.5404865741729736,0.06052117049694061,0.12669643759727478
4.000593662261963,-0.859336256980896,-1.1461700201034546,0.7613257169723511,0.5279573202133179,0.04927275329828262,0.12588146328926086
4.020719766616821,-0.8670901656150818,-1.1494122743606567,0.7757952213287354,0.5290323495864868,0.054602861404418945,0.12481363117694855
4.040766954421997,-0.8520421385765076,-1.1501131057739258,0.7980478405952454,0.5397294759750366,0.054464250802993774,0.12320274114608765
4.060857772827148,-0.8543771505355835,-1.1493061780929565,0.7843135595321655,0.5397669672966003,0.0381607711315155,0.12118305265903473
4.080975294113159,-0.8510270118713379,-1.1526457071304321,0.8079663515090942,0.5430422425270081,0.04546106606721878,0.12286818027496338
4.101017713546753,-0.8575554490089417,-1.148085594177246,0.7691296339035034,0.530762255191803,0.0484042763710022,0.12401305139064789
4.121106863021851,-0.8574603796005249,-1.1528671979904175,0.7780226469039917,0.5322195291519165,0.04410472512245178,0.12302479147911072
4.141168832778931,-0.8470415472984314,-1.1464858055114746,0.7670822143554688,0.528153121471405,0.04714490473270416,0.12241846323013306
4.161252498626709,-0.816953718662262,-1.1479525566101074,0.8108228445053101,0.5412365794181824,0.06155005097389221,0.1252230405807495
4.181339740753174,-0.8358321785926819,-1.1506634950637817,0.8068177700042725,0.5486699342727661,0.048345066606998444,0.12160107493400574
4.201451539993286,-0.8329725861549377,-1.152186393737793,0.812708854675293,0.5456539392471313,0.046639591455459595,0.11981368064880371
4.221546649932861,-0.8328590393066406,-1.1427708864212036,0.7737795114517212,0.5401569604873657,0.050820380449295044,0.12323729693889618
4.241587162017822,-0.824241578578949,-1.1437442302703857,0.7854284048080444,0.5450851917266846,0.04867874085903168,0.12268435955047607
4.261663436889648,-0.813417911529541,-1.142582654953003,0.7923142910003662,0.5498455762863159,0.05059966444969177,0.12316727638244629
4.281707525253296,-0.8142518997192383,-1.1415784358978271,0.7862988710403442,0.550152063369751,0.04942543804645538,0.12259948253631592
4.301793098449707,-0.8223751187324524,-1.1491137742996216,0.8031061291694641,0.5529031157493591,0.03837671875953674,0.11838093400001526
4.321858167648315,-0.8170160055160522,-1.1507353782653809,0.8187951445579529,0.552252471446991,0.0479351282119751,0.11895382404327393
4.341905117034912,-0.8125513792037964,-1.1524335145950317,0.8324718475341797,0.554743766784668,0.04808451235294342,0.11781293153762817
4.362493276596069,-0.8155319690704346,-1.1516371965408325,0.815542459487915,0.5509481430053711,0.03952512890100479,0.11729311943054199
4.382586479187012,-0.8092785477638245,-1.1451572179794312,0.7958745956420898,0.5504841208457947,0.040520891547203064,0.11889922618865967
4.402658939361572,-0.8117396831512451,-1.1485620737075806,0.8036657571792603,0.5506772398948669,0.0410260334610939,0.11902883648872375
4.4226696491241455,-0.8021749258041382,-1.1457141637802124,0.8046214580535889,0.5511409044265747,0.04044516384601593,0.11826193332672119
4.442849397659302,-0.8091041445732117,-1.1426526308059692,0.7831374406814575,0.5497996807098389,0.03789256513118744,0.11836886405944824
4.463050127029419,-0.802483081817627,-1.1399993896484375,0.7833313345909119,0.550956130027771,0.03975842893123627,0.11761678755283356
4.483022451400757,-0.8049525618553162,-1.1398987770080566,0.778331458568573,0.5510427951812744,0.034205980598926544,0.11610166728496552
4.503107786178589,-0.806859016418457,-1.1393383741378784,0.7774776220321655,0.5480950474739075,0.03783717006444931,0.11637748777866364
4.523182153701782,-0.7925668358802795,-1.1469155550003052,0.8206579089164734,0.5571075677871704,0.041740670800209045,0.11579859256744385
4.543287038803101,-0.77939772605896,-1.1448496580123901,0.828004777431488,0.5648771524429321,0.037888891994953156,0.11564984917640686
4.563310146331787,-0.799597442150116,-1.1386666297912598,0.780378520488739,0.5532249808311462,0.03139590471982956,0.1162644773721695
4.583519220352173,-0.7907720804214478,-1.1447359323501587,0.8041529655456543,0.5593537092208862,0.03259038180112839,0.11554151773452759
4.603606224060059,-0.7941011190414429,-1.1426252126693726,0.7825741171836853,0.5493670701980591,0.030236996710300446,0.11399219930171967
4.62362813949585,-0.7947923541069031,-1.1419931650161743,0.7819286584854126,0.5536261200904846,0.027805611491203308,0.11241738498210907
4.643675327301025,-0.7795182466506958,-1.1410804986953735,0.8004120588302612,0.5551725625991821,0.041519954800605774,0.11612275242805481
4.663805246353149,-0.7818863987922668,-1.1437795162200928,0.8124812841415405,0.5613640546798706,0.034175723791122437,0.1128339022397995
4.683851480484009,-0.7758553624153137,-1.1429414749145508,0.8155114650726318,0.5655298233032227,0.03065083920955658,0.11072215437889099
4.70393705368042,-0.7749337553977966,-1.1406770944595337,0.8070235252380371,0.5673717260360718,0.027353644371032715,0.11145545542240143
4.724101781845093,-0.7693106532096863,-1.1445304155349731,0.8340061902999878,0.5734348297119141,0.027949728071689606,0.11048594117164612
4.744095087051392,-0.764985978603363,-1.141746997833252,0.8221040368080139,0.5736986398696899,0.02527271956205368,0.10937623679637909
4.764211893081665,-0.7654966711997986,-1.1379214525222778,0.8019951581954956,0.5628596544265747,0.02775564044713974,0.10971739888191223
4.784226655960083,-0.7689672112464905,-1.140795111656189,0.7966181039810181,0.5593509674072266,0.02267742156982422,0.1092211902141571
4.80438756942749,-0.7660314440727234,-1.1429407596588135,0.8151806592941284,0.5646814107894897,0.028650939464569092,0.10956504940986633
4.824545621871948,-0.7846398949623108,-1.1411772966384888,0.7814127206802368,0.5561298131942749,0.02074825018644333,0.1081521064043045
4.8445820808410645,-0.7627971768379211,-1.1378217935562134,0.7887704968452454,0.5608725547790527,0.023694820702075958,0.10949775576591492
4.864718437194824,-0.7702456116676331,-1.1359100341796875,0.7809562087059021,0.5644528865814209,0.019082501530647278,0.10872489213943481
4.884762525558472,-0.7625808119773865,-1.1452277898788452,0.8307173252105713,0.5723310708999634,0.022829405963420868,0.10788953304290771
4.90489387512207,-0.7484371066093445,-1.1407803297042847,0.8223851323127747,0.5704915523529053,0.027678951621055603,0.10920248925685883
4.924996376037598,-0.7410280108451843,-1.1393746137619019,0.8307388424873352,0.5733850002288818,0.02460414171218872,0.10804972052574158
4.945031404495239,-0.7282814383506775,-1.1364109516143799,0.8273802399635315,0.5739607810974121,0.03017359972000122,0.10922667384147644
4.965067386627197,-0.7474074959754944,-1.132080316543579,0.7835574150085449,0.5609221458435059,0.017974957823753357,0.10637648403644562
4.985148668289185,-0.761370837688446,-1.1339912414550781,0.7857096791267395,0.5656889081001282,0.020692795515060425,0.10678783059120178
5.005252361297607,-0.761168897151947,-1.1399927139282227,0.7915723323822021,0.564332127571106,0.0192110612988472,0.10698868334293365
5.0253050327301025,-0.7551447749137878,-1.1359169483184814,0.7776211500167847,0.5671529769897461,0.014109253883361816,0.10683625936508179
5.045383453369141,-0.724383533000946,-1.144513487815857,0.865976095199585,0.5886259078979492,0.02566590905189514,0.10674002766609192
5.0654449462890625,-0.7230435013771057,-1.1353250741958618,0.8404569029808044,0.5889238715171814,0.01926290988922119,0.10578319430351257
5.08549690246582,-0.7164493203163147,-1.1363176107406616,0.8457779884338379,0.5873910188674927,0.02533327043056488,0.10763485729694366
5.105579137802124,-0.7256578207015991,-1.1358476877212524,0.8336568474769592,0.5838508605957031,0.0140862837433815,0.10339535772800446
5.125706672668457,-0.7198053002357483,-1.1347894668579102,0.8317141532897949,0.5826075673103333,0.013250485062599182,0.10236667096614838
5.145809888839722,-0.7281896471977234,-1.1315714120864868,0.803396463394165,0.5698118805885315,0.009065255522727966,0.10089592635631561
5.165834665298462,-0.7000303864479065,-1.1316627264022827,0.8296245336532593,0.5849774479866028,0.025544874370098114,0.10551628470420837
5.185994863510132,-0.7062926888465881,-1.1306183338165283,0.8243778944015503,0.5863818526268005,0.016093343496322632,0.10436028242111206
5.206010818481445,-0.7220979928970337,-1.1310490369796753,0.8076527118682861,0.5841743350028992,0.01108282059431076,0.10430274903774261
5.2260870933532715,-0.7136342525482178,-1.1390091180801392,0.8521869778633118,0.5906675457954407,0.012913607060909271,0.10145732760429382
5.246238946914673,-0.7006507515907288,-1.1346865892410278,0.8482407927513123,0.5904725790023804,0.012619182467460632,0.10096395015716553
5.266315698623657,-0.702653169631958,-1.1342021226882935,0.841599702835083,0.5959110856056213,0.010871976613998413,0.09986114501953125
5.286560535430908,-0.7011060118675232,-1.133752703666687,0.8475744724273682,0.5897291898727417,0.011304482817649841,0.0998142808675766
5.306703567504883,-0.6971017718315125,-1.1287425756454468,0.8276536464691162,0.5889788866043091,0.013520166277885437,0.10119839012622833
5.326717853546143,-0.701824426651001,-1.1302143335342407,0.817418098449707,0.5804857015609741,0.012283951044082642,0.10073788464069366
5.346797704696655,-0.7187440991401672,-1.1306359767913818,0.7956751585006714,0.577204704284668,0.0027037635445594788,0.09983797371387482
5.366837978363037,-0.685854971408844,-1.1340298652648926,0.848254382610321,0.596020519733429,0.019725114107131958,0.10269704461097717
5.386908531188965,-0.6726872324943542,-1.1316205263137817,0.8594759702682495,0.6024561524391174,0.016717299818992615,0.10152576863765717
5.407049894332886,-0.6721497774124146,-1.1271355152130127,0.8496061563491821,0.6011495590209961,0.015004783868789673,0.10177941620349884
5.427137613296509,-0.6840115189552307,-1.1284414529800415,0.8408956527709961,0.5957647562026978,0.010357312858104706,0.09929278492927551
5.447234153747559,-0.6796379685401917,-1.1212255954742432,0.81760573387146,0.5846190452575684,0.016757570207118988,0.10099685192108154
5.467314958572388,-0.6913884878158569,-1.1265220642089844,0.8096303939819336,0.5798884630203247,-0.0031131207942962646,0.09474758803844452
5.48737096786499,-0.680643618106842,-1.128747582435608,0.8342874050140381,0.5947067737579346,-0.0018430203199386597,0.09488613903522491
5.507719039916992,-0.6768118143081665,-1.1287012100219727,0.8340808749198914,0.6021325588226318,-0.008635938167572021,0.09381097555160522
5.5277979373931885,-0.6529838442802429,-1.124121069908142,0.8536345958709717,0.6101667881011963,0.01144842803478241,0.09851773083209991
5.5478904247283936,-0.660607635974884,-1.1249027252197266,0.857720136642456,0.6102874279022217,0.0064273402094841,0.09604059159755707
5.567943572998047,-0.6640568971633911,-1.1267457008361816,0.8575122356414795,0.603608250617981,0.00581476092338562,0.09493547677993774
5.588056802749634,-0.6637840867042542,-1.1232985258102417,0.8344684839248657,0.6004853248596191,0.003614954650402069,0.09467113018035889
5.608212947845459,-0.6674540042877197,-1.1228113174438477,0.8204340934753418,0.60268235206604,0.00045868754386901855,0.0947863906621933
5.628237962722778,-0.6655352711677551,-1.1203463077545166,0.8094193339347839,0.5904933214187622,-0.001052364706993103,0.09529246389865875
5.648405313491821,-0.6586377024650574,-1.1303373575210571,0.8543210029602051,0.606468141078949,-0.001084156334400177,0.09272901713848114
5.668524742126465,-0.6565375924110413,-1.1278786659240723,0.852353572845459,0.6061331629753113,-0.0037112832069396973,0.09149312973022461
5.688588857650757,-0.6541196703910828,-1.1254193782806396,0.851536750793457,0.6082701683044434,-0.007953166961669922,0.09067535400390625
5.708621025085449,-0.6499654054641724,-1.1259063482284546,0.8555058240890503,0.6097557544708252,-0.005978584289550781,0.09114636480808258
5.728780031204224,-0.6446646451950073,-1.1172847747802734,0.8384736180305481,0.6044934988021851,0.002742081880569458,0.09398049116134644
5.748780727386475,-0.6345505714416504,-1.1167218685150146,0.8390106558799744,0.6093065738677979,0.0032569095492362976,0.09372968971729279
5.76885199546814,-0.6202771067619324,-1.1162633895874023,0.8451846837997437,0.6090990304946899,0.010337457060813904,0.09470757842063904
5.788979530334473,-0.6056037545204163,-1.1184322834014893,0.8698843121528625,0.6179021596908569,0.011991351842880249,0.09411908686161041
5.8091089725494385,-0.6335049867630005,-1.117600679397583,0.8313096761703491,0.6074557304382324,-0.014190338551998138,0.08718821406364441
5.829230308532715,-0.6380727291107178,-1.1177512407302856,0.8373923301696777,0.608001708984375,-0.008810579776763916,0.08836105465888977
5.849266290664673,-0.6409528851509094,-1.1197153329849243,0.8381096124649048,0.608363151550293,-0.0073618292808532715,0.08767424523830414
5.869597434997559,-0.6423206925392151,-1.1188626289367676,0.8273385763168335,0.6073451042175293,-0.016330160200595856,0.0856957882642746
5.8898022174835205,-0.6065820455551147,-1.1226911544799805,0.8852302432060242,0.6248149871826172,0.0009291321039199829,0.08827255666255951
5.909870147705078,-0.6205071806907654,-1.1232854127883911,0.875464916229248,0.6272801756858826,-0.0068874359130859375,0.08851936459541321
5.929953336715698,-0.6087285280227661,-1.1211884021759033,0.8772269487380981,0.6262317895889282,-0.001990601420402527,0.08929042518138885
5.950095891952515,-0.623030960559845,-1.1128381490707397,0.8296189308166504,0.6106137037277222,-0.012720391154289246,0.08770674467086792
5.970219612121582,-0.6150967478752136,-1.1069029569625854,0.8175370693206787,0.6069151163101196,-0.004654943943023682,0.08964650332927704
5.990326881408691,-0.6048852205276489,-1.1138659715652466,0.8602914214134216,0.6100177764892578,-0.010996177792549133,0.08509838581085205
6.010383605957031,-0.6125497221946716,-1.1184250116348267,0.8662657737731934,0.6257153749465942,-0.01413843035697937,0.08499936759471893
6.030468463897705,-0.6095831990242004,-1.1187422275543213,0.8729071021080017,0.6297875642776489,-0.014356158673763275,0.08457589149475098
6.050534248352051,-0.6234713196754456,-1.1188548803329468,0.855255126953125,0.6243371367454529,-0.02510824054479599,0.0822134017944336
6.070604562759399,-0.6248759031295776,-1.1173735857009888,0.8417057991027832,0.6171739101409912,-0.02182578667998314,0.08344560861587524
6.090667724609375,-0.6136004328727722,-1.118360161781311,0.8458378911018372,0.6145005226135254,-0.019801270216703415,0.08238191902637482
6.110739469528198,-0.5941006541252136,-1.1136258840560913,0.8511784076690674,0.6164465546607971,-0.009461581707000732,0.08573603630065918
6.130807638168335,-0.5943577289581299,-1.1128859519958496,0.8506522178649902,0.6246749758720398,-0.010897412896156311,0.0853528082370758
6.150875091552734,-0.6072497367858887,-1.112255334854126,0.850073516368866,0.6213815212249756,-0.014219019562005997,0.08355429768562317
6.170944929122925,-0.6070786118507385,-1.111793875694275,0.8407377004623413,0.6243375539779663,-0.015024863183498383,0.0825270563364029
6.191004514694214,-0.6048831343650818,-1.1141713857650757,0.8473287224769592,0.620427131652832,-0.01880980283021927,0.08202505111694336
6.2110679149627686,-0.6087088584899902,-1.1162244081497192,0.8436728715896606,0.6239497661590576,-0.024797331541776657,0.08094263076782227
6.231207370758057,-0.6016979813575745,-1.1159592866897583,0.8467314839363098,0.6257790327072144,-0.01920940726995468,0.08173328638076782
6.25120997428894,-0.5808308720588684,-1.112947702407837,0.8614742755889893,0.6362226009368896,-0.008063219487667084,0.08399593830108643
6.27130389213562,-0.5881593227386475,-1.1120843887329102,0.8538628220558167,0.6319724917411804,-0.019903726875782013,0.0809444785118103
6.291386604309082,-0.5774295926094055,-1.1103103160858154,0.8761355876922607,0.6333986520767212,-0.016598504036664963,0.08015710115432739
6.311473608016968,-0.5744480490684509,-1.1070159673690796,0.8737940788269043,0.6314586400985718,-0.020557288080453873,0.07860906422138214
6.331498146057129,-0.5905663371086121,-1.1100667715072632,0.8611650466918945,0.6309458017349243,-0.02498132362961769,0.0787675529718399
6.351583003997803,-0.5902302861213684,-1.1099884510040283,0.8558458089828491,0.631672739982605,-0.02230977639555931,0.07940244674682617
6.371696710586548,-0.5962439179420471,-1.1149563789367676,0.8577686548233032,0.6388095617294312,-0.03298241272568703,0.07690683007240295
6.391751289367676,-0.5923992395401001,-1.1118454933166504,0.8598910570144653,0.6324675679206848,-0.028108693659305573,0.07703892886638641
6.411998271942139,-0.571419358253479,-1.1097315549850464,0.8652872443199158,0.6407326459884644,-0.015438064932823181,0.0802944004535675
6.431955099105835,-0.5563782453536987,-1.1102817058563232,0.8840861320495605,0.6423546075820923,-0.00785081833600998,0.08057405054569244
6.452008247375488,-0.5418704152107239,-1.1090056896209717,0.8927954435348511,0.6471512317657471,-0.007470265030860901,0.07865318655967712
6.4720540046691895,-0.5521276593208313,-1.1074856519699097,0.8932609558105469,0.6512223482131958,-0.01855294406414032,0.07608574628829956
6.492143392562866,-0.5604908466339111,-1.1058293581008911,0.8869031071662903,0.6476036310195923,-0.027682479470968246,0.07510136067867279
6.512206792831421,-0.5653438568115234,-1.10361647605896,0.8637405633926392,0.6431043744087219,-0.031140010803937912,0.07430210709571838
6.53227686882019,-0.5674354434013367,-1.1074249744415283,0.8630578517913818,0.6359753608703613,-0.030607901513576508,0.07226194441318512
6.552318811416626,-0.5715617537498474,-1.10850989818573,0.8717068433761597,0.6467310190200806,-0.034763555973768234,0.07332625985145569
6.572508096694946,-0.566331148147583,-1.1064764261245728,0.8719791173934937,0.6486681699752808,-0.026079505681991577,0.0755685567855835
6.59253191947937,-0.557343065738678,-1.105089545249939,0.8696380853652954,0.6438944935798645,-0.017217431217432022,0.07651041448116302
6.612659215927124,-0.5335519909858704,-1.100592851638794,0.8808470964431763,0.6488367319107056,-0.011604562401771545,0.07711268961429596
6.632659196853638,-0.5332223773002625,-1.1010230779647827,0.8899111151695251,0.6491365432739258,-0.019155513495206833,0.07411518692970276
6.6527321338653564,-0.5519262552261353,-1.103874683380127,0.8828657865524292,0.6518323421478271,-0.03458157554268837,0.07063502073287964
6.672800540924072,-0.5631886720657349,-1.1019072532653809,0.8567792177200317,0.6437139511108398,-0.03275817632675171,0.07144664227962494
6.692873954772949,-0.5614256262779236,-1.1064729690551758,0.8639966249465942,0.6448771953582764,-0.030031900852918625,0.07018877565860748
6.712910175323486,-0.5439315438270569,-1.104453682899475,0.8710926175117493,0.6450505256652832,-0.021507151424884796,0.07094448804855347
6.733097791671753,-0.5459346771240234,-1.1090526580810547,0.8875110149383545,0.6597026586532593,-0.033709440380334854,0.06929075717926025
6.753198623657227,-0.5446271300315857,-1.1027253866195679,0.8798105716705322,0.659816324710846,-0.027590420097112656,0.07105483114719391
6.773223638534546,-0.5245171189308167,-1.1034942865371704,0.8909845352172852,0.6582158803939819,-0.02766307443380356,0.06779083609580994
6.793374538421631,-0.5367950797080994,-1.104516625404358,0.898527204990387,0.6675010919570923,-0.030279871076345444,0.06888447701931
6.813465595245361,-0.5585810542106628,-1.098502516746521,0.8626712560653687,0.652499794960022,-0.03624865412712097,0.06818442046642303
6.833544969558716,-0.5469756126403809,-1.1027525663375854,0.8729402422904968,0.652967095375061,-0.03631503880023956,0.06716391444206238
6.853584289550781,-0.5546290278434753,-1.1005055904388428,0.8666286468505859,0.6509670615196228,-0.03788204491138458,0.06685265898704529
6.873647689819336,-0.535333514213562,-1.1033051013946533,0.8854540586471558,0.6640313267707825,-0.026257488876581192,0.06892195343971252
6.893786191940308,-0.5288695693016052,-1.1001198291778564,0.8865456581115723,0.658777117729187,-0.030268575996160507,0.06829871237277985
6.913924932479858,-0.5262359380722046,-1.096383810043335,0.8810343742370605,0.6583966612815857,-0.026804234832525253,0.06817887723445892
6.934010744094849,-0.5189655423164368,-1.0934500694274902,0.8787225484848022,0.6637009382247925,-0.021008465439081192,0.06988963484764099
6.954164028167725,-0.5342914462089539,-1.095935344696045,0.8688352108001709,0.6530465483665466,-0.040773991495370865,0.06507574021816254
6.974301815032959,-0.5349574685096741,-1.0961140394210815,0.8791081309318542,0.6528363227844238,-0.02971561625599861,0.06590870022773743
6.994351625442505,-0.5303964018821716,-1.1002179384231567,0.884748101234436,0.6587158441543579,-0.03564115986227989,0.06378147006034851
7.01444673538208,-0.550852358341217,-1.0985780954360962,0.8602292537689209,0.6564904451370239,-0.05363254249095917,0.061171796172857285
7.034597635269165,-0.5253770351409912,-1.0998313426971436,0.883980393409729,0.669910192489624,-0.026732321828603745,0.06680911779403687
7.054673910140991,-0.5063488483428955,-1.0954041481018066,0.8863294124603271,0.6626793146133423,-0.02683364599943161,0.06562377512454987
7.074728965759277,-0.5138475298881531,-1.0922962427139282,0.8737982511520386,0.662656843662262,-0.027137726545333862,0.0650748461484909
7.094777345657349,-0.5194965600967407,-1.096521258354187,0.875471830368042,0.6634640097618103,-0.03652101010084152,0.06231684610247612
7.114917039871216,-0.5294129848480225,-1.0960958003997803,0.8689145445823669,0.6640494465827942,-0.03410239890217781,0.061631906777620316
7.134942054748535,-0.5230854749679565,-1.0999598503112793,0.8878682851791382,0.6646280288696289,-0.0328962542116642,0.05946609005331993
7.155021905899048,-0.5261451601982117,-1.1001759767532349,0.8893381357192993,0.6721282601356506,-0.03785483166575432,0.059933315962553024
7.175315856933594,-0.5349919199943542,-1.099990725517273,0.8784406781196594,0.6700602769851685,-0.041362058371305466,0.060082290321588516
7.195452690124512,-0.5351632833480835,-1.0984821319580078,0.8688663244247437,0.6611063480377197,-0.0414704792201519,0.05956502631306648
7.2155468463897705,-0.5179978013038635,-1.0994950532913208,0.8900091648101807,0.6688146591186523,-0.03462298586964607,0.059237223118543625
7.235586404800415,-0.5030192732810974,-1.0943461656570435,0.9020744562149048,0.6792467832565308,-0.026105444878339767,0.06212068721652031
7.255692958831787,-0.5091385245323181,-1.0947587490081787,0.9047439098358154,0.6776384711265564,-0.037455301731824875,0.059757109731435776
7.275798082351685,-0.4995430111885071,-1.0928220748901367,0.8997570276260376,0.6792647242546082,-0.04094311594963074,0.058003123849630356
7.295873165130615,-0.48859941959381104,-1.093801736831665,0.9116984009742737,0.6827781200408936,-0.04288244619965553,0.055932801216840744
7.315960645675659,-0.5162371397018433,-1.0893981456756592,0.8897703289985657,0.6751024723052979,-0.0399991050362587,0.0584152452647686
7.336012363433838,-0.5172732472419739,-1.095373511314392,0.899631142616272,0.6819705963134766,-0.040692538022994995,0.0574517659842968
7.356118679046631,-0.5168454051017761,-1.0956473350524902,0.89714515209198,0.6761658191680908,-0.03977260738611221,0.055678341537714005
7.376152038574219,-0.5217196941375732,-1.0967891216278076,0.8894173502922058,0.6803902387619019,-0.043510619550943375,0.05557587370276451
7.396218776702881,-0.5006361603736877,-1.0963585376739502,0.9107381105422974,0.6909245252609253,-0.03270357474684715,0.057904187589883804
7.416299343109131,-0.5105112195014954,-1.094531536102295,0.8975120186805725,0.6887767314910889,-0.041420385241508484,0.05604035034775734
7.436361789703369,-0.4989350438117981,-1.092846393585205,0.8940528035163879,0.6860328912734985,-0.02747553214430809,0.057114508002996445
7.456436634063721,-0.4839199185371399,-1.0919289588928223,0.898289680480957,0.688934326171875,-0.021923523396253586,0.05669708177447319
7.476641893386841,-0.47968295216560364,-1.0867314338684082,0.9078968167304993,0.6924525499343872,-0.022583484649658203,0.05770748481154442
7.496734380722046,-0.4818061590194702,-1.0906412601470947,0.9154413342475891,0.6939558386802673,-0.03536258637905121,0.05405406281352043
7.516821384429932,-0.498870849609375,-1.0886335372924805,0.9051985740661621,0.685518741607666,-0.038558173924684525,0.05357929691672325
7.53695273399353,-0.5036949515342712,-1.0936193466186523,0.9030976891517639,0.6869779825210571,-0.036229752004146576,0.05373677238821983
7.557032346725464,-0.5063958764076233,-1.0910773277282715,0.9044681191444397,0.6837091445922852,-0.03796527907252312,0.05369788035750389
7.577105283737183,-0.5140827298164368,-1.0914283990859985,0.8978293538093567,0.6835023164749146,-0.046354714781045914,0.05238993093371391
7.5972795486450195,-0.5021486282348633,-1.088266134262085,0.8956760764122009,0.6801455020904541,-0.042008861899375916,0.0521661601960659
7.617281436920166,-0.4985276460647583,-1.0889288187026978,0.8907041549682617,0.6805303692817688,-0.033382903784513474,0.05300382152199745
7.637367010116577,-0.47728121280670166,-1.0888721942901611,0.9028492569923401,0.6906956434249878,-0.01839110627770424,0.05559175834059715
7.657470703125,-0.4654414653778076,-1.0888015031814575,0.9072052240371704,0.6974970102310181,-0.011370494961738586,0.054855432361364365
7.67756724357605,-0.4639046788215637,-1.0886212587356567,0.916324257850647,0.7096409797668457,-0.01863083988428116,0.05402020737528801
7.697607755661011,-0.48024874925613403,-1.0869439840316772,0.9103400707244873,0.7066054940223694,-0.032907553017139435,0.0509566105902195
7.7176971435546875,-0.4839845597743988,-1.0825707912445068,0.8998045921325684,0.6865740418434143,-0.024057861417531967,0.05002253130078316
7.73780369758606,-0.48965758085250854,-1.0894458293914795,0.9035619497299194,0.695374608039856,-0.029613200575113297,0.048850227147340775
7.757898807525635,-0.49312126636505127,-1.0921547412872314,0.9074493646621704,0.6973307728767395,-0.04183404520153999,0.046606291085481644
7.777902364730835,-0.4961124062538147,-1.0861244201660156,0.8972958922386169,0.6974915266036987,-0.04067656770348549,0.048310067504644394
7.797979116439819,-0.4811865985393524,-1.0899629592895508,0.9162095785140991,0.7106025218963623,-0.03325686603784561,0.05066743120551109
7.818041086196899,-0.47443845868110657,-1.0889915227890015,0.9061528444290161,0.7054800987243652,-0.018925633281469345,0.05087557062506676
7.838126182556152,-0.4526823163032532,-1.0904420614242554,0.9355589747428894,0.7173193693161011,-0.01541253924369812,0.04998111352324486
7.858179807662964,-0.44652917981147766,-1.084154486656189,0.9407255053520203,0.7236093282699585,-0.01272166520357132,0.05073561891913414
7.878305673599243,-0.4650455117225647,-1.0813812017440796,0.9064403176307678,0.7111644744873047,-0.02334781363606453,0.04678475484251976
7.898447275161743,-0.4753539562225342,-1.0813339948654175,0.9106661081314087,0.7097835540771484,-0.025531835854053497,0.04604307934641838
7.918526649475098,-0.4741133451461792,-1.085147500038147,0.9280211925506592,0.7190301418304443,-0.029485180974006653,0.04676530882716179
7.938650608062744,-0.4741774797439575,-1.0915671586990356,0.9307350516319275,0.7213083505630493,-0.03882419690489769,0.04367297515273094
7.958681344985962,-0.49077683687210083,-1.0841532945632935,0.9022949934005737,0.7064815759658813,-0.04366593062877655,0.042928535491228104
7.978764533996582,-0.4883875846862793,-1.0843180418014526,0.9064314961433411,0.7115715742111206,-0.0459761917591095,0.04228786379098892
7.998846054077148,-0.4774623513221741,-1.0809940099716187,0.9100625514984131,0.7032343149185181,-0.03247460722923279,0.04323859512805939
8.018877506256104,-0.4724256992340088,-1.081586241722107,0.9170303344726562,0.7134678363800049,-0.029129408299922943,0.04293949156999588
8.038973331451416,-0.45940762758255005,-1.0827805995941162,0.9275751709938049,0.7220137119293213,-0.017784319818019867,0.04615553840994835
8.059079647064209,-0.4723756015300751,-1.0803049802780151,0.9101568460464478,0.7101316452026367,-0.020634543150663376,0.04267742857336998
8.079142808914185,-0.4729573428630829,-1.0832865238189697,0.9050160646438599,0.7121446132659912,-0.01896902173757553,0.04224438592791557
8.099229097366333,-0.46833422780036926,-1.082594633102417,0.9105812311172485,0.7137914896011353,-0.01892358437180519,0.04180408641695976
8.119371175765991,-0.4674460291862488,-1.09345281124115,0.9392770528793335,0.7369167804718018,-0.037635039538145065,0.040755823254585266
8.139420986175537,-0.47550129890441895,-1.089877724647522,0.9353203177452087,0.7295365333557129,-0.03146872669458389,0.04180015251040459
8.15945291519165,-0.4792434573173523,-1.0857229232788086,0.9122026562690735,0.7195650339126587,-0.026330113410949707,0.04025566950440407
8.179611921310425,-0.4652561545372009,-1.0887398719787598,0.9315164089202881,0.7301965951919556,-0.018394719809293747,0.041818682104349136
8.199660301208496,-0.4516240954399109,-1.0884966850280762,0.9399058818817139,0.7386777997016907,-0.014154817909002304,0.041583552956581116
8.219854354858398,-0.44765347242355347,-1.0865143537521362,0.9352021217346191,0.7493394017219543,-0.007208406925201416,0.0436730794608593
8.239872694015503,-0.4430558681488037,-1.0874959230422974,0.940936803817749,0.7479909658432007,-0.005597062408924103,0.042043644934892654
8.259979009628296,-0.45243608951568604,-1.0790406465530396,0.9167726039886475,0.7272178530693054,-0.005623176693916321,0.03857211396098137
8.280019521713257,-0.4587624967098236,-1.0815727710723877,0.9324276447296143,0.7333829402923584,-0.016296260058879852,0.03670191764831543
8.300079584121704,-0.45612019300460815,-1.0825366973876953,0.9318501949310303,0.7369834184646606,-0.017145909368991852,0.03548629954457283
8.320754289627075,-0.46396106481552124,-1.0828014612197876,0.9345588684082031,0.7475650310516357,-0.028165049850940704,0.03563028946518898
8.340848445892334,-0.4610646069049835,-1.0878322124481201,0.9420892000198364,0.7555488348007202,-0.026953060179948807,0.03666571155190468
8.360920429229736,-0.4758525788784027,-1.0867680311203003,0.9277639389038086,0.7443459630012512,-0.022172164171934128,0.03556165099143982
8.380986452102661,-0.4709237813949585,-1.0860720872879028,0.9288098812103271,0.7361509203910828,-0.01714107021689415,0.03336338698863983
8.401124477386475,-0.4744405150413513,-1.085946798324585,0.9228646755218506,0.7425267696380615,-0.023893948644399643,0.03271989896893501
8.421223878860474,-0.4536091387271881,-1.0891003608703613,0.934368371963501,0.749842643737793,-0.005051359534263611,0.034694138914346695
8.441298484802246,-0.4573146402835846,-1.084411859512329,0.9202793836593628,0.7479538917541504,0.003314480185508728,0.03469717130064964
8.461345434188843,-0.43759381771087646,-1.087358832359314,0.9340411424636841,0.7587740421295166,0.018356695771217346,0.03554471582174301
8.48154592514038,-0.42391908168792725,-1.0918188095092773,0.9538106918334961,0.7752132415771484,0.02225993573665619,0.03505173698067665
8.501650094985962,-0.4540383219718933,-1.0876271724700928,0.9260309338569641,0.7602649927139282,-0.005949273705482483,0.028537370264530182
8.52174425125122,-0.45084917545318604,-1.0814498662948608,0.9292908906936646,0.7563736438751221,0.0018464922904968262,0.029538873583078384
8.541770219802856,-0.45843997597694397,-1.0830048322677612,0.9112850427627563,0.7544630765914917,0.0014593452215194702,0.02744411677122116
8.561812400817871,-0.4702625274658203,-1.0847132205963135,0.921058177947998,0.758439302444458,-0.012059085071086884,0.02671806514263153
8.581896781921387,-0.4547232389450073,-1.0947856903076172,0.9539371728897095,0.7781863212585449,-0.011055737733840942,0.029141712933778763
8.602175235748291,-0.4639018774032593,-1.0890578031539917,0.9274600744247437,0.7672363519668579,-0.0007953047752380371,0.028040718287229538
8.622185707092285,-0.45616453886032104,-1.0939503908157349,0.9328791499137878,0.7692685127258301,0.02209027111530304,0.028668340295553207
8.642298221588135,-0.47631070017814636,-1.0897223949432373,0.9059876203536987,0.7556467652320862,0.008082419633865356,0.023352276533842087
8.662376403808594,-0.46395254135131836,-1.088460922241211,0.9277909994125366,0.7652775049209595,0.012845024466514587,0.0249851755797863
8.682475328445435,-0.4564848840236664,-1.0869603157043457,0.9336197972297668,0.7701734304428101,0.011068925261497498,0.024452485144138336
8.702580451965332,-0.44002747535705566,-1.0899003744125366,0.9635733366012573,0.7810237407684326,0.021620631217956543,0.025006208568811417
8.72271180152893,-0.4095301628112793,-1.085966944694519,0.9647484421730042,0.7914290428161621,0.041900262236595154,0.027995485812425613
8.742793798446655,-0.4159514904022217,-1.0828588008880615,0.9592405557632446,0.7904785871505737,0.04138542711734772,0.028032470494508743
8.762859344482422,-0.4443454444408417,-1.0801482200622559,0.9206351637840271,0.7815791368484497,0.026420101523399353,0.0245489664375782
8.783169031143188,-0.4532817006111145,-1.0880242586135864,0.9292584657669067,0.7789544463157654,0.01737608015537262,0.020900461822748184
8.803099632263184,-0.4575633406639099,-1.0879933834075928,0.9189972877502441,0.7733862400054932,0.028700299561023712,0.019139248877763748
8.823193550109863,-0.45624488592147827,-1.0923174619674683,0.9291752576828003,0.7849138975143433,0.024294711649417877,0.018266160041093826
8.843219995498657,-0.44993844628334045,-1.092988133430481,0.9364285469055176,0.7960699796676636,0.015448108315467834,0.018902163952589035
8.863304853439331,-0.45415520668029785,-1.0944697856903076,0.9287344217300415,0.7949276566505432,0.016713380813598633,0.01825368031859398
8.883387804031372,-0.45287227630615234,-1.088508129119873,0.9277470111846924,0.7847917079925537,0.028162971138954163,0.017679091542959213
8.903440237045288,-0.43220359086990356,-1.0914169549942017,0.9398932456970215,0.8029371500015259,0.04009757936000824,0.019333798438310623
8.923505067825317,-0.4207673668861389,-1.09171462059021,0.9592134356498718,0.8113217353820801,0.04666391760110855,0.02066926285624504
8.943585395812988,-0.44032391905784607,-1.0830157995224,0.9341890215873718,0.7882647514343262,0.03331428021192551,0.014061536639928818
8.96372103691101,-0.4343886077404022,-1.0858230590820312,0.94441819190979,0.7994226217269897,0.03871618211269379,0.014334362000226974
8.983829736709595,-0.44171446561813354,-1.083797574043274,0.94840407371521,0.8067563772201538,0.03232361376285553,0.015610840171575546
9.004136085510254,-0.446540892124176,-1.0847872495651245,0.9393183588981628,0.8048617839813232,0.03343578428030014,0.0146309994161129
9.02424669265747,-0.4329003691673279,-1.0947539806365967,0.953241229057312,0.8230199813842773,0.03943611681461334,0.01699664443731308
9.044348001480103,-0.4328150749206543,-1.0939122438430786,0.9512667655944824,0.8223831653594971,0.04542146623134613,0.016729455441236496
9.06439757347107,-0.44076114892959595,-1.0959967374801636,0.9455544948577881,0.8241064548492432,0.041553013026714325,0.01605665311217308
9.084498405456543,-0.45592591166496277,-1.0910124778747559,0.9272000193595886,0.8074331879615784,0.03529974818229675,0.011813582852482796
9.104579210281372,-0.45570215582847595,-1.0951106548309326,0.9311797022819519,0.8106261491775513,0.039671048521995544,0.010518191382288933
9.1246657371521,-0.4360051155090332,-1.096847414970398,0.9229103922843933,0.8118508458137512,0.060073256492614746,0.00775214284658432
9.144710540771484,-0.4277583956718445,-1.092329978942871,0.9429395198822021,0.8208688497543335,0.05936059355735779,0.00774787925183773
9.164809942245483,-0.43192142248153687,-1.0944008827209473,0.9522099494934082,0.8311532735824585,0.04942193627357483,0.009082343429327011
9.1849365234375,-0.44960087537765503,-1.0877385139465332,0.9282852411270142,0.8231037855148315,0.04978969693183899,0.008774926885962486
9.204965114593506,-0.4342253804206848,-1.0890827178955078,0.9409700632095337,0.8250076770782471,0.06817233562469482,0.009990708902478218
9.225043058395386,-0.45071941614151,-1.093835711479187,0.921599805355072,0.8185993432998657,0.0568365752696991,0.005941322073340416
9.245123386383057,-0.46760472655296326,-1.0961854457855225,0.9101839065551758,0.817857563495636,0.04110734164714813,0.003772357478737831
9.265292644500732,-0.454406201839447,-1.0980690717697144,0.9172523021697998,0.8206081390380859,0.07215183973312378,0.006216743960976601
9.28538990020752,-0.4384024441242218,-1.103575587272644,0.9261886477470398,0.8350811004638672,0.06818066537380219,0.004719406366348267
9.30538034439087,-0.4347478151321411,-1.0944254398345947,0.9066047668457031,0.8228538632392883,0.07561692595481873,0.0026337113231420517
9.325484991073608,-0.4199299216270447,-1.0983554124832153,0.9308986663818359,0.8253198862075806,0.08331643044948578,0.0012441538274288177
9.34554648399353,-0.4016774892807007,-1.0945806503295898,0.9518020153045654,0.8465234637260437,0.09430345892906189,0.0034486930817365646
9.365680456161499,-0.4027137756347656,-1.0925345420837402,0.950111985206604,0.8560545444488525,0.0985887348651886,0.004638954997062683
9.385759115219116,-0.41651129722595215,-1.09035062789917,0.9442638754844666,0.8512945771217346,0.08172768354415894,0.0015437379479408264
9.40578556060791,-0.4214562773704529,-1.0912625789642334,0.9544848799705505,0.855069100856781,0.07914036512374878,0.002747911959886551
9.425892353057861,-0.4453677535057068,-1.0852805376052856,0.9241011738777161,0.842514157295227,0.0637723058462143,0.00042564235627651215
9.446049213409424,-0.45073115825653076,-1.0889102220535278,0.9187594652175903,0.836695671081543,0.06997931003570557,-0.0003957729786634445
9.466126441955566,-0.4431113600730896,-1.0891519784927368,0.9262914657592773,0.8331394195556641,0.08151821792125702,-0.001463102176785469
9.486239433288574,-0.44684600830078125,-1.091888427734375,0.9154560565948486,0.8406801223754883,0.07744055986404419,-0.0029770061373710632
9.50630497932434,-0.4346303939819336,-1.0968756675720215,0.9300405979156494,0.8491151332855225,0.07800111174583435,-0.005012974143028259
9.52641487121582,-0.40731382369995117,-1.0969125032424927,0.9434653520584106,0.8649387955665588,0.089597687125206,-0.004364673048257828
9.54649305343628,-0.3981173038482666,-1.0944761037826538,0.9530559182167053,0.8785676956176758,0.09876343607902527,-7.359497249126434e-05
9.566648244857788,-0.39283567667007446,-1.0932929515838623,0.9582166075706482,0.8782944083213806,0.11156216263771057,-0.00011092051863670349
9.586777925491333,-0.3972747325897217,-1.0938694477081299,0.9561656713485718,0.8836666941642761,0.10694652795791626,-0.0016163792461156845
9.60680627822876,-0.42342591285705566,-1.0878909826278687,0.9272102117538452,0.8664114475250244,0.08851312100887299,-0.00708903931081295
9.626958847045898,-0.42671358585357666,-1.0910176038742065,0.933932900428772,0.8692233562469482,0.09455637633800507,-0.006018094718456268
9.647023677825928,-0.4344830811023712,-1.0929263830184937,0.9315575361251831,0.8648886680603027,0.08184337615966797,-0.008836846798658371
9.667035102844238,-0.43849116563796997,-1.088125467300415,0.922784686088562,0.8629682064056396,0.08813658356666565,-0.007135462015867233
9.687143087387085,-0.42844587564468384,-1.092956781387329,0.9366246461868286,0.8714818358421326,0.0990549623966217,-0.006948057562112808
9.70723557472229,-0.42648541927337646,-1.0939533710479736,0.9437588453292847,0.8820090293884277,0.0889737606048584,-0.006369858980178833
9.727335691452026,-0.4226892590522766,-1.0853134393692017,0.9322386980056763,0.877001166343689,0.10703408718109131,-0.005349664017558098
9.747454166412354,-0.42201727628707886,-1.0900700092315674,0.9349620938301086,0.8829227685928345,0.10559621453285217,-0.007324382662773132
9.767547607421875,-0.40040838718414307,-1.0869574546813965,0.9382928013801575,0.8782067894935608,0.1335131824016571,-0.007400009781122208
9.78760313987732,-0.4020804166793823,-1.088528037071228,0.9365614652633667,0.8894423842430115,0.12391868233680725,-0.008439872413873672
9.807673692703247,-0.4172316789627075,-1.0844528675079346,0.9283347129821777,0.8847196102142334,0.12004736065864563,-0.00937148928642273
9.827742099761963,-0.4176129102706909,-1.0880441665649414,0.9339549541473389,0.8870824575424194,0.12025809288024902,-0.010038729757070541
9.847915172576904,-0.4185488522052765,-1.0893504619598389,0.9351880550384521,0.8883876800537109,0.11877639591693878,-0.011285632848739624
9.86797022819519,-0.41767579317092896,-1.0920716524124146,0.9381942749023438,0.8965888023376465,0.11777438223361969,-0.010442622005939484
9.888037204742432,-0.428150475025177,-1.092820644378662,0.9234325885772705,0.8900548815727234,0.10020065307617188,-0.014663506299257278
9.908162832260132,-0.4243095815181732,-1.0894957780838013,0.9267898797988892,0.8868842124938965,0.10911491513252258,-0.013567101210355759
9.928222179412842,-0.41415005922317505,-1.0945086479187012,0.9408596754074097,0.8926206827163696,0.11587581038475037,-0.013784710317850113
9.94827914237976,-0.39974886178970337,-1.0923691987991333,0.9554386734962463,0.9053249359130859,0.12596505880355835,-0.012630589306354523
9.9684157371521,-0.3996281921863556,-1.090754747390747,0.9582358598709106,0.9105076789855957,0.12666761875152588,-0.013049658387899399
9.98854947090149,-0.41319894790649414,-1.0838427543640137,0.934679388999939,0.9054684638977051,0.12367583811283112,-0.01356770470738411
10.008630990982056,-0.4048560857772827,-1.0842639207839966,0.9478700757026672,0.9154981374740601,0.13280367851257324,-0.011760067194700241
10.028746128082275,-0.4112689793109894,-1.0854376554489136,0.9424623250961304,0.9124288558959961,0.13227272033691406,-0.013297289609909058
10.04880166053772,-0.42948830127716064,-1.086403250694275,0.9178698062896729,0.9071928262710571,0.12595830857753754,-0.01569262519478798
10.06886887550354,-0.42823171615600586,-1.0878709554672241,0.915935754776001,0.8984969854354858,0.12999007105827332,-0.018620818853378296
10.088985919952393,-0.41986238956451416,-1.0920648574829102,0.9181760549545288,0.9073235392570496,0.1267024576663971,-0.01929190382361412
10.109085321426392,-0.42008620500564575,-1.0954753160476685,0.9237868189811707,0.9136696457862854,0.12340080738067627,-0.020710885524749756
10.129236936569214,-0.40535280108451843,-1.093268871307373,0.9288206100463867,0.9206446409225464,0.14174053072929382,-0.02091440185904503
10.149311065673828,-0.38416504859924316,-1.0896979570388794,0.9379274845123291,0.9274532794952393,0.16024313867092133,-0.019922032952308655
10.169503450393677,-0.3846966624259949,-1.084787368774414,0.9268929958343506,0.9295382499694824,0.1653071641921997,-0.02108636498451233
10.18948245048523,-0.3842943608760834,-1.0844303369522095,0.9370874166488647,0.9406636357307434,0.16559571027755737,-0.0193508081138134
10.209559679031372,-0.40010201930999756,-1.084753394126892,0.9239438772201538,0.9320017099380493,0.14759400486946106,-0.023991990834474564
10.229637861251831,-0.40267738699913025,-1.0866756439208984,0.9314368963241577,0.9365598559379578,0.15209993720054626,-0.023155760020017624
10.249692916870117,-0.41599041223526,-1.0873481035232544,0.9173718690872192,0.9292203187942505,0.1374310851097107,-0.02503480762243271
10.269740343093872,-0.4243272840976715,-1.0869642496109009,0.9098105430603027,0.9231579899787903,0.1293693333864212,-0.027411293238401413
10.289937019348145,-0.4159083962440491,-1.0908595323562622,0.9239020347595215,0.9307237267494202,0.13163404166698456,-0.026978563517332077
10.3099684715271,-0.4147356152534485,-1.0893748998641968,0.9241979122161865,0.9391577243804932,0.13830353319644928,-0.025491483509540558
10.330020666122437,-0.4117338955402374,-1.0912730693817139,0.9278647303581238,0.9519845843315125,0.14053015410900116,-0.024375855922698975
10.350420951843262,-0.3968241810798645,-1.0870211124420166,0.9257446527481079,0.9490258097648621,0.1610633134841919,-0.0264178104698658
10.370469570159912,-0.39852821826934814,-1.0903242826461792,0.9321545958518982,0.960822343826294,0.15577681362628937,-0.02591286599636078
10.39053463935852,-0.4030361771583557,-1.0839942693710327,0.9248799085617065,0.9503294229507446,0.1578918844461441,-0.02836569771170616
10.410582304000854,-0.401223748922348,-1.0876519680023193,0.9321075677871704,0.9592772722244263,0.15733779966831207,-0.02824431285262108
10.430856466293335,-0.4026070535182953,-1.085801601409912,0.9298427700996399,0.9601249694824219,0.15988126397132874,-0.028960276395082474
10.450949907302856,-0.4093770980834961,-1.0850309133529663,0.9230676889419556,0.9573754072189331,0.15089786052703857,-0.03037770465016365
10.471019744873047,-0.4115925431251526,-1.0865339040756226,0.9222247004508972,0.9553169012069702,0.15354424715042114,-0.030500132590532303
10.491065740585327,-0.4144454002380371,-1.090902328491211,0.9264947175979614,0.9648817777633667,0.1375758945941925,-0.031668100506067276
10.511225938796997,-0.42511874437332153,-1.086196780204773,0.9091107249259949,0.9534522294998169,0.13327482342720032,-0.033294428139925
10.531231880187988,-0.4037136435508728,-1.0866830348968506,0.9299803972244263,0.9684075713157654,0.1562221795320511,-0.030237983912229538
10.551345348358154,-0.4081328511238098,-1.0841944217681885,0.9215087890625,0.9683213233947754,0.15192995965480804,-0.03183680400252342
10.571981430053711,-0.402488112449646,-1.0860038995742798,0.9242859482765198,0.9698501825332642,0.15948747098445892,-0.033235207200050354
10.592077016830444,-0.39331990480422974,-1.08656907081604,0.9294397830963135,0.9769156575202942,0.1727987378835678,-0.03265815228223801
10.61217188835144,-0.3874856233596802,-1.0891144275665283,0.9269712567329407,0.9897819757461548,0.1762288212776184,-0.0328151099383831
10.63218879699707,-0.3965199589729309,-1.087044596672058,0.9250675439834595,0.9870852828025818,0.17435602843761444,-0.034288857132196426
10.652292013168335,-0.408205509185791,-1.0873527526855469,0.9156006574630737,0.9896767139434814,0.17810910940170288,-0.036214087158441544
10.672386646270752,-0.4088873267173767,-1.088118314743042,0.9152010083198547,0.9882858395576477,0.17802810668945312,-0.03747440502047539
10.692461013793945,-0.39942216873168945,-1.0874639749526978,0.9228161573410034,0.9907890558242798,0.1780356764793396,-0.03970518335700035
10.712512731552124,-0.3967202305793762,-1.0869004726409912,0.9315567016601562,1.0007177591323853,0.17611047625541687,-0.038510631769895554
10.732647895812988,-0.4047897458076477,-1.0841094255447388,0.9227198958396912,0.9978814721107483,0.16926942765712738,-0.039081379771232605
10.752763509750366,-0.39239680767059326,-1.0858795642852783,0.935937225818634,1.005776047706604,0.18636661767959595,-0.0381871722638607
10.772778511047363,-0.39935818314552307,-1.0876158475875854,0.9303823709487915,1.0107786655426025,0.17249387502670288,-0.03975602239370346
10.792830228805542,-0.40518325567245483,-1.087056040763855,0.9285625219345093,1.0076382160186768,0.16476452350616455,-0.039810944348573685
10.812962055206299,-0.4067985415458679,-1.083471417427063,0.9167087078094482,1.0049446821212769,0.17593908309936523,-0.0392359234392643
10.832998752593994,-0.39755791425704956,-1.0879954099655151,0.9230120778083801,1.0110554695129395,0.1832696497440338,-0.04085077717900276
10.853060245513916,-0.40306729078292847,-1.0867031812667847,0.9213239550590515,1.0127646923065186,0.17623773217201233,-0.042539361864328384
10.873440027236938,-0.39472490549087524,-1.0847657918930054,0.9270051121711731,1.0130800008773804,0.19070309400558472,-0.04277515783905983
10.89355182647705,-0.394003301858902,-1.0870674848556519,0.9336326122283936,1.025454044342041,0.18594154715538025,-0.04159453883767128
10.91367220878601,-0.40533047914505005,-1.0837751626968384,0.919306218624115,1.016937017440796,0.1796407401561737,-0.043731462210416794
10.933711767196655,-0.39984047412872314,-1.0820292234420776,0.9228326678276062,1.017996907234192,0.18717971444129944,-0.04379984363913536
10.953789472579956,-0.3962785005569458,-1.0873565673828125,0.9317083954811096,1.0269402265548706,0.18523046374320984,-0.043741483241319656
10.97386360168457,-0.39543819427490234,-1.0889856815338135,0.9385963678359985,1.0338997840881348,0.1764489710330963,-0.04361659660935402
10.993929386138916,-0.4082374572753906,-1.0867112874984741,0.9208178520202637,1.029811143875122,0.1782017946243286,-0.043756674975156784
11.013974905014038,-0.4111301302909851,-1.0886139869689941,0.9190372824668884,1.0339637994766235,0.1759715974330902,-0.04443740472197533
11.034058094024658,-0.41191190481185913,-1.0843743085861206,0.9104228019714355,1.0250933170318604,0.1860331892967224,-0.046455930918455124
11.054123640060425,-0.4011380076408386,-1.086047887802124,0.9092286825180054,1.0319806337356567,0.19646364450454712,-0.04717622697353363
11.074182510375977,-0.39889460802078247,-1.0863581895828247,0.9154176712036133,1.0334984064102173,0.19967558979988098,-0.04786801338195801
11.094307899475098,-0.39475998282432556,-1.0875364542007446,0.9217098355293274,1.0421721935272217,0.19626975059509277,-0.049310196191072464
11.114394426345825,-0.39324867725372314,-1.087703824043274,0.927817702293396,1.0462595224380493,0.19467896223068237,-0.048848461359739304
11.134468793869019,-0.397680401802063,-1.0840744972229004,0.9177851676940918,1.0456947088241577,0.20367401838302612,-0.04893910884857178
11.154548168182373,-0.39416730403900146,-1.0873454809188843,0.9229867458343506,1.0537222623825073,0.20874491333961487,-0.04978602007031441
11.174702644348145,-0.4070441722869873,-1.0896196365356445,0.921150803565979,1.0582729578018188,0.17916029691696167,-0.048372261226177216
11.194946050643921,-0.4156692922115326,-1.0875698328018188,0.9141196012496948,1.0485224723815918,0.16560058295726776,-0.0495065413415432
11.214939832687378,-0.416702538728714,-1.0842742919921875,0.9094216823577881,1.048248291015625,0.17925918102264404,-0.047628823667764664
11.23497724533081,-0.4064981937408447,-1.0862557888031006,0.9204180240631104,1.0511682033538818,0.17459434270858765,-0.05030519515275955
11.255118131637573,-0.4017964005470276,-1.0823944807052612,0.9187656044960022,1.050489902496338,0.19347244501113892,-0.050105784088373184
11.275155067443848,-0.3966188132762909,-1.0830612182617188,0.9223170280456543,1.0601263046264648,0.20400375127792358,-0.051835980266332626
11.295245885848999,-0.397657573223114,-1.0871309041976929,0.9242359399795532,1.0673762559890747,0.19836336374282837,-0.053753554821014404
11.3152916431427,-0.40272772312164307,-1.0849570035934448,0.9188798069953918,1.067641258239746,0.19539767503738403,-0.05241653695702553
11.3354172706604,-0.4155539572238922,-1.0861676931381226,0.9068565368652344,1.0667098760604858,0.18578213453292847,-0.053378257900476456
11.35551643371582,-0.41120386123657227,-1.0884724855422974,0.9132062196731567,1.0713942050933838,0.19251632690429688,-0.05345166102051735
11.375621795654297,-0.4090927839279175,-1.0890246629714966,0.9146378636360168,1.0771520137786865,0.1989021897315979,-0.05356018990278244
11.395645380020142,-0.4079093933105469,-1.0860897302627563,0.9106431007385254,1.0787138938903809,0.20957845449447632,-0.05356220528483391
11.415733337402344,-0.3910321891307831,-1.091109275817871,0.9259527921676636,1.0874557495117188,0.212848961353302,-0.056292712688446045
11.435784578323364,-0.3926551342010498,-1.086459755897522,0.91968834400177,1.0903514623641968,0.2224799394607544,-0.05672712251543999
11.455858945846558,-0.4036646783351898,-1.0886285305023193,0.9144383668899536,1.092708945274353,0.2069827914237976,-0.058703672140836716
11.475956916809082,-0.3988211154937744,-1.0875029563903809,0.9182093739509583,1.0945324897766113,0.21411308646202087,-0.058334801346063614
11.496057033538818,-0.3986949324607849,-1.0874909162521362,0.9171774387359619,1.0952680110931396,0.21171221137046814,-0.05919414758682251
11.516096353530884,-0.3981553316116333,-1.090375304222107,0.9196367263793945,1.1084073781967163,0.2094462513923645,-0.05738412216305733
11.536188125610352,-0.40204575657844543,-1.088741421699524,0.9140713810920715,1.1052522659301758,0.21383029222488403,-0.06018904224038124
11.55627727508545,-0.40332531929016113,-1.0875369310379028,0.9136451482772827,1.1068918704986572,0.21350327134132385,-0.05996282026171684
11.57634711265564,-0.39899346232414246,-1.0842403173446655,0.9114106893539429,1.1028943061828613,0.2236267328262329,-0.0620986707508564
11.59641981124878,-0.4085873067378998,-1.0866214036941528,0.9078943729400635,1.1050169467926025,0.20234623551368713,-0.06424468755722046
11.616534233093262,-0.4128424823284149,-1.0842167139053345,0.9026340246200562,1.1067023277282715,0.2068677544593811,-0.06291599571704865
11.636586427688599,-0.40991461277008057,-1.0844104290008545,0.903314471244812,1.107560157775879,0.2151017189025879,-0.06547828763723373
11.656640768051147,-0.407126247882843,-1.0856903791427612,0.9083943963050842,1.120304822921753,0.21950066089630127,-0.0651472955942154
11.676692724227905,-0.40277212858200073,-1.083505392074585,0.9083536267280579,1.1276838779449463,0.23632213473320007,-0.0653417557477951
11.6968412399292,-0.39697474241256714,-1.0858978033065796,0.9178601503372192,1.1361628770828247,0.23994028568267822,-0.06586970388889313
11.716970205307007,0.5824025273323059,-0.9799097776412964,1.316347599029541,0.8202170133590698,0.6903099417686462,-0.4768042266368866
11.736969470977783,0.556124746799469,-0.9526152014732361,1.362367033958435,0.8863575458526611,0.8068419098854065,-0.4703180491924286
11.757038593292236,0.5514130592346191,-0.9481774568557739,1.3633266687393188,0.8944136500358582,0.8269041180610657,-0.47281184792518616
11.77712345123291,0.5493605732917786,-0.9469032287597656,1.3683559894561768,0.9004842042922974,0.8352444767951965,-0.4747530519962311
11.797207117080688,0.5493717789649963,-0.9461618661880493,1.3693348169326782,0.9021736979484558,0.8423630595207214,-0.47561708092689514
11.81728219985962,0.5476061701774597,-0.9466174840927124,1.3683847188949585,0.9044671654701233,0.8446718454360962,-0.475636750459671
11.837396383285522,0.5472496747970581,-0.9467167258262634,1.3687776327133179,0.9038814306259155,0.8436465263366699,-0.47588759660720825
11.85744857788086,0.5471612215042114,-0.9472036361694336,1.3683515787124634,0.9046692848205566,0.8430046439170837,-0.4756944477558136
11.877540349960327,0.5480408668518066,-0.9467202425003052,1.369381070137024,0.9031358957290649,0.8424471020698547,-0.4760299324989319
11.897679567337036,0.5476813912391663,-0.9463401436805725,1.368542194366455,0.9033434987068176,0.8425803780555725,-0.4756128191947937
11.917869567871094,0.5473410487174988,-0.9471893906593323,1.3680084943771362,0.904516339302063,0.8425977826118469,-0.47552964091300964
11.937886238098145,0.5474975109100342,-0.9469223022460938,1.368492603302002,0.9037845134735107,0.8428291082382202,-0.4757717549800873
11.957938432693481,0.5476208329200745,-0.9471228718757629,1.3682373762130737,0.9038677215576172,0.8422754406929016,-0.47582530975341797
11.978091478347778,0.5472834706306458,-0.9476416110992432,1.3679251670837402,0.9047549962997437,0.8423171043395996,-0.4757170081138611
11.998117685317993,0.5466565489768982,-0.9489802122116089,1.3690600395202637,0.9048780202865601,0.8383499383926392,-0.475737065076828
12.018275499343872,0.5477246642112732,-0.9483169913291931,1.3693541288375854,0.9032776355743408,0.836642861366272,-0.47550326585769653
12.03867793083191,0.5480877161026001,-0.9474239945411682,1.3696523904800415,0.902363121509552,0.8381472826004028,-0.4756655693054199
12.05881381034851,0.548642098903656,-0.9469179511070251,1.3691179752349854,0.9031978845596313,0.8404969573020935,-0.47554081678390503
12.07893443107605,0.5469140410423279,-0.947573184967041,1.3683778047561646,0.9043617844581604,0.8412275910377502,-0.4755922853946686
12.099176168441772,0.5470709204673767,-0.9467676877975464,1.3688777685165405,0.9032384157180786,0.8394505977630615,-0.4755870997905731
12.119319438934326,0.5474466681480408,-0.9470584392547607,1.37030029296875,0.9021620154380798,0.8362089991569519,-0.47561052441596985
12.139335632324219,0.547521710395813,-0.9480592608451843,1.367997646331787,0.9042465686798096,0.8386191129684448,-0.47541800141334534
12.159403800964355,0.5466741919517517,-0.9493221044540405,1.3677659034729004,0.9037901759147644,0.8368940949440002,-0.47611749172210693
12.179473400115967,0.5460981130599976,-0.9508559703826904,1.366719126701355,0.9054899215698242,0.8347145915031433,-0.47565850615501404
12.199552774429321,0.5488783717155457,-0.947832465171814,1.3690060377120972,0.9018458127975464,0.8368311524391174,-0.47581228613853455
12.2196364402771,0.5475034117698669,-0.9476891160011292,1.3688298463821411,0.9035360813140869,0.8391692638397217,-0.4756259322166443
12.239646911621094,0.5480876564979553,-0.9460277557373047,1.3701633214950562,0.9019467234611511,0.8417840003967285,-0.4760517477989197
12.259727716445923,0.5476344227790833,-0.9457595944404602,1.3693835735321045,0.9025695323944092,0.8419582843780518,-0.47568756341934204
12.279797077178955,0.5475664734840393,-0.9463878870010376,1.3690778017044067,0.9036455154418945,0.8416469693183899,-0.4757630527019501
12.299862384796143,0.5478705167770386,-0.9470264911651611,1.3693243265151978,0.9039192199707031,0.84132981300354,-0.4759311079978943
12.320297956466675,0.5468721985816956,-0.9485377073287964,1.368470311164856,0.9047529697418213,0.8377999663352966,-0.4757898151874542
12.340389728546143,0.5477954745292664,-0.9481391906738281,1.368716835975647,0.9040592908859253,0.8383380174636841,-0.4759819209575653
12.360458374023438,0.5488405227661133,-0.948610782623291,1.3694896697998047,0.9025915265083313,0.8325099945068359,-0.4754481613636017
12.380529165267944,0.5480664372444153,-0.948481559753418,1.3688048124313354,0.9038100242614746,0.8353874683380127,-0.475269079208374
12.400614023208618,0.5480170845985413,-0.9499969482421875,1.3703786134719849,0.9042428731918335,0.8322514891624451,-0.4752894639968872
12.420691013336182,0.5466200709342957,-0.949245810508728,1.3669968843460083,0.9032882452011108,0.8341946601867676,-0.4753686785697937
12.440744876861572,0.5461692810058594,-0.9503002762794495,1.366428256034851,0.903785765171051,0.8352282643318176,-0.4758912920951843
12.460827112197876,0.5452069640159607,-0.9514063000679016,1.3661073446273804,0.90434730052948,0.8337299227714539,-0.476334810256958
12.480926036834717,0.5454520583152771,-0.9517088532447815,1.3648970127105713,0.9053487777709961,0.8337969779968262,-0.4759967625141144
12.501012563705444,0.5476740002632141,-0.9495226144790649,1.368385910987854,0.9033949971199036,0.8365563750267029,-0.47600775957107544
12.521115779876709,0.5474119782447815,-0.9495693445205688,1.368139624595642,0.9042632579803467,0.8369570374488831,-0.47569742798805237
12.54120659828186,0.5473142862319946,-0.9515247941017151,1.3705369234085083,0.9048150777816772,0.8309962749481201,-0.4754084348678589
12.561338186264038,0.5485249161720276,-0.9525642395019531,1.3705273866653442,0.9043251276016235,0.825825035572052,-0.47489988803863525
12.581453084945679,0.548618733882904,-0.951099157333374,1.3676098585128784,0.9045536518096924,0.83261638879776,-0.47491809725761414
12.601449489593506,0.5465990304946899,-0.9515161514282227,1.36659574508667,0.9050957560539246,0.8329983949661255,-0.4751476049423218
12.621535301208496,0.5466827750205994,-0.9522953033447266,1.3675482273101807,0.9051818251609802,0.8312737941741943,-0.4751967489719391
12.64171576499939,0.5477102994918823,-0.9506163001060486,1.368338704109192,0.9044011831283569,0.8365435004234314,-0.4754132628440857
12.661697626113892,0.547012984752655,-0.9497798681259155,1.368639349937439,0.9044656753540039,0.8383710384368896,-0.4755784571170807
12.681860446929932,0.5477326512336731,-0.9490832090377808,1.3694463968276978,0.9035699367523193,0.8380557894706726,-0.47568464279174805
12.70198130607605,0.5467864871025085,-0.9501603841781616,1.368171215057373,0.9043678045272827,0.8373719453811646,-0.47575411200523376
12.72209906578064,0.5457000136375427,-0.9511520266532898,1.366346001625061,0.9046435952186584,0.8355811238288879,-0.4759834110736847
12.742112398147583,0.5468361973762512,-0.9517922401428223,1.3679827451705933,0.9050582051277161,0.8318542838096619,-0.4754263758659363
12.762192964553833,0.547607421875,-0.9528936743736267,1.371259093284607,0.9037796258926392,0.825488269329071,-0.4752710163593292
12.782254219055176,0.5481399297714233,-0.9518939852714539,1.3697044849395752,0.9044108390808105,0.8304516673088074,-0.47507911920547485
12.802343368530273,0.5482566356658936,-0.9512917995452881,1.3708869218826294,0.9034285545349121,0.8299586772918701,-0.4752984642982483
12.822504758834839,0.5483315587043762,-0.950224757194519,1.368651270866394,0.9040125608444214,0.8347256779670715,-0.47558364272117615
12.84259295463562,0.5466389060020447,-0.94990074634552,1.3674671649932861,0.9039514064788818,0.8349509835243225,-0.4756432771682739
12.86266565322876,0.5471901893615723,-0.9496057033538818,1.3685320615768433,0.9043363332748413,0.836972713470459,-0.4759955406188965
12.882683515548706,0.5474197864532471,-0.949250340461731,1.368822693824768,0.9044241905212402,0.8369442820549011,-0.4760533571243286
12.902835130691528,0.547702968120575,-0.9494964480400085,1.3692115545272827,0.9045242071151733,0.8366997838020325,-0.47620734572410583
12.922851085662842,0.5475525259971619,-0.9499717950820923,1.3690522909164429,0.9044426679611206,0.8348442912101746,-0.47600945830345154
12.9429771900177,0.5479670166969299,-0.9516186714172363,1.3704650402069092,0.9041781425476074,0.8288561701774597,-0.47570890188217163
12.963039636611938,0.5476332902908325,-0.9513306021690369,1.368636131286621,0.9047539234161377,0.8314334154129028,-0.4755796492099762
12.983141660690308,0.5479269623756409,-0.9514751434326172,1.368484377861023,0.9051879644393921,0.8323760628700256,-0.47569066286087036
13.00330662727356,0.5474294424057007,-0.9510564804077148,1.3679450750350952,0.9044805765151978,0.8327435851097107,-0.4758458733558655
13.023349523544312,0.5479050874710083,-0.9522194862365723,1.3706527948379517,0.9042425155639648,0.8284275531768799,-0.47574129700660706
13.043644428253174,0.5490297675132751,-0.9506775140762329,1.3694649934768677,0.9040708541870117,0.8327084183692932,-0.4754500091075897
13.063717365264893,0.5479813814163208,-0.9509706497192383,1.368568778038025,0.9050670862197876,0.833960235118866,-0.47553712129592896
13.083873271942139,0.5478828549385071,-0.950566828250885,1.3688139915466309,0.9045325517654419,0.8343982696533203,-0.475884348154068
13.103861570358276,0.5461776852607727,-0.9516783356666565,1.367527961730957,0.9053956270217896,0.833069384098053,-0.47578421235084534
13.123974800109863,0.5460096597671509,-0.9524264335632324,1.3670233488082886,0.9046584367752075,0.8316648602485657,-0.4763336777687073
13.144051551818848,0.5468288064002991,-0.953721821308136,1.3680487871170044,0.9042940139770508,0.8257486820220947,-0.4759594202041626
13.164085865020752,0.5467273592948914,-0.9528475999832153,1.3661576509475708,0.9039727449417114,0.8277367949485779,-0.47566935420036316
13.184362173080444,0.5469618439674377,-0.9521698951721191,1.3658570051193237,0.9043138027191162,0.8312249183654785,-0.475652277469635
13.204492092132568,0.5475825667381287,-0.9526484608650208,1.3676058053970337,0.9055354595184326,0.8325653672218323,-0.4757991135120392
13.224576950073242,0.547868549823761,-0.952480673789978,1.3684914112091064,0.9057052135467529,0.8327895998954773,-0.47571590542793274
13.24460768699646,0.548271894454956,-0.9520405530929565,1.3695791959762573,0.9046116471290588,0.8310982584953308,-0.47578006982803345
13.26521372795105,0.547828733921051,-0.9524269104003906,1.3718115091323853,0.9031686186790466,0.826153576374054,-0.4755672216415405
13.28530240058899,0.5468575954437256,-0.9517765045166016,1.3681069612503052,0.9036979079246521,0.8290582895278931,-0.4752638638019562
13.305380582809448,0.5477098822593689,-0.9528568387031555,1.370702862739563,0.9041911363601685,0.8268883228302002,-0.47571995854377747
13.32550597190857,0.5485973954200745,-0.9528173208236694,1.3692712783813477,0.9042196273803711,0.826740026473999,-0.4751324951648712
13.345610857009888,0.5470739006996155,-0.9534998536109924,1.3661143779754639,0.9060344099998474,0.8295086026191711,-0.4751928150653839
13.365692615509033,0.5460701584815979,-0.9543641805648804,1.3666644096374512,0.9055584073066711,0.8274965286254883,-0.4756942391395569
13.38578176498413,0.5471137166023254,-0.953488826751709,1.367540717124939,0.9040395617485046,0.8286716341972351,-0.47625747323036194
13.40595293045044,0.5476342439651489,-0.9531282782554626,1.3678284883499146,0.9058976769447327,0.8311951160430908,-0.4757862985134125
13.426120042800903,0.5473765730857849,-0.9525148868560791,1.368082046508789,0.9051620364189148,0.8321228623390198,-0.47593700885772705
13.446200847625732,0.5475603342056274,-0.9524642825126648,1.3695837259292603,0.905011773109436,0.8310502171516418,-0.47583433985710144
13.466320037841797,0.5478576421737671,-0.9515582919120789,1.3698452711105347,0.9035627245903015,0.8291786313056946,-0.47579047083854675
13.486402988433838,0.5481671690940857,-0.9507055878639221,1.369072437286377,0.9035883545875549,0.8315514326095581,-0.47566115856170654
13.506566524505615,0.5468106269836426,-0.9523910880088806,1.3679090738296509,0.9056211709976196,0.8304716348648071,-0.4756343364715576
13.526580333709717,0.5479205250740051,-0.9527158141136169,1.3691192865371704,0.9050341248512268,0.8293585181236267,-0.4758056104183197
13.546704292297363,0.5479670166969299,-0.9526361227035522,1.3693560361862183,0.9049172401428223,0.8295632004737854,-0.47575005888938904
13.566755056381226,0.5480733513832092,-0.9532540440559387,1.3702105283737183,0.90455162525177,0.8257147669792175,-0.47528406977653503
13.586833477020264,0.5468581318855286,-0.9535980820655823,1.3682254552841187,0.9054620265960693,0.8276332020759583,-0.47526541352272034
13.606926202774048,0.5482742190361023,-0.952567458152771,1.3695875406265259,0.9040626287460327,0.8287370204925537,-0.475925475358963
13.62708830833435,0.5480197072029114,-0.9523377418518066,1.3708914518356323,0.903899073600769,0.8284977674484253,-0.4758610725402832
13.647156238555908,0.5486765503883362,-0.9533397555351257,1.3719629049301147,0.9045113921165466,0.8259090781211853,-0.4755677282810211
13.66719937324524,0.5476557612419128,-0.9535559415817261,1.368923544883728,0.9057124853134155,0.828501284122467,-0.4753328859806061
13.687291622161865,0.5478087067604065,-0.9528928399085999,1.3686953783035278,0.9050876498222351,0.8299580812454224,-0.4756106436252594
13.70738172531128,0.5478522181510925,-0.9528138041496277,1.3695874214172363,0.9052137136459351,0.8304384350776672,-0.47560739517211914
13.727418422698975,0.547029972076416,-0.952987015247345,1.3693515062332153,0.9040674567222595,0.8287196159362793,-0.4758358597755432
13.747500896453857,0.5475893616676331,-0.9526892900466919,1.3690000772476196,0.9039950370788574,0.8294232487678528,-0.47588998079299927
13.767590284347534,0.546112596988678,-0.9542002081871033,1.366576075553894,0.9046753644943237,0.8268471956253052,-0.4760931432247162
13.787742853164673,0.5487518906593323,-0.9546310901641846,1.3670037984848022,0.9047806859016418,0.8244421482086182,-0.4754782021045685
13.807758331298828,0.5485080480575562,-0.95401531457901,1.3694814443588257,0.9037085771560669,0.82427579164505,-0.4755188226699829
13.827925443649292,0.5485262274742126,-0.9553203582763672,1.3704770803451538,0.9053217768669128,0.8229160308837891,-0.4751323163509369
13.847943544387817,0.5482297539710999,-0.9548089504241943,1.3696452379226685,0.9047948718070984,0.8242435455322266,-0.4752320647239685
13.868058443069458,0.5478599667549133,-0.9547484517097473,1.3692090511322021,0.9052597284317017,0.8266595005989075,-0.4754936099052429
13.888083219528198,0.5477063059806824,-0.9543105959892273,1.3700766563415527,0.9048365354537964,0.8254490494728088,-0.47536608576774597
13.908173084259033,0.5482277274131775,-0.9534570574760437,1.3699349164962769,0.9039931297302246,0.8263623714447021,-0.47541892528533936
13.928312301635742,0.547907292842865,-0.9544492959976196,1.3682206869125366,0.9053069353103638,0.8270652890205383,-0.4754321873188019
13.948341608047485,0.5459588170051575,-0.9547004103660583,1.3679393529891968,0.9051429629325867,0.82786625623703,-0.47577133774757385
13.968528270721436,0.5460725426673889,-0.9569234848022461,1.3706163167953491,0.9048886299133301,0.8196972012519836,-0.47573086619377136
13.9886794090271,0.5481106638908386,-0.9579194188117981,1.3715322017669678,0.9055265188217163,0.8150138854980469,-0.47511395812034607
14.008762836456299,0.548118531703949,-0.9569860696792603,1.3690191507339478,0.9055204391479492,0.8199417591094971,-0.47480687499046326
14.028838157653809,0.5478534698486328,-0.9559621810913086,1.368669867515564,0.9058746099472046,0.823982298374176,-0.4747573733329773
14.048888444900513,0.5468412041664124,-0.9570088982582092,1.3691117763519287,0.904926598072052,0.8178136944770813,-0.47467294335365295
14.068981885910034,0.5483759045600891,-0.9562440514564514,1.3685636520385742,0.9049568176269531,0.8205761313438416,-0.47478365898132324
14.089051961898804,0.5483421087265015,-0.9563108682632446,1.3686164617538452,0.9061139225959778,0.8248800039291382,-0.4749847948551178
14.109121799468994,0.5479541420936584,-0.9550008773803711,1.3702236413955688,0.9043754935264587,0.8254459500312805,-0.475320428609848
14.129186868667603,0.5478100776672363,-0.9551118612289429,1.3696199655532837,0.9052139520645142,0.8251590132713318,-0.4750628173351288
14.149361610412598,0.547534167766571,-0.9549323320388794,1.3701720237731934,0.9053129553794861,0.8265687823295593,-0.47513628005981445
14.169435262680054,0.5472009778022766,-0.9554874897003174,1.3702960014343262,0.905148983001709,0.8232725262641907,-0.47522103786468506
14.189501523971558,0.5486180186271667,-0.954492449760437,1.3703793287277222,0.9043170809745789,0.8244519829750061,-0.47531506419181824
14.20958948135376,0.548236072063446,-0.9552344679832458,1.3695517778396606,0.9047446250915527,0.8218333125114441,-0.47473055124282837
14.2296724319458,0.5471822619438171,-0.9563037157058716,1.370132565498352,0.9048601984977722,0.8200419545173645,-0.4750003218650818
14.249703645706177,0.5465540289878845,-0.9589782953262329,1.3704406023025513,0.9056437015533447,0.812727153301239,-0.47461289167404175
14.269789457321167,0.5494289994239807,-0.9574589133262634,1.3681498765945435,0.9060935974121094,0.8188633918762207,-0.47446778416633606
14.289857864379883,0.5489091277122498,-0.9560501575469971,1.368765950202942,0.9051539897918701,0.8229761719703674,-0.4748007655143738
14.310025215148926,0.5482924580574036,-0.9554647207260132,1.3686639070510864,0.9063370227813721,0.8261356353759766,-0.4750044643878937
14.33001708984375,0.548041820526123,-0.9550636410713196,1.3701040744781494,0.9056356549263,0.8259707093238831,-0.475164532661438
14.350125074386597,0.547230064868927,-0.9553757309913635,1.3693978786468506,0.905692994594574,0.8247670531272888,-0.4752195179462433
14.37017560005188,0.5469552874565125,-0.9570745229721069,1.3694430589675903,0.9065213799476624,0.8209195137023926,-0.4751124978065491
14.390235662460327,0.5482630729675293,-0.9567238092422485,1.3687711954116821,0.905677080154419,0.8217794299125671,-0.4752177298069
14.410297870635986,0.546735942363739,-0.9598399996757507,1.3713051080703735,0.9059203863143921,0.8133189678192139,-0.47509339451789856
14.43037486076355,0.5468062162399292,-0.9580280780792236,1.3668675422668457,0.9052091836929321,0.8200875520706177,-0.47549811005592346
14.450474262237549,0.5458695292472839,-0.9587312340736389,1.368015170097351,0.9054514169692993,0.8177068829536438,-0.4755493402481079
14.470529079437256,0.5456451773643494,-0.9604833722114563,1.3693323135375977,0.9050472378730774,0.8105760216712952,-0.47513097524642944
14.49065351486206,0.5487063527107239,-0.9591194987297058,1.367401123046875,0.9062900543212891,0.81590336561203,-0.47479701042175293
14.510715007781982,0.5480239987373352,-0.9571364521980286,1.3681634664535522,0.9055708050727844,0.8223140835762024,-0.4751156270503998
14.530771017074585,0.5476717352867126,-0.9565654993057251,1.36908757686615,0.9059227705001831,0.8239769339561462,-0.4753935635089874
14.55082893371582,0.5482006072998047,-0.9561307430267334,1.3686922788619995,0.906033992767334,0.8246696591377258,-0.4753968417644501
14.571054458618164,0.5475805401802063,-0.9575902819633484,1.3713470697402954,0.9057780504226685,0.8201143145561218,-0.4753362536430359
14.591064453125,0.547420084476471,-0.9576393365859985,1.3688490390777588,0.9054125547409058,0.8171409964561462,-0.474722683429718
14.611133098602295,0.5483171343803406,-0.9576501846313477,1.3687915802001953,0.9060162305831909,0.8216091990470886,-0.4754501283168793
14.631194353103638,0.547373354434967,-0.9575803875923157,1.369001030921936,0.9059701561927795,0.8214396834373474,-0.47531425952911377
14.651254892349243,0.5472315549850464,-0.9572482109069824,1.369776725769043,0.9057668447494507,0.8206656575202942,-0.47521114349365234
