liuyurong129/humanoid-gym/humanoid/data/target_q_20250521-000454.csv
timestamp,joint_1,joint_2,joint_3,joint_4,joint_5,joint_6
2.7418136596679688e-05,0.0,0.0,0.0,0.0,0.0,0.0
0.020104169845581055,0.0,0.0,0.0,0.0,0.0,0.0
0.04015755653381348,0.0,0.0,0.0,0.0,0.0,0.0
0.060218095779418945,0.9278624653816223,-1.5694481134414673,1.084273099899292,1.8072048425674438,-0.1549127995967865,0.5607465505599976
0.08029413223266602,0.41861459612846375,-2.150240659713745,2.022858142852783,1.505915880203247,0.24869537353515625,0.6979525089263916
0.10036134719848633,0.4295424222946167,-2.1620101928710938,2.204010486602783,1.4382808208465576,0.3260040283203125,0.6968662738800049
0.12079715728759766,0.439639687538147,-2.154686450958252,2.2197866439819336,1.4318921566009521,0.3348156213760376,0.6950098276138306
0.14093804359436035,0.44089606404304504,-2.1534981727600098,2.216071367263794,1.4309531450271606,0.3342514634132385,0.6950563788414001
0.16103219985961914,0.4417652487754822,-2.1514906883239746,2.214491128921509,1.4316211938858032,0.33437323570251465,0.6942926645278931
0.1810777187347412,0.4437366724014282,-2.149355411529541,2.2139906883239746,1.432455062866211,0.3349103629589081,0.6936057806015015
0.20130634307861328,0.44513851404190063,-2.1470866203308105,2.2116336822509766,1.432573914527893,0.3345831036567688,0.6931569576263428
0.22144317626953125,0.4457903802394867,-2.146702527999878,2.2101922035217285,1.4330390691757202,0.3338547348976135,0.6928344964981079
0.24147272109985352,0.4474824070930481,-2.1454660892486572,2.2093801498413086,1.4330523014068604,0.33429452776908875,0.6920355558395386
0.26152634620666504,0.4490002989768982,-2.144334077835083,2.2090206146240234,1.434056043624878,0.3346591293811798,0.6915079355239868
0.28173279762268066,0.4501131772994995,-2.1439130306243896,2.2074203491210938,1.4337427616119385,0.33404478430747986,0.6908104419708252
0.3018655776977539,0.4498777389526367,-2.1433043479919434,2.2061240673065186,1.4335765838623047,0.33365538716316223,0.690555989742279
0.3219294548034668,0.4511982798576355,-2.1418232917785645,2.2046098709106445,1.4339724779129028,0.3338102698326111,0.689872145652771
0.341998815536499,0.4489838480949402,-2.1416196823120117,2.1985089778900146,1.4322373867034912,0.33060482144355774,0.6892277598381042
0.3620426654815674,0.4503590762615204,-2.1403403282165527,2.1998331546783447,1.4337356090545654,0.3319157063961029,0.6878005266189575
0.38211870193481445,0.45248961448669434,-2.14046573638916,2.197718858718872,1.4329701662063599,0.3314533531665802,0.6872411370277405
0.4021894931793213,0.45299142599105835,-2.139212131500244,2.1980338096618652,1.434706211090088,0.3316788077354431,0.6864818334579468
0.42224860191345215,0.45417654514312744,-2.137298345565796,2.1956465244293213,1.433901071548462,0.33126601576805115,0.6858512163162231
0.4422948360443115,0.4552202820777893,-2.135735034942627,2.19429874420166,1.4347856044769287,0.3311012089252472,0.6847678422927856
0.46241021156311035,0.4556426405906677,-2.135565757751465,2.190615653991699,1.43418288230896,0.3301050066947937,0.68489670753479
0.4824519157409668,0.4570178985595703,-2.1346888542175293,2.1888980865478516,1.4344929456710815,0.3298060894012451,0.6841235160827637
0.5025210380554199,0.4586707353591919,-2.1345763206481934,2.18603515625,1.4334022998809814,0.3287929892539978,0.6833369135856628
0.5225708484649658,0.4619150757789612,-2.133899688720703,2.1850504875183105,1.4326205253601074,0.3288768529891968,0.6814874410629272
0.5427753925323486,0.4624332785606384,-2.1330814361572266,2.1863560676574707,1.43369722366333,0.32879364490509033,0.6802893877029419
0.5627524852752686,0.46399790048599243,-2.132075786590576,2.184739112854004,1.4343090057373047,0.3295121192932129,0.6793171763420105
0.5828299522399902,0.4646448493003845,-2.130786418914795,2.1827311515808105,1.434308648109436,0.3292166590690613,0.6791147589683533
0.6028766632080078,0.4664027690887451,-2.1286861896514893,2.1807923316955566,1.4342864751815796,0.32930734753608704,0.6783523559570312
0.6229603290557861,0.46742957830429077,-2.1280035972595215,2.180617332458496,1.4345958232879639,0.3286966383457184,0.6779772043228149
0.6430327892303467,0.46854710578918457,-2.1268882751464844,2.1791744232177734,1.4345037937164307,0.3283017873764038,0.6772708296775818
0.6631639003753662,0.4687946140766144,-2.125791311264038,2.1783447265625,1.4347509145736694,0.3288922905921936,0.6762401461601257
0.6832034587860107,0.46752917766571045,-2.1252403259277344,2.173985004425049,1.4346908330917358,0.3268411457538605,0.6757024526596069
0.7038242816925049,0.4699570834636688,-2.124748945236206,2.173414707183838,1.433791160583496,0.3270069360733032,0.67426997423172
0.7239158153533936,0.47059398889541626,-2.1250038146972656,2.1706748008728027,1.4330710172653198,0.3256723880767822,0.6741063594818115
0.7439751625061035,0.4704212546348572,-2.125307559967041,2.1685280799865723,1.4327322244644165,0.3250681161880493,0.6727820634841919
0.7640378475189209,0.47094595432281494,-2.1249637603759766,2.1659493446350098,1.4321465492248535,0.32301685214042664,0.6720842123031616
0.7840933799743652,0.47268062829971313,-2.122391939163208,2.1658010482788086,1.4333200454711914,0.32401740550994873,0.6713588833808899
0.8041794300079346,0.4742105007171631,-2.1217966079711914,2.1654889583587646,1.4329800605773926,0.32380354404449463,0.670466959476471
0.824244499206543,0.47543060779571533,-2.1205220222473145,2.164383888244629,1.4340002536773682,0.32389625906944275,0.6700020432472229
0.8443865776062012,0.47698622941970825,-2.1202332973480225,2.160841703414917,1.43294358253479,0.32358452677726746,0.6693069934844971
0.8644454479217529,0.47857290506362915,-2.1191561222076416,2.1598758697509766,1.433363676071167,0.3239070773124695,0.6684360504150391
0.8844923973083496,0.47892987728118896,-2.1191844940185547,2.1580584049224854,1.433130145072937,0.32222825288772583,0.6684718132019043
0.9045999050140381,0.4808187484741211,-2.1188998222351074,2.157841682434082,1.4326691627502441,0.3225501477718353,0.6672202348709106
0.9246463775634766,0.4825925827026367,-2.1184239387512207,2.1575217247009277,1.43220853805542,0.32214751839637756,0.6650171279907227
0.9447131156921387,0.48400557041168213,-2.1163434982299805,2.1563892364501953,1.4328680038452148,0.3226545751094818,0.664097249507904
0.9647619724273682,0.4836755394935608,-2.1144423484802246,2.153329610824585,1.433224081993103,0.3219106197357178,0.6638047099113464
0.9848508834838867,0.4823928475379944,-2.114128589630127,2.1501035690307617,1.433183193206787,0.32157251238822937,0.6638833284378052
1.004927635192871,0.4807869791984558,-2.1143264770507812,2.1457972526550293,1.4324451684951782,0.3189234435558319,0.6633204817771912
1.0250422954559326,0.4820351004600525,-2.114192485809326,2.1445226669311523,1.4332631826400757,0.31812018156051636,0.6626837253570557
1.0450608730316162,0.4841470718383789,-2.112306594848633,2.1433417797088623,1.4327716827392578,0.31856125593185425,0.6618280410766602
1.0651981830596924,0.48561134934425354,-2.1114509105682373,2.143087863922119,1.4335001707077026,0.31894540786743164,0.6609666347503662
1.0853872299194336,0.4858836531639099,-2.1115164756774902,2.1418867111206055,1.432748794555664,0.3179410994052887,0.6603704690933228
1.1053919792175293,0.48853570222854614,-2.110543727874756,2.143045663833618,1.4332044124603271,0.318768709897995,0.6586688160896301
1.1254382133483887,0.4910705089569092,-2.109290599822998,2.140913724899292,1.4329617023468018,0.3182533383369446,0.6571495532989502
1.1455929279327393,0.49241840839385986,-2.1082870960235596,2.136493682861328,1.4328336715698242,0.3172348439693451,0.6564037799835205
1.165693998336792,0.49382835626602173,-2.107480764389038,2.136387825012207,1.4324880838394165,0.318759024143219,0.6557092666625977
1.1857781410217285,0.49533721804618835,-2.1063013076782227,2.136281967163086,1.4331774711608887,0.3189798891544342,0.6550678610801697
1.2058875560760498,0.49652329087257385,-2.1058754920959473,2.1340153217315674,1.4329419136047363,0.3173733949661255,0.6544685363769531
1.2259318828582764,0.49666115641593933,-2.104724407196045,2.1321046352386475,1.4323320388793945,0.31684041023254395,0.6536160707473755
1.2460105419158936,0.49670159816741943,-2.104611873626709,2.128800392150879,1.4308342933654785,0.315114825963974,0.6534835696220398
1.2661473751068115,0.49848413467407227,-2.1037755012512207,2.1283669471740723,1.4307105541229248,0.31553345918655396,0.6518913507461548
1.2861826419830322,0.5020906329154968,-2.1033315658569336,2.1270015239715576,1.4297266006469727,0.31574365496635437,0.6497751474380493
1.3062407970428467,0.5025589466094971,-2.101437568664551,2.127485513687134,1.4312145709991455,0.3162423074245453,0.6487367749214172
1.3264074325561523,0.5027894973754883,-2.100327253341675,2.125699996948242,1.4311139583587646,0.3158872127532959,0.6486356258392334
1.346426248550415,0.5034434199333191,-2.098593235015869,2.1234130859375,1.430967092514038,0.3153584599494934,0.6477112770080566
1.3664817810058594,0.5036360025405884,-2.097365140914917,2.1186907291412354,1.4309544563293457,0.3137303590774536,0.6470627784729004
1.3865318298339844,0.5048249363899231,-2.09749698638916,2.115481376647949,1.430638313293457,0.31254667043685913,0.6463882327079773
1.4066534042358398,0.5057019591331482,-2.097562313079834,2.115097999572754,1.430790901184082,0.3118627071380615,0.6459859013557434
1.4269134998321533,0.5074257254600525,-2.0965070724487305,2.1153552532196045,1.4315569400787354,0.31231817603111267,0.6448550224304199
1.446845293045044,0.5099917650222778,-2.0959537029266357,2.113398313522339,1.430307149887085,0.3124147951602936,0.6433296203613281
1.4669053554534912,0.5121020078659058,-2.095536231994629,2.113415241241455,1.4303624629974365,0.31201454997062683,0.6420924067497253
1.487372875213623,0.5115324258804321,-2.0955255031585693,2.11057710647583,1.4293416738510132,0.3113149404525757,0.6418920755386353
1.5074501037597656,0.5131415128707886,-2.093140125274658,2.1107168197631836,1.4299496412277222,0.3123598098754883,0.6410917639732361
1.527512550354004,0.5130135416984558,-2.0925543308258057,2.105348587036133,1.4285385608673096,0.30979230999946594,0.6404197812080383
1.5475738048553467,0.5133417844772339,-2.091301202774048,2.1049001216888428,1.4291614294052124,0.31035229563713074,0.6395784616470337
1.567627191543579,0.515485942363739,-2.088623523712158,2.1056811809539795,1.429938554763794,0.3106291890144348,0.6389344930648804
1.5877492427825928,0.5159616470336914,-2.088524103164673,2.1029460430145264,1.4294118881225586,0.3096156716346741,0.6385032534599304
1.607787847518921,0.518240213394165,-2.0865001678466797,2.1014060974121094,1.4295504093170166,0.3101160526275635,0.6375969648361206
1.6278610229492188,0.5186145305633545,-2.0862975120544434,2.097435474395752,1.4292715787887573,0.3091003894805908,0.6368649005889893
1.6479215621948242,0.5211511850357056,-2.085228443145752,2.0972580909729004,1.4286421537399292,0.31053271889686584,0.6349795460700989
1.6680371761322021,0.5213392972946167,-2.0843358039855957,2.097926139831543,1.4292795658111572,0.3091760277748108,0.6336502432823181
1.6881160736083984,0.5216827392578125,-2.0835318565368652,2.094099760055542,1.4298344850540161,0.3079168498516083,0.6331168413162231
1.7081797122955322,0.5226986408233643,-2.0836193561553955,2.0899410247802734,1.4296149015426636,0.3059346675872803,0.6326647996902466
1.72822904586792,0.5221596956253052,-2.082676410675049,2.087444305419922,1.4295918941497803,0.3054080605506897,0.6322591304779053
1.7483901977539062,0.5209783911705017,-2.081768274307251,2.0877346992492676,1.4302996397018433,0.3052625060081482,0.6319774389266968
1.7684080600738525,0.5236981511116028,-2.0805869102478027,2.08738374710083,1.4306312799453735,0.3056085407733917,0.6308817863464355
1.7884798049926758,0.5258780717849731,-2.0784573554992676,2.0867867469787598,1.4310518503189087,0.30625277757644653,0.6298705339431763
1.8085532188415527,0.5284643173217773,-2.0784554481506348,2.0821120738983154,1.4291224479675293,0.30475881695747375,0.6281315088272095
1.8286290168762207,0.5293946266174316,-2.0784854888916016,2.079979419708252,1.4287786483764648,0.3045167922973633,0.6275782585144043
1.8487272262573242,0.5289186239242554,-2.0784997940063477,2.077568769454956,1.4286123514175415,0.3031077980995178,0.6270517110824585
1.8687570095062256,0.5304818749427795,-2.0763049125671387,2.079610586166382,1.4302330017089844,0.30551332235336304,0.6261457800865173
1.8888027667999268,0.5295082330703735,-2.0762574672698975,2.07460880279541,1.429581880569458,0.30202701687812805,0.6257806420326233
1.908886432647705,0.528619647026062,-2.075516700744629,2.073395252227783,1.4296612739562988,0.3017539381980896,0.6257451772689819
1.9289581775665283,0.5304121375083923,-2.073863983154297,2.0714290142059326,1.4293739795684814,0.3018607795238495,0.6249303817749023
1.94901442527771,0.5294864177703857,-2.072786331176758,2.068791389465332,1.4297056198120117,0.30066952109336853,0.6247233152389526
1.969191551208496,0.5285579562187195,-2.072237014770508,2.0663719177246094,1.4300224781036377,0.2994174659252167,0.6240233182907104
1.989196538925171,0.5298879742622375,-2.0715761184692383,2.0665574073791504,1.430591106414795,0.3000432550907135,0.6232184171676636
2.0092873573303223,0.5318492650985718,-2.0707924365997314,2.064929962158203,1.4308475255966187,0.29981040954589844,0.6222629547119141
2.029473304748535,0.5339417457580566,-2.070662021636963,2.0628652572631836,1.4300599098205566,0.29939955472946167,0.6210313439369202
2.0494654178619385,0.535630464553833,-2.070176601409912,2.061245918273926,1.4295170307159424,0.2989102303981781,0.6199063062667847
2.069584369659424,0.5375661253929138,-2.0680947303771973,2.0603837966918945,1.4294087886810303,0.2997245788574219,0.6190161108970642
2.089667797088623,0.5386224985122681,-2.0668344497680664,2.0609474182128906,1.4298359155654907,0.29888811707496643,0.6185797452926636
2.109734058380127,0.5384918451309204,-2.0655224323272705,2.057734489440918,1.4296387434005737,0.2987659275531769,0.6177948117256165
2.129784345626831,0.5391936302185059,-2.0653929710388184,2.0533432960510254,1.4286953210830688,0.29625529050827026,0.61773681640625
2.149855136871338,0.5392755270004272,-2.0656166076660156,2.0518503189086914,1.4282522201538086,0.29527798295021057,0.6168555021286011
2.1699323654174805,0.5411847829818726,-2.0641672611236572,2.0556600093841553,1.429858684539795,0.29824453592300415,0.6155523061752319
2.190007448196411,0.5437361001968384,-2.0635132789611816,2.0538389682769775,1.4289498329162598,0.2970135509967804,0.6144211292266846
2.2101118564605713,0.5464672446250916,-2.061399459838867,2.053490161895752,1.4283699989318848,0.2981669306755066,0.6126558780670166
2.2301833629608154,0.5472692251205444,-2.0611701011657715,2.0505247116088867,1.4283825159072876,0.29657259583473206,0.6114293932914734
2.250243902206421,0.5478145480155945,-2.0601449012756348,2.050032377243042,1.4282419681549072,0.29718613624572754,0.610996663570404
2.270322322845459,0.5465407371520996,-2.059009075164795,2.043844223022461,1.427192211151123,0.2944053113460541,0.6109115481376648
2.29038143157959,0.5458955764770508,-2.0581843852996826,2.0401737689971924,1.427496075630188,0.2930212616920471,0.610191822052002
2.3104333877563477,0.5480955243110657,-2.0569944381713867,2.0387377738952637,1.4281564950942993,0.2934669554233551,0.6091820001602173
2.3305165767669678,0.5482178926467896,-2.055706024169922,2.0392277240753174,1.428943157196045,0.2925211489200592,0.6088907718658447
2.350614547729492,0.5484253168106079,-2.055769443511963,2.0363001823425293,1.4282751083374023,0.2909349501132965,0.607769787311554
2.3706846237182617,0.5501511693000793,-2.0550432205200195,2.0369999408721924,1.4287108182907104,0.2914779782295227,0.606252908706665
2.390739679336548,0.5517359375953674,-2.0542445182800293,2.0336179733276367,1.428049087524414,0.29146966338157654,0.6055402755737305
2.410802125930786,0.5523813962936401,-2.054687976837158,2.0289697647094727,1.4268882274627686,0.28948476910591125,0.6050090789794922
2.4309282302856445,0.5538886189460754,-2.0540237426757812,2.0317130088806152,1.427912712097168,0.2904924750328064,0.6038916707038879
2.450972318649292,0.5552124381065369,-2.0521903038024902,2.029808521270752,1.4274958372116089,0.2905230224132538,0.603432834148407
2.471038341522217,0.5550673007965088,-2.0518808364868164,2.027099609375,1.4276139736175537,0.28806641697883606,0.6028520464897156
2.4910879135131836,0.553392767906189,-2.0505218505859375,2.0251784324645996,1.4271008968353271,0.2872171700000763,0.60176020860672
2.5111725330352783,0.5537964701652527,-2.0507009029388428,2.0204267501831055,1.4263365268707275,0.2867414951324463,0.6018397808074951
2.531248092651367,0.5526077151298523,-2.05165958404541,2.0162105560302734,1.425619125366211,0.28373661637306213,0.6006996631622314
2.551304578781128,0.556089460849762,-2.0504722595214844,2.0180811882019043,1.4257246255874634,0.28458037972450256,0.5986698865890503
2.571367025375366,0.557766318321228,-2.0496292114257812,2.017545700073242,1.4256153106689453,0.2837062478065491,0.597780168056488
2.5914790630340576,0.5583077073097229,-2.0490097999572754,2.0138137340545654,1.4252210855484009,0.28393909335136414,0.5977064967155457
2.61153244972229,0.5599209070205688,-2.0476479530334473,2.0132198333740234,1.4256837368011475,0.2844178080558777,0.5969313383102417
2.6316006183624268,0.5618897080421448,-2.045666217803955,2.0139663219451904,1.4261345863342285,0.28516143560409546,0.5960973501205444
2.6516618728637695,0.5636458396911621,-2.043740749359131,2.0136828422546387,1.4268097877502441,0.2855123281478882,0.5951499938964844
2.671797275543213,0.5636342167854309,-2.0432543754577637,2.0083184242248535,1.4254069328308105,0.2833324670791626,0.5947467088699341
2.6918833255767822,0.5641844868659973,-2.04231333732605,2.0086989402770996,1.4266291856765747,0.28320208191871643,0.5944420695304871
2.7119436264038086,0.5640572309494019,-2.0418992042541504,2.004559278488159,1.4248390197753906,0.2817360758781433,0.5934576988220215
2.732008457183838,0.5629169344902039,-2.0416665077209473,2.0040831565856934,1.4255908727645874,0.28171011805534363,0.5919619202613831
2.7520699501037598,0.5630232095718384,-2.040595054626465,2.002894401550293,1.4263126850128174,0.28121140599250793,0.5911538600921631
2.772207260131836,0.5631540417671204,-2.040961742401123,1.9984760284423828,1.4252986907958984,0.27894502878189087,0.5915366411209106
2.792203903198242,0.5648844242095947,-2.0386459827423096,1.9993774890899658,1.426037311553955,0.2806715965270996,0.5906222462654114
2.8122572898864746,0.5663890838623047,-2.0359623432159424,1.9983766078948975,1.4265159368515015,0.2795403003692627,0.5903524160385132
2.8323309421539307,0.5691682696342468,-2.0337424278259277,1.9981145858764648,1.4271416664123535,0.28099849820137024,0.5888333916664124
2.8524253368377686,0.5690382719039917,-2.0337471961975098,1.9942216873168945,1.4264907836914062,0.2793548107147217,0.5890089869499207
2.8724846839904785,0.570383608341217,-2.033407688140869,1.9923337697982788,1.4264514446258545,0.27982765436172485,0.5881467461585999
2.8926103115081787,0.571706235408783,-2.0319697856903076,1.993117094039917,1.426628828048706,0.280532568693161,0.586769700050354
2.9126386642456055,0.573204517364502,-2.0317559242248535,1.990581750869751,1.426181674003601,0.2783137559890747,0.5859491229057312
2.932811975479126,0.5753765106201172,-2.030783176422119,1.9900615215301514,1.425850510597229,0.27771085500717163,0.5842529535293579
2.952911615371704,0.574495792388916,-2.031160354614258,1.9843257665634155,1.4246362447738647,0.2766631841659546,0.584196925163269
2.9729666709899902,0.5743332505226135,-2.029390811920166,1.9842013120651245,1.4257049560546875,0.27788859605789185,0.5831838846206665
2.9930241107940674,0.5741734504699707,-2.029508113861084,1.9813274145126343,1.4261372089385986,0.2753829061985016,0.5829357504844666
3.0130884647369385,0.5766226649284363,-2.025806427001953,1.983614444732666,1.4265114068984985,0.2777228057384491,0.5816617012023926
3.0331742763519287,0.5749945640563965,-2.0255279541015625,1.9780815839767456,1.4254372119903564,0.27512502670288086,0.5816271305084229
3.0534000396728516,0.5765994191169739,-2.022066354751587,1.980377197265625,1.427111268043518,0.27731454372406006,0.5802052021026611
3.07338809967041,0.5796027779579163,-2.0225768089294434,1.9775007963180542,1.4262678623199463,0.27560263872146606,0.5785852074623108
3.093430995941162,0.5802059769630432,-2.0223586559295654,1.9766311645507812,1.4257149696350098,0.27464908361434937,0.577226996421814
3.1135146617889404,0.5808182954788208,-2.021200180053711,1.9741573333740234,1.4253759384155273,0.2753249406814575,0.5770193338394165
3.1336236000061035,0.5805314183235168,-2.0209226608276367,1.9690965414047241,1.4244270324707031,0.2729719281196594,0.5763684511184692
3.1537065505981445,0.5806194543838501,-2.0195717811584473,1.9680466651916504,1.4252195358276367,0.27274805307388306,0.5758920907974243
3.1737287044525146,0.5822477340698242,-2.019319534301758,1.9664404392242432,1.4251632690429688,0.2720872461795807,0.5748457908630371
3.193798780441284,0.5827128291130066,-2.0187034606933594,1.963259220123291,1.4249540567398071,0.2698262929916382,0.5746788382530212
3.213886260986328,0.5823191404342651,-2.018829345703125,1.9625272750854492,1.4245411157608032,0.26895439624786377,0.5741130113601685
3.2339634895324707,0.5815975069999695,-2.017799139022827,1.9588841199874878,1.4242737293243408,0.2684924602508545,0.573486328125
3.254084825515747,0.5828491449356079,-2.017688751220703,1.9583183526992798,1.4240045547485352,0.26866430044174194,0.5718411207199097
3.2741408348083496,0.5854311585426331,-2.0179624557495117,1.957327127456665,1.4245121479034424,0.26797160506248474,0.5702499747276306
3.294240951538086,0.5849093198776245,-2.018052101135254,1.953050136566162,1.4229165315628052,0.2661408483982086,0.5705757737159729
3.3142948150634766,0.5839478969573975,-2.0180234909057617,1.9489684104919434,1.4226832389831543,0.2640461027622223,0.5700221061706543
3.3343920707702637,0.5835881233215332,-2.0171146392822266,1.9477901458740234,1.4233622550964355,0.2639298737049103,0.569776177406311
3.354451894760132,0.5866342186927795,-2.015157699584961,1.9486273527145386,1.4237548112869263,0.2656746506690979,0.5685893297195435
3.374565362930298,0.5875154733657837,-2.0137341022491455,1.951214075088501,1.4250454902648926,0.2666234076023102,0.567978024482727
3.3946101665496826,0.5874186754226685,-2.013362169265747,1.9483463764190674,1.4246066808700562,0.26543861627578735,0.5672916769981384
3.414689064025879,0.5887740850448608,-2.0121896266937256,1.9454044103622437,1.424098014831543,0.2650052607059479,0.5666848421096802
3.4347479343414307,0.5897037386894226,-2.0110397338867188,1.9409339427947998,1.42177152633667,0.26371240615844727,0.5649901628494263
3.4548895359039307,0.5905826091766357,-2.010058879852295,1.9442873001098633,1.4230343103408813,0.26398366689682007,0.5634117126464844
3.474963665008545,0.5902368426322937,-2.0097217559814453,1.9397568702697754,1.4226746559143066,0.26174452900886536,0.5627057552337646
3.4950203895568848,0.5886001586914062,-2.00929594039917,1.935143232345581,1.4218194484710693,0.2602542042732239,0.5620547533035278
3.5150909423828125,0.5905399322509766,-2.0081074237823486,1.9357073307037354,1.4220716953277588,0.2592807710170746,0.5611619353294373
3.535167932510376,0.5907358527183533,-2.0077366828918457,1.932726502418518,1.421466588973999,0.25925907492637634,0.5612125396728516
3.555232048034668,0.5929527878761292,-2.0066940784454346,1.9314656257629395,1.42075514793396,0.2586488127708435,0.5600704550743103
3.575303316116333,0.5953739285469055,-2.0051536560058594,1.9309405088424683,1.4214905500411987,0.25996309518814087,0.5588661432266235
3.5953521728515625,0.5976395606994629,-2.004786729812622,1.9296330213546753,1.4206418991088867,0.2592169940471649,0.557399332523346
3.61543345451355,0.5991836190223694,-2.004359245300293,1.9282801151275635,1.4202885627746582,0.25960826873779297,0.5564800500869751
3.6356277465820312,0.5975290536880493,-2.003009796142578,1.9260385036468506,1.420528531074524,0.2578922510147095,0.5556446313858032
3.655607223510742,0.5980353355407715,-2.0027403831481934,1.9216099977493286,1.420595645904541,0.25579720735549927,0.5553512573242188
3.675717830657959,0.5997043251991272,-2.0011887550354004,1.9208217859268188,1.4209043979644775,0.25624698400497437,0.5547757744789124
3.695794105529785,0.5991969704627991,-2.001152753829956,1.919701337814331,1.421019434928894,0.25540751218795776,0.5543041229248047
3.7158429622650146,0.6003264784812927,-1.999572515487671,1.9168446063995361,1.420590877532959,0.25527068972587585,0.5536653995513916
3.7359020709991455,0.5990471243858337,-1.9974753856658936,1.9175090789794922,1.421326994895935,0.256261944770813,0.5525221824645996
3.755964517593384,0.599307119846344,-1.9976301193237305,1.913195013999939,1.4209158420562744,0.25399625301361084,0.5519823431968689
3.776048183441162,0.6004588603973389,-1.9979729652404785,1.9109578132629395,1.4196614027023315,0.2536085247993469,0.5510941743850708
3.796123504638672,0.601388692855835,-1.9964103698730469,1.911949634552002,1.4199012517929077,0.2528144419193268,0.5492843389511108
3.8162269592285156,0.6005501747131348,-1.9969110488891602,1.9054367542266846,1.4195868968963623,0.25041189789772034,0.5493175983428955
3.836273670196533,0.6023123264312744,-1.9973645210266113,1.9061903953552246,1.419921875,0.24975331127643585,0.5482919812202454
3.8563232421875,0.6025834083557129,-1.9969182014465332,1.9040396213531494,1.4189021587371826,0.24976922571659088,0.5480995774269104
3.8764538764953613,0.6053033471107483,-1.9962358474731445,1.9036717414855957,1.417931079864502,0.250449538230896,0.5463736057281494
3.8965728282928467,0.6071733236312866,-1.9957022666931152,1.901334285736084,1.4178998470306396,0.2498944103717804,0.5455267429351807
3.9166042804718018,0.6100315451622009,-1.994615077972412,1.89921236038208,1.4160879850387573,0.24901294708251953,0.5437521934509277
3.936659574508667,0.6095299124717712,-1.9944194555282593,1.8985140323638916,1.416576862335205,0.24828654527664185,0.5429336428642273
3.9567413330078125,0.6073691844940186,-1.9941258430480957,1.8930273056030273,1.4164934158325195,0.24676361680030823,0.5424394011497498
3.976815938949585,0.6057148575782776,-1.9919754266738892,1.893432855606079,1.4179741144180298,0.2464422881603241,0.5417284369468689
3.9969377517700195,0.6071475744247437,-1.9898467063903809,1.8903584480285645,1.4181548357009888,0.24497056007385254,0.5413845777511597
4.017024040222168,0.609138011932373,-1.9873920679092407,1.8909878730773926,1.4190053939819336,0.24652493000030518,0.540413498878479
4.037128448486328,0.609409511089325,-1.9874804019927979,1.8866221904754639,1.4180127382278442,0.2448185831308365,0.5405589938163757
4.057306528091431,0.612017035484314,-1.9848377704620361,1.8902488946914673,1.419621467590332,0.24818798899650574,0.5390684604644775
4.077382564544678,0.6116375923156738,-1.9852491617202759,1.883878469467163,1.4181337356567383,0.24508234858512878,0.538697361946106
4.097440958023071,0.6134696006774902,-1.9846222400665283,1.8830862045288086,1.4170117378234863,0.24514833092689514,0.5372070074081421
4.117526531219482,0.6129342317581177,-1.984943151473999,1.8807681798934937,1.4168564081192017,0.24367794394493103,0.5366814136505127
4.137601852416992,0.610270082950592,-1.9856529235839844,1.8793623447418213,1.4175865650177002,0.2420177459716797,0.5356539487838745
4.157662391662598,0.6082257032394409,-1.9848103523254395,1.875381588935852,1.417429804801941,0.23953461647033691,0.5355404615402222
4.17771053314209,0.6095147132873535,-1.9834574460983276,1.8738915920257568,1.4179365634918213,0.23888859152793884,0.5351436138153076
4.197789907455444,0.6101419925689697,-1.982600450515747,1.8736299276351929,1.418049931526184,0.23851913213729858,0.5347152948379517
4.217908620834351,0.6125342845916748,-1.9819254875183105,1.8700284957885742,1.4165701866149902,0.23808078467845917,0.5336747169494629
4.238003253936768,0.6155157089233398,-1.9793028831481934,1.8721014261245728,1.4176864624023438,0.24168270826339722,0.5321580171585083
4.2580389976501465,0.6190095543861389,-1.9777851104736328,1.87080979347229,1.416689157485962,0.2425708770751953,0.5296862125396729
4.278095245361328,0.6197627186775208,-1.9770609140396118,1.870255708694458,1.4170140027999878,0.24168729782104492,0.5291788578033447
4.298157215118408,0.61883145570755,-1.9752469062805176,1.8666136264801025,1.417118787765503,0.24001392722129822,0.5292901396751404
4.318228483200073,0.6182229518890381,-1.9739080667495728,1.8673131465911865,1.4182184934616089,0.23985809087753296,0.528433620929718
4.338301420211792,0.6170072555541992,-1.9748350381851196,1.8589622974395752,1.4161059856414795,0.2351548969745636,0.5287154316902161
4.3583900928497314,0.6182627081871033,-1.9749624729156494,1.8607052564620972,1.4175986051559448,0.23697616159915924,0.5280032157897949
4.378483772277832,0.6173355579376221,-1.9733258485794067,1.858669638633728,1.4167873859405518,0.23637717962265015,0.5274218916893005
4.398587703704834,0.6183756589889526,-1.9732435941696167,1.8586546182632446,1.416903018951416,0.23590144515037537,0.5261877775192261
4.4185950756073,0.6200597286224365,-1.972488284111023,1.8557134866714478,1.4152438640594482,0.2347385734319687,0.5252522230148315
4.438655138015747,0.622494101524353,-1.9712131023406982,1.8544654846191406,1.4149818420410156,0.234902024269104,0.5233548879623413
4.458732843399048,0.62257981300354,-1.9706933498382568,1.8528754711151123,1.4148205518722534,0.23336663842201233,0.5229655504226685
4.4787983894348145,0.6229733824729919,-1.9688611030578613,1.8520628213882446,1.4149492979049683,0.23432764410972595,0.5218328237533569
4.498860836029053,0.6229153275489807,-1.9671604633331299,1.8496448993682861,1.415486454963684,0.23382321000099182,0.5211430788040161
4.518911600112915,0.624971330165863,-1.9655349254608154,1.8461376428604126,1.4153714179992676,0.23325389623641968,0.5203537344932556
4.538989305496216,0.6245521306991577,-1.9646761417388916,1.8477168083190918,1.4167300462722778,0.2329809069633484,0.5200285911560059
4.559052467346191,0.6237819790840149,-1.9646748304367065,1.8414056301116943,1.4146647453308105,0.23103630542755127,0.5192220211029053
4.579145193099976,0.6233750581741333,-1.9656118154525757,1.83962881565094,1.414341926574707,0.22883573174476624,0.5183427929878235
4.599235773086548,0.6246920228004456,-1.9647241830825806,1.8382469415664673,1.4136674404144287,0.22847828269004822,0.5166985988616943
4.619317531585693,0.6251137256622314,-1.9655696153640747,1.8341195583343506,1.412941575050354,0.22697430849075317,0.5164169669151306
4.639425277709961,0.623443603515625,-1.9648678302764893,1.8323233127593994,1.4134247303009033,0.22685804963111877,0.5155075192451477
4.659473896026611,0.6259375810623169,-1.9616219997406006,1.8339446783065796,1.4136452674865723,0.22778335213661194,0.5143834352493286
4.6795244216918945,0.6284221410751343,-1.959376573562622,1.834694266319275,1.4148452281951904,0.2278713583946228,0.5131368637084961
4.699774265289307,0.6286496520042419,-1.9575750827789307,1.8296624422073364,1.4124624729156494,0.2265540063381195,0.5122286081314087
4.719862937927246,0.6282857656478882,-1.9571982622146606,1.8300440311431885,1.413210153579712,0.22651097178459167,0.5113865733146667
4.7399351596832275,0.6299045085906982,-1.9567755460739136,1.826141595840454,1.4115748405456543,0.22590523958206177,0.5094590187072754
4.760071039199829,0.6291853785514832,-1.9557840824127197,1.8234279155731201,1.4119001626968384,0.226043701171875,0.5087172985076904
4.780149936676025,0.6283025741577148,-1.9565556049346924,1.8207950592041016,1.4126214981079102,0.22325503826141357,0.5085675716400146
4.800237417221069,0.629438579082489,-1.955223798751831,1.8239836692810059,1.413451910018921,0.22429871559143066,0.5078939199447632
4.820258617401123,0.6302662491798401,-1.9537806510925293,1.8204900026321411,1.4130109548568726,0.22331923246383667,0.5076686143875122
4.840304613113403,0.6311201453208923,-1.95242178440094,1.8193566799163818,1.4129143953323364,0.22277456521987915,0.5066054463386536
4.8603880405426025,0.633055567741394,-1.9515949487686157,1.816072940826416,1.411365270614624,0.22159045934677124,0.5053658485412598
4.880474090576172,0.6344714760780334,-1.952333927154541,1.8144181966781616,1.41103994846344,0.22217097878456116,0.5044163465499878
4.900538682937622,0.6344754099845886,-1.952048420906067,1.8120660781860352,1.410750150680542,0.2213452160358429,0.5031582713127136
4.920611143112183,0.633300244808197,-1.9516446590423584,1.8098255395889282,1.4113194942474365,0.2195204496383667,0.5031006932258606
4.9406578540802,0.6346802115440369,-1.950099229812622,1.8070697784423828,1.4109880924224854,0.21842101216316223,0.5024598836898804
4.960755825042725,0.6342665553092957,-1.948413610458374,1.8101195096969604,1.4126453399658203,0.21842187643051147,0.5018003582954407
4.980859756469727,0.6320967674255371,-1.9453144073486328,1.8044219017028809,1.4116668701171875,0.21745361387729645,0.5015807747840881
5.000985383987427,0.6328998804092407,-1.9419139623641968,1.8062386512756348,1.4135559797286987,0.2186151146888733,0.5005916357040405
5.021015405654907,0.6353878974914551,-1.9407713413238525,1.8044698238372803,1.4139909744262695,0.2192859947681427,0.4990637004375458
5.041118144989014,0.6346778273582458,-1.939283847808838,1.801663875579834,1.413245677947998,0.21881210803985596,0.4992002248764038
5.0612077713012695,0.6370702981948853,-1.9393203258514404,1.7987726926803589,1.4121867418289185,0.21649667620658875,0.49731114506721497
5.08130955696106,0.638227641582489,-1.940750241279602,1.7925950288772583,1.4109501838684082,0.21342438459396362,0.49660760164260864
5.101351499557495,0.6373099684715271,-1.9419050216674805,1.790236234664917,1.4108844995498657,0.21213886141777039,0.4962455928325653
5.12141489982605,0.6377300024032593,-1.9409937858581543,1.792024850845337,1.4114913940429688,0.2128712236881256,0.4956717789173126
5.141464948654175,0.6358850002288818,-1.937936782836914,1.7936627864837646,1.4121276140213013,0.21362164616584778,0.49475589394569397
5.161527395248413,0.6330742239952087,-1.9358278512954712,1.785884141921997,1.4102416038513184,0.21022042632102966,0.49404895305633545
5.181634187698364,0.6371710300445557,-1.9332575798034668,1.7868998050689697,1.4120749235153198,0.21231046319007874,0.49212491512298584
5.2017176151275635,0.6387171745300293,-1.931503415107727,1.786586880683899,1.412655234336853,0.21272917091846466,0.4915601313114166
5.221784591674805,0.6411152482032776,-1.9298851490020752,1.7851917743682861,1.4125869274139404,0.21299174427986145,0.49018022418022156
5.2418553829193115,0.6421520709991455,-1.929443359375,1.7807948589324951,1.4116626977920532,0.21149687469005585,0.4896054267883301
5.261904716491699,0.642827033996582,-1.929889440536499,1.7798969745635986,1.4113454818725586,0.21126243472099304,0.48847827315330505
5.281993865966797,0.6404731273651123,-1.930473804473877,1.7749967575073242,1.4092227220535278,0.20852917432785034,0.48839619755744934
5.302061319351196,0.6383005380630493,-1.9298847913742065,1.7737462520599365,1.4099557399749756,0.20898953080177307,0.4873819649219513
5.322137832641602,0.6381168961524963,-1.9308662414550781,1.7704428434371948,1.4097517728805542,0.20530347526073456,0.48700788617134094
5.342182397842407,0.639763593673706,-1.9293476343154907,1.7709412574768066,1.4099464416503906,0.20505696535110474,0.48617202043533325
5.362285375595093,0.6404581665992737,-1.9295368194580078,1.7678972482681274,1.4089860916137695,0.20425276458263397,0.48592472076416016
5.382329702377319,0.6416835188865662,-1.9268274307250977,1.77105712890625,1.4101009368896484,0.20631831884384155,0.48413559794425964
5.402414321899414,0.6435601711273193,-1.9251387119293213,1.7684192657470703,1.409907579421997,0.2053685486316681,0.4832184612751007
5.422468662261963,0.6453346014022827,-1.924084186553955,1.7657160758972168,1.4100536108016968,0.20741607248783112,0.48208773136138916
5.442628383636475,0.6431670784950256,-1.9237500429153442,1.7645535469055176,1.4099133014678955,0.20686012506484985,0.48125436902046204
5.462720632553101,0.6438992023468018,-1.9226386547088623,1.7635645866394043,1.4099435806274414,0.2069011628627777,0.4810040295124054
5.482848644256592,0.6425132751464844,-1.9226692914962769,1.7592262029647827,1.4090971946716309,0.20071294903755188,0.4808790385723114
5.502880811691284,0.6413226127624512,-1.9214096069335938,1.7558759450912476,1.4095611572265625,0.19995266199111938,0.4799785315990448
5.5229692459106445,0.6442016363143921,-1.9203557968139648,1.7547855377197266,1.4090101718902588,0.20052406191825867,0.47853371500968933
5.543072462081909,0.644439697265625,-1.9198518991470337,1.752830982208252,1.408905267715454,0.20032358169555664,0.4782581627368927
5.56312894821167,0.6472135782241821,-1.9172537326812744,1.7528858184814453,1.4088640213012695,0.20345589518547058,0.4766387343406677
5.583188533782959,0.6471273303031921,-1.9167208671569824,1.7498685121536255,1.408599615097046,0.2017935812473297,0.47610193490982056
5.603250503540039,0.6466423869132996,-1.9166282415390015,1.7471952438354492,1.4085650444030762,0.20105311274528503,0.47517523169517517
5.623355150222778,0.646157443523407,-1.9162945747375488,1.747020959854126,1.4077333211898804,0.1984066665172577,0.4746130406856537
5.64340353012085,0.6453118324279785,-1.9153189659118652,1.7418055534362793,1.4065090417861938,0.19510558247566223,0.47442564368247986
5.663483142852783,0.647463321685791,-1.9136449098587036,1.742469072341919,1.4065630435943604,0.19650296866893768,0.47211357951164246
5.683603048324585,0.6475493907928467,-1.911712646484375,1.7400602102279663,1.4063555002212524,0.19553601741790771,0.4703802466392517
5.7037718296051025,0.646641731262207,-1.9094713926315308,1.7411452531814575,1.4075392484664917,0.1982685625553131,0.46932631731033325
5.723798036575317,0.6490989327430725,-1.9085724353790283,1.7370829582214355,1.4070779085159302,0.19718077778816223,0.4687599241733551
5.743844270706177,0.6497688293457031,-1.9094653129577637,1.7341556549072266,1.4062832593917847,0.19698601961135864,0.4670585095882416
5.763903617858887,0.6503040790557861,-1.9103633165359497,1.7322406768798828,1.4052691459655762,0.19369849562644958,0.466161847114563
5.784024953842163,0.6473491191864014,-1.9107332229614258,1.7284845113754272,1.4042332172393799,0.19172006845474243,0.4657125771045685
5.804131031036377,0.6442171931266785,-1.9099321365356445,1.7248177528381348,1.404369592666626,0.18909955024719238,0.4654252231121063
5.824182033538818,0.6455588340759277,-1.9077247381210327,1.7262911796569824,1.4065463542938232,0.19055938720703125,0.4646091163158417
5.844286918640137,0.6479264497756958,-1.904797911643982,1.7271655797958374,1.4070065021514893,0.19199448823928833,0.4634438753128052
5.864441633224487,0.6492003202438354,-1.9027658700942993,1.7276709079742432,1.407278060913086,0.19444945454597473,0.4627438187599182
5.88445520401001,0.651484489440918,-1.8984836339950562,1.7258310317993164,1.407396912574768,0.1946692168712616,0.4618721008300781
5.904530763626099,0.6554206609725952,-1.8984739780426025,1.722798228263855,1.4060791730880737,0.194499671459198,0.45931193232536316
5.924571752548218,0.6548382639884949,-1.898735761642456,1.7200323343276978,1.405907392501831,0.19255918264389038,0.45857325196266174
5.944657802581787,0.6546300053596497,-1.898384928703308,1.7185739278793335,1.4058189392089844,0.19261997938156128,0.4582666754722595
5.964723587036133,0.6535815596580505,-1.8989360332489014,1.7131783962249756,1.4050177335739136,0.18922507762908936,0.4580893814563751
5.984791040420532,0.6523127555847168,-1.9012831449508667,1.7087504863739014,1.4046868085861206,0.185538187623024,0.4578537046909332
6.004866123199463,0.6493034958839417,-1.900360107421875,1.7078051567077637,1.4040544033050537,0.18491867184638977,0.45721328258514404
6.024964809417725,0.6502246856689453,-1.8996410369873047,1.7061578035354614,1.4038431644439697,0.18436193466186523,0.45628800988197327
6.045079469680786,0.6517342925071716,-1.8987618684768677,1.707265019416809,1.4041160345077515,0.18511801958084106,0.4549427032470703
6.065150022506714,0.6529221534729004,-1.8960275650024414,1.7073951959609985,1.4044036865234375,0.18682357668876648,0.4534458518028259
6.085294008255005,0.6530337929725647,-1.8951423168182373,1.7037817239761353,1.4050137996673584,0.18583521246910095,0.45282500982284546
6.105309247970581,0.6543194055557251,-1.8927044868469238,1.7019731998443604,1.4050438404083252,0.18644767999649048,0.45233264565467834
6.125384569168091,0.6549389958381653,-1.8919801712036133,1.7025010585784912,1.4052023887634277,0.1852356195449829,0.45172977447509766
6.145449638366699,0.6499994993209839,-1.8896019458770752,1.697826862335205,1.405060887336731,0.18323680758476257,0.45189616084098816
6.165500640869141,0.6476787328720093,-1.888707160949707,1.6927618980407715,1.4049063920974731,0.18135446310043335,0.4511653482913971
6.185570955276489,0.6512661576271057,-1.8895208835601807,1.6907665729522705,1.4042726755142212,0.18149368464946747,0.44962844252586365
6.206312656402588,0.6532372832298279,-1.889188528060913,1.690718650817871,1.4040124416351318,0.1812918484210968,0.4482431709766388
6.226456165313721,0.654435396194458,-1.8887183666229248,1.6915619373321533,1.4037708044052124,0.18023478984832764,0.4473951458930969
6.246497631072998,0.654116153717041,-1.8876142501831055,1.6897130012512207,1.404116153717041,0.18059289455413818,0.4462760388851166
6.266572713851929,0.6498932242393494,-1.8869537115097046,1.6828243732452393,1.4023106098175049,0.17719623446464539,0.4460369646549225
6.28703498840332,0.6518415808677673,-1.8848787546157837,1.6830042600631714,1.4028897285461426,0.17974326014518738,0.44427600502967834
6.307155609130859,0.6521995663642883,-1.8840086460113525,1.6842656135559082,1.4034111499786377,0.17907550930976868,0.4435317814350128
6.3272011280059814,0.6546157002449036,-1.880961298942566,1.6828675270080566,1.403048038482666,0.17886985838413239,0.44183626770973206
6.347275733947754,0.6562047004699707,-1.877943992614746,1.6801064014434814,1.4031482934951782,0.17702370882034302,0.4409709870815277
6.367413759231567,0.6578814387321472,-1.8767427206039429,1.6771690845489502,1.403749942779541,0.1772729605436325,0.44026297330856323
6.387497186660767,0.6552939414978027,-1.8750039339065552,1.6770143508911133,1.4037927389144897,0.1787247359752655,0.43953385949134827
6.407563209533691,0.6549990773200989,-1.8735941648483276,1.6737959384918213,1.404343605041504,0.1769145131111145,0.4390382766723633
6.427632808685303,0.6529683470726013,-1.8732165098190308,1.6710140705108643,1.4045069217681885,0.17649874091148376,0.4383811354637146
6.447680234909058,0.6538575291633606,-1.8738130331039429,1.668239951133728,1.4040894508361816,0.17379547655582428,0.4382327198982239
6.467841386795044,0.6528058052062988,-1.8737411499023438,1.6652626991271973,1.402867317199707,0.17154797911643982,0.4380350410938263
6.487890720367432,0.6497313976287842,-1.87233567237854,1.6609371900558472,1.402335286140442,0.1688688099384308,0.4374487102031708
6.507960557937622,0.653699517250061,-1.8717745542526245,1.662229061126709,1.4030357599258423,0.17115816473960876,0.43528828024864197
6.528334856033325,0.6563386917114258,-1.8708722591400146,1.6630239486694336,1.403180480003357,0.17250345647335052,0.4335353672504425
6.548415422439575,0.656845211982727,-1.869734525680542,1.6604193449020386,1.4024662971496582,0.17254909873008728,0.4333001375198364
6.568478584289551,0.6578142046928406,-1.8671493530273438,1.660489559173584,1.4028129577636719,0.1735236793756485,0.4317612648010254
6.588560581207275,0.6576534509658813,-1.8654594421386719,1.6575944423675537,1.4020849466323853,0.17137140035629272,0.43030232191085815
6.608605146408081,0.6593665480613708,-1.864186406135559,1.6567797660827637,1.4021053314208984,0.17161217331886292,0.42865848541259766
6.628744840621948,0.6566435098648071,-1.8627276420593262,1.6551339626312256,1.401667594909668,0.1710459589958191,0.42838284373283386
6.648815393447876,0.6571522355079651,-1.8611090183258057,1.651679277420044,1.4011449813842773,0.16994506120681763,0.4274110794067383
6.66892409324646,0.6590860486030579,-1.860784649848938,1.6488046646118164,1.4001843929290771,0.16920414566993713,0.42641714215278625
6.688934803009033,0.6552966237068176,-1.8617652654647827,1.6416809558868408,1.398759365081787,0.163618266582489,0.4260083734989166
6.709035873413086,0.6582350730895996,-1.8619177341461182,1.643873691558838,1.3990155458450317,0.16682246327400208,0.4242376685142517
6.72910213470459,0.6547676920890808,-1.8633209466934204,1.6380890607833862,1.398559808731079,0.16302230954170227,0.4232689440250397
6.749157905578613,0.6551591753959656,-1.8642070293426514,1.6347949504852295,1.398323893547058,0.15968313813209534,0.422745019197464
6.769221782684326,0.654300332069397,-1.8624365329742432,1.634671926498413,1.3983471393585205,0.15882185101509094,0.4222147464752197
6.78931736946106,0.6561082601547241,-1.860062837600708,1.63535475730896,1.398807406425476,0.16118073463439941,0.42147892713546753
6.8094282150268555,0.657322883605957,-1.8562774658203125,1.6366479396820068,1.4002798795700073,0.16291847825050354,0.4199468493461609
6.829468727111816,0.6605979204177856,-1.8548601865768433,1.6338247060775757,1.399254322052002,0.16350752115249634,0.4185647964477539
6.84954309463501,0.6616111397743225,-1.8523228168487549,1.635129451751709,1.3992385864257812,0.16528606414794922,0.41666990518569946
6.869726657867432,0.6609219312667847,-1.8502533435821533,1.6298235654830933,1.3990070819854736,0.16327336430549622,0.41635680198669434
6.889803647994995,0.6567397117614746,-1.8502469062805176,1.6239721775054932,1.397836685180664,0.15953278541564941,0.416282594203949
6.909876585006714,0.6565918326377869,-1.8503856658935547,1.6221803426742554,1.3991901874542236,0.15894168615341187,0.4154440462589264
6.929936647415161,0.656308650970459,-1.8503382205963135,1.6185276508331299,1.3981208801269531,0.15514394640922546,0.41502320766448975
6.949989557266235,0.6567789316177368,-1.8516852855682373,1.6136795282363892,1.397463321685791,0.1530228853225708,0.414629727602005
6.970076084136963,0.65809565782547,-1.8521702289581299,1.6134181022644043,1.397120714187622,0.15435010194778442,0.41360726952552795
6.990145444869995,0.6604050397872925,-1.8533432483673096,1.6131186485290527,1.3962453603744507,0.15328219532966614,0.4118935167789459
7.010211944580078,0.6572915315628052,-1.8500046730041504,1.613083004951477,1.3964948654174805,0.15617194771766663,0.41021928191185
7.0303566455841064,0.656476616859436,-1.8459067344665527,1.6119096279144287,1.3978264331817627,0.1559613049030304,0.4093194007873535
7.050461292266846,0.6573663949966431,-1.8442214727401733,1.6104426383972168,1.3978503942489624,0.1538493037223816,0.4091835916042328
7.070526599884033,0.6584189534187317,-1.841497778892517,1.6078221797943115,1.3977633714675903,0.15395882725715637,0.4079405665397644
7.090581893920898,0.6583455801010132,-1.8388526439666748,1.6055009365081787,1.3973740339279175,0.15310117602348328,0.4069707691669464
7.110639333724976,0.6546783447265625,-1.837070345878601,1.6004633903503418,1.3970293998718262,0.15270046889781952,0.40548866987228394
7.130730867385864,0.6548649668693542,-1.8380076885223389,1.597969651222229,1.3964989185333252,0.15044601261615753,0.4047257602214813
7.150805711746216,0.6574575901031494,-1.8388935327529907,1.5955173969268799,1.3961015939712524,0.14984306693077087,0.40393924713134766
7.170877695083618,0.6565530300140381,-1.8399550914764404,1.5926882028579712,1.3954942226409912,0.14708159863948822,0.4036078155040741
7.1910271644592285,0.657778263092041,-1.8393239974975586,1.5936774015426636,1.3961100578308105,0.1469624638557434,0.4028548300266266
7.211102247238159,0.6540579795837402,-1.839570164680481,1.5886820554733276,1.394484519958496,0.14410817623138428,0.40292099118232727
7.231196641921997,0.6554657816886902,-1.8380801677703857,1.5878582000732422,1.393766164779663,0.1448410451412201,0.4009961485862732
7.2512431144714355,0.6562520861625671,-1.8361787796020508,1.5869468450546265,1.3937612771987915,0.1451358199119568,0.3993784189224243
7.2712976932525635,0.6562913060188293,-1.832456350326538,1.587747573852539,1.3949559926986694,0.1465592235326767,0.3983897566795349
7.2913734912872314,0.6579732298851013,-1.830149531364441,1.5891562700271606,1.396397590637207,0.1489465832710266,0.39759019017219543
7.311439037322998,0.6576371788978577,-1.8273561000823975,1.5852775573730469,1.3960092067718506,0.14724287390708923,0.3970763683319092
7.331506729125977,0.6560264229774475,-1.8264718055725098,1.581008791923523,1.39615797996521,0.14546984434127808,0.3961842656135559
7.351566553115845,0.6583267450332642,-1.8283507823944092,1.5762138366699219,1.3936882019042969,0.1431521773338318,0.3944307267665863
7.37164831161499,0.6581099033355713,-1.827965497970581,1.578223466873169,1.3949766159057617,0.143494114279747,0.393597275018692
7.391712427139282,0.6568090915679932,-1.8270381689071655,1.5742847919464111,1.3939423561096191,0.1428566575050354,0.39260995388031006
7.411781549453735,0.656605064868927,-1.8248937129974365,1.5745158195495605,1.3949713706970215,0.14271008968353271,0.3923370838165283
7.431841611862183,0.6535743474960327,-1.822705864906311,1.5707849264144897,1.394380807876587,0.14085207879543304,0.39147090911865234
7.452070713043213,0.6558678150177002,-1.8209277391433716,1.5691349506378174,1.3939142227172852,0.14004340767860413,0.38987499475479126
7.472152948379517,0.6573964953422546,-1.8202990293502808,1.5681899785995483,1.3937649726867676,0.14042538404464722,0.38875874876976013
7.49228572845459,0.6545543670654297,-1.8201677799224854,1.5617914199829102,1.3927397727966309,0.1358393430709839,0.38808301091194153
7.512342214584351,0.6547891497612,-1.8193106651306152,1.5621211528778076,1.3938241004943848,0.13691796362400055,0.3865264356136322
7.532405138015747,0.6511738896369934,-1.8185458183288574,1.5589302778244019,1.3936231136322021,0.1374429613351822,0.3867008686065674
7.55248236656189,0.6544028520584106,-1.8173857927322388,1.5583813190460205,1.3929455280303955,0.1355023831129074,0.3849862217903137
7.572552919387817,0.6575909852981567,-1.815432071685791,1.5597560405731201,1.3931893110275269,0.13757629692554474,0.3827522099018097
7.5926291942596436,0.6551584601402283,-1.8131158351898193,1.5555431842803955,1.3934803009033203,0.13708719611167908,0.38239842653274536
7.612704753875732,0.6576597690582275,-1.8103065490722656,1.5559501647949219,1.3940552473068237,0.13768935203552246,0.3815043568611145
7.632790803909302,0.658017635345459,-1.8105987310409546,1.551407814025879,1.392741084098816,0.13580864667892456,0.38111981749534607
7.652851819992065,0.6578445434570312,-1.8098466396331787,1.5498135089874268,1.392914056777954,0.13604845106601715,0.38015708327293396
7.672898292541504,0.655590295791626,-1.8101975917816162,1.544631004333496,1.3912853002548218,0.13309940695762634,0.3790939450263977
7.692956924438477,0.6546094417572021,-1.8099088668823242,1.5427014827728271,1.3902528285980225,0.13175949454307556,0.37716150283813477
7.713062047958374,0.6560770273208618,-1.8086915016174316,1.544656753540039,1.3908698558807373,0.13226071000099182,0.3759291172027588
7.7331249713897705,0.6565973162651062,-1.8056352138519287,1.5416195392608643,1.390321969985962,0.12952497601509094,0.375654011964798
7.753177881240845,0.6579927802085876,-1.802829623222351,1.5397624969482422,1.3906545639038086,0.12947474420070648,0.3747728765010834
7.7733070850372314,0.6557233333587646,-1.800533652305603,1.5371320247650146,1.3904097080230713,0.12935838103294373,0.37364229559898376
7.793345928192139,0.6568262577056885,-1.7995922565460205,1.537954330444336,1.3901880979537964,0.13184000551700592,0.37187421321868896
7.813385486602783,0.6556062698364258,-1.7995352745056152,1.5331237316131592,1.3900858163833618,0.12949295341968536,0.3704507648944855
7.833427667617798,0.6569074392318726,-1.7974021434783936,1.5323714017868042,1.3901370763778687,0.12837326526641846,0.3699083924293518
7.853488922119141,0.6540751457214355,-1.7947862148284912,1.5297478437423706,1.3905125856399536,0.1259138584136963,0.36969465017318726
7.873643636703491,0.647982656955719,-1.7931686639785767,1.5268324613571167,1.390539526939392,0.12366865575313568,0.36978378891944885
7.893680572509766,0.6501200199127197,-1.7917523384094238,1.5231016874313354,1.3916056156158447,0.12396597862243652,0.36920467019081116
7.913780689239502,0.6521292924880981,-1.789428949356079,1.5229461193084717,1.3907890319824219,0.1266150027513504,0.36741966009140015
7.933808088302612,0.653871476650238,-1.7883782386779785,1.5199410915374756,1.3898288011550903,0.12357352674007416,0.3659384846687317
7.954376220703125,0.6543244123458862,-1.7884758710861206,1.516465425491333,1.3891221284866333,0.12185995280742645,0.36431118845939636
7.974547863006592,0.6530047655105591,-1.7872450351715088,1.5161973237991333,1.3888053894042969,0.12285830080509186,0.3636258840560913
7.994561433792114,0.6541633605957031,-1.7859216928482056,1.5146985054016113,1.3878811597824097,0.12215560674667358,0.3621741831302643
8.01461148262024,0.6521767377853394,-1.784727931022644,1.5116093158721924,1.3869997262954712,0.11979103088378906,0.3608951270580292
8.034670352935791,0.6535720229148865,-1.784739375114441,1.5093001127243042,1.3868646621704102,0.1182466596364975,0.3596196174621582
8.054784059524536,0.6528159379959106,-1.7836822271347046,1.5087772607803345,1.3872671127319336,0.11832021176815033,0.3593783378601074
8.0748770236969,0.6516903638839722,-1.7815464735031128,1.5066050291061401,1.3874425888061523,0.11775369942188263,0.3586951792240143
8.094915866851807,0.6529341340065002,-1.7791268825531006,1.5071439743041992,1.388150691986084,0.11937873065471649,0.3577605187892914
8.115069150924683,0.6525909304618835,-1.776338815689087,1.5066404342651367,1.388148546218872,0.11983472853899002,0.35672643780708313
8.135119199752808,0.651209831237793,-1.775801658630371,1.5037431716918945,1.3873693943023682,0.11937233805656433,0.3563612997531891
8.155219078063965,0.6501060128211975,-1.774688482284546,1.501448631286621,1.386596441268921,0.11778990179300308,0.3548189103603363
8.175292730331421,0.6479313969612122,-1.773606300354004,1.4981392621994019,1.3868299722671509,0.1150820255279541,0.35354524850845337
8.19551134109497,0.6453467607498169,-1.7728395462036133,1.4925682544708252,1.38712477684021,0.11346045881509781,0.3531455099582672
8.215590476989746,0.6415467262268066,-1.7718422412872314,1.4895399808883667,1.3865652084350586,0.10866422206163406,0.3531876802444458
8.235659122467041,0.6441376209259033,-1.770464301109314,1.4884814023971558,1.3859663009643555,0.10997993499040604,0.350890576839447
8.255727767944336,0.6465467214584351,-1.7687525749206543,1.4876972436904907,1.385877013206482,0.11099881678819656,0.349192351102829
8.275876998901367,0.6479654908180237,-1.765449047088623,1.4875596761703491,1.3865338563919067,0.11201499402523041,0.34810957312583923
8.295956134796143,0.6494462490081787,-1.763914704322815,1.4870235919952393,1.3864675760269165,0.11303313821554184,0.3471290171146393
8.31601881980896,0.6486623287200928,-1.76213800907135,1.4833810329437256,1.3862602710723877,0.11245617270469666,0.3458060622215271
8.336168050765991,0.6504740715026855,-1.7613990306854248,1.4800244569778442,1.3850091695785522,0.11056798696517944,0.3444041907787323
8.356205701828003,0.6501924395561218,-1.760850429534912,1.4770671129226685,1.3852038383483887,0.10752025991678238,0.3432605564594269
8.37630581855774,0.6460552215576172,-1.7594194412231445,1.476354718208313,1.3850284814834595,0.10726723819971085,0.3429659903049469
8.39635968208313,0.6420919895172119,-1.7577248811721802,1.473828911781311,1.385635495185852,0.10531869530677795,0.3423362076282501
8.416426181793213,0.646613359451294,-1.7564609050750732,1.4714337587356567,1.385241985321045,0.10570677369832993,0.3409925103187561
8.436479091644287,0.6471056938171387,-1.755258321762085,1.4695812463760376,1.3842201232910156,0.10648190975189209,0.3391122817993164
8.456584215164185,0.6447421908378601,-1.7537128925323486,1.4698588848114014,1.3843965530395508,0.10535623133182526,0.33823689818382263
8.47663426399231,0.6398454904556274,-1.7519134283065796,1.464872121810913,1.384503960609436,0.10401973128318787,0.3377949595451355
8.4967041015625,0.6425133347511292,-1.7493512630462646,1.4646954536437988,1.3860996961593628,0.10573138296604156,0.33712664246559143
8.516928434371948,0.6417034864425659,-1.7477021217346191,1.4610412120819092,1.385129690170288,0.10341737419366837,0.33670148253440857
8.537007331848145,0.6419042348861694,-1.7457098960876465,1.4632394313812256,1.3861820697784424,0.10466422140598297,0.3357612192630768
8.557077884674072,0.6374493837356567,-1.7431880235671997,1.4600149393081665,1.3854565620422363,0.10409660637378693,0.33437278866767883
8.577135562896729,0.6403869986534119,-1.7431817054748535,1.4570600986480713,1.3847969770431519,0.1013801246881485,0.332507848739624
8.597192287445068,0.6396472454071045,-1.7413318157196045,1.4533864259719849,1.3846052885055542,0.10078437626361847,0.3316216468811035
8.617281198501587,0.6402762532234192,-1.7402598857879639,1.4531323909759521,1.385143756866455,0.10049344599246979,0.33153772354125977
8.63744330406189,0.6402761936187744,-1.737793207168579,1.4515657424926758,1.3848055601119995,0.10216432809829712,0.33029717206954956
8.65747594833374,0.639733076095581,-1.7349157333374023,1.450995683670044,1.3834408521652222,0.10179620236158371,0.3287500739097595
8.677531242370605,0.6419135332107544,-1.7335803508758545,1.448326826095581,1.382725477218628,0.10127414762973785,0.3270197808742523
8.69777250289917,0.6391116380691528,-1.731309175491333,1.4499733448028564,1.3832645416259766,0.10129755735397339,0.326288104057312
8.717958211898804,0.6363340616226196,-1.7292566299438477,1.4451076984405518,1.38283109664917,0.09863090515136719,0.32562586665153503
8.737949848175049,0.6339312195777893,-1.7278363704681396,1.440773606300354,1.383617639541626,0.09678836166858673,0.3251476287841797
8.758026123046875,0.6340469121932983,-1.7270203828811646,1.4372551441192627,1.382542371749878,0.09708662331104279,0.32399705052375793
8.778073787689209,0.6358799338340759,-1.7272034883499146,1.4369059801101685,1.3818492889404297,0.09590691328048706,0.322733610868454
8.798160791397095,0.6328081488609314,-1.7256284952163696,1.4323879480361938,1.3815701007843018,0.0946766585111618,0.3216230273246765
8.818224668502808,0.6320576071739197,-1.7242989540100098,1.4310051202774048,1.3821741342544556,0.0943353921175003,0.3204702138900757
8.838280200958252,0.6317459344863892,-1.720657467842102,1.4316720962524414,1.3829188346862793,0.09476910531520844,0.31956568360328674
8.858389616012573,0.6272909641265869,-1.7189762592315674,1.4273370504379272,1.3827722072601318,0.09255558997392654,0.31887394189834595
8.878494262695312,0.6275358200073242,-1.7178688049316406,1.4267382621765137,1.381714940071106,0.09371229261159897,0.3174620270729065
8.89858078956604,0.6297377347946167,-1.7159929275512695,1.4253383874893188,1.382352352142334,0.09205931425094604,0.31617850065231323
8.918640375137329,0.6311099529266357,-1.7128443717956543,1.4254781007766724,1.3829286098480225,0.09332533925771713,0.3151594400405884
8.938736200332642,0.6294047832489014,-1.710511565208435,1.4215891361236572,1.382932186126709,0.09338709712028503,0.31444451212882996
8.958881378173828,0.6303001642227173,-1.7088872194290161,1.4218473434448242,1.382943868637085,0.09401802718639374,0.31372982263565063
8.978901624679565,0.6322997808456421,-1.7074581384658813,1.4191478490829468,1.3807764053344727,0.0937163382768631,0.3114568889141083
8.998959302902222,0.6303425431251526,-1.7040019035339355,1.4186300039291382,1.380648136138916,0.09353794902563095,0.30912983417510986
9.019016742706299,0.626031756401062,-1.7021409273147583,1.413547158241272,1.380723476409912,0.08971526473760605,0.3086041212081909
9.039108276367188,0.6285982131958008,-1.701890468597412,1.4108192920684814,1.3800404071807861,0.09053750336170197,0.3081611692905426
9.059167861938477,0.6293849349021912,-1.698938012123108,1.4106030464172363,1.3799190521240234,0.0910852700471878,0.3067561388015747
9.07935118675232,0.6255965232849121,-1.6968650817871094,1.406254768371582,1.379209280014038,0.0900418683886528,0.3048430383205414
9.099540948867798,0.6239654421806335,-1.6946349143981934,1.4033229351043701,1.3796571493148804,0.08794943243265152,0.3037058413028717
9.119720935821533,0.6258409023284912,-1.694165825843811,1.402836799621582,1.3804073333740234,0.08734868466854095,0.30348241329193115
9.139755010604858,0.6247650384902954,-1.6930248737335205,1.3984763622283936,1.3792316913604736,0.08648692071437836,0.3024393916130066
9.159811973571777,0.6172225475311279,-1.691669225692749,1.3928786516189575,1.3773678541183472,0.08400420844554901,0.30056580901145935
9.179852962493896,0.619687020778656,-1.689633846282959,1.3938426971435547,1.378255844116211,0.0811677873134613,0.2990853190422058
9.199949741363525,0.6206398606300354,-1.6888865232467651,1.3911678791046143,1.3776220083236694,0.08360684663057327,0.29815182089805603
9.220008611679077,0.616051197052002,-1.684934139251709,1.3892943859100342,1.3779840469360352,0.08023347705602646,0.2975791394710541
9.240111112594604,0.6157694458961487,-1.6828949451446533,1.387039065361023,1.3768634796142578,0.08109717071056366,0.29502615332603455
9.260141611099243,0.6158091425895691,-1.679640531539917,1.3846404552459717,1.3773123025894165,0.08129093050956726,0.2940872013568878
9.28021240234375,0.6173757314682007,-1.6781513690948486,1.3864104747772217,1.3785903453826904,0.0824192613363266,0.2929899990558624
9.300301313400269,0.6150345206260681,-1.6751132011413574,1.3834214210510254,1.3790234327316284,0.08214086294174194,0.2924819886684418
9.320345640182495,0.6171122789382935,-1.6732563972473145,1.381765604019165,1.3781335353851318,0.08139616996049881,0.2910001277923584
9.340423822402954,0.6150205731391907,-1.6712454557418823,1.3776055574417114,1.3775696754455566,0.08081424236297607,0.28943192958831787
9.360501527786255,0.6099665760993958,-1.6686639785766602,1.374251127243042,1.3774785995483398,0.07863201946020126,0.288443922996521
9.380582571029663,0.6125203371047974,-1.667510747909546,1.3742311000823975,1.3777718544006348,0.08091140538454056,0.28718021512031555
9.400646924972534,0.6110847592353821,-1.6663017272949219,1.370403528213501,1.3759992122650146,0.07647087424993515,0.2855418622493744
9.420721769332886,0.6091755032539368,-1.664547085762024,1.3675175905227661,1.3765761852264404,0.07550166547298431,0.28402602672576904
9.440804481506348,0.6068477630615234,-1.6622049808502197,1.364917278289795,1.3768982887268066,0.07655225694179535,0.2834472358226776
9.46088719367981,0.6054823398590088,-1.6608588695526123,1.3632150888442993,1.3766759634017944,0.07452363520860672,0.28305506706237793
9.480961084365845,0.6050561666488647,-1.6574560403823853,1.3621270656585693,1.3769497871398926,0.07500220835208893,0.28211095929145813
9.50100302696228,0.606057345867157,-1.6549878120422363,1.3602077960968018,1.3759783506393433,0.07310537248849869,0.2802893817424774
9.521058320999146,0.604492723941803,-1.6523354053497314,1.3581323623657227,1.3758271932601929,0.07281595468521118,0.27786985039711
9.541201829910278,0.602405309677124,-1.6484988927841187,1.357241153717041,1.3763536214828491,0.07334323227405548,0.2767980098724365
9.56129503250122,0.6044949293136597,-1.6486258506774902,1.3529173135757446,1.3744561672210693,0.07337372750043869,0.27564460039138794
9.581393957138062,0.6051092743873596,-1.6449084281921387,1.354479432106018,1.3749908208847046,0.07342605292797089,0.2736395299434662
9.601395606994629,0.6049191355705261,-1.6420235633850098,1.3524985313415527,1.3760507106781006,0.07215897738933563,0.27305757999420166
9.621564149856567,0.6014614701271057,-1.639283537864685,1.3487093448638916,1.375015139579773,0.0710691288113594,0.27187588810920715
9.64154577255249,0.5976958870887756,-1.6387193202972412,1.3448370695114136,1.374366283416748,0.06785892695188522,0.2715131938457489
9.66164517402649,0.5963833332061768,-1.6373645067214966,1.3408732414245605,1.3730957508087158,0.06464238464832306,0.26974838972091675
9.68167495727539,0.5886445045471191,-1.6353919506072998,1.3341867923736572,1.3721039295196533,0.061913810670375824,0.26884689927101135
9.701729536056519,0.5910981893539429,-1.6334420442581177,1.3338415622711182,1.3705799579620361,0.060189809650182724,0.26599329710006714
9.72180700302124,0.5946456789970398,-1.6333460807800293,1.333045482635498,1.3709851503372192,0.060024797916412354,0.2651531398296356
9.741871356964111,0.5930938124656677,-1.6293854713439941,1.3326112031936646,1.3725675344467163,0.06052083894610405,0.2646542489528656
9.7619469165802,0.590508222579956,-1.626166820526123,1.328890323638916,1.3717519044876099,0.06063274294137955,0.2635347545146942
9.78204345703125,0.590277373790741,-1.6227060556411743,1.3289368152618408,1.3709602355957031,0.06195839121937752,0.260839581489563
9.802154779434204,0.5921202898025513,-1.6216939687728882,1.3272695541381836,1.3705343008041382,0.06053267419338226,0.2597718834877014
9.822232723236084,0.5865993499755859,-1.6179481744766235,1.323577880859375,1.3709416389465332,0.06026379391551018,0.25917091965675354
9.842262029647827,0.5826113224029541,-1.613447904586792,1.322708010673523,1.3706133365631104,0.05805954337120056,0.2573891282081604
9.862440824508667,0.5776152610778809,-1.6097670793533325,1.3179030418395996,1.3710798025131226,0.05446366220712662,0.2564966380596161
9.882522344589233,0.5797803401947021,-1.6085275411605835,1.317307710647583,1.372071623802185,0.05503632500767708,0.25571954250335693
9.90258526802063,0.5724121332168579,-1.6056307554244995,1.3103225231170654,1.371171474456787,0.05301937088370323,0.2546669542789459
9.922641038894653,0.5738989114761353,-1.6029329299926758,1.3089942932128906,1.3710576295852661,0.05055103451013565,0.25328347086906433
9.94275689125061,0.5747272372245789,-1.6003475189208984,1.3077279329299927,1.370713472366333,0.049571793526411057,0.2511352598667145
9.96287989616394,0.5745927095413208,-1.5986155271530151,1.3060195446014404,1.3707373142242432,0.050983328372240067,0.25064167380332947
9.98293423652649,0.5772336721420288,-1.595043420791626,1.3061267137527466,1.370470404624939,0.052734196186065674,0.24879273772239685
10.003024578094482,0.5774037837982178,-1.591118335723877,1.3061940670013428,1.3694558143615723,0.05390043184161186,0.24594762921333313
10.023084163665771,0.5769984722137451,-1.5869897603988647,1.3065314292907715,1.3702127933502197,0.05474410951137543,0.24442678689956665
10.04316258430481,0.5728183388710022,-1.584670901298523,1.303837776184082,1.3701289892196655,0.055404938757419586,0.24396583437919617
10.063227891921997,0.5706000328063965,-1.5816850662231445,1.2988834381103516,1.3689225912094116,0.05378643795847893,0.24258509278297424
10.083314895629883,0.568929135799408,-1.5803351402282715,1.2945327758789062,1.3674782514572144,0.048369526863098145,0.24068063497543335
10.10335898399353,0.5610082745552063,-1.5772497653961182,1.2899590730667114,1.3679983615875244,0.0462806299328804,0.23980143666267395
10.12348461151123,0.5626476407051086,-1.5777018070220947,1.2863332033157349,1.3677623271942139,0.04486414045095444,0.2392936646938324
10.143591403961182,0.5623879432678223,-1.5767078399658203,1.2827062606811523,1.3657593727111816,0.041838277131319046,0.23674988746643066
10.163678169250488,0.5551390051841736,-1.5726726055145264,1.2791565656661987,1.3653006553649902,0.04187652841210365,0.23542574048042297
10.183744668960571,0.5602503418922424,-1.5696790218353271,1.2783823013305664,1.3636674880981445,0.042110029608011246,0.23271119594573975
10.203999042510986,0.5605811476707458,-1.5668017864227295,1.2804285287857056,1.3636972904205322,0.04291017726063728,0.23067563772201538
10.224102020263672,0.5570614337921143,-1.5610982179641724,1.278896689414978,1.3630348443984985,0.04161258041858673,0.2285248041152954
10.244148254394531,0.5548030138015747,-1.5571922063827515,1.2751597166061401,1.3623111248016357,0.04097588732838631,0.22608676552772522
10.264204502105713,0.5521591305732727,-1.553189992904663,1.2715222835540771,1.363851547241211,0.04159190505743027,0.2251501977443695
10.284413576126099,0.5502157211303711,-1.5495336055755615,1.2696585655212402,1.3636972904205322,0.041202567517757416,0.223907470703125
10.304498672485352,0.5493474006652832,-1.5474066734313965,1.268863320350647,1.3641597032546997,0.04233964532613754,0.2231411635875702
10.324608325958252,0.5446183085441589,-1.5446069240570068,1.2634588479995728,1.3619252443313599,0.03911923989653587,0.22105902433395386
10.344676494598389,0.544852614402771,-1.5421910285949707,1.2591140270233154,1.361825704574585,0.03712044656276703,0.21946769952774048
10.36472749710083,0.5443660616874695,-1.5398643016815186,1.2594335079193115,1.36238694190979,0.03736890107393265,0.21842235326766968
10.384820461273193,0.5407364368438721,-1.5358362197875977,1.2573025226593018,1.3622076511383057,0.038263190537691116,0.2161465585231781
10.404984951019287,0.5432525873184204,-1.5320124626159668,1.254946231842041,1.3621798753738403,0.03846820443868637,0.21451392769813538
10.424976825714111,0.5410183668136597,-1.5274934768676758,1.2533892393112183,1.361878752708435,0.03893739730119705,0.21296343207359314
10.445130109786987,0.541496753692627,-1.5239835977554321,1.252258062362671,1.3606514930725098,0.038933753967285156,0.2103816270828247
10.465418815612793,0.5429139137268066,-1.5223605632781982,1.2514245510101318,1.3602988719940186,0.03882604092359543,0.20877793431282043
10.485424757003784,0.5387529134750366,-1.5186071395874023,1.2494856119155884,1.3592543601989746,0.03772826865315437,0.20637726783752441
10.5054771900177,0.5355188846588135,-1.516815423965454,1.2429842948913574,1.359055519104004,0.03339936211705208,0.20501431822776794
10.525532007217407,0.5310795903205872,-1.513447880744934,1.2381608486175537,1.3584315776824951,0.031866222620010376,0.2036844789981842
10.545716762542725,0.5295285582542419,-1.5114672183990479,1.2378976345062256,1.3581349849700928,0.032292257994413376,0.20241966843605042
10.565844535827637,0.5287128686904907,-1.5070605278015137,1.2363755702972412,1.3575562238693237,0.03266501799225807,0.2000841498374939
10.586061000823975,0.5260946750640869,-1.5018675327301025,1.2358908653259277,1.3578753471374512,0.033747538924217224,0.198529452085495
10.60611605644226,0.5223830342292786,-1.4978723526000977,1.2326667308807373,1.3566663265228271,0.03353995457291603,0.19627562165260315
10.626575946807861,0.523313581943512,-1.4947009086608887,1.2325565814971924,1.3564798831939697,0.03311006352305412,0.19441986083984375
10.646656036376953,0.5231457948684692,-1.49269700050354,1.2306692600250244,1.356900691986084,0.0338042750954628,0.1940116584300995
10.666724681854248,0.5199159979820251,-1.489554524421692,1.2261111736297607,1.354640245437622,0.031881656497716904,0.1918817162513733
10.686793327331543,0.516638457775116,-1.4856157302856445,1.2230225801467896,1.3547340631484985,0.03158480301499367,0.18941253423690796
10.706878185272217,0.5105950236320496,-1.4821245670318604,1.2164504528045654,1.3536968231201172,0.027579952031373978,0.18821308016777039
10.72696828842163,0.5114192366600037,-1.481309175491333,1.2136362791061401,1.3536131381988525,0.02633974328637123,0.1874082088470459
10.747037649154663,0.5011640191078186,-1.4778103828430176,1.207574486732483,1.3531336784362793,0.024048790335655212,0.18595024943351746
10.767113447189331,0.49672889709472656,-1.4731075763702393,1.2079946994781494,1.3546854257583618,0.023880671709775925,0.18436899781227112
10.78719973564148,0.4950307607650757,-1.4695508480072021,1.203240156173706,1.3529908657073975,0.02302836999297142,0.18198585510253906
10.80728006362915,0.4937233328819275,-1.4673001766204834,1.2025940418243408,1.352765679359436,0.020487040281295776,0.1811162531375885
10.827347993850708,0.4960308074951172,-1.4630179405212402,1.2020516395568848,1.353031873703003,0.02336541935801506,0.1789935827255249
10.847431421279907,0.4961777925491333,-1.4583919048309326,1.200882077217102,1.3515113592147827,0.024668056517839432,0.17614561319351196
10.867493629455566,0.49660128355026245,-1.454375982284546,1.2004655599594116,1.3507264852523804,0.02478790655732155,0.1737072467803955
10.88765001296997,0.49729594588279724,-1.451519250869751,1.1980184316635132,1.3484458923339844,0.024985115975141525,0.17070557177066803
10.907736539840698,0.49218273162841797,-1.4488770961761475,1.1962625980377197,1.3491055965423584,0.023565322160720825,0.16998380422592163
10.92782211303711,0.4898608326911926,-1.4445850849151611,1.1939817667007446,1.3481402397155762,0.023356590420007706,0.16735468804836273
10.947892189025879,0.4836289882659912,-1.4396023750305176,1.1926765441894531,1.3487849235534668,0.02067079395055771,0.16637814044952393
10.967955827713013,0.4759882092475891,-1.4347548484802246,1.1889889240264893,1.3492258787155151,0.01927213743329048,0.16566252708435059
10.988041400909424,0.47340577840805054,-1.4317396879196167,1.1877150535583496,1.349144458770752,0.021055836230516434,0.16471797227859497
11.008120775222778,0.4717230796813965,-1.4272053241729736,1.187070608139038,1.348539113998413,0.022004399448633194,0.16139134764671326
11.028162956237793,0.4717271327972412,-1.421292781829834,1.1857151985168457,1.3485510349273682,0.023065458983182907,0.15969839692115784
11.048222780227661,0.4685715436935425,-1.4164245128631592,1.1816085577011108,1.3469290733337402,0.022139135748147964,0.1571037322282791
11.068309307098389,0.4670989513397217,-1.413576364517212,1.1803911924362183,1.347346305847168,0.022491689771413803,0.15635287761688232
11.088374137878418,0.4670272469520569,-1.4082181453704834,1.1797345876693726,1.3475818634033203,0.024535581469535828,0.15415489673614502
11.108444690704346,0.4624500870704651,-1.4015331268310547,1.1797313690185547,1.346564531326294,0.026367124170064926,0.15145669877529144
11.128501892089844,0.4557006359100342,-1.3972034454345703,1.1729950904846191,1.344879150390625,0.021003901958465576,0.14903205633163452
11.148831605911255,0.4489869475364685,-1.3927265405654907,1.1688671112060547,1.344050407409668,0.019474215805530548,0.14615598320960999
11.168916463851929,0.44242042303085327,-1.3898603916168213,1.164941430091858,1.3429343700408936,0.017301615327596664,0.14540529251098633
11.18905782699585,0.44061315059661865,-1.3872292041778564,1.1603097915649414,1.3420145511627197,0.013280737213790417,0.14255526661872864
11.20906114578247,0.4417625963687897,-1.3832941055297852,1.1557923555374146,1.3397185802459717,0.01433934923261404,0.13928231596946716
11.229132413864136,0.4396188259124756,-1.3777129650115967,1.1548186540603638,1.3385359048843384,0.014576076529920101,0.13585436344146729
11.249216794967651,0.4407113790512085,-1.3766781091690063,1.1500309705734253,1.3374199867248535,0.013493313454091549,0.1346398890018463
11.269296646118164,0.4403417706489563,-1.3708080053329468,1.1497998237609863,1.3364397287368774,0.014397396706044674,0.13117873668670654
11.289377689361572,0.4387306272983551,-1.3659923076629639,1.1477409601211548,1.3347320556640625,0.016082461923360825,0.127210333943367
11.309425592422485,0.4358997941017151,-1.3607442378997803,1.1449215412139893,1.3330146074295044,0.013872935436666012,0.12409957498311996
11.32951283454895,0.43411368131637573,-1.358656644821167,1.143258810043335,1.3323712348937988,0.012463132850825787,0.12254838645458221
11.349592447280884,0.4265128970146179,-1.3545129299163818,1.1357612609863281,1.3306124210357666,0.008011179976165295,0.12098030000925064
11.369771957397461,0.4230062663555145,-1.3500750064849854,1.1315312385559082,1.3297414779663086,0.006621270440518856,0.1177799329161644
11.389751434326172,0.4142949879169464,-1.3444185256958008,1.1273609399795532,1.3273385763168335,0.0038991859182715416,0.11536625772714615
11.40985894203186,0.41380417346954346,-1.341686487197876,1.1263269186019897,1.3276646137237549,0.006963989697396755,0.11330851167440414
11.429940462112427,0.4148269593715668,-1.3371562957763672,1.1209492683410645,1.3243935108184814,0.006034548394382,0.10955431312322617
11.449985027313232,0.4099372923374176,-1.3325843811035156,1.1144022941589355,1.3236355781555176,0.0020754067227244377,0.10650359094142914
11.470049142837524,-3.14,-2.1864118576049805,0.8269920945167542,-1.7060775756835938,-0.5236233472824097,-1.1387722492218018
11.490139961242676,-3.14,-2.2831978797912598,0.855826735496521,-1.7178196907043457,-0.5381424427032471,-1.1634771823883057
11.510217189788818,-3.14,-2.3248133659362793,0.8750874996185303,-1.718121886253357,-0.541627049446106,-1.167576789855957
11.53028655052185,-3.14,-2.3300111293792725,0.87937331199646,-1.7191412448883057,-0.5377054214477539,-1.1680371761322021
11.550345659255981,-3.14,-2.3309996128082275,0.8830044865608215,-1.7165932655334473,-0.5341697931289673,-1.1679893732070923
11.570471048355103,-3.14,-2.3306844234466553,0.8837462663650513,-1.7164437770843506,-0.534302830696106,-1.16804838180542
11.59051251411438,-3.14,-2.330051898956299,0.8846433162689209,-1.715659260749817,-0.5306795835494995,-1.1681461334228516
11.610575675964355,-3.14,-2.329267978668213,0.8865952491760254,-1.714857578277588,-0.5285906791687012,-1.168256163597107
11.630626440048218,-3.14,-2.3293826580047607,0.8891746401786804,-1.7124109268188477,-0.5256005525588989,-1.1685099601745605
11.650723218917847,-3.14,-2.3297669887542725,0.8911614418029785,-1.7113151550292969,-0.5216385722160339,-1.1684855222702026
11.67079496383667,-3.14,-2.3294122219085693,0.8930305242538452,-1.7091346979141235,-0.5187672972679138,-1.168185830116272
11.69087839126587,-3.14,-2.3294081687927246,0.8940117359161377,-1.7089941501617432,-0.516636848449707,-1.1683474779129028
11.710936546325684,-3.14,-2.3291916847229004,0.8978090286254883,-1.706337332725525,-0.5115479230880737,-1.168531894683838
11.731018543243408,-3.14,-2.327955484390259,0.8987715840339661,-1.704653024673462,-0.5145453214645386,-1.1684882640838623
11.751128196716309,-3.14,-2.3272900581359863,0.8988794088363647,-1.7047466039657593,-0.511184573173523,-1.1685986518859863
11.771173477172852,-3.14,-2.328070640563965,0.9023762941360474,-1.7022993564605713,-0.505569338798523,-1.168821930885315
11.791218280792236,-3.14,-2.3257293701171875,0.9049222469329834,-1.7000677585601807,-0.5052621364593506,-1.1683741807937622
11.811301946640015,-3.14,-2.3265748023986816,0.9054276943206787,-1.6992945671081543,-0.5030907392501831,-1.1683757305145264
11.831518173217773,-3.14,-2.3250341415405273,0.907103419303894,-1.6977307796478271,-0.5017063617706299,-1.1682286262512207
11.851589918136597,-3.14,-2.326117515563965,0.9096663594245911,-1.696304440498352,-0.49673330783843994,-1.1683509349822998
11.87165880203247,-3.14,-2.325655937194824,0.910865306854248,-1.694883942604065,-0.4954030215740204,-1.1682705879211426
11.891704082489014,-3.14,-2.3243606090545654,0.9127489328384399,-1.6934362649917603,-0.49307113885879517,-1.1682147979736328
11.911816835403442,-3.14,-2.3241634368896484,0.9132623076438904,-1.693057894706726,-0.4910953938961029,-1.1683018207550049
11.931861639022827,-3.14,-2.3240954875946045,0.9151909947395325,-1.6915422677993774,-0.4880797863006592,-1.1684309244155884
11.951998233795166,-3.14,-2.322667121887207,0.9177995324134827,-1.689730167388916,-0.48634666204452515,-1.1680634021759033
11.971991777420044,-3.14,-2.323072910308838,0.9191095232963562,-1.6871232986450195,-0.4856100082397461,-1.1677683591842651
11.992079973220825,-3.14,-2.3223977088928223,0.9203036427497864,-1.6864142417907715,-0.483955979347229,-1.1677602529525757
12.012150764465332,-3.14,-2.3219010829925537,0.9235526919364929,-1.6824979782104492,-0.48162129521369934,-1.1675277948379517
12.032224893569946,-3.14,-2.322192430496216,0.9249223470687866,-1.6796388626098633,-0.4758913815021515,-1.1671829223632812
12.0523202419281,-3.14,-2.3211662769317627,0.9265639185905457,-1.6787424087524414,-0.47219085693359375,-1.1671221256256104
12.072920799255371,-3.14,-2.319647789001465,0.9277224540710449,-1.6783429384231567,-0.47121918201446533,-1.1670048236846924
12.093116283416748,-3.14,-2.319413185119629,0.9322870373725891,-1.6749231815338135,-0.4657478928565979,-1.167083740234375
12.113112211227417,-3.14,-2.3179125785827637,0.9335580468177795,-1.6739859580993652,-0.4644204378128052,-1.1670418977737427
12.133196830749512,-3.14,-2.318077325820923,0.9360686540603638,-1.6711704730987549,-0.4609934985637665,-1.1667962074279785
12.153245449066162,-3.14,-2.316795825958252,0.9376714825630188,-1.6696021556854248,-0.4593791663646698,-1.1665295362472534
12.173330783843994,-3.14,-2.316654682159424,0.9384682774543762,-1.6694412231445312,-0.4584773778915405,-1.1666792631149292
12.193397760391235,-3.14,-2.316805601119995,0.939979076385498,-1.666535496711731,-0.45607829093933105,-1.1665523052215576
12.21346402168274,-3.14,-2.3160793781280518,0.9422221183776855,-1.6647741794586182,-0.45387303829193115,-1.1665465831756592
12.233520030975342,-3.14,-2.314394474029541,0.9446344971656799,-1.6632020473480225,-0.4496268630027771,-1.166048288345337
12.25360631942749,-3.14,-2.3143999576568604,0.9457436800003052,-1.662105917930603,-0.448013037443161,-1.1661158800125122
12.273675680160522,-3.14,-2.3120675086975098,0.9484550356864929,-1.659801721572876,-0.4462992548942566,-1.165637493133545
12.293796300888062,-3.14,-2.3119239807128906,0.9493585824966431,-1.6583449840545654,-0.44554468989372253,-1.1655552387237549
12.313888788223267,-3.14,-2.312483787536621,0.9508130550384521,-1.6556607484817505,-0.44381341338157654,-1.1654123067855835
12.333953857421875,-3.14,-2.3132436275482178,0.9514880776405334,-1.6554067134857178,-0.4401628375053406,-1.165558099746704
12.354043006896973,-3.14,-2.313000202178955,0.9544820785522461,-1.6526386737823486,-0.436897337436676,-1.1655604839324951
12.374104976654053,-3.14,-2.311246395111084,0.9576201438903809,-1.6504011154174805,-0.43362951278686523,-1.1654317378997803
12.394261837005615,-3.14,-2.3096072673797607,0.9591874480247498,-1.6504476070404053,-0.4297028183937073,-1.1655499935150146
12.414272785186768,-3.14,-2.310016393661499,0.9612584710121155,-1.6489269733428955,-0.4244977831840515,-1.1655784845352173
12.43443250656128,-3.14,-2.308934450149536,0.9626964926719666,-1.6462547779083252,-0.4259776473045349,-1.165567398071289
12.454469680786133,-3.14,-2.309454917907715,0.9654043912887573,-1.644484519958496,-0.4204569160938263,-1.1655654907226562
12.474548578262329,-3.14,-2.3093433380126953,0.9669163227081299,-1.6417880058288574,-0.41740894317626953,-1.1655099391937256
12.494756937026978,-3.14,-2.3075599670410156,0.9692918658256531,-1.639776349067688,-0.4181351065635681,-1.1652183532714844
12.514755010604858,-3.14,-2.307584285736084,0.9718455076217651,-1.6365591287612915,-0.4131447672843933,-1.1648759841918945
12.534815549850464,-3.14,-2.3054213523864746,0.972541093826294,-1.6376127004623413,-0.4102482199668884,-1.1648781299591064
12.554861545562744,-3.14,-2.305598258972168,0.9750432968139648,-1.6352462768554688,-0.4070178270339966,-1.164900779724121
12.574947595596313,-3.14,-2.304396152496338,0.9763163924217224,-1.6339404582977295,-0.4075077474117279,-1.1647485494613647
12.595065355300903,-3.14,-2.3039493560791016,0.9776030778884888,-1.6317822933197021,-0.4062073826789856,-1.164543867111206
12.615115880966187,-3.14,-2.303919792175293,0.9804831147193909,-1.6297051906585693,-0.4021894633769989,-1.164353847503662
12.635268449783325,-3.14,-2.3026764392852783,0.9829296469688416,-1.626619577407837,-0.4004897475242615,-1.1639151573181152
12.655332803726196,-3.14,-2.3029539585113525,0.9837019443511963,-1.6253832578659058,-0.3970712721347809,-1.1638166904449463
12.675400972366333,-3.14,-2.3025803565979004,0.9866091012954712,-1.6220958232879639,-0.3926813006401062,-1.1636803150177002
12.695470809936523,-3.14,-2.3001275062561035,0.9883419871330261,-1.6214916706085205,-0.39176496863365173,-1.1635308265686035
12.715517044067383,-3.14,-2.2997846603393555,0.9890275597572327,-1.6207637786865234,-0.39074885845184326,-1.163390874862671
12.735610723495483,-3.1346330642700195,-2.301088809967041,0.9902098774909973,-1.6188322305679321,-0.3872531056404114,-1.163540244102478
12.755672454833984,-3.1311841011047363,-2.30007004737854,0.9926977157592773,-1.6168265342712402,-0.38608360290527344,-1.1634854078292847
12.77576756477356,-3.1269702911376953,-2.298961639404297,0.9954156875610352,-1.614990234375,-0.3843839764595032,-1.1631561517715454
12.79582667350769,-3.119218349456787,-2.2995924949645996,0.9970922470092773,-1.6131720542907715,-0.3807520270347595,-1.163262963294983
12.815918445587158,-3.119540214538574,-2.2982659339904785,0.9978445172309875,-1.6132632493972778,-0.37931495904922485,-1.1632521152496338
12.836063385009766,-3.1065449714660645,-2.300114393234253,1.0015223026275635,-1.6100589036941528,-0.37372684478759766,-1.1637718677520752
12.85614538192749,-3.1035194396972656,-2.2980852127075195,1.003232479095459,-1.6083950996398926,-0.3715153932571411,-1.1636158227920532
12.876164674758911,-3.102994680404663,-2.296908378601074,1.0039384365081787,-1.6085600852966309,-0.36915987730026245,-1.1636282205581665
12.896255016326904,-3.1012678146362305,-2.2963900566101074,1.004703164100647,-1.6076104640960693,-0.3691714406013489,-1.1635297536849976
12.916316270828247,-3.0960137844085693,-2.296473503112793,1.006232738494873,-1.6045846939086914,-0.3687182664871216,-1.1631522178649902
12.936387777328491,-3.0915846824645996,-2.2952189445495605,1.0085289478302002,-1.6010538339614868,-0.3687157928943634,-1.162282943725586
12.956442594528198,-3.0872058868408203,-2.2948973178863525,1.0102254152297974,-1.600749135017395,-0.3655206859111786,-1.1620709896087646
12.976655721664429,-3.0795373916625977,-2.295177698135376,1.012324571609497,-1.5989702939987183,-0.3610629439353943,-1.1624923944473267
12.996768236160278,-3.074949264526367,-2.2949037551879883,1.0140085220336914,-1.59784734249115,-0.35651692748069763,-1.162522792816162
13.016818284988403,-3.065985918045044,-2.2946791648864746,1.0172736644744873,-1.5947459936141968,-0.3528119623661041,-1.1626406908035278
13.036882877349854,-3.065463066101074,-2.2930405139923096,1.0180326700210571,-1.594683051109314,-0.3515350818634033,-1.162803292274475
13.057093858718872,-3.065135955810547,-2.292290687561035,1.018139362335205,-1.5941767692565918,-0.3510422706604004,-1.1626852750778198
13.077081441879272,-3.056978702545166,-2.292459011077881,1.0204706192016602,-1.590031385421753,-0.3484433889389038,-1.1623245477676392
13.097142934799194,-3.0500144958496094,-2.2919082641601562,1.0236433744430542,-1.586296796798706,-0.34756240248680115,-1.1615407466888428
13.117197513580322,-3.0437400341033936,-2.2906956672668457,1.026620626449585,-1.583573818206787,-0.3444797992706299,-1.160889983177185
13.137323379516602,-3.0441079139709473,-2.2892513275146484,1.0273807048797607,-1.5829048156738281,-0.345964252948761,-1.1606634855270386
13.15742564201355,-3.038724422454834,-2.2891035079956055,1.0288993120193481,-1.5824472904205322,-0.3416963815689087,-1.161000370979309
13.177520751953125,-3.027507781982422,-2.2893500328063965,1.032321810722351,-1.5800714492797852,-0.33394238352775574,-1.1614660024642944
13.197679042816162,-3.0221424102783203,-2.2881836891174316,1.0340907573699951,-1.5774933099746704,-0.3312692642211914,-1.1616692543029785
13.2177095413208,-3.021998405456543,-2.287329912185669,1.0351719856262207,-1.577388048171997,-0.3300323784351349,-1.16171133518219
13.237889766693115,-3.0194921493530273,-2.286482810974121,1.0357561111450195,-1.5759294033050537,-0.3301408588886261,-1.161452054977417
13.25788402557373,-3.015380382537842,-2.285520553588867,1.0380754470825195,-1.5738461017608643,-0.3293120563030243,-1.1610814332962036
13.277944803237915,-3.0107975006103516,-2.284975528717041,1.0409728288650513,-1.5719935894012451,-0.3273361921310425,-1.160712480545044
13.297995805740356,-3.0078721046447754,-2.284849166870117,1.0415356159210205,-1.5704822540283203,-0.3263435363769531,-1.160271167755127
13.318074464797974,-3.00063419342041,-2.2863950729370117,1.0419692993164062,-1.5685019493103027,-0.32330331206321716,-1.1604127883911133
13.338136434555054,-2.99515962600708,-2.2855005264282227,1.0432624816894531,-1.566511631011963,-0.31954532861709595,-1.1605026721954346
13.358201742172241,-2.990748167037964,-2.284151077270508,1.0456132888793945,-1.56531822681427,-0.31606215238571167,-1.1605610847473145
13.378265857696533,-2.9805965423583984,-2.283010959625244,1.0503077507019043,-1.5611761808395386,-0.31200748682022095,-1.16068434715271
13.398382663726807,-2.980851650238037,-2.2813546657562256,1.0509564876556396,-1.5610209703445435,-0.3102167546749115,-1.1604554653167725
13.418433427810669,-2.9803225994110107,-2.2800936698913574,1.0521962642669678,-1.560441493988037,-0.3106060326099396,-1.1601654291152954
13.438522338867188,-2.9775729179382324,-2.280012607574463,1.0525528192520142,-1.5586388111114502,-0.31141024827957153,-1.159764289855957
13.45856237411499,-2.972602605819702,-2.2800912857055664,1.0540056228637695,-1.556501865386963,-0.30921000242233276,-1.1593530178070068
13.478681802749634,-2.968728542327881,-2.279954671859741,1.055290699005127,-1.555084228515625,-0.3081435561180115,-1.1592860221862793
13.498762130737305,-2.964092254638672,-2.2809770107269287,1.056357979774475,-1.5541902780532837,-0.3053663372993469,-1.15951406955719
13.518830060958862,-2.9576573371887207,-2.2797369956970215,1.0589172840118408,-1.5519702434539795,-0.30085209012031555,-1.1595187187194824
13.53891658782959,-2.9490272998809814,-2.2790656089782715,1.0613102912902832,-1.5495014190673828,-0.2953866124153137,-1.1594696044921875
13.55908727645874,-2.9386234283447266,-2.2789456844329834,1.064380407333374,-1.546210765838623,-0.2914823293685913,-1.1596870422363281
13.579198360443115,-2.9392807483673096,-2.277745485305786,1.0650510787963867,-1.5458903312683105,-0.29202941060066223,-1.1597862243652344
13.599267482757568,-2.9393808841705322,-2.2755942344665527,1.0664117336273193,-1.544990062713623,-0.29237598180770874,-1.1591960191726685
13.619358539581299,-2.936612367630005,-2.275747776031494,1.0668672323226929,-1.5440343618392944,-0.29125577211380005,-1.1589857339859009
13.63938856124878,-2.9322476387023926,-2.2759926319122314,1.0687711238861084,-1.5424261093139648,-0.28918588161468506,-1.1589891910552979
13.659473419189453,-2.927347421646118,-2.2759416103363037,1.0710818767547607,-1.540471076965332,-0.28650110960006714,-1.1589730978012085
13.679540157318115,-2.9258735179901123,-2.274416923522949,1.072302222251892,-1.5396441221237183,-0.2868537902832031,-1.1585496664047241
13.699633836746216,-2.919454336166382,-2.27443790435791,1.074031949043274,-1.5378384590148926,-0.28320562839508057,-1.1586995124816895
13.719715118408203,-2.910616874694824,-2.274141788482666,1.076948881149292,-1.5341287851333618,-0.2794140577316284,-1.1588034629821777
13.73978304862976,-2.9085652828216553,-2.2724857330322266,1.0788429975509644,-1.5329539775848389,-0.2767374813556671,-1.1586966514587402
13.75986909866333,-2.903247594833374,-2.2731165885925293,1.0799381732940674,-1.5315465927124023,-0.2746429443359375,-1.158626675605774
13.780030250549316,-2.8993871212005615,-2.271610736846924,1.0816245079040527,-1.5291327238082886,-0.2735885679721832,-1.1581885814666748
13.800061225891113,-2.8973217010498047,-2.270465612411499,1.0836516618728638,-1.5283913612365723,-0.27239036560058594,-1.1580679416656494
13.820117950439453,-2.897352933883667,-2.2690062522888184,1.084588646888733,-1.5280197858810425,-0.27324241399765015,-1.1576588153839111
13.840196132659912,-2.894792079925537,-2.2697129249572754,1.084803819656372,-1.5274089574813843,-0.27167215943336487,-1.1576967239379883
13.860283613204956,-2.8902573585510254,-2.269976854324341,1.0859293937683105,-1.5257889032363892,-0.2698350250720978,-1.1576731204986572
13.880351543426514,-2.885965585708618,-2.2687745094299316,1.0892212390899658,-1.5235058069229126,-0.2678380012512207,-1.1576454639434814
13.900417566299438,-2.8812332153320312,-2.268847703933716,1.0901679992675781,-1.5224121809005737,-0.2648365795612335,-1.1576058864593506
13.920469045639038,-2.877439260482788,-2.2686517238616943,1.0917134284973145,-1.5209991931915283,-0.26331019401550293,-1.157588005065918
13.940671920776367,-2.8685381412506104,-2.2688546180725098,1.094459056854248,-1.518036961555481,-0.2595469355583191,-1.1578328609466553
13.960659742355347,-2.8645212650299072,-2.267395257949829,1.0976026058197021,-1.516266107559204,-0.2554096579551697,-1.1578178405761719
13.980730533599854,-2.8600852489471436,-2.2657432556152344,1.0980877876281738,-1.5137990713119507,-0.2548272907733917,-1.1574442386627197
14.000827550888062,-2.8545045852661133,-2.265170097351074,1.1000443696975708,-1.5108386278152466,-0.25299516320228577,-1.1567786931991577
14.02091360092163,-2.8545823097229004,-2.2639286518096924,1.1012368202209473,-1.5106340646743774,-0.25180989503860474,-1.1564993858337402
14.041008949279785,-2.851818084716797,-2.2631683349609375,1.1018680334091187,-1.5093848705291748,-0.2514592111110687,-1.1564216613769531
14.061062574386597,-2.8450281620025635,-2.2636680603027344,1.1032135486602783,-1.5068546533584595,-0.2496589869260788,-1.1563198566436768
14.08121132850647,-2.8399577140808105,-2.264618396759033,1.1042568683624268,-1.5060864686965942,-0.24603325128555298,-1.1563928127288818
14.101264238357544,-2.829756259918213,-2.2647452354431152,1.1077306270599365,-1.5022759437561035,-0.24184364080429077,-1.156545639038086
14.121321678161621,-2.823464870452881,-2.2643532752990723,1.1110987663269043,-1.5011683702468872,-0.23599913716316223,-1.1570425033569336
14.141419887542725,-2.8218908309936523,-2.2628517150878906,1.1125662326812744,-1.4998655319213867,-0.23581618070602417,-1.156924843788147
14.161502361297607,-2.815358877182007,-2.2613272666931152,1.1154279708862305,-1.49735689163208,-0.23226508498191833,-1.1569616794586182
14.181564569473267,-2.8132545948028564,-2.259580135345459,1.117134690284729,-1.496796727180481,-0.2291078269481659,-1.1569701433181763
14.20161247253418,-2.80989408493042,-2.2587671279907227,1.1173807382583618,-1.4938956499099731,-0.22971320152282715,-1.1562447547912598
14.221750736236572,-2.807203769683838,-2.258073091506958,1.1186425685882568,-1.4928829669952393,-0.2295932173728943,-1.1555891036987305
14.24184513092041,-2.8057801723480225,-2.2579543590545654,1.119279384613037,-1.4923456907272339,-0.22970405220985413,-1.155604600906372
14.261911392211914,-2.8007187843322754,-2.2584807872772217,1.1208266019821167,-1.4898762702941895,-0.22907602787017822,-1.155510425567627
14.28197169303894,-2.7943577766418457,-2.2584595680236816,1.1242539882659912,-1.4888827800750732,-0.2229369878768921,-1.1557663679122925
14.3025381565094,-2.788621187210083,-2.2572576999664307,1.126848816871643,-1.4870020151138306,-0.21968722343444824,-1.1559360027313232
14.32262659072876,-2.786208152770996,-2.257061004638672,1.1275498867034912,-1.486114263534546,-0.21817412972450256,-1.155982255935669
14.342808723449707,-2.7787559032440186,-2.2564339637756348,1.130598545074463,-1.4836649894714355,-0.21377280354499817,-1.1561442613601685
14.362787008285522,-2.7753937244415283,-2.2553203105926514,1.13132643699646,-1.4824864864349365,-0.21258915960788727,-1.1562190055847168
14.382882833480835,-2.770595073699951,-2.2556633949279785,1.1317713260650635,-1.4805861711502075,-0.21080593764781952,-1.156172513961792
14.402961730957031,-2.7706570625305176,-2.255150556564331,1.1320676803588867,-1.4802143573760986,-0.21146026253700256,-1.1561002731323242
14.423025369644165,-2.7677836418151855,-2.254793167114258,1.1322436332702637,-1.4783763885498047,-0.21112987399101257,-1.1559131145477295
14.443093061447144,-2.763127326965332,-2.253800868988037,1.1352449655532837,-1.4760611057281494,-0.20835188031196594,-1.1555402278900146
14.46314024925232,-2.758967876434326,-2.2523934841156006,1.137704610824585,-1.4745086431503296,-0.20693525671958923,-1.1553562879562378
14.48322319984436,-2.756401538848877,-2.2523975372314453,1.1380531787872314,-1.4739406108856201,-0.20381763577461243,-1.1553361415863037
14.503291606903076,-2.7492313385009766,-2.2524325847625732,1.1408438682556152,-1.471937894821167,-0.19963964819908142,-1.1554772853851318
14.523358821868896,-2.7460784912109375,-2.250924587249756,1.1430439949035645,-1.4704481363296509,-0.19949695467948914,-1.1553645133972168
14.543417930603027,-2.741060733795166,-2.2508227825164795,1.1442649364471436,-1.4689414501190186,-0.1969430297613144,-1.1553090810775757
14.563539981842041,-2.7365849018096924,-2.2513396739959717,1.1453406810760498,-1.4674365520477295,-0.19493745267391205,-1.1555111408233643
14.583612203598022,-2.7343173027038574,-2.2505950927734375,1.1468600034713745,-1.4657424688339233,-0.1950923204421997,-1.155281662940979
14.603676557540894,-2.7300076484680176,-2.2499892711639404,1.1490415334701538,-1.4643938541412354,-0.19151896238327026,-1.155232548713684
14.623761653900146,-2.7283639907836914,-2.248537302017212,1.1505253314971924,-1.4635889530181885,-0.19037503004074097,-1.15506911277771
14.644032001495361,-2.725374698638916,-2.2484211921691895,1.1512068510055542,-1.4625188112258911,-0.188890278339386,-1.1549787521362305
14.664180278778076,-2.7209222316741943,-2.2485361099243164,1.1531661748886108,-1.4613851308822632,-0.18641340732574463,-1.1551198959350586
14.684290170669556,-2.71645450592041,-2.24729585647583,1.1547355651855469,-1.4588992595672607,-0.1854443997144699,-1.1549365520477295
14.704337358474731,-2.7085423469543457,-2.2475204467773438,1.1563646793365479,-1.4553648233413696,-0.18146543204784393,-1.154685378074646
14.724407196044922,-2.7085013389587402,-2.24606990814209,1.1571489572525024,-1.454216480255127,-0.18295374512672424,-1.154404640197754
14.744492530822754,-2.701817512512207,-2.2445921897888184,1.1610304117202759,-1.4517467021942139,-0.17930153012275696,-1.1540225744247437
14.764578342437744,-2.6993603706359863,-2.244300365447998,1.1615660190582275,-1.451524257659912,-0.17737054824829102,-1.153975248336792
14.784626960754395,-2.6954777240753174,-2.243464708328247,1.163256049156189,-1.4500446319580078,-0.17502322793006897,-1.1540660858154297
14.804702281951904,-2.690218448638916,-2.2442054748535156,1.1644296646118164,-1.4482402801513672,-0.17333808541297913,-1.1539875268936157
14.824779748916626,-2.686495304107666,-2.2435836791992188,1.165116548538208,-1.4470317363739014,-0.1717081069946289,-1.1541919708251953
14.844853401184082,-2.68455171585083,-2.242250919342041,1.1672248840332031,-1.4461194276809692,-0.17026005685329437,-1.1541796922683716
14.864923000335693,-2.6817727088928223,-2.241307258605957,1.1690597534179688,-1.4452060461044312,-0.16823899745941162,-1.1540889739990234
14.885274171829224,-2.6743602752685547,-2.241670846939087,1.170145034790039,-1.4421586990356445,-0.16583342850208282,-1.1540045738220215
14.905404090881348,-2.6731677055358887,-2.2403059005737305,1.1713658571243286,-1.441081166267395,-0.1659529209136963,-1.1537444591522217
14.925429821014404,-2.6704607009887695,-2.239826202392578,1.1721774339675903,-1.4401602745056152,-0.163700133562088,-1.1536540985107422
14.945468425750732,-2.665343761444092,-2.239150047302246,1.1746423244476318,-1.4376115798950195,-0.1619013249874115,-1.1534651517868042
14.965604543685913,-2.658989667892456,-2.238515615463257,1.1769657135009766,-1.4351863861083984,-0.15979881584644318,-1.153198480606079
14.985697984695435,-2.658338785171509,-2.238070487976074,1.1772332191467285,-1.4352753162384033,-0.15797200798988342,-1.153115153312683
15.005836248397827,-2.653799533843994,-2.238133668899536,1.1784909963607788,-1.4334936141967773,-0.15652330219745636,-1.1532000303268433
