liuyurong129/humanoid-gym/humanoid/data/target_q_20250522-035457.csv
timestamp,joint_1,joint_2,joint_3,joint_4,joint_5,joint_6
5.1975250244140625e-05,0.0,0.0,0.0,0.0,0.0,0.0
0.020153045654296875,0.0,0.0,0.0,0.0,0.0,0.0
0.0402216911315918,0.0,0.0,0.0,0.0,0.0,0.0
0.060314178466796875,0.0,0.0,0.0,0.0,0.0,0.0
0.08038783073425293,0.0,0.0,0.0,0.0,0.0,0.0
0.10043501853942871,0.04881001636385918,-0.548358678817749,0.6720017790794373,-0.2906385064125061,0.03534272685647011,0.23690323531627655
0.12062335014343262,0.042650941759347916,-0.5543575882911682,0.6663079857826233,-0.2931482791900635,0.043667688965797424,0.24272161722183228
0.1407787799835205,0.03507647663354874,-0.5620334148406982,0.662158191204071,-0.29791533946990967,0.05701277032494545,0.2520408630371094
0.16153883934020996,0.03836675360798836,-0.5730697512626648,0.6661683320999146,-0.299454927444458,0.07100387662649155,0.261656790971756
0.18170475959777832,0.03923898562788963,-0.5794013738632202,0.6631273627281189,-0.29849517345428467,0.07778438925743103,0.26590853929519653
0.20180583000183105,0.03698376938700676,-0.5952831506729126,0.6444742679595947,-0.29415249824523926,0.09099612385034561,0.2729790508747101
0.2218339443206787,0.03520986810326576,-0.6040744185447693,0.633145809173584,-0.2917892038822174,0.09723983705043793,0.2760257124900818
0.2419745922088623,0.03060470148921013,-0.6359314918518066,0.6028065085411072,-0.28107166290283203,0.11144194006919861,0.2824031710624695
0.26198768615722656,0.03555314987897873,-0.6763367652893066,0.6011385917663574,-0.2672748565673828,0.126385897397995,0.2913295328617096
0.28208136558532715,0.038274966180324554,-0.6967674493789673,0.6023312211036682,-0.26077160239219666,0.13369348645210266,0.2958078980445862
0.30220842361450195,0.0496484711766243,-0.7291663885116577,0.629753589630127,-0.24926184117794037,0.1444167196750641,0.30478399991989136
0.3223226070404053,0.05777796357870102,-0.7375087738037109,0.6460152268409729,-0.24773672223091125,0.14803272485733032,0.3081417679786682
0.3424546718597412,0.07168076187372208,-0.7527577877044678,0.6774517893791199,-0.2444012314081192,0.15314683318138123,0.313986599445343
0.3624684810638428,0.08479438722133636,-0.7547683715820312,0.7039026021957397,-0.2428007423877716,0.15319986641407013,0.31602054834365845
0.38261866569519043,0.08903411030769348,-0.7583345770835876,0.7153664827346802,-0.24273373186588287,0.1527656614780426,0.3173404932022095
0.40265870094299316,0.09175284206867218,-0.768371045589447,0.7167477011680603,-0.23896284401416779,0.15359506011009216,0.31893882155418396
0.42270851135253906,0.08840223401784897,-0.7829153537750244,0.7055486440658569,-0.23414769768714905,0.1542748063802719,0.32007068395614624
0.44280004501342773,0.08665089309215546,-0.7890658378601074,0.6941247582435608,-0.23339775204658508,0.15549124777317047,0.31979337334632874
0.4629039764404297,0.08017051964998245,-0.804858386516571,0.6852553486824036,-0.2289416790008545,0.1534547209739685,0.3211612105369568
0.4836442470550537,0.0750255361199379,-0.8157360553741455,0.675513744354248,-0.22385108470916748,0.15046276152133942,0.3212980031967163
0.5037698745727539,0.07346830517053604,-0.8190959692001343,0.675447940826416,-0.22133831679821014,0.14748615026474,0.3212461769580841
0.5237922668457031,0.06976666301488876,-0.831091046333313,0.6700013279914856,-0.2176312506198883,0.1429731845855713,0.3211086094379425
0.5438969135284424,0.0674559473991394,-0.8308154344558716,0.6744962930679321,-0.21678973734378815,0.1383475959300995,0.3209102153778076
0.5639536380767822,0.06779441237449646,-0.829391360282898,0.6836672425270081,-0.21731725335121155,0.13066691160202026,0.32016295194625854
0.5840127468109131,0.07504190504550934,-0.8140577673912048,0.7064434885978699,-0.2198808491230011,0.12041831016540527,0.31788578629493713
0.6041061878204346,0.0825946182012558,-0.8088948130607605,0.7158166766166687,-0.22091703116893768,0.11722968518733978,0.3172992467880249
0.6241965293884277,0.0877951979637146,-0.7832058072090149,0.751744270324707,-0.22205518186092377,0.10140726715326309,0.31327375769615173
0.6443970203399658,0.07216110825538635,-0.7614541053771973,0.7883837819099426,-0.22307270765304565,0.08171214908361435,0.3080757260322571
0.6644890308380127,0.0608680322766304,-0.7546070218086243,0.8074783086776733,-0.22252610325813293,0.07286577671766281,0.3053506314754486
0.68463134765625,0.022806871682405472,-0.7498401403427124,0.8334702849388123,-0.2168356329202652,0.05594596266746521,0.3019770681858063
0.7046685218811035,0.0020000506192445755,-0.7510526180267334,0.8443203568458557,-0.21270491182804108,0.048508189618587494,0.30127111077308655
0.7247452735900879,-0.044352058321237564,-0.758011519908905,0.8483206629753113,-0.20678077638149261,0.035898592323064804,0.3021048605442047
0.7451825141906738,-0.08750800043344498,-0.772119402885437,0.8299719095230103,-0.21260158717632294,0.03339843824505806,0.3049066960811615
0.7653169631958008,-0.1037207841873169,-0.7805342674255371,0.8139585256576538,-0.2175333946943283,0.03629911690950394,0.30638018250465393
0.7853310108184814,-0.12095560878515244,-0.7985496520996094,0.775780200958252,-0.23015891015529633,0.05052061751484871,0.3098942041397095
0.8053975105285645,-0.11297052353620529,-0.8079790472984314,0.7584818601608276,-0.23379240930080414,0.0630723387002945,0.3114253878593445
0.825493335723877,-0.07410915195941925,-0.8227457404136658,0.74858158826828,-0.23203003406524658,0.08718270808458328,0.31262800097465515
0.8455507755279541,-0.03076830506324768,-0.8304276466369629,0.7623645067214966,-0.22461862862110138,0.1040511503815651,0.3128783702850342
0.8656339645385742,-0.009644348174333572,-0.8316248655319214,0.7721242308616638,-0.2206207513809204,0.11216508597135544,0.3134016990661621
0.8857014179229736,0.029856137931346893,-0.8252025246620178,0.7970084547996521,-0.21567562222480774,0.1272854059934616,0.3162519633769989
0.9058153629302979,0.04688810557126999,-0.8178437352180481,0.8122681975364685,-0.21537090837955475,0.1337566077709198,0.3186872899532318
0.925861120223999,0.06596460938453674,-0.7993396520614624,0.84441077709198,-0.22097548842430115,0.14174136519432068,0.3247622847557068
0.9460093975067139,0.06501533836126328,-0.7903501987457275,0.8590497374534607,-0.2235843539237976,0.14125876128673553,0.3283650279045105
0.9661352634429932,0.038165394216775894,-0.7785080671310425,0.8743888139724731,-0.23133888840675354,0.1329747885465622,0.3346420228481293
0.9861938953399658,-0.008641988039016724,-0.773790180683136,0.8746907711029053,-0.23501303791999817,0.1175939217209816,0.3390505909919739
1.0063002109527588,-0.03190545737743378,-0.7737777233123779,0.8701026439666748,-0.23575614392757416,0.10989359021186829,0.34075725078582764
1.0263705253601074,-0.07560368627309799,-0.7766656875610352,0.853305995464325,-0.23489809036254883,0.09373639523983002,0.3451195955276489
1.0464897155761719,-0.1009451374411583,-0.7857741713523865,0.8185797333717346,-0.22873330116271973,0.07890448719263077,0.3521629273891449
1.0666987895965576,-0.09856873005628586,-0.7912306189537048,0.8010469675064087,-0.22434282302856445,0.07733997702598572,0.3557285666465759
1.0867424011230469,-0.057069309055805206,-0.7995045185089111,0.7935366034507751,-0.221253901720047,0.08506621420383453,0.36060968041419983
1.1068463325500488,-0.03589776158332825,-0.8001115918159485,0.8075042366981506,-0.22252073884010315,0.08737346529960632,0.3659884035587311
1.1269357204437256,-0.02624369040131569,-0.7993224263191223,0.8159822225570679,-0.22593824565410614,0.09367972612380981,0.3696470558643341
1.1470036506652832,-0.0012767370790243149,-0.7991937398910522,0.831242024898529,-0.23171545565128326,0.10545458644628525,0.37736812233924866
1.1670856475830078,0.01518132071942091,-0.7974855899810791,0.842505156993866,-0.23381277918815613,0.1097368448972702,0.3819029629230499
1.187288522720337,0.002514488995075226,-0.7952655553817749,0.8467795252799988,-0.2465236783027649,0.10948626697063446,0.38992783427238464
1.2072787284851074,-0.01850028894841671,-0.7975571155548096,0.8332934975624084,-0.2544766366481781,0.10815105587244034,0.39828917384147644
1.2273995876312256,-0.02550443820655346,-0.7989370822906494,0.8270989060401917,-0.2557458281517029,0.10612230747938156,0.40226203203201294
1.2475452423095703,-0.04573702812194824,-0.8031072020530701,0.8059724569320679,-0.25674736499786377,0.10014734417200089,0.4096367657184601
1.2676358222961426,-0.057139310985803604,-0.804404079914093,0.793340265750885,-0.2551212012767792,0.09298771619796753,0.4168776273727417
1.2878432273864746,-0.05074356123805046,-0.8031682968139648,0.8014898300170898,-0.25188249349594116,0.08772577345371246,0.4196844696998596
1.3078207969665527,-0.032114967703819275,-0.8018404841423035,0.8268426060676575,-0.24648165702819824,0.08193714916706085,0.42580941319465637
1.3279025554656982,-0.02952495403587818,-0.8023961782455444,0.8383488059043884,-0.24582353234291077,0.07681930810213089,0.432934045791626
1.3480277061462402,-0.017206646502017975,-0.8022158145904541,0.8482193946838379,-0.24786072969436646,0.07761222869157791,0.43713077902793884
1.3681108951568604,0.0022299536503851414,-0.8056497573852539,0.8530362844467163,-0.2564666271209717,0.08443903177976608,0.44487249851226807
1.3883373737335205,0.002925778506323695,-0.8094455003738403,0.8441791534423828,-0.26044631004333496,0.08965320140123367,0.4484993815422058
1.408433198928833,-0.01663064956665039,-0.8150535225868225,0.8225253820419312,-0.27265968918800354,0.09375867992639542,0.4549463391304016
1.428483486175537,-0.030027229338884354,-0.8178409337997437,0.808014988899231,-0.2836649715900421,0.09702100604772568,0.4609166979789734
1.4485762119293213,-0.024851441383361816,-0.8176361918449402,0.8074238300323486,-0.287145733833313,0.10212033987045288,0.46431612968444824
1.4687249660491943,-0.02457793988287449,-0.8141250610351562,0.8166335821151733,-0.28403833508491516,0.0980791449546814,0.4705277383327484
1.4887380599975586,-0.024406511336565018,-0.8113248944282532,0.8304961919784546,-0.27962300181388855,0.09090130031108856,0.4766257703304291
1.5088679790496826,-0.025705013424158096,-0.8101438283920288,0.838388204574585,-0.2749650478363037,0.08447679132223129,0.4797663986682892
1.5289716720581055,-0.011715450324118137,-0.8078845739364624,0.8607006072998047,-0.2751731276512146,0.07788054645061493,0.4863862991333008
1.549215316772461,-0.031051158905029297,-0.81163090467453,0.8516778945922852,-0.2769491374492645,0.07027031481266022,0.49255335330963135
1.569329023361206,-0.03529234975576401,-0.8148492574691772,0.8420678973197937,-0.28113892674446106,0.07228582352399826,0.49572959542274475
1.58964204788208,-0.03173505887389183,-0.8216713666915894,0.8232854604721069,-0.2906104326248169,0.08089295029640198,0.5011201500892639
1.6095564365386963,-0.02656623348593712,-0.8258731961250305,0.8111114501953125,-0.2998305559158325,0.09136505424976349,0.5063627362251282
1.6296648979187012,-0.019938647747039795,-0.8261753916740417,0.8124557137489319,-0.3023580312728882,0.09475614130496979,0.5088224411010742
1.649759292602539,-0.00932231917977333,-0.8248803019523621,0.8256973028182983,-0.3027089238166809,0.09713388234376907,0.5135765671730042
1.6699483394622803,-0.005192295182496309,-0.8238696455955505,0.8336450457572937,-0.30218857526779175,0.0971568375825882,0.5160378813743591
1.6900980472564697,0.00453539052978158,-0.8214003443717957,0.852433979511261,-0.2989027202129364,0.09451988339424133,0.5212776064872742
1.7101240158081055,-0.009345604106783867,-0.8173801898956299,0.8678783774375916,-0.2985450029373169,0.0818682387471199,0.526566743850708
1.7302889823913574,-0.02333224192261696,-0.8171372413635254,0.8674649596214294,-0.29738226532936096,0.07365715503692627,0.5286740064620972
1.7503273487091064,-0.0443909652531147,-0.8211680054664612,0.8482753038406372,-0.2960285246372223,0.0666358545422554,0.5337382555007935
1.7707366943359375,-0.04642064869403839,-0.8282452821731567,0.8223745822906494,-0.30431067943573,0.07330940663814545,0.5380272269248962
1.7908070087432861,-0.03805422782897949,-0.8323838114738464,0.8092670440673828,-0.30757012963294983,0.08148406445980072,0.5398383140563965
1.810882568359375,-0.020151911303400993,-0.8315901160240173,0.8283051252365112,-0.3117615282535553,0.08651240170001984,0.5432139039039612
1.8310494422912598,-0.012661950662732124,-0.8315607309341431,0.8379278182983398,-0.31371718645095825,0.08892370015382767,0.544745683670044
1.8510663509368896,0.0004487801343202591,-0.8310839533805847,0.8529433608055115,-0.3139672577381134,0.09281160682439804,0.5486852526664734
1.8713815212249756,0.008232023566961288,-0.8274328112602234,0.8731080889701843,-0.31488874554634094,0.08882351219654083,0.5529811382293701
1.8914804458618164,0.0013400265015661716,-0.8262708187103271,0.8771598935127258,-0.31452885270118713,0.08375204354524612,0.5551600456237793
1.9115715026855469,-0.022761255502700806,-0.8284690380096436,0.8610846400260925,-0.3127184212207794,0.07700888812541962,0.5594994425773621
1.9316565990447998,-0.03301272913813591,-0.8304002285003662,0.848179280757904,-0.31052953004837036,0.07471358776092529,0.5616908669471741
1.9517669677734375,-0.04470424726605415,-0.8354077935218811,0.8221381306648254,-0.3180803060531616,0.07803545892238617,0.5651121735572815
1.97188138961792,-0.03566029667854309,-0.8382728099822998,0.8133619427680969,-0.32407206296920776,0.0859159380197525,0.5681015253067017
1.9919111728668213,-0.021356016397476196,-0.8385115265846252,0.8247355222702026,-0.3233200013637543,0.08902649581432343,0.5694283246994019
2.0120198726654053,-0.013809029012918472,-0.8372906446456909,0.8498061299324036,-0.3246655762195587,0.08758307248353958,0.5712869167327881
2.032041072845459,-0.008634897880256176,-0.8368602395057678,0.8584468364715576,-0.32172051072120667,0.08626332134008408,0.5745704174041748
2.052147150039673,0.0031177368946373463,-0.8356113433837891,0.8696961998939514,-0.3197428286075592,0.08624681085348129,0.5768402218818665
2.072303533554077,0.0052137658931314945,-0.8349675536155701,0.8790160417556763,-0.32148775458335876,0.08323726058006287,0.5804192423820496
2.092362880706787,-0.012762927450239658,-0.835149347782135,0.8727956414222717,-0.32231763005256653,0.07815849781036377,0.5819879770278931
2.112504720687866,-0.02835550159215927,-0.8395495414733887,0.8504847884178162,-0.32671940326690674,0.07793033868074417,0.5849211812019348
2.132582187652588,-0.037725940346717834,-0.8446909785270691,0.8188387155532837,-0.3333956301212311,0.08573613315820694,0.5875661373138428
2.152625560760498,-0.043330974876880646,-0.8454715609550476,0.8092051148414612,-0.3361036777496338,0.0861118733882904,0.5884789824485779
2.1727073192596436,-0.023358292877674103,-0.8432613611221313,0.8376420140266418,-0.33586302399635315,0.0868414118885994,0.5903100371360779
2.1927902698516846,-0.013384058140218258,-0.8424026370048523,0.860133945941925,-0.3351433575153351,0.08590011298656464,0.5919475555419922
2.212912082672119,-0.01149265468120575,-0.8420801162719727,0.8633822202682495,-0.3324488401412964,0.08479788899421692,0.5935684442520142
2.2329957485198975,0.006247833836823702,-0.8411941528320312,0.8784600496292114,-0.3302783668041229,0.08452405035495758,0.5968068838119507
2.2531967163085938,0.004257257096469402,-0.8405790328979492,0.8864896297454834,-0.33025026321411133,0.08050008118152618,0.5997226238250732
2.2733359336853027,-0.01830258220434189,-0.8400790691375732,0.8805937767028809,-0.32875362038612366,0.071672722697258,0.6006609797477722
2.2934296131134033,-0.03708631172776222,-0.8446731567382812,0.849265456199646,-0.3309825658798218,0.07309453934431076,0.6037569046020508
2.3135340213775635,-0.04328139126300812,-0.8472970724105835,0.8309438228607178,-0.3342493176460266,0.07565780729055405,0.6048052906990051
2.3336308002471924,-0.04222908616065979,-0.8495070934295654,0.8158302903175354,-0.33850598335266113,0.0810851901769638,0.6064364314079285
2.3537042140960693,-0.014911152422428131,-0.850610077381134,0.8415546417236328,-0.33802101016044617,0.08892010897397995,0.6077404618263245
2.373812198638916,-0.010145501233637333,-0.8496161103248596,0.8550102710723877,-0.33880874514579773,0.0876290574669838,0.6078994274139404
2.393893241882324,-0.004827858414500952,-0.8485429286956787,0.8690240979194641,-0.3392188549041748,0.0857883170247078,0.6093665361404419
2.413963556289673,0.013115563429892063,-0.8463720679283142,0.8888486623764038,-0.3407596945762634,0.08622793853282928,0.6119662523269653
2.434164524078369,0.004271264187991619,-0.8454246520996094,0.8904389142990112,-0.3388579189777374,0.08124470710754395,0.6134096384048462
2.4541800022125244,-0.03060174733400345,-0.8449791669845581,0.8772405385971069,-0.33826738595962524,0.06914836168289185,0.6153942942619324
2.474453926086426,-0.04052017629146576,-0.8489968180656433,0.8506864905357361,-0.3399130403995514,0.0721566379070282,0.6179612874984741
2.4945430755615234,-0.04671992361545563,-0.8509758114814758,0.8348335027694702,-0.3421304225921631,0.07370691001415253,0.6187400221824646
2.514610528945923,-0.03182075917720795,-0.8535466194152832,0.8315064311027527,-0.34451165795326233,0.08227666467428207,0.6199051737785339
2.534738302230835,-0.01837974414229393,-0.8539540767669678,0.8428244590759277,-0.34420761466026306,0.08608940988779068,0.620496392250061
2.5547845363616943,-0.010450731962919235,-0.8536726236343384,0.8620233535766602,-0.3440893292427063,0.08608245849609375,0.6207684874534607
2.5748348236083984,0.0022338733542710543,-0.8525868058204651,0.8817275166511536,-0.3441208302974701,0.08633364737033844,0.6220596432685852
2.5949225425720215,0.01374262198805809,-0.8512265086174011,0.8925375938415527,-0.34481915831565857,0.08678145706653595,0.6231676936149597
2.6149895191192627,-0.006946375593543053,-0.8490139842033386,0.8942832350730896,-0.3441665470600128,0.07634272426366806,0.6251688599586487
2.635075569152832,-0.026961902156472206,-0.8501142263412476,0.8803243041038513,-0.3447263836860657,0.0710938349366188,0.6258408427238464
2.655240297317505,-0.03739282861351967,-0.8546602129936218,0.8510979413986206,-0.34791329503059387,0.07611580193042755,0.6278929114341736
2.6752281188964844,-0.04863058030605316,-0.8587325811386108,0.8190072774887085,-0.3531736433506012,0.0827360451221466,0.6289616227149963
2.695319175720215,-0.03678611293435097,-0.8592604994773865,0.8209052085876465,-0.3530723750591278,0.08744814991950989,0.6295173168182373
2.7154364585876465,-0.012254877015948296,-0.8589287996292114,0.8510891199111938,-0.3505571484565735,0.09215694665908813,0.6299999356269836
2.7356743812561035,-0.008833357132971287,-0.8562418222427368,0.872241199016571,-0.34893491864204407,0.0872751995921135,0.629999041557312
2.755798578262329,-0.00010143127292394638,-0.8553417921066284,0.8827781081199646,-0.34891432523727417,0.08753083646297455,0.6305505633354187
2.776076555252075,0.013449452817440033,-0.8520925641059875,0.9061694145202637,-0.34752798080444336,0.08333347737789154,0.6319989562034607
2.7962591648101807,-0.0016507785767316818,-0.8511638641357422,0.9058763980865479,-0.34661996364593506,0.07701774686574936,0.6327934861183167
2.81634521484375,-0.031151514500379562,-0.8538142442703247,0.8772703409194946,-0.34477242827415466,0.07149584591388702,0.6345038414001465
2.8364901542663574,-0.03612958639860153,-0.8567461967468262,0.859900176525116,-0.3464120924472809,0.07402005046606064,0.6353442072868347
2.856543779373169,-0.0492192842066288,-0.8625989556312561,0.8196282982826233,-0.3531452417373657,0.08279631286859512,0.6363754868507385
2.876913070678711,-0.02691032551229,-0.8641237616539001,0.8254849314689636,-0.3526214361190796,0.092512346804142,0.6371777057647705
2.8969972133636475,-0.014870080165565014,-0.8642641305923462,0.8389844298362732,-0.35188162326812744,0.09614565968513489,0.6375126242637634
2.917051315307617,-0.003943604417145252,-0.8606771230697632,0.8735600709915161,-0.3509063422679901,0.09223713725805283,0.637560248374939
2.9373607635498047,0.0042579444125294685,-0.8587523698806763,0.8903456926345825,-0.3510734438896179,0.09051526337862015,0.6376758217811584
2.957327365875244,0.01048378273844719,-0.8547959923744202,0.9160609245300293,-0.3497292995452881,0.08178912848234177,0.6376060843467712
2.9778456687927246,-0.00017995014786720276,-0.853996992111206,0.9142376780509949,-0.349161833524704,0.07598723471164703,0.6381833553314209
2.9979453086853027,-0.025823455303907394,-0.8578896522521973,0.8821827173233032,-0.3479005992412567,0.07255268841981888,0.639934778213501
3.0180296897888184,-0.04579850658774376,-0.8639635443687439,0.8377050757408142,-0.35380327701568604,0.07854706794023514,0.6410412788391113
3.038106679916382,-0.05740627273917198,-0.8665000796318054,0.8162345290184021,-0.35792967677116394,0.08095819503068924,0.6410622000694275
3.0581881999969482,-0.031892288476228714,-0.8697909712791443,0.8167819976806641,-0.3579352796077728,0.09662379324436188,0.6425394415855408
3.0782554149627686,-0.01693728379905224,-0.8675922155380249,0.840761661529541,-0.35518068075180054,0.09749991446733475,0.6427973508834839
3.098339080810547,-0.006804265081882477,-0.865871250629425,0.8594984412193298,-0.3545878231525421,0.09815758466720581,0.6431946158409119
3.118529796600342,0.005689120851457119,-0.8601655960083008,0.8903356790542603,-0.3544962704181671,0.09221409261226654,0.643794059753418
3.1394176483154297,0.006103974767029285,-0.8549761772155762,0.9155197143554688,-0.3519030511379242,0.07900166511535645,0.643155574798584
3.1595332622528076,-0.006468350999057293,-0.8539087772369385,0.9154417514801025,-0.3516899347305298,0.07242299616336823,0.6435338854789734
3.179616928100586,-0.028024014085531235,-0.8591845035552979,0.8786473870277405,-0.3507040739059448,0.07020534574985504,0.6446258425712585
3.199697732925415,-0.03619172051548958,-0.8625431060791016,0.8554789423942566,-0.3517725169658661,0.07318451255559921,0.6450887322425842
3.2197742462158203,-0.05044027790427208,-0.8678789138793945,0.8167622685432434,-0.3592672348022461,0.08276034891605377,0.6459423899650574
3.239840507507324,-0.027318332344293594,-0.8697915077209473,0.8210914134979248,-0.35995349287986755,0.09678168594837189,0.6474381685256958
3.259916305541992,-0.021563684567809105,-0.8689195513725281,0.8354074358940125,-0.3587627410888672,0.09777912497520447,0.6474833488464355
3.280024528503418,-0.006739823147654533,-0.8647425770759583,0.8654068112373352,-0.358168363571167,0.09623675793409348,0.6478071212768555
3.300060987472534,0.012069852091372013,-0.8615607023239136,0.8863659501075745,-0.35774490237236023,0.09607259929180145,0.6485053896903992
3.320171356201172,0.011249269358813763,-0.8591324687004089,0.902302622795105,-0.35671213269233704,0.08996888995170593,0.6479054093360901
3.340308427810669,-0.015181876718997955,-0.8526399731636047,0.9172788858413696,-0.353534072637558,0.06713319569826126,0.6467225551605225
3.360568046569824,-0.022891392931342125,-0.8578265309333801,0.8963158130645752,-0.3519415855407715,0.06527981907129288,0.647835910320282
3.3806545734405518,-0.028146065771579742,-0.8619261384010315,0.8727989792823792,-0.3534963130950928,0.07024375349283218,0.6485310196876526
3.4007322788238525,-0.04632216691970825,-0.8684074878692627,0.8286237716674805,-0.3604128658771515,0.07924753427505493,0.6490830779075623
3.4209165573120117,-0.042204417288303375,-0.8698947429656982,0.8213816285133362,-0.3621272146701813,0.08651570230722427,0.6499630212783813
3.4409611225128174,-0.021137183532118797,-0.8706909418106079,0.8408008813858032,-0.3597947657108307,0.09559927135705948,0.650819718837738
3.461083173751831,-0.00439451402053237,-0.867302417755127,0.8673564791679382,-0.35807493329048157,0.09489274024963379,0.650981605052948
3.481184244155884,0.006434436421841383,-0.8654584884643555,0.8796104192733765,-0.35767149925231934,0.09502099454402924,0.6513906121253967
3.5012600421905518,0.006325884722173214,-0.8601016998291016,0.9089535474777222,-0.35822048783302307,0.08563393354415894,0.651022732257843
3.5213427543640137,-0.010148569941520691,-0.8553469181060791,0.9190160036087036,-0.3554607033729553,0.07082969695329666,0.6499112844467163
3.541484832763672,-0.02045249566435814,-0.857221245765686,0.9105291366577148,-0.3527494966983795,0.06348288059234619,0.6505016088485718
3.561535358428955,-0.03441164642572403,-0.8640300035476685,0.8683578372001648,-0.353453665971756,0.06787368655204773,0.6515140533447266
3.5816354751586914,-0.046576742082834244,-0.8667107820510864,0.8468462824821472,-0.3559945523738861,0.06864414364099503,0.6513508558273315
3.601743698120117,-0.042434211820364,-0.8715975284576416,0.8209933638572693,-0.3608419895172119,0.08473154157400131,0.6526818871498108
3.6217877864837646,-0.022771069779992104,-0.8728559017181396,0.8316103219985962,-0.35935428738594055,0.0948496088385582,0.6531453728675842
3.641937732696533,-0.017978381365537643,-0.8716585636138916,0.841640830039978,-0.35911986231803894,0.0941857397556305,0.6526772975921631
3.662064790725708,0.00552098173648119,-0.8670702576637268,0.8797187805175781,-0.3588578402996063,0.09418772906064987,0.6530849933624268
3.682180881500244,0.016112981364130974,-0.8650236129760742,0.8948209285736084,-0.35848039388656616,0.09326416999101639,0.6531570553779602
3.702263355255127,-0.0016264449805021286,-0.8583547472953796,0.9164770841598511,-0.3556722402572632,0.07616419345140457,0.6520957350730896
3.72226881980896,-0.024590205401182175,-0.8581834435462952,0.9043804407119751,-0.3519611954689026,0.06414012610912323,0.6524571776390076
3.7423830032348633,-0.03236161917448044,-0.8612308502197266,0.8859555721282959,-0.35217028856277466,0.06355731934309006,0.6525094509124756
3.762472629547119,-0.05230380594730377,-0.8676724433898926,0.8415510058403015,-0.35648494958877563,0.06836190074682236,0.6527439951896667
3.7829835414886475,-0.03689014911651611,-0.873736560344696,0.8217512369155884,-0.35932618379592896,0.08764464408159256,0.6541221141815186
3.8030717372894287,-0.02829686552286148,-0.8756496906280518,0.8181502223014832,-0.35987234115600586,0.09442596137523651,0.654016375541687
3.823151111602783,-0.019364232197403908,-0.872584342956543,0.839989960193634,-0.35830849409103394,0.09583485871553421,0.6535004377365112
3.843261241912842,-0.0049580177292227745,-0.8707398176193237,0.8592332601547241,-0.3594273328781128,0.09811072051525116,0.6536911129951477
3.8633604049682617,0.005493332631886005,-0.8647734522819519,0.8876978754997253,-0.35920974612236023,0.09233572334051132,0.6535137295722961
3.8833835124969482,0.0055098021402955055,-0.8567770719528198,0.9258596897125244,-0.35554802417755127,0.07565339654684067,0.6513000726699829
3.9034667015075684,-0.013107813894748688,-0.8550638556480408,0.9208056330680847,-0.3530336022377014,0.0644550696015358,0.6507762670516968
3.9236021041870117,-0.03244909644126892,-0.8571755886077881,0.9031171798706055,-0.3509543240070343,0.056111786514520645,0.6515879034996033
3.944197416305542,-0.04804815351963043,-0.8642199635505676,0.8569996356964111,-0.35381439328193665,0.061937060207128525,0.6523318290710449
3.964350700378418,-0.05577428266406059,-0.8672392964363098,0.8343222737312317,-0.35680726170539856,0.06765343993902206,0.6528732776641846
3.9843881130218506,-0.0281845573335886,-0.8730291128158569,0.8329411745071411,-0.3587985634803772,0.08854203671216965,0.6543493270874023
4.004513502120972,-0.011573771014809608,-0.8726827502250671,0.8504653573036194,-0.3571023643016815,0.09380852431058884,0.654572069644928
4.024606943130493,-0.007824595086276531,-0.8707513809204102,0.8598787188529968,-0.35946163535118103,0.0939597487449646,0.6547676920890808
4.0446741580963135,0.010740900412201881,-0.865994930267334,0.8891812562942505,-0.35839924216270447,0.0907515212893486,0.6550164222717285
4.064751386642456,0.014433620497584343,-0.8634551763534546,0.908688485622406,-0.35775384306907654,0.08650077134370804,0.6546428799629211
4.0848305225372314,-0.02160489186644554,-0.858084499835968,0.9143675565719604,-0.35189545154571533,0.06396075338125229,0.6536399126052856
4.1050496101379395,-0.03143465518951416,-0.8623092770576477,0.8939765691757202,-0.35027116537094116,0.06025095283985138,0.6546412706375122
4.125139951705933,-0.035853296518325806,-0.8663537502288818,0.8702095746994019,-0.35165226459503174,0.06491916626691818,0.6553825736045837
4.145205497741699,-0.05895925313234329,-0.8720912337303162,0.8269314169883728,-0.35774123668670654,0.068996362388134,0.6552270650863647
4.165274143218994,-0.038836102932691574,-0.8748685121536255,0.8280787467956543,-0.3594142198562622,0.08152773231267929,0.6561289429664612
4.185356855392456,-0.016863029450178146,-0.8778078556060791,0.8372849225997925,-0.35869890451431274,0.09544063359498978,0.656402587890625
4.205409049987793,0.0007598660886287689,-0.8748862743377686,0.8612477779388428,-0.35897475481033325,0.10052111744880676,0.6572220325469971
4.225505113601685,0.0021477588452398777,-0.8709447979927063,0.8748639225959778,-0.3596889078617096,0.09565767645835876,0.6570971012115479
4.245627403259277,0.02035835199058056,-0.8662892580032349,0.907540500164032,-0.3590306043624878,0.09379507601261139,0.6570835113525391
4.266285181045532,-0.008532801643013954,-0.8578526973724365,0.9309836030006409,-0.35444176197052,0.06823291629552841,0.6546043157577515
4.286370038986206,-0.017771312966942787,-0.8574093580245972,0.9326753616333008,-0.35426896810531616,0.061918098479509354,0.654762864112854
4.306444406509399,-0.03845279663801193,-0.8623945713043213,0.9008089303970337,-0.35221582651138306,0.056963976472616196,0.6556430459022522
4.326534748077393,-0.04795970767736435,-0.8653492331504822,0.8779626488685608,-0.35339218378067017,0.05854443460702896,0.6558739542961121
4.346635580062866,-0.054505251348018646,-0.8721224069595337,0.8382138013839722,-0.35802772641181946,0.06900162994861603,0.6565441489219666
4.3666746616363525,-0.02922561578452587,-0.877230703830719,0.8345605134963989,-0.3595731854438782,0.08705546706914902,0.6574071049690247
4.386778831481934,-0.02035737782716751,-0.8766274452209473,0.8467033505439758,-0.3583480715751648,0.08929158002138138,0.65744948387146
4.406931161880493,-0.004116499796509743,-0.8726483583450317,0.877363920211792,-0.358566552400589,0.0890224277973175,0.6575488448143005
4.426978349685669,0.01641012728214264,-0.869143009185791,0.9025989770889282,-0.3579845130443573,0.08925463259220123,0.6579587459564209
4.4470741748809814,0.01623254269361496,-0.865981936454773,0.9223933815956116,-0.3581223487854004,0.08412236720323563,0.6576682925224304
4.467162847518921,-0.013474201783537865,-0.8616792559623718,0.9259229302406311,-0.3549429178237915,0.06465283781290054,0.6565923690795898
4.487309217453003,-0.020724020898342133,-0.8632595539093018,0.9160602688789368,-0.3547089993953705,0.06294095516204834,0.657095730304718
4.507383108139038,-0.035510409623384476,-0.869627833366394,0.8744266629219055,-0.35578376054763794,0.0665220096707344,0.6575319766998291
4.527424573898315,-0.05297695845365524,-0.8753527998924255,0.8325713276863098,-0.3619084358215332,0.07515225559473038,0.6578320860862732
4.547592401504517,-0.04394356161355972,-0.8779703378677368,0.8269248604774475,-0.3645825684070587,0.08580823242664337,0.6584545969963074
4.567622661590576,-0.0190963763743639,-0.8790684938430786,0.8441199660301208,-0.36124715209007263,0.09598155319690704,0.658677875995636
4.587784051895142,-0.014976531267166138,-0.8763477206230164,0.8566462993621826,-0.35928142070770264,0.09360155463218689,0.6584669351577759
4.607827186584473,0.0023315311409533024,-0.8711751103401184,0.8857564926147461,-0.3586798310279846,0.09225956350564957,0.6586813926696777
4.627994775772095,0.012076923623681068,-0.8658363819122314,0.9188537001609802,-0.3579786717891693,0.0849742740392685,0.6579945683479309
4.648071050643921,-0.003462047316133976,-0.861020565032959,0.9309486746788025,-0.35582566261291504,0.07056549191474915,0.6566488146781921
4.668139934539795,-0.019223403185606003,-0.8626387119293213,0.9216516017913818,-0.3537033796310425,0.06389965116977692,0.65727698802948
4.688247919082642,-0.026555798947811127,-0.8647370934486389,0.9070627689361572,-0.3529612421989441,0.062197085469961166,0.6574237942695618
4.708316326141357,-0.04345794394612312,-0.8708531856536865,0.8614900708198547,-0.3553987145423889,0.06840094923973083,0.6578318476676941
4.728723764419556,-0.049661628901958466,-0.8757182359695435,0.8296710848808289,-0.36358946561813354,0.08129364997148514,0.6581612825393677
4.748814821243286,-0.033140115439891815,-0.8787164688110352,0.8296948671340942,-0.36405056715011597,0.09301821887493134,0.6584441661834717
4.768890142440796,-0.01517267432063818,-0.8769892454147339,0.8542280197143555,-0.3601343333721161,0.09720544517040253,0.658329963684082
4.788964748382568,-0.004825771786272526,-0.8742679357528687,0.8735027313232422,-0.3602638840675354,0.09694171696901321,0.6582010388374329
4.809043884277344,0.01461623702198267,-0.8704706430435181,0.8932117819786072,-0.3597882091999054,0.09880568087100983,0.6589818000793457
4.829132795333862,0.0030243732035160065,-0.8622252345085144,0.9260207414627075,-0.3577776253223419,0.0810680016875267,0.6573657393455505
4.84928822517395,-0.012225613929331303,-0.8595040440559387,0.9267004728317261,-0.3568837642669678,0.07028373330831528,0.6565939784049988
4.869354486465454,-0.021140307188034058,-0.8629215955734253,0.9118142127990723,-0.3558547794818878,0.06682270765304565,0.6573114991188049
4.889499187469482,-0.02645951509475708,-0.866889476776123,0.8881704807281494,-0.35595613718032837,0.07144580036401749,0.6580546498298645
4.909639120101929,-0.0468575619161129,-0.8728221654891968,0.8436456322669983,-0.36078962683677673,0.07662980258464813,0.6579119563102722
4.929746866226196,-0.03133862465620041,-0.875794529914856,0.8375037908554077,-0.36353275179862976,0.09082671999931335,0.6589877605438232
4.9498536586761475,-0.019451046362519264,-0.8769556283950806,0.8456260561943054,-0.3614833354949951,0.09665314853191376,0.6591898202896118
4.97018837928772,-0.008587086573243141,-0.8729003071784973,0.8712546229362488,-0.35943031311035156,0.09361185878515244,0.6586903929710388
4.990293025970459,0.0006833402439951897,-0.8711248636245728,0.8819758892059326,-0.359122633934021,0.09390600025653839,0.6588915586471558
5.010452508926392,0.007497645448893309,-0.8656954765319824,0.9120388627052307,-0.35860076546669006,0.08584196120500565,0.6581469774246216
5.030560255050659,-0.0025752917863428593,-0.8615168333053589,0.9234232306480408,-0.35708045959472656,0.07428500056266785,0.6571732759475708
5.050607204437256,-0.017157062888145447,-0.8618119955062866,0.9170714616775513,-0.3551250398159027,0.06588269770145416,0.6573083400726318
5.070700168609619,-0.02290266938507557,-0.864509105682373,0.9016324281692505,-0.3550965487957001,0.06628558039665222,0.6575546860694885
5.090800523757935,-0.04516144096851349,-0.8703153729438782,0.8576310873031616,-0.35766997933387756,0.06967329233884811,0.6574219465255737
5.110877752304077,-0.04757952317595482,-0.8753117918968201,0.8264632821083069,-0.363736093044281,0.08415865153074265,0.6582526564598083
5.131051540374756,-0.02824578806757927,-0.8769280910491943,0.8304558992385864,-0.3631174862384796,0.09343892335891724,0.6586328744888306
5.1511359214782715,-0.02160872519016266,-0.8743342161178589,0.8484063744544983,-0.3615563213825226,0.09408123791217804,0.6581195592880249
5.1711976528167725,-0.0042701903730630875,-0.8704971671104431,0.8787760734558105,-0.360699325799942,0.09493853151798248,0.6583241820335388
5.191287040710449,0.0050055524334311485,-0.8683861494064331,0.8921509385108948,-0.36027732491493225,0.09368033707141876,0.6581387519836426
5.211364984512329,0.006614264566451311,-0.8620216846466064,0.9255057573318481,-0.35729122161865234,0.08120615035295486,0.6567602753639221
5.231480598449707,-0.012718127109110355,-0.8597917556762695,0.9222209453582764,-0.35612547397613525,0.06968765705823898,0.6560678482055664
5.251577377319336,-0.0286642387509346,-0.8617277145385742,0.9046605229377747,-0.3537997901439667,0.06203056126832962,0.6567897796630859
5.27188777923584,-0.03795420750975609,-0.8651410937309265,0.8818627595901489,-0.3540312945842743,0.06466080993413925,0.6573679447174072
5.291970729827881,-0.05883702635765076,-0.8713737726211548,0.8382276296615601,-0.3594539165496826,0.07087098807096481,0.6575359106063843
5.312114715576172,-0.024611882865428925,-0.877771258354187,0.8359007835388184,-0.36091136932373047,0.09288591891527176,0.6584401726722717
5.332143068313599,-0.025490621104836464,-0.8768686056137085,0.844058632850647,-0.36013561487197876,0.0921756774187088,0.6580300331115723
5.352281093597412,-0.016465703025460243,-0.8723586201667786,0.8671524524688721,-0.3594238758087158,0.0910656675696373,0.6584045886993408
5.372330665588379,-0.007533640135079622,-0.8699724674224854,0.8805967569351196,-0.35886460542678833,0.09034179151058197,0.6585756540298462
5.392406225204468,0.00886381883174181,-0.8660943508148193,0.9099345207214355,-0.35731303691864014,0.08710284531116486,0.658129096031189
5.412508964538574,0.008762733079493046,-0.8616591691970825,0.928884744644165,-0.35495439171791077,0.07633937895298004,0.6565758585929871
5.432615518569946,-0.012778754346072674,-0.8603127002716064,0.9273301362991333,-0.35314470529556274,0.06296917796134949,0.6561756730079651
5.453237056732178,-0.026546698063611984,-0.8667294383049011,0.8885748386383057,-0.3531237840652466,0.06571817398071289,0.6572061777114868
5.473325490951538,-0.036946866661310196,-0.8698404431343079,0.8662135004997253,-0.35502293705940247,0.06759477406740189,0.6571708917617798
5.493391513824463,-0.05412770062685013,-0.87562096118927,0.8221927881240845,-0.3635055422782898,0.07875622808933258,0.6574527621269226
5.513485431671143,-0.04240236058831215,-0.8756551742553711,0.8262811303138733,-0.36326512694358826,0.08425945788621902,0.657698929309845
5.533588171005249,-0.02221572771668434,-0.8746404647827148,0.8525891304016113,-0.35937076807022095,0.08872701227664948,0.6577286124229431
5.553684949874878,-0.0011895596981048584,-0.8715470433235168,0.883491039276123,-0.3589969873428345,0.09038294106721878,0.6580989956855774
5.573780059814453,0.008210428059101105,-0.8707584738731384,0.8905354738235474,-0.3588407337665558,0.09279283881187439,0.6586554646492004
5.5938661098480225,0.014212585054337978,-0.8643128871917725,0.9252646565437317,-0.35632994771003723,0.08038467168807983,0.6572640538215637
5.613938570022583,0.0009545460343360901,-0.8608564734458923,0.9325728416442871,-0.3543049693107605,0.06859298050403595,0.6565630435943604
5.634015083312988,-0.022514279931783676,-0.8626956939697266,0.9145357608795166,-0.3543758988380432,0.06167321279644966,0.6573097705841064
5.654085159301758,-0.04043353348970413,-0.8690125346183777,0.868839681148529,-0.3568769693374634,0.06714298576116562,0.6580618619918823
5.674201488494873,-0.05002842843532562,-0.8718677759170532,0.8465079069137573,-0.3596400022506714,0.07143346965312958,0.6582473516464233
5.6943206787109375,-0.03788655996322632,-0.8758926391601562,0.8311464786529541,-0.36247310042381287,0.08647291362285614,0.6589236259460449
5.714406251907349,-0.025126229971647263,-0.8772973418235779,0.8318953514099121,-0.3611227571964264,0.09363510459661484,0.659227192401886
5.734468698501587,-0.019942188635468483,-0.8727836608886719,0.8627837896347046,-0.3589572310447693,0.08952067047357559,0.6584509015083313
5.754554271697998,-0.008473501540720463,-0.8707515001296997,0.881040096282959,-0.358521968126297,0.09024694561958313,0.658682107925415
5.774637460708618,0.009006800130009651,-0.8673030138015747,0.9068297147750854,-0.3572418689727783,0.08885635435581207,0.6586437225341797
5.794703483581543,-0.010491982102394104,-0.8610737323760986,0.9201728701591492,-0.3545428216457367,0.06970584392547607,0.6572619080543518
5.814783334732056,-0.012704294174909592,-0.8611061573028564,0.9188135862350464,-0.3544483184814453,0.06751617044210434,0.6576161980628967
5.834864854812622,-0.023994846269488335,-0.8678430914878845,0.8801246881484985,-0.3560241758823395,0.07285133749246597,0.6583585143089294
5.8549182415008545,-0.04678039252758026,-0.8734570145606995,0.8365100622177124,-0.3607565462589264,0.07768748700618744,0.6578367352485657
5.875014543533325,-0.05618526041507721,-0.8757169842720032,0.8144541382789612,-0.3647315800189972,0.08308868110179901,0.6578878164291382
5.895105838775635,-0.04257576912641525,-0.8768988847732544,0.8122644424438477,-0.36455634236335754,0.09507163614034653,0.6586132645606995
5.915247917175293,-0.02539748325943947,-0.8738045692443848,0.837043285369873,-0.3615416884422302,0.09701138734817505,0.6581754088401794
5.935342073440552,-0.009531917050480843,-0.8722595572471619,0.856177568435669,-0.3607558608055115,0.0990411713719368,0.6583736538887024
5.955411195755005,0.011801451444625854,-0.867908775806427,0.8874874114990234,-0.3592129051685333,0.09800011664628983,0.6583656072616577
5.975497007369995,0.016954533755779266,-0.8647831678390503,0.9070252180099487,-0.3585694432258606,0.09348905831575394,0.6578201651573181
5.99557089805603,-0.010484328493475914,-0.8561078906059265,0.9260881543159485,-0.3544656038284302,0.06794906407594681,0.6560826897621155
6.015623331069946,-0.024485928937792778,-0.8589783310890198,0.9041042327880859,-0.35377928614616394,0.0631718635559082,0.6569540500640869
6.03571081161499,-0.029858466237783432,-0.8628048300743103,0.8805582523345947,-0.3541669249534607,0.06831217557191849,0.6576672196388245
6.055811166763306,-0.050223808735609055,-0.8689311742782593,0.8362475037574768,-0.3599505126476288,0.07402443140745163,0.6575514078140259
6.075843334197998,-0.033990588039159775,-0.8728935122489929,0.8275825381278992,-0.36247631907463074,0.0901971161365509,0.6584758758544922
6.095938444137573,-0.02812906540930271,-0.8734835386276245,0.8287667036056519,-0.36202704906463623,0.094850093126297,0.6587902903556824
6.116005897521973,-0.014855431392788887,-0.8698983788490295,0.8608194589614868,-0.35999196767807007,0.09342163801193237,0.6584790945053101
6.136080980300903,0.007259744219481945,-0.8670299053192139,0.8840111494064331,-0.3594328463077545,0.09609021991491318,0.6593115925788879
6.156245231628418,0.015437819063663483,-0.8658809661865234,0.8930966854095459,-0.35918858647346497,0.09562123566865921,0.6592978239059448
6.176357746124268,-0.0035093529149889946,-0.8575229644775391,0.9215987324714661,-0.3560926020145416,0.07301787286996841,0.6572350263595581
6.196802616119385,-0.02197703719139099,-0.8591942191123962,0.9092115759849548,-0.35434606671333313,0.06396322697401047,0.6575648188591003
6.216919183731079,-0.027027713134884834,-0.8626121282577515,0.8917497396469116,-0.35443806648254395,0.06542104482650757,0.6580089330673218
6.237027645111084,-0.04850567877292633,-0.8686530590057373,0.8474932312965393,-0.3583697974681854,0.06890671700239182,0.6577752232551575
6.257329940795898,-0.04425570368766785,-0.873346745967865,0.8249520659446716,-0.3626706004142761,0.08246289938688278,0.6584879755973816
6.277458429336548,-0.03480668365955353,-0.8766657710075378,0.8148982524871826,-0.36299505829811096,0.0933503806591034,0.6587741374969482
6.29753565788269,-0.01559008564800024,-0.8749585151672363,0.8419069051742554,-0.3599783778190613,0.0966193899512291,0.658276379108429
6.31776237487793,0.00855291448533535,-0.8700526356697083,0.8778862953186035,-0.35981228947639465,0.09792301803827286,0.6587501168251038
6.337918043136597,0.008933301083743572,-0.8666869401931763,0.8910659551620483,-0.3600139617919922,0.09374769032001495,0.6587592363357544
6.357959270477295,0.00881647877395153,-0.8604640960693359,0.9228731393814087,-0.3604845702648163,0.08333296328783035,0.6578176021575928
6.378059387207031,-0.007221913896501064,-0.8565362691879272,0.92763751745224,-0.3572770357131958,0.06919220834970474,0.6566591858863831
6.398121118545532,-0.023114651441574097,-0.8590197563171387,0.9148362874984741,-0.35546696186065674,0.06165511533617973,0.657042384147644
6.419020652770996,-0.0402943380177021,-0.8658615946769714,0.8691109418869019,-0.35802096128463745,0.06722532212734222,0.657562255859375
6.439172267913818,-0.05264488235116005,-0.8683411478996277,0.8475831747055054,-0.3595907688140869,0.06784796714782715,0.6574243307113647
6.459206581115723,-0.04699433967471123,-0.8748452663421631,0.8179642558097839,-0.36341559886932373,0.08535189181566238,0.6584421396255493
6.479336500167847,-0.01791166141629219,-0.8758453130722046,0.8386796116828918,-0.3593541979789734,0.09556785225868225,0.6588099002838135
6.499435901641846,-0.010428285226225853,-0.8743789792060852,0.8538491129875183,-0.35791629552841187,0.0946577787399292,0.6583335399627686
6.519502639770508,0.008691767230629921,-0.8699598908424377,0.8847660422325134,-0.35778388381004333,0.0945935994386673,0.6586050987243652
6.539551258087158,0.010654555633664131,-0.8648189902305603,0.9111289381980896,-0.35776013135910034,0.08750901371240616,0.6584846377372742
6.559648513793945,0.0019818046130239964,-0.8612735867500305,0.921419620513916,-0.35680073499679565,0.07813414186239243,0.6578590869903564
6.57977294921875,-0.012968995608389378,-0.86031574010849,0.918463945388794,-0.3540649116039276,0.06649680435657501,0.657741129398346
6.600147724151611,-0.016538525000214577,-0.8631047606468201,0.9051142930984497,-0.35361355543136597,0.067022904753685,0.6582348942756653
6.620249509811401,-0.03482338413596153,-0.8694784045219421,0.8598410487174988,-0.3563311696052551,0.07238888740539551,0.6586585640907288
6.640324592590332,-0.04326372966170311,-0.87302565574646,0.8310672044754028,-0.362601637840271,0.08180851489305496,0.6591971516609192
6.66040301322937,-0.03354041650891304,-0.8737741708755493,0.8339314460754395,-0.36247092485427856,0.08747267723083496,0.6594768166542053
6.680501461029053,-0.018036477267742157,-0.8731406331062317,0.8529599905014038,-0.3606003522872925,0.09212274104356766,0.6595795154571533
6.700608491897583,-0.013226855546236038,-0.8714474439620972,0.8616834282875061,-0.36026883125305176,0.09250816702842712,0.6597626209259033
6.7206871509552,0.005244627594947815,-0.866553783416748,0.8940963745117188,-0.3588220775127411,0.08852402865886688,0.6594521403312683
6.741070508956909,0.01180165633559227,-0.8640673756599426,0.9175950884819031,-0.35780805349349976,0.08388157188892365,0.6584261655807495
6.761171579360962,-0.005829164758324623,-0.8587468266487122,0.9361002445220947,-0.3538048267364502,0.0642516016960144,0.6565908789634705
6.7812933921813965,-0.021799203008413315,-0.8617311120033264,0.9156737923622131,-0.3523598909378052,0.060268841683864594,0.6574000120162964
6.80141544342041,-0.02789955958724022,-0.8654772043228149,0.8923930525779724,-0.3533114492893219,0.06573337316513062,0.6583964824676514
6.821512699127197,-0.048660341650247574,-0.8712535500526428,0.847859263420105,-0.35816845297813416,0.07086022198200226,0.658278226852417
6.842246770858765,-0.041571442037820816,-0.8743890523910522,0.8305230140686035,-0.3634784519672394,0.08437994867563248,0.6589263081550598
6.862412929534912,-0.027386706322431564,-0.8757259845733643,0.8376691341400146,-0.3614969551563263,0.091189444065094,0.6591662764549255
6.882527112960815,-0.013016672804951668,-0.8731145858764648,0.8597481846809387,-0.3595791459083557,0.09220485389232635,0.6587589979171753
6.902539014816284,-0.00774194672703743,-0.8711229562759399,0.870238721370697,-0.35968467593193054,0.0923272967338562,0.6591124534606934
6.922638416290283,0.012375483289361,-0.8677443265914917,0.8990856409072876,-0.3585815727710724,0.09201955795288086,0.6593334674835205
6.942713260650635,0.0017786035314202309,-0.8594321012496948,0.9286748766899109,-0.3556845188140869,0.07168057560920715,0.6575226187705994
6.96279239654541,-0.011709405109286308,-0.858788251876831,0.9278540015220642,-0.3550051748752594,0.06522377580404282,0.6576921939849854
