liuyurong129/humanoid-gym/humanoid/data/target_q_20250522-040826.csv
timestamp,joint_1,joint_2,joint_3,joint_4,joint_5,joint_6
0.00016188621520996094,0.0,0.0,0.0,0.0,0.0,0.0
0.02022242546081543,0.0,0.0,0.0,0.0,0.0,0.0
0.040341854095458984,0.0,0.0,0.0,0.0,0.0,0.0
0.060402631759643555,0.0,0.0,0.0,0.0,0.0,0.0
0.08048677444458008,0.0,0.0,0.0,0.0,0.0,0.0
0.1005561351776123,0.1603395640850067,-1.120787501335144,0.719160258769989,0.6868357062339783,-0.1114996150135994,0.09035636484622955
0.12064361572265625,0.15672248601913452,-1.128747582435608,0.7229627966880798,0.6864283084869385,-0.1104288324713707,0.09076119214296341
0.14069461822509766,0.15313686430454254,-1.136468768119812,0.7260743975639343,0.6856886148452759,-0.10944235324859619,0.09117592126131058
0.16079068183898926,0.15132106840610504,-1.140249490737915,0.7271568775177002,0.6851329803466797,-0.10904129594564438,0.09141713380813599
0.1808633804321289,0.14816470444202423,-1.1478521823883057,0.7312111854553223,0.6843962073326111,-0.10794857144355774,0.09182336181402206
0.20091986656188965,0.14499878883361816,-1.1553642749786377,0.735087513923645,0.6835333108901978,-0.10696826875209808,0.09222899377346039
0.2210087776184082,0.14357659220695496,-1.159103512763977,0.7377386093139648,0.683262825012207,-0.10631544888019562,0.09238193184137344
0.24107718467712402,0.14030501246452332,-1.1664992570877075,0.7414190769195557,0.6823569536209106,-0.10538125038146973,0.09274224936962128
0.26113343238830566,0.13702920079231262,-1.173654556274414,0.7443967461585999,0.6812314391136169,-0.10454203933477402,0.09313050657510757
0.28122544288635254,0.13530506193637848,-1.177154302597046,0.7453727722167969,0.6805852055549622,-0.10418393462896347,0.09334583580493927
0.30130720138549805,0.1323084682226181,-1.1842595338821411,0.7492969036102295,0.6796659827232361,-0.10316980630159378,0.09369730204343796
0.32140088081359863,0.13087120652198792,-1.1877830028533936,0.7513547539710999,0.6792177557945251,-0.10268011689186096,0.09387227147817612
0.3414924144744873,0.12804025411605835,-1.1946877241134644,0.7551857233047485,0.6781868934631348,-0.10167702287435532,0.09422452747821808
0.3615691661834717,0.12518076598644257,-1.2015286684036255,0.7589206099510193,0.6772027611732483,-0.10074226558208466,0.09456402063369751
0.38168978691101074,0.12376809120178223,-1.204906940460205,0.7607795596122742,0.6767249703407288,-0.10026340931653976,0.09472978115081787
0.40186262130737305,0.12098289281129837,-1.2116252183914185,0.7646845579147339,0.6758274435997009,-0.09932196885347366,0.09504438191652298
0.42189574241638184,0.11829450726509094,-1.2182246446609497,0.7685766816139221,0.6748526692390442,-0.09837502986192703,0.09534578770399094
0.4419548511505127,0.1170051097869873,-1.2214854955673218,0.7706323862075806,0.6743853092193604,-0.09786912798881531,0.09548688679933548
0.4620327949523926,0.11443258076906204,-1.2279456853866577,0.7747229933738708,0.6734482049942017,-0.0969194620847702,0.09576891362667084
0.482219934463501,0.11193390190601349,-1.234304666519165,0.7789507508277893,0.6725090146064758,-0.09597509354352951,0.09603819996118546
0.5023682117462158,0.11071547120809555,-1.2374897003173828,0.7813843488693237,0.6721195578575134,-0.09544694423675537,0.09614107757806778
0.5224313735961914,0.10819211602210999,-1.243772029876709,0.7857640385627747,0.6712196469306946,-0.09450345486402512,0.09635939449071884
0.5425186157226562,0.10692258179187775,-1.246860384941101,0.7878404855728149,0.670803964138031,-0.09400352835655212,0.09646705538034439
0.5626351833343506,0.10465259850025177,-1.2529340982437134,0.792425274848938,0.6699564456939697,-0.09304868429899216,0.09667748957872391
0.5829019546508789,0.10238140821456909,-1.2589120864868164,0.7968361973762512,0.6691073179244995,-0.09213321655988693,0.09688204526901245
0.6029989719390869,0.10141173005104065,-1.2618741989135742,0.7996877431869507,0.6688486337661743,-0.09159500896930695,0.09696201235055923
0.6231307983398438,0.09930732846260071,-1.2676775455474854,0.8042916059494019,0.6680194139480591,-0.09065283834934235,0.09715832769870758
0.6436114311218262,0.09817065298557281,-1.2705427408218384,0.806133508682251,0.6674617528915405,-0.09025886654853821,0.09725839644670486
0.6637098789215088,0.09621655195951462,-1.2761842012405396,0.8108072280883789,0.6665727496147156,-0.08927436918020248,0.09741662442684174
0.683769941329956,0.09422767162322998,-1.2817927598953247,0.8153412342071533,0.6656390428543091,-0.08846674859523773,0.09758000820875168
0.7038547992706299,0.09332433342933655,-1.2845642566680908,0.8179060816764832,0.6652684211730957,-0.08799857646226883,0.09764379262924194
0.7239978313446045,0.09144943952560425,-1.2900145053863525,0.8225254416465759,0.6643932461738586,-0.08713779598474503,0.0977817252278328
0.7442116737365723,0.08968691527843475,-1.2953619956970215,0.8275011777877808,0.6636126637458801,-0.08628769963979721,0.09789891541004181
0.7643039226531982,0.08868961036205292,-1.2979531288146973,0.8292680978775024,0.6630581021308899,-0.085868239402771,0.0979742482304573
0.7843811511993408,0.086921826004982,-1.3031940460205078,0.8340802192687988,0.6622621417045593,-0.08506397902965546,0.09805870801210403
0.804480791091919,0.0861404612660408,-1.3058207035064697,0.8372776508331299,0.6620588898658752,-0.08457532525062561,0.09805571287870407
0.8245606422424316,0.08443400263786316,-1.3109016418457031,0.8422994613647461,0.6612175107002258,-0.08376822620630264,0.09810877591371536
0.8446216583251953,0.08281508088111877,-1.315824031829834,0.8472573161125183,0.6604386568069458,-0.08303885906934738,0.09813983738422394
0.8647110462188721,0.0817895233631134,-1.3182556629180908,0.8487270474433899,0.6597378849983215,-0.08280888944864273,0.09819602966308594
0.884793758392334,0.08027783781290054,-1.3230856657028198,0.8540332913398743,0.6590785980224609,-0.08215358853340149,0.09822551906108856
0.9048624038696289,0.07992180436849594,-1.3253979682922363,0.858218252658844,0.6590811610221863,-0.08165648579597473,0.0981844812631607
0.9249544143676758,0.07857097685337067,-1.3301184177398682,0.8636297583580017,0.6583179831504822,-0.08102881163358688,0.0981859564781189
0.9453973770141602,0.07733935862779617,-1.334700107574463,0.8690478801727295,0.6575194597244263,-0.0803724080324173,0.09820379316806793
0.9654955863952637,0.0763828307390213,-1.3370048999786377,0.8705616593360901,0.6568641662597656,-0.08022527396678925,0.09822874516248703
0.9855833053588867,0.07520027458667755,-1.3414117097854614,0.8758782148361206,0.6560256481170654,-0.07960136234760284,0.098216712474823
1.0056464672088623,0.07491780817508698,-1.343552827835083,0.8799994587898254,0.6560811400413513,-0.07917666435241699,0.09816770255565643
1.0257093906402588,0.07390334457159042,-1.3477568626403809,0.8859339952468872,0.6555593609809875,-0.07850562781095505,0.09812138229608536
1.046140193939209,0.0732443630695343,-1.3498741388320923,0.8878927826881409,0.6548702120780945,-0.07828351855278015,0.09813306480646133
1.066232442855835,0.072581447660923,-1.3539024591445923,0.8945203423500061,0.6543209552764893,-0.0776187852025032,0.09807997196912766
1.0863308906555176,0.07184776663780212,-1.3578521013259888,0.9006527662277222,0.6537103056907654,-0.07698637992143631,0.09802878648042679
1.1064245700836182,0.07177488505840302,-1.3597339391708374,0.9050779342651367,0.653838574886322,-0.07661657780408859,0.09795726090669632
1.1265130043029785,0.07119046151638031,-1.3634958267211914,0.9113563895225525,0.6532552242279053,-0.07602398842573166,0.09788963198661804
1.1465530395507812,0.07060136646032333,-1.3671783208847046,0.9177986979484558,0.652809202671051,-0.07548944652080536,0.09780453890562057
1.1667511463165283,0.07013092935085297,-1.3690563440322876,0.9199466705322266,0.6521679162979126,-0.07531151920557022,0.09779005497694016
1.1868188381195068,0.0695587545633316,-1.3727432489395142,0.9265541434288025,0.6517670750617981,-0.07496291399002075,0.09768480062484741
1.2072007656097412,0.06914012134075165,-1.3762873411178589,0.9331967234611511,0.6513475775718689,-0.07467657327651978,0.09759316593408585
1.2273662090301514,0.06914455443620682,-1.3779999017715454,0.9374511241912842,0.6514734625816345,-0.0744786337018013,0.09753260016441345
1.24739408493042,0.06869252026081085,-1.3814969062805176,0.9438925385475159,0.6509627103805542,-0.0743316262960434,0.09742627292871475
1.2674829959869385,0.06818874180316925,-1.3833192586898804,0.9460384249687195,0.6503679156303406,-0.0743737518787384,0.097386933863163
1.28761625289917,0.06781219691038132,-1.38660728931427,0.9524568915367126,0.6499075293540955,-0.07416347414255142,0.09728073328733444
1.307710886001587,0.06760372221469879,-1.3898422718048096,0.959182858467102,0.6494668126106262,-0.07403047382831573,0.09716948121786118
1.3278086185455322,0.06782230734825134,-1.3913238048553467,0.9635838866233826,0.64951491355896,-0.07387693971395493,0.0971057116985321
1.3478591442108154,0.06759420782327652,-1.3944942951202393,0.970162570476532,0.6490923762321472,-0.0738784521818161,0.09701009094715118
1.367964267730713,0.0672244280576706,-1.3961291313171387,0.9723904132843018,0.6485261917114258,-0.07395701855421066,0.09697587043046951
1.3880164623260498,0.06717778742313385,-1.3990638256072998,0.9791523814201355,0.6480176448822021,-0.07392816990613937,0.09688299894332886
1.408820629119873,0.06711510568857193,-1.4020088911056519,0.9860372543334961,0.6476537585258484,-0.07404214143753052,0.09680038690567017
1.428907871246338,0.06743108481168747,-1.403335452079773,0.9904226660728455,0.6476510763168335,-0.07400664687156677,0.09675043821334839
1.448991298675537,0.06741437315940857,-1.4062061309814453,0.9968610405921936,0.6470617055892944,-0.07411973923444748,0.09668619185686111
1.4690680503845215,0.06718611717224121,-1.407683253288269,0.9993111491203308,0.64654141664505,-0.07427019625902176,0.09665558487176895
1.4891700744628906,0.0672399178147316,-1.4103999137878418,1.0058008432388306,0.6460348963737488,-0.07442483305931091,0.09660384058952332
1.509235143661499,0.06722762435674667,-1.413131833076477,1.012128472328186,0.6454172134399414,-0.07470865547657013,0.09653274714946747
1.529409646987915,0.06728455424308777,-1.4144999980926514,1.0156316757202148,0.6453399658203125,-0.07485266029834747,0.09650948643684387
1.549471139907837,0.06714944541454315,-1.4172271490097046,1.0216070413589478,0.6447218060493469,-0.07532723993062973,0.09645150601863861
1.569598913192749,0.0670003741979599,-1.4185600280761719,1.0242184400558472,0.6442015171051025,-0.07556194812059402,0.09641464799642563
1.589707612991333,0.06688237935304642,-1.4212145805358887,1.030051827430725,0.6435084939002991,-0.07606657594442368,0.09634527564048767
1.6099703311920166,0.06678155064582825,-1.4237971305847168,1.0357508659362793,0.6428508758544922,-0.07653326541185379,0.09628821909427643
1.6301665306091309,0.06682796031236649,-1.4250544309616089,1.038917064666748,0.6426573395729065,-0.07675433158874512,0.09626266360282898
1.6503009796142578,0.06684627383947372,-1.4262837171554565,1.0418802499771118,0.642288863658905,-0.07700245082378387,0.09622317552566528
1.6704819202423096,0.06693524867296219,-1.4287302494049072,1.0481078624725342,0.6418050527572632,-0.07752473652362823,0.09615959972143173
1.6905176639556885,0.06698073446750641,-1.4310811758041382,1.0538926124572754,0.6411094665527344,-0.07809154689311981,0.09608688205480576
1.7105967998504639,0.06686901301145554,-1.43222177028656,1.0562505722045898,0.6406007409095764,-0.0783233493566513,0.09604831784963608
1.7306690216064453,0.06682281196117401,-1.4345310926437378,1.0619046688079834,0.6399591565132141,-0.07893858104944229,0.09597960859537125
1.7507688999176025,0.06678406149148941,-1.4367519617080688,1.0674493312835693,0.6392737030982971,-0.07954209297895432,0.09590612351894379
1.7708706855773926,0.06680657714605331,-1.4378451108932495,1.070239543914795,0.638945460319519,-0.07988589257001877,0.09587559103965759
1.7910144329071045,0.06671921163797379,-1.4399758577346802,1.0753800868988037,0.6381815075874329,-0.08050093054771423,0.0958198681473732
1.8113245964050293,0.06666210293769836,-1.441026210784912,1.0779057741165161,0.6377715468406677,-0.08084695786237717,0.09578930586576462
1.8314592838287354,0.06661892682313919,-1.44312584400177,1.0831292867660522,0.6370302438735962,-0.08153924345970154,0.09572457522153854
1.8515541553497314,0.06654483824968338,-1.4452340602874756,1.0883042812347412,0.6363697052001953,-0.08227100223302841,0.09565760940313339
1.8715884685516357,0.06655146181583405,-1.4461935758590698,1.0908448696136475,0.6359535455703735,-0.08259965479373932,0.09562648832798004
1.8916845321655273,0.06662352383136749,-1.4481033086776733,1.0960495471954346,0.6351776123046875,-0.08326248079538345,0.09555701166391373
1.91176176071167,0.06662540882825851,-1.449084997177124,1.0986875295639038,0.6348515152931213,-0.0836644098162651,0.09552070498466492
1.9318501949310303,0.06676813215017319,-1.4508922100067139,1.1039856672286987,0.6341872811317444,-0.08431244641542435,0.0954693853855133
1.951944351196289,0.06685040891170502,-1.452734351158142,1.1091933250427246,0.6335488557815552,-0.0850500836968422,0.09540573507547379
1.9720191955566406,0.06691604107618332,-1.453616738319397,1.1117392778396606,0.6332064270973206,-0.08537664264440536,0.0953715592622757
1.992095708847046,0.06697593629360199,-1.4554500579833984,1.1169549226760864,0.6327294707298279,-0.08615966886281967,0.09532451629638672
2.012218713760376,0.06695888191461563,-1.4563074111938477,1.119241714477539,0.6323062181472778,-0.08653323352336884,0.09528206288814545
2.032402276992798,0.0670619010925293,-1.4579795598983765,1.124232530593872,0.6316134333610535,-0.0872921422123909,0.09521176666021347
2.0524659156799316,0.06710346043109894,-1.4595959186553955,1.128970980644226,0.6308948993682861,-0.08803383260965347,0.09515329450368881
2.072512149810791,0.06715819984674454,-1.4604014158248901,1.131508469581604,0.6305811405181885,-0.08844247460365295,0.09512566030025482
2.092609167098999,0.06723108887672424,-1.461991548538208,1.1363874673843384,0.6299380660057068,-0.08922384679317474,0.0950639545917511
2.1133739948272705,0.06724464893341064,-1.4635815620422363,1.1411794424057007,0.629392147064209,-0.09006880968809128,0.09502024203538895
2.133453369140625,0.067252978682518,-1.4643046855926514,1.1434149742126465,0.6289998888969421,-0.09046604484319687,0.09498554468154907
2.153625011444092,0.06725960969924927,-1.465783715248108,1.1479945182800293,0.6283100247383118,-0.09133461862802505,0.09491605311632156
2.173884868621826,0.06718361377716064,-1.4665842056274414,1.1502485275268555,0.6280547976493835,-0.09184182435274124,0.09488839656114578
2.194000482559204,0.06707943230867386,-1.4680073261260986,1.1545782089233398,0.6273046135902405,-0.09268316626548767,0.09481298178434372
2.2140402793884277,0.0670335441827774,-1.4693511724472046,1.158814549446106,0.6265257000923157,-0.09356176108121872,0.09472203999757767
2.2341504096984863,0.06694567948579788,-1.4700965881347656,1.1609022617340088,0.6262115240097046,-0.0940777063369751,0.09467610716819763
2.254220724105835,0.06694646924734116,-1.47141432762146,1.165209174156189,0.6255693435668945,-0.09494564682245255,0.09459909051656723
2.274319648742676,0.06687404960393906,-1.4720450639724731,1.1671110391616821,0.6251164078712463,-0.09539423882961273,0.09453906118869781
2.2943873405456543,0.06689421087503433,-1.4733257293701172,1.1713892221450806,0.6245643496513367,-0.09624286741018295,0.09446479380130768
2.3144428730010986,0.0669608935713768,-1.4739359617233276,1.1736623048782349,0.6243172287940979,-0.09669682383537292,0.09442589432001114
2.33454966545105,0.06698109954595566,-1.475186824798584,1.17793869972229,0.6238272786140442,-0.0975894033908844,0.09434720128774643
2.3549463748931885,0.06691764295101166,-1.476467490196228,1.1821635961532593,0.6233541369438171,-0.0985691249370575,0.09425464272499084
2.3749911785125732,0.06701137870550156,-1.4770097732543945,1.1843950748443604,0.623114287853241,-0.09897821396589279,0.09421010315418243
2.3950555324554443,0.06694521009922028,-1.4781736135482788,1.18850839138031,0.622559130191803,-0.0999961644411087,0.09409555047750473
2.4151370525360107,0.06698685139417648,-1.47869074344635,1.1905596256256104,0.6222308874130249,-0.10044542700052261,0.09403035044670105
2.4351978302001953,0.06698572635650635,-1.4797645807266235,1.194709062576294,0.621720016002655,-0.10135389119386673,0.09393631666898727
2.455289602279663,0.06699073314666748,-1.4803292751312256,1.1968613862991333,0.6215599775314331,-0.10189910233020782,0.09389642626047134
2.47536039352417,0.06703720986843109,-1.481367588043213,1.2010117769241333,0.621113121509552,-0.10288720577955246,0.0937972217798233
2.4955668449401855,0.06706901639699936,-1.4823843240737915,1.205081820487976,0.6207231879234314,-0.10389423370361328,0.09370560199022293
2.5156667232513428,0.06704255938529968,-1.4828402996063232,1.2068735361099243,0.6204036474227905,-0.10434600710868835,0.09363970905542374
2.5357367992401123,0.06705572456121445,-1.4838104248046875,1.2107813358306885,0.6199639439582825,-0.10536694526672363,0.0935254842042923
2.5558149814605713,0.0670703575015068,-1.4842522144317627,1.212647795677185,0.6197454929351807,-0.10582005977630615,0.09347177296876907
2.5758931636810303,0.06707172840833664,-1.4851824045181274,1.2164769172668457,0.6193599700927734,-0.10686153173446655,0.09335197508335114
2.5961334705352783,0.06702912598848343,-1.4856635332107544,1.2182923555374146,0.6191670894622803,-0.10740495473146439,0.09328853338956833
2.6161463260650635,0.06699581444263458,-1.4865436553955078,1.2219018936157227,0.6186719536781311,-0.10845644026994705,0.09313269704580307
2.6364786624908447,0.06695450097322464,-1.486968994140625,1.2236515283584595,0.6184269785881042,-0.10899189114570618,0.09304959326982498
2.6566050052642822,0.0667879581451416,-1.4877525568008423,1.2268478870391846,0.6178010702133179,-0.11002956330776215,0.09285881370306015
2.6768229007720947,0.06655807048082352,-1.4885680675506592,1.2299596071243286,0.6173192262649536,-0.11108055710792542,0.09269001334905624
2.6969096660614014,0.06646498292684555,-1.4889706373214722,1.2314900159835815,0.617039680480957,-0.11158783733844757,0.09259582310914993
2.7169604301452637,0.06624328345060349,-1.4897558689117432,1.2345890998840332,0.616482675075531,-0.11265945434570312,0.09239306300878525
2.737053871154785,0.0661466047167778,-1.4901316165924072,1.2360879182815552,0.6161782741546631,-0.11319281160831451,0.09228014945983887
2.7571136951446533,0.06597711145877838,-1.4908350706100464,1.2392138242721558,0.6156296133995056,-0.11430036276578903,0.09204666316509247
2.7772319316864014,0.06595222651958466,-1.4912078380584717,1.24089515209198,0.6155007481575012,-0.11484760046005249,0.0919603779911995
2.7972912788391113,0.06581901758909225,-1.4918278455734253,1.243898630142212,0.6149494647979736,-0.11587107181549072,0.09171727299690247
2.817502021789551,0.06572050601243973,-1.492119550704956,1.245352029800415,0.6146630644798279,-0.11638180911540985,0.0915907621383667
2.837594747543335,0.0656128004193306,-1.4927606582641602,1.2484160661697388,0.6143293380737305,-0.11744679510593414,0.091368168592453
2.857685089111328,0.06529195606708527,-1.4933818578720093,1.2508100271224976,0.6138205528259277,-0.11842599511146545,0.09109863638877869
2.8778419494628906,0.06514046341180801,-1.4936953783035278,1.252038598060608,0.6135902404785156,-0.1189512237906456,0.09095603227615356
2.897915840148926,0.06462761759757996,-1.4943366050720215,1.2543336153030396,0.6130874752998352,-0.12005427479743958,0.09064330905675888
2.9180166721343994,0.06427779048681259,-1.494702935218811,1.2552930116653442,0.6128680109977722,-0.12067779153585434,0.09047558903694153
2.9380781650543213,0.06389033794403076,-1.4953356981277466,1.2576773166656494,0.6125335097312927,-0.12182339280843735,0.0901537761092186
2.958235025405884,0.06360902637243271,-1.4956753253936768,1.2586877346038818,0.6122843623161316,-0.12240242958068848,0.08996519446372986
2.978384494781494,0.06315072625875473,-1.4963661432266235,1.2611818313598633,0.6120308637619019,-0.12370916455984116,0.0896199494600296
2.9986445903778076,0.06288167089223862,-1.4968394041061401,1.2635698318481445,0.6116359233856201,-0.12472953647375107,0.089243583381176
3.018766164779663,0.06263000518083572,-1.4971671104431152,1.2646760940551758,0.6114776134490967,-0.1253797560930252,0.08904624730348587
3.0388598442077637,0.06219403073191643,-1.4976863861083984,1.266789436340332,0.6111027002334595,-0.12650065124034882,0.08863717317581177
3.058903932571411,0.06201886758208275,-1.4979366064071655,1.2679338455200195,0.6109635233879089,-0.12707972526550293,0.08843570947647095
3.0789802074432373,0.06183309480547905,-1.4983714818954468,1.27035653591156,0.6107894778251648,-0.12813112139701843,0.08805341273546219
3.0990653038024902,0.061676569283008575,-1.4986342191696167,1.2715178728103638,0.6107524037361145,-0.12872785329818726,0.08785577118396759
3.1191914081573486,0.061430685222148895,-1.4990692138671875,1.2738503217697144,0.6105974912643433,-0.1298571228981018,0.0874277874827385
3.1394360065460205,0.06130680814385414,-1.49946928024292,1.276330828666687,0.6106272339820862,-0.13098648190498352,0.08703302592039108
3.15959095954895,0.06107231229543686,-1.4997316598892212,1.2774227857589722,0.6106687784194946,-0.13163766264915466,0.08682825416326523
3.1796939373016357,0.060800835490226746,-1.500187635421753,1.2799814939498901,0.6109270453453064,-0.13296785950660706,0.08647175133228302
3.1998260021209717,0.06078328937292099,-1.5003365278244019,1.2812834978103638,0.6110351085662842,-0.13353195786476135,0.08627939224243164
3.219904661178589,0.06063679978251457,-1.5007365942001343,1.2839114665985107,0.6113263964653015,-0.13492317497730255,0.08588500320911407
3.2402939796447754,0.060560014098882675,-1.5008925199508667,1.2851508855819702,0.6114627718925476,-0.1355561912059784,0.08568702638149261
3.2603795528411865,0.060222458094358444,-1.5012768507003784,1.2876672744750977,0.6119408011436462,-0.1370789110660553,0.08533307909965515
3.2804486751556396,0.06009305268526077,-1.5015088319778442,1.2900277376174927,0.6124057769775391,-0.1384294629096985,0.08494554460048676
3.30058217048645,0.06009719893336296,-1.5015684366226196,1.291215181350708,0.6126766800880432,-0.13907450437545776,0.0847468450665474
3.3206348419189453,0.05989038199186325,-1.5018157958984375,1.2933859825134277,0.613267183303833,-0.14064961671829224,0.08432967960834503
3.340738534927368,0.05976058915257454,-1.5018924474716187,1.294313907623291,0.6134333610534668,-0.14131537079811096,0.08404802531003952
3.3608551025390625,0.059594642370939255,-1.5019453763961792,1.2961480617523193,0.6138379573822021,-0.14253300428390503,0.08347370475530624
3.3809525966644287,0.059717148542404175,-1.5019466876983643,1.297592282295227,0.6141942739486694,-0.14326521754264832,0.08320920169353485
3.4011173248291016,0.05985371768474579,-1.501832127571106,1.2999663352966309,0.6147117614746094,-0.14439129829406738,0.08257783204317093
3.4214000701904297,0.060095783323049545,-1.501675009727478,1.3027067184448242,0.6151292324066162,-0.14568890631198883,0.0818769708275795
3.4414820671081543,0.06020953878760338,-1.5015878677368164,1.3041555881500244,0.6154729723930359,-0.14636753499507904,0.08155176043510437
3.4616732597351074,0.06039763614535332,-1.5012980699539185,1.3069251775741577,0.6159529685974121,-0.14748287200927734,0.08080199360847473
3.481680154800415,0.060454271733760834,-1.5011743307113647,1.3082331418991089,0.6161234378814697,-0.14804407954216003,0.08038251101970673
3.501774549484253,0.060265157371759415,-1.5008550882339478,1.3106080293655396,0.6163130402565002,-0.14896750450134277,0.07941677421331406
3.5220279693603516,0.05972631648182869,-1.5007389783859253,1.3114666938781738,0.6161466836929321,-0.14951609075069427,0.0788409560918808
3.542147397994995,0.05909392610192299,-1.500415325164795,1.313565731048584,0.6162340044975281,-0.1504657119512558,0.07777577638626099
3.562204599380493,0.05813242122530937,-1.4997191429138184,1.3148787021636963,0.615778923034668,-0.15078553557395935,0.07648509740829468
3.5823047161102295,0.05783633887767792,-1.4991068840026855,1.315308928489685,0.615319550037384,-0.15044648945331573,0.0757564976811409
3.602374315261841,0.05660921707749367,-1.498051404953003,1.3163310289382935,0.614377498626709,-0.15055860579013824,0.07428377866744995
3.6227006912231445,0.055630967020988464,-1.496565580368042,1.3173993825912476,0.6132994294166565,-0.15008096396923065,0.07276660203933716
3.6428229808807373,0.05505438894033432,-1.4958405494689941,1.3180023431777954,0.6128090023994446,-0.1499919891357422,0.07201199233531952
3.662881851196289,0.054349541664123535,-1.494240164756775,1.319280982017517,0.611847996711731,-0.14938965439796448,0.07047056406736374
3.6829607486724854,0.054024338722229004,-1.4934669733047485,1.319909930229187,0.6113999485969543,-0.14913837611675262,0.0696890652179718
3.703047275543213,0.0534561350941658,-1.4919456243515015,1.3212438821792603,0.6107205152511597,-0.1485762894153595,0.068172387778759
3.723121166229248,0.053122974932193756,-1.4903523921966553,1.3227803707122803,0.6099628806114197,-0.14786122739315033,0.06663155555725098
3.74322772026062,0.05305216833949089,-1.4895154237747192,1.3235067129135132,0.6095153093338013,-0.14736565947532654,0.06584064662456512
3.763324022293091,0.052833858877420425,-1.4879151582717896,1.324855089187622,0.6088114976882935,-0.14646251499652863,0.06427834182977676
3.7836802005767822,0.0525444820523262,-1.4863628149032593,1.3261115550994873,0.6082212328910828,-0.14565524458885193,0.06271759420633316
3.803770065307617,0.05238901078701019,-1.4855035543441772,1.3265763521194458,0.6077867150306702,-0.14513760805130005,0.06189749389886856
3.8238391876220703,0.05197124928236008,-1.4838868379592896,1.327530026435852,0.6070276498794556,-0.14429280161857605,0.060278650373220444
3.8439226150512695,0.051874127238988876,-1.483014464378357,1.327986240386963,0.6065841913223267,-0.1437239795923233,0.059441130608320236
3.864008903503418,0.0514829158782959,-1.4813730716705322,1.3287583589553833,0.605731189250946,-0.14282554388046265,0.05774115398526192
3.8840622901916504,0.05102374032139778,-1.4797521829605103,1.3293237686157227,0.6049772500991821,-0.1418696790933609,0.056015998125076294
3.9041924476623535,0.05058945715427399,-1.4790420532226562,1.3295129537582397,0.6047528982162476,-0.14158040285110474,0.05518101900815964
3.924238920211792,0.04976564273238182,-1.477565884590149,1.3296501636505127,0.6042380928993225,-0.14083802700042725,0.05345974117517471
3.9445078372955322,0.04917466640472412,-1.4760295152664185,1.3297028541564941,0.6038093566894531,-0.13978150486946106,0.051707666367292404
3.9646379947662354,0.04884457588195801,-1.4753007888793945,1.3297017812728882,0.6036630272865295,-0.13933983445167542,0.050821296870708466
3.9853358268737793,0.048438046127557755,-1.4738408327102661,1.3297501802444458,0.60357266664505,-0.13814677298069,0.049053460359573364
4.005441427230835,0.048189420253038406,-1.4731566905975342,1.3297990560531616,0.6036311984062195,-0.13759471476078033,0.048184242099523544
4.025510311126709,0.04805135354399681,-1.4718154668807983,1.3300964832305908,0.6040841937065125,-0.1362212896347046,0.04647409915924072
4.0456178188323975,0.04800460487604141,-1.4711233377456665,1.3301305770874023,0.6043344736099243,-0.1354377567768097,0.04560038074851036
4.0656960010528564,0.04789884760975838,-1.469886302947998,1.3303990364074707,0.6050176024436951,-0.13415642082691193,0.04387160390615463
4.085778713226318,0.04781290516257286,-1.469301462173462,1.3305206298828125,0.6055091023445129,-0.13354754447937012,0.043034087866544724
4.105860233306885,0.04769423231482506,-1.4680365324020386,1.330519437789917,0.6064286231994629,-0.1320505440235138,0.04132390022277832
4.125950813293457,0.04756507650017738,-1.4674574136734009,1.3304998874664307,0.606931209564209,-0.13142600655555725,0.04047207161784172
4.146027565002441,0.0468987375497818,-1.4663680791854858,1.3298792839050293,0.6079307794570923,-0.1303664594888687,0.03877847641706467
4.166077136993408,0.04627199098467827,-1.4654346704483032,1.3294094800949097,0.6092061400413513,-0.12943421304225922,0.03714929521083832
4.186170816421509,0.045995082706213,-1.4649726152420044,1.3291693925857544,0.6098757982254028,-0.12893567979335785,0.03633429482579231
4.206247568130493,0.045402467250823975,-1.4640216827392578,1.3284964561462402,0.6110029220581055,-0.12791554629802704,0.03465308994054794
4.226477861404419,0.04505106061697006,-1.4631110429763794,1.328127145767212,0.6123431921005249,-0.12678763270378113,0.03300851583480835
4.246566295623779,0.04490204155445099,-1.4626680612564087,1.3280025720596313,0.6131059527397156,-0.12622472643852234,0.03220320865511894
4.266637086868286,0.04462701082229614,-1.4618008136749268,1.3277037143707275,0.6146807670593262,-0.12504592537879944,0.030608467757701874
4.286773204803467,0.04441211372613907,-1.4609662294387817,1.327542781829834,0.6163681745529175,-0.12390248477458954,0.02902580238878727
4.306979179382324,0.04414905235171318,-1.4605530500411987,1.3272589445114136,0.6171632409095764,-0.12341266125440598,0.028224758803844452
4.326968431472778,0.04386952891945839,-1.4597150087356567,1.3268524408340454,0.6187589168548584,-0.1222277358174324,0.026616347953677177
4.347362518310547,0.04372875764966011,-1.4593077898025513,1.3266383409500122,0.6195590496063232,-0.12164744734764099,0.025808515027165413
4.367335557937622,0.04337068274617195,-1.458548665046692,1.3261414766311646,0.6212803721427917,-0.12056870013475418,0.024226544424891472
4.387335777282715,0.04300152137875557,-1.4578126668930054,1.3256338834762573,0.6230422258377075,-0.11951704323291779,0.022660478949546814
4.407410621643066,0.04277168959379196,-1.4574558734893799,1.3253604173660278,0.6239871978759766,-0.11903510242700577,0.021898794919252396
4.427484512329102,0.042490098625421524,-1.4566738605499268,1.3248239755630493,0.625813364982605,-0.11780860275030136,0.020349036902189255
4.44784140586853,0.04240884631872177,-1.4562947750091553,1.3246022462844849,0.6267109513282776,-0.11719124764204025,0.019567815586924553
4.467749118804932,0.04226584732532501,-1.4555115699768066,1.3242268562316895,0.6285711526870728,-0.11597561836242676,0.018016226589679718
4.4877610206604,0.04215327277779579,-1.4547075033187866,1.32369065284729,0.6303614974021912,-0.11466757953166962,0.016454339027404785
4.507878065109253,0.04204854741692543,-1.454347848892212,1.3233933448791504,0.6312060952186584,-0.11408112943172455,0.015670832246541977
4.527947425842285,0.041925810277462006,-1.4536187648773193,1.32280433177948,0.6329885721206665,-0.1128021776676178,0.014119885861873627
4.548007965087891,0.041787903755903244,-1.4529461860656738,1.3222533464431763,0.6348589062690735,-0.11159609258174896,0.012587695382535458
4.568100452423096,0.04157455638051033,-1.452599048614502,1.321760654449463,0.6357159614562988,-0.11103138327598572,0.011807601898908615
4.588183641433716,0.04135465249419212,-1.451874852180481,1.320911169052124,0.6374772191047668,-0.1097133681178093,0.010234122164547443
4.608219146728516,0.04121824726462364,-1.4515208005905151,1.3204147815704346,0.6382891535758972,-0.10909034311771393,0.009424814954400063
4.628335475921631,0.04098685458302498,-1.4509425163269043,1.319739818572998,0.6402446627616882,-0.10801886767148972,0.007895746268332005
4.6484174728393555,0.0408640094101429,-1.4503861665725708,1.319158673286438,0.6422774195671082,-0.10691389441490173,0.0063976082019507885
4.668488025665283,0.04079683870077133,-1.4500806331634521,1.3188540935516357,0.6432567834854126,-0.10632634162902832,0.00564546138048172
4.688542127609253,0.04080282524228096,-1.4494506120681763,1.3183988332748413,0.6451429128646851,-0.10506319999694824,0.004124220926314592
4.708646774291992,0.04083240032196045,-1.4491357803344727,1.3181488513946533,0.6460607051849365,-0.10438765585422516,0.0033612207043915987
4.728700876235962,0.040760915726423264,-1.4485381841659546,1.3175177574157715,0.6479626893997192,-0.1031188890337944,0.001867207931354642
4.748791217803955,0.04067122936248779,-1.4482330083847046,1.3171608448028564,0.6489253044128418,-0.10251061618328094,0.001126656075939536
4.768996715545654,0.04035663604736328,-1.447596549987793,1.3161652088165283,0.6506681442260742,-0.1013239324092865,-0.0003917453286703676
4.7891504764556885,0.04021710902452469,-1.4473353624343872,1.3157182931900024,0.6515569090843201,-0.10079054534435272,-0.0011434669140726328
4.80916428565979,0.039994146674871445,-1.4468523263931274,1.3149561882019043,0.6534539461135864,-0.09976034611463547,-0.002612736076116562
4.829242467880249,0.03971373289823532,-1.4462964534759521,1.3140830993652344,0.6553052067756653,-0.09863986819982529,-0.004079089500010014
4.849347352981567,0.039679430425167084,-1.4460115432739258,1.313705563545227,0.6562544107437134,-0.09797485172748566,-0.004807569552212954
4.869470834732056,0.03978502005338669,-1.4454386234283447,1.31316339969635,0.6581084132194519,-0.09658060222864151,-0.0062953452579677105
4.889547348022461,0.03990866616368294,-1.4448926448822021,1.3126075267791748,0.6600492000579834,-0.09519845247268677,-0.007753660902380943
4.90968132019043,0.04000112786889076,-1.4446147680282593,1.3123635053634644,0.6609956622123718,-0.09448803216218948,-0.008490093052387238
4.929738521575928,0.040185485035181046,-1.4440531730651855,1.3119219541549683,0.6629050970077515,-0.09305515885353088,-0.00994910765439272
4.950563430786133,0.040227532386779785,-1.44352388381958,1.3112545013427734,0.6648574471473694,-0.09166472405195236,-0.011378719471395016
4.9706597328186035,0.04025287181138992,-1.4432709217071533,1.3109321594238281,0.6657862067222595,-0.09099219739437103,-0.012103469111025333
4.99073600769043,0.04019654914736748,-1.4427626132965088,1.3101623058319092,0.66762775182724,-0.08969048410654068,-0.013554399833083153
5.0119311809539795,0.039997365325689316,-1.4422098398208618,1.309097170829773,0.6693962812423706,-0.08834663778543472,-0.015028424561023712
5.031979084014893,0.03989144787192345,-1.4419840574264526,1.3086717128753662,0.6703567504882812,-0.08779390156269073,-0.015741916373372078
5.05208158493042,0.039654798805713654,-1.441540002822876,1.3076900243759155,0.6722800135612488,-0.08662751317024231,-0.01715467870235443
5.072437524795532,0.03939078375697136,-1.441147804260254,1.3067983388900757,0.674216091632843,-0.08559355139732361,-0.018538126721978188
5.092554807662964,0.039320461452007294,-1.4409422874450684,1.3063873052597046,0.6751610040664673,-0.0850050300359726,-0.0192361269146204
5.112620830535889,0.0393952913582325,-1.4404997825622559,1.305830478668213,0.6770572066307068,-0.08369985222816467,-0.020645536482334137
5.132699251174927,0.03945249319076538,-1.440264105796814,1.3055540323257446,0.6780083179473877,-0.08300431072711945,-0.02134668081998825
5.152787685394287,0.039592139422893524,-1.4398105144500732,1.3049522638320923,0.6798715591430664,-0.08158232271671295,-0.02276437357068062
5.172848224639893,0.03965230658650398,-1.4394010305404663,1.3043776750564575,0.6817910075187683,-0.08030577003955841,-0.02415071427822113
5.19295072555542,0.039678119122982025,-1.4391748905181885,1.3040417432785034,0.6827386021614075,-0.07961852103471756,-0.024839913472533226
5.213116884231567,0.039597608149051666,-1.4387539625167847,1.3032151460647583,0.6846365928649902,-0.07833143323659897,-0.026197314262390137
5.23312783241272,0.03954432159662247,-1.4383455514907837,1.3024200201034546,0.6864442825317383,-0.0770503431558609,-0.027577603235840797
5.253221273422241,0.039518002420663834,-1.4381624460220337,1.3021013736724854,0.6874150037765503,-0.07647145539522171,-0.02824430912733078
5.273291826248169,0.03936490789055824,-1.4378389120101929,1.301315188407898,0.6893039345741272,-0.07538140565156937,-0.02958047389984131
5.2938079833984375,0.03928287327289581,-1.4375096559524536,1.3006170988082886,0.6912543177604675,-0.07423876971006393,-0.03089439682662487
5.313995361328125,0.03930683434009552,-1.4373195171356201,1.3002582788467407,0.6921683549880981,-0.07356022298336029,-0.031568288803100586
5.333986759185791,0.039277706295251846,-1.4370113611221313,1.2995818853378296,0.6940361261367798,-0.07238580286502838,-0.03288760408759117
5.354118824005127,0.039262864738702774,-1.436840295791626,1.299211859703064,0.6949738264083862,-0.0717519074678421,-0.033543430268764496
5.374197959899902,0.03908982500433922,-1.4365121126174927,1.2983307838439941,0.6968507170677185,-0.07058994472026825,-0.034841910004615784
5.394934177398682,0.038971204310655594,-1.4361693859100342,1.297499179840088,0.6987433433532715,-0.0693836435675621,-0.036128055304288864
5.415053844451904,0.03895919397473335,-1.4359947443008423,1.2970666885375977,0.6996843814849854,-0.06871778517961502,-0.03677593171596527
5.435142755508423,0.038947828114032745,-1.4356902837753296,1.2963277101516724,0.7014989256858826,-0.06747028976678848,-0.0380815751850605
5.4552037715911865,0.03889084979891777,-1.4355560541152954,1.2959526777267456,0.702402651309967,-0.06691412627696991,-0.03872622549533844
5.475283145904541,0.0388418510556221,-1.435189127922058,1.2949795722961426,0.7041707038879395,-0.06549641489982605,-0.04003525525331497
5.495349168777466,0.038920946419239044,-1.4348350763320923,1.2942540645599365,0.706097424030304,-0.064066581428051,-0.041306667029857635
5.515431880950928,0.03893304243683815,-1.434686541557312,1.2938807010650635,0.7070599794387817,-0.06340573728084564,-0.04193369299173355
5.535532236099243,0.03892454877495766,-1.4344158172607422,1.2932077646255493,0.7089338898658752,-0.06219359487295151,-0.04318423941731453
5.556379318237305,0.03893697261810303,-1.4340873956680298,1.2924306392669678,0.7108139395713806,-0.060824841260910034,-0.04442579299211502
5.5764710903167725,0.038967978209257126,-1.433953881263733,1.2921231985092163,0.7117289900779724,-0.0601915568113327,-0.04505058377981186
5.596571922302246,0.03902261331677437,-1.4336957931518555,1.2915345430374146,0.7135629057884216,-0.058945074677467346,-0.04628591984510422
5.617297410964966,0.03911749646067619,-1.4333879947662354,1.290854573249817,0.7154689431190491,-0.0575367733836174,-0.04750017076730728
5.637537240982056,0.03915995731949806,-1.4332563877105713,1.2905572652816772,0.7163868546485901,-0.05688760057091713,-0.04811156541109085
5.65748405456543,0.0391649454832077,-1.4329835176467896,1.2898091077804565,0.7182466983795166,-0.05557508021593094,-0.049320366233587265
5.677568674087524,0.03910927101969719,-1.432881474494934,1.2894717454910278,0.7191801071166992,-0.0550449974834919,-0.04991341382265091
5.69763708114624,0.039096102118492126,-1.43257737159729,1.2886228561401367,0.7208675742149353,-0.053673628717660904,-0.051154036074876785
5.717868328094482,0.03910009562969208,-1.4322961568832397,1.2877470254898071,0.7225866913795471,-0.0522826686501503,-0.052377983927726746
5.73806095123291,0.03909853845834732,-1.432188868522644,1.2874245643615723,0.7235324382781982,-0.0516827218234539,-0.05296022444963455
5.758087396621704,0.03896716237068176,-1.4320366382598877,1.2866840362548828,0.7254392504692078,-0.05062783882021904,-0.05409368872642517
5.778247117996216,0.0389205664396286,-1.4319517612457275,1.2863256931304932,0.7263967394828796,-0.05007060244679451,-0.05465729907155037
5.798323631286621,0.038872215896844864,-1.4317728281021118,1.2856135368347168,0.7282830476760864,-0.048896897584199905,-0.055784016847610474
5.818390607833862,0.03890891745686531,-1.4315600395202637,1.2849085330963135,0.730092465877533,-0.04758948087692261,-0.056931257247924805
5.8385350704193115,0.03892550617456436,-1.4314496517181396,1.2845704555511475,0.7309930920600891,-0.04693681374192238,-0.05750681832432747
5.858617544174194,0.03895057737827301,-1.4312407970428467,1.2840278148651123,0.7328608632087708,-0.04572766646742821,-0.05862756073474884
5.878918886184692,0.03891851752996445,-1.4309957027435303,1.2831803560256958,0.7345079779624939,-0.04437726363539696,-0.05979441851377487
5.899091005325317,0.03897131234407425,-1.4308581352233887,1.2828563451766968,0.7353624701499939,-0.04366299882531166,-0.06037331372499466
5.919081687927246,0.039003241807222366,-1.4306387901306152,1.2822091579437256,0.7371624708175659,-0.042359452694654465,-0.061500903218984604
5.939219236373901,0.03890979662537575,-1.4305346012115479,1.2816240787506104,0.738948404788971,-0.04135579615831375,-0.06259569525718689
5.959311008453369,0.03889331966638565,-1.4304215908050537,1.2812473773956299,0.7398258447647095,-0.04070167988538742,-0.06314995884895325
5.979386806488037,0.03891449049115181,-1.430243730545044,1.280624508857727,0.7415720224380493,-0.03945009782910347,-0.06426289677619934
5.999513149261475,0.03892354667186737,-1.4301776885986328,1.280379295349121,0.742459237575531,-0.038886480033397675,-0.06480997055768967
6.019596815109253,0.038897428661584854,-1.4300354719161987,1.2797412872314453,0.744213879108429,-0.037708211690187454,-0.06590419262647629
6.039721727371216,0.03894030675292015,-1.4298783540725708,1.279125690460205,0.7459529042243958,-0.0364433191716671,-0.06700880825519562
6.059757232666016,0.038981612771749496,-1.429773211479187,1.2787643671035767,0.746829092502594,-0.03573060408234596,-0.06755829602479935
6.079878330230713,0.03900742158293724,-1.4296140670776367,1.278131127357483,0.7485774755477905,-0.034465570002794266,-0.0686454325914383
6.100008964538574,0.03904017060995102,-1.4294668436050415,1.2775205373764038,0.7504125237464905,-0.03320753946900368,-0.06969102472066879
6.120119094848633,0.039003320038318634,-1.4294131994247437,1.2772082090377808,0.7513258457183838,-0.032655004411935806,-0.0702032670378685
6.140206813812256,0.03897722065448761,-1.4292614459991455,1.2764722108840942,0.7530214190483093,-0.03138215094804764,-0.07126419991254807
6.160233497619629,0.03895881399512291,-1.429175853729248,1.2760847806930542,0.753849446773529,-0.03072904236614704,-0.07180289924144745
6.180361032485962,0.038819193840026855,-1.4290512800216675,1.2752940654754639,0.7555631399154663,-0.029578961431980133,-0.0728471502661705
6.2004005908966064,0.03876827657222748,-1.4289276599884033,1.2745552062988281,0.7572807669639587,-0.02835124172270298,-0.07389134913682938
6.2204835414886475,0.038749974220991135,-1.4288564920425415,1.2741752862930298,0.7581749558448792,-0.027708793058991432,-0.07440415769815445
6.240576505661011,0.03877362236380577,-1.4287128448486328,1.2735021114349365,0.7599760293960571,-0.026401672512292862,-0.07542896270751953
6.26066255569458,0.0389476977288723,-1.4285398721694946,1.2731001377105713,0.7617182731628418,-0.025041421875357628,-0.07647043466567993
6.28074312210083,0.0389956496655941,-1.4284844398498535,1.2729079723358154,0.7625977993011475,-0.024441547691822052,-0.07697688043117523
6.300847291946411,0.039077870547771454,-1.4283514022827148,1.2724618911743164,0.7643316984176636,-0.023191291838884354,-0.07799504697322845
6.321147918701172,0.039114709943532944,-1.4282552003860474,1.2719943523406982,0.7660605907440186,-0.022012824192643166,-0.07900863885879517
6.341253280639648,0.03916566073894501,-1.428184151649475,1.2717539072036743,0.7668908834457397,-0.021355489268898964,-0.07953155785799026
6.361374378204346,0.03919912874698639,-1.4281033277511597,1.2713052034378052,0.7686178684234619,-0.02020169608294964,-0.08053941279649734
6.381604433059692,0.039207540452480316,-1.4280747175216675,1.2710630893707275,0.7694646120071411,-0.019634541124105453,-0.08104338496923447
6.401634454727173,0.039192162454128265,-1.4280022382736206,1.270440697669983,0.7711741328239441,-0.01843641884624958,-0.0820426195859909
6.42260217666626,0.039152830839157104,-1.4279263019561768,1.2697763442993164,0.7729628086090088,-0.017236612737178802,-0.08301394432783127
6.442825078964233,0.03913075476884842,-1.4278836250305176,1.2694376707077026,0.7738654613494873,-0.016629496589303017,-0.0834951102733612
6.462900400161743,0.038970451802015305,-1.4278775453567505,1.2687383890151978,0.775632917881012,-0.015616227872669697,-0.08443549275398254
6.483010530471802,0.038938384503126144,-1.427850365638733,1.2684036493301392,0.7765049934387207,-0.015033632516860962,-0.08491185307502747
6.503046274185181,0.03889879956841469,-1.4277433156967163,1.2676599025726318,0.778124988079071,-0.01374367717653513,-0.08589684218168259
6.523157835006714,0.03887571394443512,-1.4276765584945679,1.2670326232910156,0.7798418998718262,-0.012537011876702309,-0.0868457704782486
6.543246030807495,0.038868509232997894,-1.427633285522461,1.266705870628357,0.7807157039642334,-0.011909442953765392,-0.0873170718550682
6.563420057296753,0.038880039006471634,-1.4275665283203125,1.2661833763122559,0.7824304699897766,-0.010715281590819359,-0.0882595106959343
6.583487033843994,0.0389149934053421,-1.427520990371704,1.2658988237380981,0.7832704186439514,-0.010061436332762241,-0.08873602747917175
6.603538513183594,0.038912881165742874,-1.4274636507034302,1.2653528451919556,0.7849946618080139,-0.008877049200236797,-0.08965803682804108
6.62362265586853,0.038926806300878525,-1.4274271726608276,1.265055537223816,0.7858166694641113,-0.008243550546467304,-0.09012862294912338
6.643734455108643,0.03885892778635025,-1.4274389743804932,1.2645381689071655,0.7874565124511719,-0.007211936637759209,-0.0910557433962822
6.663874387741089,0.03876281529664993,-1.4274513721466064,1.2639541625976562,0.789092481136322,-0.006166158709675074,-0.09196850657463074
6.683955907821655,0.038717448711395264,-1.4274455308914185,1.2636222839355469,0.7899149060249329,-0.005606078542768955,-0.09242146462202072
6.7040159702301025,0.0386318676173687,-1.4274119138717651,1.2629181146621704,0.7915174961090088,-0.0044326018542051315,-0.09333585947751999
6.724137306213379,0.038576360791921616,-1.4274113178253174,1.262607455253601,0.7923296093940735,-0.0038971882313489914,-0.09378255903720856
6.744233131408691,0.03859585151076317,-1.427358865737915,1.2620090246200562,0.7939566969871521,-0.0026368354447185993,-0.09468943625688553
6.764971494674683,0.03846339136362076,-1.427404761314392,1.2614597082138062,0.7956600785255432,-0.001670669298619032,-0.09554766863584518
6.7851762771606445,0.03840293735265732,-1.4274200201034546,1.261183500289917,0.7965079545974731,-0.0011683522025123239,-0.09597387909889221
6.80518913269043,0.03842109069228172,-1.4273912906646729,1.2606940269470215,0.7981530427932739,1.887220423668623e-05,-0.0968480259180069
6.825268507003784,0.03836745768785477,-1.427398920059204,1.260403037071228,0.7990097403526306,0.0005456070066429675,-0.0972651019692421
6.845330238342285,0.03828510642051697,-1.4273802042007446,1.2598211765289307,0.8007326722145081,0.001665865071117878,-0.0980982854962349
6.86569881439209,0.038235634565353394,-1.4273842573165894,1.25955069065094,0.8015860915184021,0.0021912185475230217,-0.09850888699293137
6.885793209075928,0.038156431168317795,-1.4273792505264282,1.2589497566223145,0.8032611608505249,0.0033102170564234257,-0.09933295100927353
6.905849933624268,0.038127798587083817,-1.4273672103881836,1.2584600448608398,0.8049272298812866,0.004429918248206377,-0.10014786571264267
6.925968408584595,0.03813914582133293,-1.4273523092269897,1.2581855058670044,0.8057412505149841,0.005037860479205847,-0.10055917501449585
6.9460413455963135,0.03823142871260643,-1.4273056983947754,1.2577775716781616,0.8073903322219849,0.006257873959839344,-0.10137460380792618
6.966201543807983,0.038288820534944534,-1.4272791147232056,1.2575422525405884,0.8081558346748352,0.006910028867423534,-0.10179544985294342
6.986354351043701,0.03835979476571083,-1.427246332168579,1.2570202350616455,0.8097196817398071,0.008176577277481556,-0.1026267409324646
7.006407737731934,0.03836444392800331,-1.4272538423538208,1.2564871311187744,0.8112691044807434,0.00933390948921442,-0.10345551371574402
7.026601314544678,0.038324274122714996,-1.4272842407226562,1.2562334537506104,0.8120726346969604,0.009830480441451073,-0.10384980589151382
7.0466883182525635,0.038261085748672485,-1.4273368120193481,1.2557355165481567,0.8136383295059204,0.010856864973902702,-0.10464312881231308
7.067007780075073,0.03819558769464493,-1.4273748397827148,1.2551735639572144,0.8152253031730652,0.011930816806852818,-0.10542550683021545
7.087096691131592,0.0382046215236187,-1.4273672103881836,1.2549147605895996,0.8160133361816406,0.01253197155892849,-0.10582371801137924
7.10718297958374,0.038218602538108826,-1.4273768663406372,1.2544552087783813,0.8175526261329651,0.013676833361387253,-0.1066269725561142
7.1272666454315186,0.038248077034950256,-1.4273697137832642,1.2542306184768677,0.8183218240737915,0.014284001663327217,-0.10702814906835556
7.147368669509888,0.038340162485837936,-1.4273545742034912,1.2538609504699707,0.8198612332344055,0.01549073588103056,-0.10782565176486969
7.167512655258179,0.03839781507849693,-1.4273409843444824,1.2533997297286987,0.8214432001113892,0.01670042797923088,-0.10860235244035721
7.187607526779175,0.038423750549554825,-1.4273473024368286,1.2531901597976685,0.8222147822380066,0.017278576269745827,-0.10898829996585846
7.207685947418213,0.038543280214071274,-1.427316427230835,1.2528268098831177,0.8237488269805908,0.018528014421463013,-0.10976818948984146
7.227849721908569,0.038575295358896255,-1.427304744720459,1.2525793313980103,0.8245344758033752,0.019150935113430023,-0.11014989763498306
7.247937202453613,0.038563694804906845,-1.4273592233657837,1.2521655559539795,0.8260676860809326,0.020198285579681396,-0.11091160774230957
7.268489360809326,0.03849833086133003,-1.4274150133132935,1.251689076423645,0.8276610970497131,0.021214833483099937,-0.11164039373397827
7.2885518074035645,0.03842015936970711,-1.427472710609436,1.2514293193817139,0.8284517526626587,0.021653013303875923,-0.11199258267879486
7.308627367019653,0.038335639983415604,-1.4275383949279785,1.2509243488311768,0.8299878239631653,0.022663969546556473,-0.11271889507770538
7.3287153244018555,0.03834160044789314,-1.4275362491607666,1.2506736516952515,0.8307361006736755,0.02326190285384655,-0.11310059577226639
7.348796367645264,0.03833107650279999,-1.4275832176208496,1.2502986192703247,0.8322499990463257,0.024308104068040848,-0.1138451024889946
7.369057893753052,0.03837891295552254,-1.4275949001312256,1.2498834133148193,0.8337470889091492,0.02547478675842285,-0.11459770798683167
7.389153957366943,0.03836660832166672,-1.4276173114776611,1.2496787309646606,0.8345197439193726,0.026000328361988068,-0.11495815217494965
7.409231424331665,0.03836846351623535,-1.4276199340820312,1.2491731643676758,0.8360719084739685,0.027171162888407707,-0.11568236351013184
7.429309844970703,0.038351789116859436,-1.427639365196228,1.2489186525344849,0.8368179202079773,0.02772250585258007,-0.11604799330234528
7.449433088302612,0.03825893998146057,-1.4277366399765015,1.248425841331482,0.838299036026001,0.028688956052064896,-0.11676101386547089
7.469518423080444,0.03822268918156624,-1.427768588066101,1.2481716871261597,0.8390545845031738,0.029206834733486176,-0.1171114593744278
7.489686727523804,0.038237348198890686,-1.427802562713623,1.2477630376815796,0.8405318260192871,0.03032185509800911,-0.11782366037368774
7.509690999984741,0.03824971243739128,-1.4278563261032104,1.2474384307861328,0.8420181274414062,0.031370390206575394,-0.11852017045021057
7.529792547225952,0.03828855976462364,-1.427859902381897,1.2472410202026367,0.842772901058197,0.03197239339351654,-0.11886896938085556
7.567537307739258,0.03831617534160614,-1.4278749227523804,1.2470325231552124,0.8435025215148926,0.03255721554160118,-0.11922250688076019
7.58761739730835,0.03827061131596565,-1.4279112815856934,1.2467823028564453,0.8442481756210327,0.03306535258889198,-0.11957075446844101
7.607753276824951,0.0380997434258461,-1.4280529022216797,1.2462958097457886,0.8457378149032593,0.033913277089595795,-0.12024011462926865
7.628106594085693,0.03801928460597992,-1.4281120300292969,1.2460439205169678,0.8464943766593933,0.03436019644141197,-0.12056929618120193
7.64819860458374,0.037993792444467545,-1.4281518459320068,1.2456282377243042,0.8479909896850586,0.035444244742393494,-0.12124484032392502
7.668291330337524,0.03797332942485809,-1.4282134771347046,1.2453471422195435,0.849463939666748,0.03644512593746185,-0.12191526591777802
7.688337087631226,0.03807296231389046,-1.4281779527664185,1.2452020645141602,0.8502228856086731,0.03713201731443405,-0.12225786596536636
7.708415746688843,0.038255274295806885,-1.4281461238861084,1.2451059818267822,0.8517656326293945,0.03834431990981102,-0.12292265892028809
7.728506326675415,0.038338907063007355,-1.428153395652771,1.2448644638061523,0.8532564043998718,0.03948124125599861,-0.12357651442289352
7.748574256896973,0.03842399641871452,-1.428122639656067,1.2446873188018799,0.8539621829986572,0.04016165807843208,-0.12392105162143707
7.768789768218994,0.038436561822891235,-1.4281572103500366,1.2442673444747925,0.855391800403595,0.041281335055828094,-0.12457828968763351
7.788794755935669,0.038436226546764374,-1.4281951189041138,1.2438387870788574,0.8568435907363892,0.04238414391875267,-0.1252235472202301
7.808884143829346,0.038391273468732834,-1.4282532930374146,1.2436332702636719,0.8575402498245239,0.04284373298287392,-0.12554381787776947
7.828988075256348,0.03820915147662163,-1.4284220933914185,1.2431979179382324,0.8589580059051514,0.04361746460199356,-0.12615731358528137
7.849640369415283,0.038115132600069046,-1.4285019636154175,1.242743968963623,0.8603925108909607,0.04460064694285393,-0.12677879631519318
7.869768381118774,0.03810403123497963,-1.4285318851470947,1.242527961730957,0.8610873222351074,0.04513435810804367,-0.12710081040859222
7.88982892036438,0.038085196167230606,-1.4285881519317627,1.2421077489852905,0.8624904155731201,0.046201251447200775,-0.1277393251657486
7.909997940063477,0.03809380158782005,-1.4286189079284668,1.241714596748352,0.863918662071228,0.04730713367462158,-0.12836997210979462
7.930098056793213,0.038093309849500656,-1.4286415576934814,1.2415456771850586,0.8646253347396851,0.047833554446697235,-0.12868447601795197
7.950279474258423,0.03809497877955437,-1.428680658340454,1.24116051197052,0.8660061955451965,0.048923395574092865,-0.1293262392282486
7.970355987548828,0.03808801621198654,-1.4287110567092896,1.2409814596176147,0.8667066097259521,0.049438390880823135,-0.12963902950286865
7.990414381027222,0.03811186924576759,-1.4287655353546143,1.240747332572937,0.8681032657623291,0.05045443773269653,-0.130262553691864
8.010466814041138,0.03807128593325615,-1.4288649559020996,1.2404321432113647,0.8694577813148499,0.05139566585421562,-0.1308802366256714
8.030627489089966,0.0380539633333683,-1.4289017915725708,1.2402474880218506,0.8701499104499817,0.051896195858716965,-0.13118106126785278
8.050671577453613,0.03795938193798065,-1.4290252923965454,1.2398914098739624,0.8715466856956482,0.052771277725696564,-0.13175712525844574
8.070724487304688,0.0378786064684391,-1.429137945175171,1.2394992113113403,0.8728721737861633,0.053699836134910583,-0.1323472410440445
8.090854167938232,0.03779875114560127,-1.429221749305725,1.239303469657898,0.8735297918319702,0.05409373342990875,-0.13263456523418427
8.110963821411133,0.037716273218393326,-1.4293123483657837,1.2388867139816284,0.8748987317085266,0.05505432188510895,-0.1332044154405594
8.131303071975708,0.03770722076296806,-1.429339051246643,1.2386952638626099,0.8755794167518616,0.055579736828804016,-0.1334938406944275
8.151413440704346,0.03769690915942192,-1.4294040203094482,1.2384047508239746,0.8769121766090393,0.056584861129522324,-0.13407760858535767
8.171489238739014,0.03766128420829773,-1.4295015335083008,1.2380995750427246,0.878288209438324,0.057525452226400375,-0.13463473320007324
8.191590070724487,0.037678491324186325,-1.429572343826294,1.2380505800247192,0.8790270090103149,0.0579516738653183,-0.1348962038755417
8.211640119552612,0.03760033845901489,-1.4297107458114624,1.2377831935882568,0.8804201483726501,0.05878094583749771,-0.1354217231273651
8.23174262046814,0.03761177882552147,-1.4297901391983032,1.2375273704528809,0.8817315697669983,0.059770602732896805,-0.13597755134105682
8.251860618591309,0.037627894431352615,-1.4298354387283325,1.2374364137649536,0.8823623061180115,0.06025540828704834,-0.13625887036323547
8.271947383880615,0.037579495459795,-1.4299451112747192,1.2371773719787598,0.8836847543716431,0.061152271926403046,-0.13679027557373047
8.292041301727295,0.037563733756542206,-1.4299792051315308,1.2370097637176514,0.8843284249305725,0.06165093183517456,-0.13706491887569427
8.312167644500732,0.03750329837203026,-1.430071234703064,1.2366758584976196,0.8856052160263062,0.06259039044380188,-0.13761164247989655
8.332268476486206,0.0374814011156559,-1.430115818977356,1.236557960510254,0.8862549066543579,0.06304367631673813,-0.13788020610809326
8.352537393569946,0.03738994151353836,-1.4302350282669067,1.2362353801727295,0.8875108361244202,0.06391453742980957,-0.13841457664966583
8.372514724731445,0.037319112569093704,-1.4303563833236694,1.235894799232483,0.8887336850166321,0.06481262296438217,-0.1389545202255249
8.392580270767212,0.037310175597667694,-1.4303932189941406,1.2357177734375,0.8893572688102722,0.06531768292188644,-0.13922478258609772
8.41266679763794,0.03727942705154419,-1.430478811264038,1.235366702079773,0.8905854821205139,0.06630145758390427,-0.13976812362670898
8.432835340499878,0.03720412775874138,-1.4305751323699951,1.235014796257019,0.8918825387954712,0.06721513718366623,-0.14028166234493256
8.452980041503906,0.03716045990586281,-1.4306279420852661,1.2348464727401733,0.8925251960754395,0.06765677034854889,-0.1405373513698578
8.473042488098145,0.03711340203881264,-1.4307352304458618,1.2346103191375732,0.8937554955482483,0.0685400441288948,-0.14106550812721252
8.49338150024414,0.037044912576675415,-1.430836796760559,1.2342865467071533,0.8950115442276001,0.06944498419761658,-0.14157742261886597
8.513546705245972,0.03701163828372955,-1.4308841228485107,1.2341220378875732,0.8956469297409058,0.06990034878253937,-0.1418304145336151
8.533633470535278,0.03693844750523567,-1.4310413599014282,1.2339385747909546,0.8968358635902405,0.07067517936229706,-0.14233975112438202
8.553672552108765,0.03691822662949562,-1.4310892820358276,1.233802318572998,0.8974609971046448,0.07113233208656311,-0.1425856053829193
8.573755025863647,0.03685557469725609,-1.4311987161636353,1.2335319519042969,0.8987000584602356,0.07200801372528076,-0.14307157695293427
8.593827724456787,0.03685440868139267,-1.4312745332717896,1.233237385749817,0.8999073505401611,0.07299388945102692,-0.14357207715511322
8.613949298858643,0.03683401271700859,-1.4313362836837769,1.2330918312072754,0.9005481004714966,0.07342730462551117,-0.14380665123462677
8.634010076522827,0.03683999553322792,-1.4313973188400269,1.2327191829681396,0.9018123149871826,0.07444251328706741,-0.14429119229316711
8.65406346321106,0.036819297820329666,-1.4314823150634766,1.232387900352478,0.9030421376228333,0.0753929540514946,-0.14477762579917908
8.67415452003479,0.036799632012844086,-1.4315271377563477,1.232215166091919,0.9036474227905273,0.0758625790476799,-0.1450234204530716
8.694294691085815,0.036692146211862564,-1.4316633939743042,1.2319040298461914,0.9048798680305481,0.07665517926216125,-0.14549314975738525
8.714345932006836,0.03659619018435478,-1.4318121671676636,1.231704592704773,0.9061264395713806,0.07739000767469406,-0.14594775438308716
8.73445463180542,0.03653800114989281,-1.4319000244140625,1.2316025495529175,0.9067382216453552,0.07773668318986893,-0.14616993069648743
8.754606246948242,0.03656189143657684,-1.432060718536377,1.2315243482589722,0.9079901576042175,0.0785321444272995,-0.14661462604999542
8.774859428405762,0.03656144067645073,-1.4321424961090088,1.2312716245651245,0.9091789722442627,0.0794745534658432,-0.14708015322685242
8.794954776763916,0.03658903390169144,-1.4321538209915161,1.2311731576919556,0.9097845554351807,0.07999119162559509,-0.14731338620185852
8.815002918243408,0.036550551652908325,-1.4322303533554077,1.2308653593063354,0.9109742641448975,0.08091854304075241,-0.14777415990829468
8.835093021392822,0.03652604669332504,-1.4322857856750488,1.2307149171829224,0.9115385413169861,0.08135747909545898,-0.14801102876663208
8.855238914489746,0.03650318458676338,-1.4323647022247314,1.230400562286377,0.9127033948898315,0.0822979286313057,-0.14847856760025024
8.875254154205322,0.03639852628111839,-1.4325023889541626,1.230108618736267,0.913868248462677,0.08307529240846634,-0.14892269670963287
8.89535641670227,0.036357466131448746,-1.432571291923523,1.2299755811691284,0.9144324064254761,0.08347101509571075,-0.14914852380752563
8.915431499481201,0.03634114935994148,-1.4327059984207153,1.229824185371399,0.9155759215354919,0.08427708595991135,-0.14959417283535004
8.935746669769287,0.036279063671827316,-1.4328069686889648,1.2297919988632202,0.9161741137504578,0.0845622792840004,-0.1497941017150879
8.955827474594116,0.03623466566205025,-1.4329371452331543,1.2295904159545898,0.9173230528831482,0.08537137508392334,-0.1502169370651245
8.975884675979614,0.03630044311285019,-1.4330140352249146,1.2294763326644897,0.918458878993988,0.08630849421024323,-0.15065217018127441
8.995972394943237,0.036298718303442,-1.4330428838729858,1.2293449640274048,0.9190389513969421,0.08678466081619263,-0.1508643627166748
9.016090393066406,0.03624069318175316,-1.4331415891647339,1.2290565967559814,0.9201813340187073,0.0876435711979866,-0.15128394961357117
9.036357641220093,0.03621397167444229,-1.4332233667373657,1.2287691831588745,0.921298623085022,0.08855358511209488,-0.15171712636947632
9.056499242782593,0.03618425503373146,-1.433280110359192,1.2286282777786255,0.9218490719795227,0.08897221088409424,-0.15193341672420502
9.07657790184021,0.036104172468185425,-1.433377742767334,1.2283236980438232,0.9229975342750549,0.08980809897184372,-0.15235257148742676
9.096651315689087,0.03608354553580284,-1.433419942855835,1.2281920909881592,0.9235650300979614,0.09024199843406677,-0.1525658667087555
9.116738319396973,0.03603431209921837,-1.433544635772705,1.2280339002609253,0.9246664643287659,0.09100781381130219,-0.15298891067504883
9.136796474456787,0.03603317216038704,-1.433627963066101,1.227800726890564,0.9257792830467224,0.09190291166305542,-0.15341126918792725
9.156893968582153,0.03603551536798477,-1.4336854219436646,1.2277379035949707,0.9263609647750854,0.09230587631464005,-0.15361139178276062
9.176976680755615,0.03601519390940666,-1.4338274002075195,1.2276378870010376,0.927543580532074,0.09304115176200867,-0.1539994180202484
9.19716215133667,0.035921670496463776,-1.4339566230773926,1.2274249792099,0.928661584854126,0.09377296268939972,-0.1543944627046585
9.217250347137451,0.03590366244316101,-1.4340014457702637,1.227320671081543,0.9292064309120178,0.09418916702270508,-0.1546003818511963
9.237304925918579,0.03585996478796005,-1.43411386013031,1.2271318435668945,0.9302747249603271,0.09497787803411484,-0.1550067514181137
9.257408142089844,0.03583021089434624,-1.434165120124817,1.2270150184631348,0.930820643901825,0.09537772089242935,-0.15520480275154114
9.277546644210815,0.03577733784914017,-1.434267282485962,1.2267709970474243,0.9318953156471252,0.09618742763996124,-0.15560108423233032
9.29754900932312,0.035791244357824326,-1.4343584775924683,1.2265437841415405,0.9329081773757935,0.0970703512430191,-0.1560177206993103
9.317667007446289,0.03579035773873329,-1.4344066381454468,1.2264468669891357,0.9334431290626526,0.09748643636703491,-0.15621434152126312
9.337715148925781,0.03579006344079971,-1.434505820274353,1.2262686491012573,0.9345335364341736,0.09829574823379517,-0.15659618377685547
9.357819080352783,0.03578444570302963,-1.4345552921295166,1.2261420488357544,0.9350622892379761,0.09871576726436615,-0.1567888855934143
9.377893447875977,0.03586588054895401,-1.434653639793396,1.2259957790374756,0.9361801147460938,0.09958186745643616,-0.15716302394866943
9.39796233177185,0.035890012979507446,-1.4347878694534302,1.2258681058883667,0.9372768402099609,0.10034872591495514,-0.15752801299095154
9.418234586715698,0.03591836243867874,-1.4349205493927002,1.2256739139556885,0.9383995532989502,0.10112099349498749,-0.15788312256336212
9.438344478607178,0.03587605804204941,-1.4350003004074097,1.225563406944275,0.9389309287071228,0.10145159065723419,-0.15805959701538086
9.45840334892273,0.035871174186468124,-1.4351061582565308,1.2253923416137695,0.9399663209915161,0.10224301367998123,-0.15842878818511963
9.478515863418579,0.03588196262717247,-1.4352061748504639,1.2251970767974854,0.9409694075584412,0.10307152569293976,-0.15880782902240753
9.498633861541748,0.035859692841768265,-1.4352657794952393,1.2250781059265137,0.9414982795715332,0.10344958305358887,-0.15898443758487701
9.51875615119934,0.03579943999648094,-1.4354207515716553,1.224881887435913,0.942531168460846,0.1041339710354805,-0.15933401882648468
9.538819551467896,0.03577563911676407,-1.4356073141098022,1.224808931350708,0.9435791373252869,0.10476565361022949,-0.15967093408107758
9.558940887451172,0.0357380136847496,-1.4357140064239502,1.2247612476348877,0.9440922737121582,0.1050468161702156,-0.1598331183195114
9.57900333404541,0.03569292649626732,-1.4358502626419067,1.2246352434158325,0.9451317191123962,0.10573688894510269,-0.16015632450580597
9.599172830581665,0.03570866957306862,-1.4359513521194458,1.224511742591858,0.9461078643798828,0.10653426498174667,-0.16050414741039276
9.619256496429443,0.03571529686450958,-1.435988426208496,1.224401831626892,0.9466122388839722,0.10696639865636826,-0.16067440807819366
9.639338493347168,0.03569531813263893,-1.436074137687683,1.2241735458374023,0.9476364254951477,0.10778092592954636,-0.1610070914030075
9.659417390823364,0.03568712994456291,-1.4361021518707275,1.224047064781189,0.9481548070907593,0.10821259021759033,-0.16117629408836365
9.679489612579346,0.03564560040831566,-1.4361860752105713,1.223803997039795,0.9491839408874512,0.10900534689426422,-0.1615145057439804
9.699544906616211,0.03562445938587189,-1.436294436454773,1.2236140966415405,0.950176477432251,0.10976605862379074,-0.16185908019542694
9.71970272064209,0.03562602773308754,-1.4363466501235962,1.2235356569290161,0.9506822824478149,0.11014962941408157,-0.1620282232761383
9.739844799041748,0.03562798723578453,-1.4364699125289917,1.223436713218689,0.95166015625,0.11087360233068466,-0.16236959397792816
9.759837627410889,0.03563157841563225,-1.4365652799606323,1.2233415842056274,0.9526649117469788,0.11162170767784119,-0.16269265115261078
9.77996015548706,0.03561357781291008,-1.4366143941879272,1.2232394218444824,0.9531533122062683,0.11200001835823059,-0.16285620629787445
9.80002474784851,0.035605449229478836,-1.4367179870605469,1.22309148311615,0.9541549682617188,0.11274638772010803,-0.16317324340343475
9.820107460021973,0.0356215238571167,-1.4367481470108032,1.2230064868927002,0.9546321630477905,0.11317112296819687,-0.16334253549575806
9.840213060379028,0.03558950126171112,-1.4368562698364258,1.222808599472046,0.9555594325065613,0.11391764879226685,-0.16367752850055695
9.860271453857422,0.0355590395629406,-1.4369674921035767,1.2227064371109009,0.956517219543457,0.11460813134908676,-0.16399705410003662
9.880354404449463,0.03556646406650543,-1.437007188796997,1.222671627998352,0.9569988250732422,0.11498524993658066,-0.1641567200422287
9.900421857833862,0.03556715324521065,-1.437087893486023,1.222512125968933,0.9579688310623169,0.11576291918754578,-0.16447262465953827
9.920515775680542,0.03556001931428909,-1.4372044801712036,1.2223846912384033,0.958916187286377,0.11647462844848633,-0.16478554904460907
9.94065523147583,0.035591062158346176,-1.437270998954773,1.2223880290985107,0.9593974351882935,0.11682439595460892,-0.1649397611618042
9.960707426071167,0.03557857125997543,-1.4374282360076904,1.22236168384552,0.9603728652000427,0.11743145436048508,-0.16523005068302155
9.981563091278076,0.035668741911649704,-1.4374881982803345,1.22232985496521,0.9613631367683411,0.11824981123209,-0.16552786529064178
10.00165343284607,0.03569641709327698,-1.4375197887420654,1.2222903966903687,0.9618430733680725,0.11864882707595825,-0.16567879915237427
10.021772384643555,0.035766128450632095,-1.4376012086868286,1.2222614288330078,0.9627783894538879,0.11942138522863388,-0.16598133742809296
10.042054653167725,0.03577762097120285,-1.4376771450042725,1.2221113443374634,0.9636789560317993,0.1201966255903244,-0.1662868708372116
10.062242984771729,0.03574454411864281,-1.4377435445785522,1.2220380306243896,0.9641323089599609,0.12050900608301163,-0.16643011569976807
10.082345008850098,0.03562425449490547,-1.4378963708877563,1.221858024597168,0.9650211930274963,0.12107288092374802,-0.1667105108499527
10.102384567260742,0.03557766601443291,-1.4379709959030151,1.2217823266983032,0.9654621481895447,0.12136508524417877,-0.16684962809085846
10.122517585754395,0.035500310361385345,-1.4381160736083984,1.2216334342956543,0.9663271903991699,0.12197129428386688,-0.16713111102581024
10.142633438110352,0.03543969243764877,-1.4382386207580566,1.2214741706848145,0.9672170281410217,0.1226176917552948,-0.16740527749061584
10.16279935836792,0.0354030579328537,-1.4382987022399902,1.2213901281356812,0.9676670432090759,0.12293630838394165,-0.16753782331943512
10.182841300964355,0.035328153520822525,-1.4384196996688843,1.2212227582931519,0.9685656428337097,0.1235651969909668,-0.16780012845993042
10.202938318252563,0.0352981798350811,-1.4384714365005493,1.2211363315582275,0.9690159559249878,0.12389671057462692,-0.16793133318424225
10.222997903823853,0.03524881601333618,-1.4385665655136108,1.2209622859954834,0.9699040055274963,0.1245800107717514,-0.16819599270820618
10.243291854858398,0.03522849828004837,-1.4386652708053589,1.2208057641983032,0.9707303047180176,0.12528711557388306,-0.16847902536392212
10.263432264328003,0.035223472863435745,-1.4387139081954956,1.220744252204895,0.971147358417511,0.1256358027458191,-0.16862131655216217
10.283546686172485,0.03520677983760834,-1.4388049840927124,1.2206873893737793,0.9720221161842346,0.12629380822181702,-0.16889406740665436
10.303638935089111,0.035260159522295,-1.4388141632080078,1.2207037210464478,0.9724626541137695,0.12670159339904785,-0.16903573274612427
10.32370114326477,0.03523172065615654,-1.4389276504516602,1.2206867933273315,0.973315417766571,0.12730079889297485,-0.16930079460144043
10.343755722045898,0.0352756530046463,-1.4390285015106201,1.2206791639328003,0.9741498231887817,0.12798066437244415,-0.16957822442054749
10.363847732543945,0.03528787940740585,-1.4390579462051392,1.2206273078918457,0.9745774269104004,0.1283542662858963,-0.16971297562122345
10.383975505828857,0.03523952513933182,-1.4391752481460571,1.2204951047897339,0.975407600402832,0.12897324562072754,-0.16997738182544708
10.404042959213257,0.03514525294303894,-1.439330816268921,1.220354437828064,0.9762108325958252,0.1295117288827896,-0.17023448646068573
10.424119234085083,0.03505998104810715,-1.439431071281433,1.2202880382537842,0.9766252636909485,0.1297120302915573,-0.1703486144542694
10.444242477416992,0.03492598235607147,-1.4395893812179565,1.2201393842697144,0.97746741771698,0.13020308315753937,-0.17057637870311737
10.464293479919434,0.03488706797361374,-1.439680814743042,1.219988226890564,0.9782959222793579,0.13086676597595215,-0.17081891000270844
10.484445095062256,0.034862615168094635,-1.439744234085083,1.2199424505233765,0.9787214994430542,0.13115501403808594,-0.1709345132112503
10.504521131515503,0.034859053790569305,-1.4398750066757202,1.219942569732666,0.9796084761619568,0.13172097504138947,-0.1711532026529312
10.524614095687866,0.03482820838689804,-1.4400453567504883,1.219984769821167,0.9804709553718567,0.13219882547855377,-0.17136472463607788
10.5447096824646,0.03482094407081604,-1.4400993585586548,1.2199535369873047,0.980874240398407,0.13250887393951416,-0.17148040235042572
10.564833164215088,0.03486901521682739,-1.4401860237121582,1.2199219465255737,0.9816671013832092,0.13320252299308777,-0.17172731459140778
10.585124015808105,0.03482069820165634,-1.4402872323989868,1.219794750213623,0.9824554324150085,0.13382121920585632,-0.17196238040924072
10.605226755142212,0.03474772348999977,-1.4403775930404663,1.2197353839874268,0.9828354716300964,0.13403572142124176,-0.17207247018814087
10.625705480575562,0.034563031047582626,-1.440575122833252,1.2195765972137451,0.9835919141769409,0.1344285011291504,-0.17228548228740692
10.645796537399292,0.034484658390283585,-1.44065523147583,1.2194877862930298,0.9839884042739868,0.13466034829616547,-0.172387957572937
10.665971755981445,0.034387730062007904,-1.4407612085342407,1.2192691564559937,0.9847838878631592,0.13526184856891632,-0.1726026087999344
10.686376094818115,0.03432955965399742,-1.4408265352249146,1.2191779613494873,0.9851744771003723,0.13552933931350708,-0.1727074533700943
10.70646619796753,0.03428932651877403,-1.4409135580062866,1.2190313339233398,0.9859524965286255,0.1361696869134903,-0.1729271113872528
10.726521730422974,0.034224871546030045,-1.4410215616226196,1.2188873291015625,0.9867042899131775,0.13676132261753082,-0.17314636707305908
10.746629476547241,0.034200020134449005,-1.4410761594772339,1.2188184261322021,0.9870688915252686,0.137062206864357,-0.17326126992702484
10.766730070114136,0.034165263175964355,-1.4411790370941162,1.218682885169983,0.9877969622612,0.1376812607049942,-0.17349296808242798
10.78695559501648,0.03411964699625969,-1.4412797689437866,1.2185401916503906,0.988543689250946,0.13828818500041962,-0.17371585965156555
10.807048320770264,0.03408834710717201,-1.4413326978683472,1.2184661626815796,0.9889196753501892,0.1385800540447235,-0.1738242506980896
10.827107667922974,0.034032244235277176,-1.4414489269256592,1.218326449394226,0.9896348714828491,0.13915957510471344,-0.17405016720294952
10.84718632698059,0.03399500250816345,-1.441509485244751,1.2182523012161255,0.9899968504905701,0.13943859934806824,-0.174160435795784
10.867328405380249,0.03398509323596954,-1.4415911436080933,1.2181675434112549,0.990735650062561,0.14007046818733215,-0.17438343167304993
10.887768030166626,0.03395392373204231,-1.441692590713501,1.2181110382080078,0.9914761185646057,0.14063897728919983,-0.17459550499916077
10.90785264968872,0.0339580662548542,-1.441742181777954,1.2180784940719604,0.9918508529663086,0.14094386994838715,-0.17470254004001617
10.927917957305908,0.033926140516996384,-1.4418491125106812,1.217976689338684,0.9925827383995056,0.14152370393276215,-0.1749171018600464
10.948243141174316,0.03388568386435509,-1.4419094324111938,1.217909574508667,0.9929572343826294,0.14178383350372314,-0.17501848936080933
10.968325853347778,0.03376642242074013,-1.4420520067214966,1.2177714109420776,0.9937010407447815,0.142242431640625,-0.1752106249332428
10.988306760787964,0.03356409817934036,-1.4422507286071777,1.217632532119751,0.9944313168525696,0.1425546407699585,-0.17538274824619293
11.008401155471802,0.03351134806871414,-1.4423115253448486,1.2175570726394653,0.9947965145111084,0.1428069770336151,-0.17547623813152313
11.028446674346924,0.03342808037996292,-1.4424043893814087,1.2174078226089478,0.9955284595489502,0.14336439967155457,-0.1756717711687088
11.048736572265625,0.033452630043029785,-1.4425016641616821,1.217411994934082,0.9962708950042725,0.14394688606262207,-0.1758708953857422
11.06888198852539,0.033507298678159714,-1.4425536394119263,1.2175008058547974,0.996664822101593,0.14423061907291412,-0.17596442997455597
11.089009761810303,0.03360133245587349,-1.4426462650299072,1.2176611423492432,0.9974740147590637,0.14480075240135193,-0.17613784968852997
11.10907769203186,0.03362014517188072,-1.4426885843276978,1.2176810503005981,0.9978539347648621,0.14508990943431854,-0.17622888088226318
11.129168272018433,0.033701252192258835,-1.4427587985992432,1.2177742719650269,0.9986430406570435,0.14569680392742157,-0.1764044463634491
11.14997124671936,0.03367282822728157,-1.442834496498108,1.217711091041565,0.999366044998169,0.1462647020816803,-0.17658783495426178
11.170065879821777,0.03365946188569069,-1.4428623914718628,1.2176644802093506,0.9997232556343079,0.1465660035610199,-0.1766805499792099
11.190278053283691,0.03356173262000084,-1.4429841041564941,1.2175829410552979,1.0003993511199951,0.14702045917510986,-0.1768587976694107
11.210246562957764,0.03352929279208183,-1.4430431127548218,1.2175381183624268,1.0007250308990479,0.14726710319519043,-0.17695221304893494
11.230350971221924,0.03347392380237579,-1.4431532621383667,1.217441201210022,1.0013964176177979,0.14777135848999023,-0.1771337389945984
11.250539302825928,0.033485691994428635,-1.4432353973388672,1.2173320055007935,1.0020660161972046,0.14836722612380981,-0.1773250550031662
11.270714282989502,0.0334886759519577,-1.4432613849639893,1.2172739505767822,1.0024206638336182,0.14868038892745972,-0.17741569876670837
11.290818214416504,0.03346524015069008,-1.4433377981185913,1.2172192335128784,1.003122091293335,0.1492212414741516,-0.17759299278259277
11.310858249664307,0.033463090658187866,-1.4434168338775635,1.2172232866287231,1.0038013458251953,0.14975112676620483,-0.17777228355407715
11.330944538116455,0.03345832973718643,-1.4434552192687988,1.2171791791915894,1.0041320323944092,0.15003451704978943,-0.17786571383476257
11.351037979125977,0.03344392403960228,-1.443551778793335,1.217101812362671,1.0047606229782104,0.15057134628295898,-0.17805664241313934
11.371371030807495,0.03341204300522804,-1.4436508417129517,1.2170138359069824,1.0054012537002563,0.15109017491340637,-0.17824412882328033
11.391473770141602,0.033363424241542816,-1.4437196254730225,1.2169675827026367,1.005728840827942,0.15129344165325165,-0.17832866311073303
11.41162395477295,0.03320032358169556,-1.443894624710083,1.2168670892715454,1.0063773393630981,0.151598259806633,-0.17848213016986847
11.431711196899414,0.033118557184934616,-1.4439773559570312,1.2168124914169312,1.0067063570022583,0.15175575017929077,-0.17855679988861084
11.451740741729736,0.033027734607458115,-1.4441028833389282,1.2167073488235474,1.0073401927947998,0.15219120681285858,-0.1787227839231491
11.471817016601562,0.03299180418252945,-1.4442023038864136,1.2166087627410889,1.007950782775879,0.15270915627479553,-0.17890071868896484
11.491916179656982,0.032970327883958817,-1.4442509412765503,1.2165560722351074,1.0082643032073975,0.1529652625322342,-0.17898719012737274
11.511991262435913,0.032916221767663956,-1.444347858428955,1.216447353363037,1.0089120864868164,0.15345847606658936,-0.17915016412734985
11.532075881958008,0.032842252403497696,-1.444450855255127,1.2163342237472534,1.0095666646957397,0.1539212018251419,-0.17930388450622559
11.552135944366455,0.0328168086707592,-1.4444999694824219,1.2162811756134033,1.0098776817321777,0.15416720509529114,-0.17938505113124847
11.572277069091797,0.03276964649558067,-1.4445947408676147,1.2161656618118286,1.0105119943618774,0.15466265380382538,-0.1795419156551361
11.592325210571289,0.032759521156549454,-1.4446734189987183,1.216036319732666,1.0111489295959473,0.15520671010017395,-0.1797022819519043
11.61241102218628,0.03282170742750168,-1.444697380065918,1.2159372568130493,1.011482834815979,0.1555527001619339,-0.17978806793689728
11.632515668869019,0.032802682369947433,-1.4447917938232422,1.2158223390579224,1.0120981931686401,0.15606153011322021,-0.17995116114616394
11.652578353881836,0.03282275050878525,-1.4448269605636597,1.2157727479934692,1.0123857259750366,0.15635906159877777,-0.180043026804924
11.672707557678223,0.03281329944729805,-1.444917917251587,1.2156648635864258,1.0129930973052979,0.15687693655490875,-0.18020884692668915
11.692821264266968,0.032776910811662674,-1.4450238943099976,1.2155553102493286,1.0136005878448486,0.1573481261730194,-0.1803659200668335
11.712874174118042,0.032733190804719925,-1.4450987577438354,1.21550452709198,1.0138992071151733,0.15753048658370972,-0.18043813109397888
11.733107089996338,0.03263402357697487,-1.4452502727508545,1.2154405117034912,1.0145046710968018,0.15786296129226685,-0.18057239055633545
11.753082990646362,0.03257259726524353,-1.4453787803649902,1.2153722047805786,1.0150858163833618,0.15826675295829773,-0.18071340024471283
11.77318263053894,0.03257139399647713,-1.4454281330108643,1.215342402458191,1.015359878540039,0.15851546823978424,-0.1807924062013626
11.793323278427124,0.032589059323072433,-1.4455245733261108,1.2153184413909912,1.0159603357315063,0.15900918841362,-0.18093682825565338
11.81413745880127,0.03265292942523956,-1.4456326961517334,1.215409755706787,1.0166265964508057,0.159467414021492,-0.18105901777744293
11.834233283996582,0.03267282992601395,-1.4456872940063477,1.2154247760772705,1.0169368982315063,0.15970057249069214,-0.18112468719482422
11.854342937469482,0.032786399126052856,-1.445773720741272,1.2155388593673706,1.0176005363464355,0.16021865606307983,-0.18125051259994507
11.874608039855957,0.03279999643564224,-1.4458621740341187,1.2155184745788574,1.0182124376296997,0.1607021540403366,-0.18138229846954346
11.894699573516846,0.03282151371240616,-1.445891261100769,1.21552312374115,1.018528699874878,0.16096630692481995,-0.18144617974758148
11.914775848388672,0.032777536660432816,-1.4459835290908813,1.2154430150985718,1.0191254615783691,0.16141173243522644,-0.18157097697257996
11.9348623752594,0.032724060118198395,-1.4460550546646118,1.215407371520996,1.019413948059082,0.1615726202726364,-0.18162868916988373
11.954956293106079,0.03267727792263031,-1.4461517333984375,1.2153308391571045,1.0199908018112183,0.16200874745845795,-0.18175287544727325
11.975163221359253,0.03264153376221657,-1.4462474584579468,1.215255618095398,1.0205515623092651,0.16245318949222565,-0.1818813532590866
11.995254755020142,0.03264777362346649,-1.4462803602218628,1.2152177095413208,1.020831823348999,0.16271398961544037,-0.18194927275180817
12.01533555984497,0.032642535865306854,-1.446360468864441,1.2151422500610352,1.0213836431503296,0.1632007211446762,-0.18208527565002441
12.035770416259766,0.03264492750167847,-1.4464001655578613,1.2151055335998535,1.021649956703186,0.1634502410888672,-0.18215756118297577
12.055853366851807,0.032618917524814606,-1.4464906454086304,1.2150236368179321,1.0221970081329346,0.16390569508075714,-0.1822945922613144
12.07591462135315,0.032574161887168884,-1.446548342704773,1.2149773836135864,1.0224757194519043,0.16409078240394592,-0.18235960602760315
12.096014261245728,0.03248729929327965,-1.4466562271118164,1.2148796319961548,1.0230350494384766,0.1644725203514099,-0.18248887360095978
12.116027593612671,0.03246411308646202,-1.4467395544052124,1.214827299118042,1.0235809087753296,0.1649196743965149,-0.1826297640800476
12.13613224029541,0.032483506947755814,-1.446770429611206,1.2148654460906982,1.0238583087921143,0.16515225172042847,-0.18270018696784973
12.156227111816406,0.032490525394678116,-1.4468415975570679,1.2148370742797852,1.0243844985961914,0.16563217341899872,-0.1828484833240509
12.17643141746521,0.032481104135513306,-1.4469127655029297,1.2147942781448364,1.024936556816101,0.1660921275615692,-0.18298296630382538
12.196521282196045,0.032469283789396286,-1.4469488859176636,1.2147568464279175,1.025213360786438,0.1663210541009903,-0.18304984271526337
12.216590166091919,0.03243159130215645,-1.4470388889312744,1.2146857976913452,1.0257604122161865,0.16673734784126282,-0.18317922949790955
12.23667025566101,0.03239831328392029,-1.4470915794372559,1.2146499156951904,1.026031255722046,0.16692332923412323,-0.18324047327041626
12.25674057006836,0.03234684467315674,-1.44718599319458,1.2145709991455078,1.026573657989502,0.16732023656368256,-0.18336351215839386
12.276796579360962,0.03232448920607567,-1.4472730159759521,1.2145276069641113,1.027116060256958,0.16773810982704163,-0.18348370492458344
12.29689073562622,0.03235568106174469,-1.4473328590393066,1.2146058082580566,1.0274269580841064,0.16791509091854095,-0.18353129923343658
12.316969871520996,0.0323064811527729,-1.4474564790725708,1.2146179676055908,1.028006672859192,0.1682245284318924,-0.18362444639205933
12.337034702301025,0.032329726964235306,-1.4475123882293701,1.2146204710006714,1.0285577774047852,0.16869521141052246,-0.18373635411262512
12.357123136520386,0.03235115855932236,-1.4475387334823608,1.2146347761154175,1.028828501701355,0.16893388330936432,-0.18379397690296173
12.377185344696045,0.03241129592061043,-1.4476209878921509,1.2147648334503174,1.0294121503829956,0.16934114694595337,-0.1838902235031128
12.397329330444336,0.03240818902850151,-1.4476721286773682,1.214796781539917,1.029698133468628,0.16951295733451843,-0.18393534421920776
12.417428731918335,0.03246650472283363,-1.4477176666259766,1.214863896369934,1.030237078666687,0.16999247670173645,-0.18404868245124817
12.437493562698364,0.03252195566892624,-1.4477441310882568,1.2148548364639282,1.0307512283325195,0.1705206334590912,-0.18417462706565857
12.457574844360352,0.032555729150772095,-1.4477801322937012,1.2148971557617188,1.0310145616531372,0.17074060440063477,-0.1842336803674698
12.477703094482422,0.03251445293426514,-1.4478850364685059,1.2148951292037964,1.0315197706222534,0.1710730493068695,-0.18434138596057892
12.4984769821167,0.03243299573659897,-1.4479949474334717,1.2148464918136597,1.0320100784301758,0.17138497531414032,-0.1844443678855896
12.518555402755737,0.03243636339902878,-1.44801926612854,1.2148265838623047,1.0322586297988892,0.1716146171092987,-0.18450172245502472
12.538695573806763,0.032421160489320755,-1.4480875730514526,1.2147891521453857,1.0327544212341309,0.1720246523618698,-0.18460994958877563
12.559181690216064,0.03241498023271561,-1.448154330253601,1.214754343032837,1.0332303047180176,0.172446146607399,-0.18472382426261902
12.57939100265503,0.032409992069005966,-1.4481862783432007,1.2147315740585327,1.033469557762146,0.17265872657299042,-0.18478147685527802
12.599372625350952,0.03171372786164284,-1.445664405822754,1.2169969081878662,1.0289825201034546,0.17178750038146973,-0.18726244568824768
12.619454145431519,0.031020650640130043,-1.4431192874908447,1.2192330360412598,1.0243258476257324,0.17072616517543793,-0.18966135382652283
12.639573812484741,0.029658544808626175,-1.4380360841751099,1.2235116958618164,1.0151475667953491,0.1687944531440735,-0.19439709186553955
12.659616470336914,0.02831200882792473,-1.4330023527145386,1.227638602256775,1.0061466693878174,0.16696496307849884,-0.19905886054039001
12.67977237701416,0.027580173686146736,-1.4305291175842285,1.2294917106628418,1.0016963481903076,0.1660902202129364,-0.20137348771095276
12.69982361793518,0.026032568886876106,-1.4257150888442993,1.232803225517273,0.9928776621818542,0.1643778383731842,-0.20598845183849335
12.72002124786377,0.025261348113417625,-1.4233299493789673,1.2343809604644775,0.9885480403900146,0.16356131434440613,-0.20827099680900574
12.740115880966187,0.023620907217264175,-1.4187217950820923,1.237221360206604,0.9801065921783447,0.16184580326080322,-0.21278566122055054
12.7602858543396,0.021979618817567825,-1.4141958951950073,1.2397996187210083,0.9717965126037598,0.16021136939525604,-0.21726630628108978
12.780339002609253,0.02119324915111065,-1.4119333028793335,1.2410154342651367,0.9676649570465088,0.15950167179107666,-0.2195054441690445
12.800388813018799,0.019824430346488953,-1.407433271408081,1.2436013221740723,0.9596854448318481,0.1581634134054184,-0.22391560673713684
12.820473432540894,0.01853351853787899,-1.4029877185821533,1.2459627389907837,0.9519491791725159,0.1569993495941162,-0.22826814651489258
12.840564489364624,0.017899999395012856,-1.4007501602172852,1.247131109237671,0.9481269121170044,0.1564515382051468,-0.23042315244674683
12.860646486282349,0.016555115580558777,-1.3963245153427124,1.2491837739944458,0.9405062198638916,0.1554035246372223,-0.23473067581653595
12.880868673324585,0.015177718363702297,-1.3919750452041626,1.2508515119552612,0.9329354166984558,0.15447770059108734,-0.2390606552362442
12.901020765304565,0.014448256231844425,-1.389870285987854,1.251655101776123,0.9291349649429321,0.15388573706150055,-0.24123291671276093
12.92104721069336,0.012983083724975586,-1.3857165575027466,1.2530335187911987,0.9216760993003845,0.1527889519929886,-0.2455553263425827
12.941242456436157,0.012239983305335045,-1.383690595626831,1.2536704540252686,0.9180381894111633,0.1521870493888855,-0.2477002590894699
12.961259365081787,0.010747741907835007,-1.379692554473877,1.2546497583389282,0.9107850193977356,0.15112151205539703,-0.2519931495189667
12.98131251335144,0.00936699565500021,-1.3757275342941284,1.25567626953125,0.90365070104599,0.15012726187705994,-0.2562646269798279
13.001478433609009,0.008831587620079517,-1.3737401962280273,1.256259799003601,0.9001772403717041,0.14978188276290894,-0.25839701294898987
13.021608591079712,0.007733333855867386,-1.3698242902755737,1.2574197053909302,0.8933171629905701,0.14894768595695496,-0.2626214027404785
13.042395830154419,0.006677846424281597,-1.3659632205963135,1.258320927619934,0.8866235017776489,0.14829501509666443,-0.26682329177856445
13.06249475479126,0.00609363941475749,-1.363987922668457,1.2586474418640137,0.8832201361656189,0.14805330336093903,-0.2689284384250641
13.082575559616089,0.004919489845633507,-1.3601675033569336,1.2589542865753174,0.8765003681182861,0.14762386679649353,-0.27315235137939453
13.102659463882446,0.004293604753911495,-1.358311414718628,1.2590774297714233,0.8731423616409302,0.1472937911748886,-0.27527591586112976
13.122754096984863,0.0030550695955753326,-1.354697585105896,1.259152889251709,0.8665930032730103,0.1466486155986786,-0.27950191497802734
13.142916440963745,0.0017493613995611668,-1.3511954545974731,1.259050965309143,0.8602179884910583,0.14585962891578674,-0.28367912769317627
13.162932395935059,0.0011471295729279518,-1.3494281768798828,1.2589651346206665,0.8570478558540344,0.14559197425842285,-0.2857680916786194
13.183000326156616,-4.092056769877672e-05,-1.3459718227386475,1.2588341236114502,0.8507342338562012,0.1449451595544815,-0.2899531424045563
13.203213214874268,-0.0006605439120903611,-1.3442418575286865,1.2586870193481445,0.8475885391235352,0.14465607702732086,-0.29204240441322327
13.223222732543945,-0.001735913334414363,-1.3407899141311646,1.2585080862045288,0.8415210247039795,0.1441933810710907,-0.29618170857429504
13.243295192718506,-0.0028056667651981115,-1.3374141454696655,1.2581287622451782,0.8355861902236938,0.14373748004436493,-0.3002908229827881
13.263408422470093,-0.0033616514410823584,-1.3357386589050293,1.2579272985458374,0.8326038122177124,0.1434842199087143,-0.3023478388786316
13.28354263305664,-0.0044278609566390514,-1.3324311971664429,1.2573977708816528,0.8266648054122925,0.14307335019111633,-0.30647262930870056
13.303580045700073,-0.005504563916474581,-1.3291574716567993,1.2565823793411255,0.8206873536109924,0.1428096443414688,-0.310613751411438
13.323682069778442,-0.006088001653552055,-1.3275649547576904,1.256091833114624,0.817782998085022,0.14260907471179962,-0.31266865134239197
13.343760013580322,-0.007012041751295328,-1.3244572877883911,1.2553067207336426,0.8121904730796814,0.1422785222530365,-0.316748708486557
13.36381459236145,-0.007573587354272604,-1.3229057788848877,1.2548482418060303,0.8093047142028809,0.14205659925937653,-0.3188086450099945
13.383940935134888,-0.00859244167804718,-1.3198515176773071,1.2539284229278564,0.8036624193191528,0.14167839288711548,-0.32290884852409363
13.40396499633789,-0.009543243795633316,-1.3167582750320435,1.2528051137924194,0.7980912327766418,0.1415826976299286,-0.32698768377304077
13.424057722091675,-0.009975491091609001,-1.3152426481246948,1.2522252798080444,0.79534912109375,0.141566663980484,-0.3290293216705322
13.444140911102295,-0.010997774079442024,-1.3122917413711548,1.250947117805481,0.7900137305259705,0.14126574993133545,-0.33305561542510986
13.464217901229858,-0.011996706947684288,-1.3093971014022827,1.2496120929718018,0.7847312688827515,0.14096900820732117,-0.33706673979759216
13.48431944847107,-0.012433335185050964,-1.307936429977417,1.2489949464797974,0.7821106314659119,0.14090284705162048,-0.33906933665275574
13.504416942596436,-0.013257328420877457,-1.3051077127456665,1.2476544380187988,0.7769142389297485,0.14079460501670837,-0.3430735170841217
13.5245521068573,-0.013796049170196056,-1.3037035465240479,1.246848702430725,0.7742910385131836,0.14065095782279968,-0.3450700342655182
13.544719457626343,-0.01466577872633934,-1.300883412361145,1.245391845703125,0.7692685723304749,0.14054273068904877,-0.3490188419818878
13.564736127853394,-0.015360843390226364,-1.2981301546096802,1.2440576553344727,0.7644108533859253,0.14048220217227936,-0.35294657945632935
13.584813356399536,-0.01571851782500744,-1.2967678308486938,1.243424654006958,0.7619691491127014,0.14040710031986237,-0.3549140989780426
13.604953527450562,-0.016411181539297104,-1.2940455675125122,1.2420161962509155,0.7570964694023132,0.14039193093776703,-0.3588402271270752
13.62497854232788,-0.017098059877753258,-1.291359305381775,1.240620732307434,0.7523127794265747,0.14035359025001526,-0.36273688077926636
13.6451416015625,-0.01746438443660736,-1.290026068687439,1.2398520708084106,0.7499503493309021,0.14034631848335266,-0.36467689275741577
13.66519284248352,-0.018118053674697876,-1.2873636484146118,1.2383443117141724,0.745275616645813,0.14039841294288635,-0.368527352809906
13.685280084609985,-0.018821733072400093,-1.2847763299942017,1.2366605997085571,0.740643322467804,0.14042526483535767,-0.37238332629203796
13.705376386642456,-0.01920413039624691,-1.2834786176681519,1.2357797622680664,0.7382965683937073,0.14044199883937836,-0.3743171691894531
13.72545599937439,-0.019960952922701836,-1.2809338569641113,1.2341023683547974,0.7336336374282837,0.1403888761997223,-0.37818872928619385
13.745527267456055,-0.02034243941307068,-1.2796976566314697,1.2331496477127075,0.7313799858093262,0.14038749039173126,-0.38010820746421814
13.765618562698364,-0.02109326608479023,-1.277280330657959,1.231175422668457,0.727016031742096,0.1403678059577942,-0.38390782475471497
13.785705327987671,-0.021848013624548912,-1.2748287916183472,1.229276180267334,0.7226665616035461,0.14037290215492249,-0.38766995072364807
13.805768966674805,-0.022117651998996735,-1.27360200881958,1.2283066511154175,0.7205160856246948,0.14054015278816223,-0.38955697417259216
13.825929880142212,-0.022812366485595703,-1.2712349891662598,1.2262725830078125,0.7161971926689148,0.14061157405376434,-0.3933224380016327
13.84591293334961,-0.023358339443802834,-1.2687783241271973,1.2243472337722778,0.7119163870811462,0.14094378054141998,-0.3970707356929779
13.86604356765747,-0.023608239367604256,-1.267580509185791,1.223456859588623,0.7098397016525269,0.14106066524982452,-0.3989352583885193
13.886099815368652,-0.024139169603586197,-1.265320897102356,1.2213634252548218,0.70578932762146,0.1412833333015442,-0.40265488624572754
13.906230688095093,-0.02478671446442604,-1.2630677223205566,1.2193527221679688,0.7017740607261658,0.14130067825317383,-0.4063413143157959
13.926320314407349,-0.02500903233885765,-1.2618948221206665,1.2184741497039795,0.6997276544570923,0.14143317937850952,-0.4081853926181793
13.946427822113037,-0.025530798360705376,-1.2596133947372437,1.2167130708694458,0.695685625076294,0.1415315866470337,-0.4118432402610779
13.966484785079956,-0.025793610140681267,-1.2584797143936157,1.2157806158065796,0.693751335144043,0.14160886406898499,-0.4136500060558319
13.986555814743042,-0.026471585035324097,-1.2562984228134155,1.2137092351913452,0.6899087429046631,0.141600102186203,-0.4172491431236267
14.006624460220337,-0.02717563882470131,-1.254148244857788,1.2114251852035522,0.6861310005187988,0.14169789850711823,-0.4208371639251709
14.026787281036377,-0.027638887986540794,-1.253123164176941,1.2100799083709717,0.6842519044876099,0.14164312183856964,-0.42261284589767456
14.04681396484375,-0.02830241061747074,-1.2510061264038086,1.2075464725494385,0.6804762482643127,0.14193926751613617,-0.4261876940727234
14.06694769859314,-0.028862671926617622,-1.248848795890808,1.2052175998687744,0.6766093373298645,0.14230301976203918,-0.4297613799571991
14.087053775787354,-0.029145648702979088,-1.2477781772613525,1.2039227485656738,0.6747685074806213,0.14255687594413757,-0.4315264821052551
14.107128381729126,-0.029605967923998833,-1.2456971406936646,1.2016851902008057,0.6711908578872681,0.14292749762535095,-0.43504753708839417
14.127318382263184,-0.029994070529937744,-1.2435801029205322,1.1997325420379639,0.6676181554794312,0.14325229823589325,-0.43853503465652466
14.147407293319702,-0.030152954161167145,-1.242519736289978,1.1987401247024536,0.6658824682235718,0.1434769630432129,-0.44026321172714233
14.167466402053833,-0.030575783923268318,-1.240458369255066,1.1966766119003296,0.6625016927719116,0.1437481790781021,-0.44367802143096924
14.18759822845459,-0.030850566923618317,-1.2394837141036987,1.1955312490463257,0.6608691811561584,0.14382381737232208,-0.4453873336315155
14.207658529281616,-0.031418003141880035,-1.2375688552856445,1.193250060081482,0.6575244665145874,0.14389602839946747,-0.44879695773124695
14.227704524993896,-0.0319504514336586,-1.2356376647949219,1.190930962562561,0.6541231274604797,0.1441430002450943,-0.45222482085227966
14.247807025909424,-0.0322222001850605,-1.2346887588500977,1.1897079944610596,0.6525232791900635,0.14428271353244781,-0.45391571521759033
14.267882585525513,-0.032716136425733566,-1.2327622175216675,1.1873905658721924,0.6491803526878357,0.14460313320159912,-0.4573129117488861
14.288407802581787,-0.03293885663151741,-1.2318021059036255,1.186228632926941,0.647541880607605,0.144797682762146,-0.45899730920791626
14.308496236801147,-0.0332985445857048,-1.2299458980560303,1.1839443445205688,0.6444499492645264,0.14519891142845154,-0.46232661604881287
14.328575611114502,-0.03366207331418991,-1.2280516624450684,1.181660532951355,0.6414048075675964,0.14562936127185822,-0.46559658646583557
14.348659753799438,-0.033880554139614105,-1.2271019220352173,1.1804999113082886,0.6398527026176453,0.14585553109645844,-0.46724754571914673
14.368788003921509,-0.03430391475558281,-1.225287675857544,1.1781209707260132,0.6369117498397827,0.14619876444339752,-0.47049427032470703
14.389918088912964,-0.03468809649348259,-1.2234537601470947,1.1757092475891113,0.6338902115821838,0.1466883420944214,-0.4737546443939209
14.410060405731201,-0.03489533066749573,-1.2225669622421265,1.1745108366012573,0.6324324011802673,0.14689698815345764,-0.47538265585899353
14.430175542831421,-0.035255689173936844,-1.22078275680542,1.1723536252975464,0.6295169591903687,0.14724816381931305,-0.47861677408218384
14.450698614120483,-0.035558946430683136,-1.219010829925537,1.1700701713562012,0.626616895198822,0.14771772921085358,-0.481818825006485
14.47081208229065,-0.035719696432352066,-1.2180863618850708,1.1689715385437012,0.6251581311225891,0.14798761904239655,-0.4834093749523163
14.490881204605103,-0.03622611612081528,-1.2164052724838257,1.166426420211792,0.6223222613334656,0.14831244945526123,-0.4865977466106415
14.510965824127197,-0.03652798756957054,-1.21559739112854,1.1651477813720703,0.6209676861763,0.1483704149723053,-0.4881664514541626
14.53118085861206,-0.03714831918478012,-1.2139132022857666,1.162472128868103,0.6182300448417664,0.1486678123474121,-0.49128592014312744
14.55115294456482,-0.037772905081510544,-1.2122572660446167,1.159805178642273,0.6155122518539429,0.1489403396844864,-0.49438971281051636
14.571260929107666,-0.03808445855975151,-1.2114346027374268,1.1584316492080688,0.6142096519470215,0.149097740650177,-0.49591726064682007
14.591384410858154,-0.038569603115320206,-1.2098480463027954,1.1560537815093994,0.6116164326667786,0.14930325746536255,-0.4989771544933319
14.611858606338501,-0.039039477705955505,-1.2082767486572266,1.153764247894287,0.6090861558914185,0.14949919283390045,-0.5020204782485962
14.631978750228882,-0.039250411093235016,-1.2074733972549438,1.1526364088058472,0.6078360080718994,0.1496647149324417,-0.5035380721092224
