liuyurong129/humanoid-gym/humanoid/data/target_q_20250521-050647.csv
timestamp,joint_1,joint_2,joint_3,joint_4,joint_5,joint_6
5.507469177246094e-05,0.0,0.0,0.0,0.0,0.0,0.0
0.020143747329711914,0.0,0.0,0.0,0.0,0.0,0.0
0.040220022201538086,0.0,0.0,0.0,0.0,0.0,0.0
0.06028485298156738,0.0,0.0,0.0,0.0,0.0,0.0
0.08035731315612793,0.0,0.0,0.0,0.0,0.0,0.0
0.10042738914489746,0.6871984601020813,-1.0697304010391235,0.7998415231704712,-0.11800441145896912,0.187506303191185,0.1572609394788742
0.12051272392272949,0.6234445571899414,-1.0646013021469116,0.7578408718109131,-0.10228173434734344,0.18663841485977173,0.15008842945098877
0.14058470726013184,0.5804807543754578,-1.0375136137008667,0.7066619396209717,-0.09561431407928467,0.17423909902572632,0.14853011071681976
0.16070079803466797,0.594671368598938,-1.0376837253570557,0.7544785737991333,-0.10238151252269745,0.16839207708835602,0.15187299251556396
0.18086934089660645,0.6168699860572815,-1.0455949306488037,0.7719757556915283,-0.10322722792625427,0.17269597947597504,0.15320616960525513
0.2010633945465088,0.596401035785675,-1.0463625192642212,0.7485412359237671,-0.09776055812835693,0.17091067135334015,0.15092457830905914
0.22106647491455078,0.5964524149894714,-1.033247470855713,0.7214823961257935,-0.09491030126810074,0.16873447597026825,0.1500854343175888
0.24114370346069336,0.5937115550041199,-1.0288716554641724,0.7313121557235718,-0.0982910543680191,0.16517065465450287,0.15049023926258087
0.2612276077270508,0.6055245995521545,-1.0315717458724976,0.7414875030517578,-0.09730163216590881,0.16710664331912994,0.15275147557258606
0.28130006790161133,0.6181638240814209,-1.0433558225631714,0.7697169780731201,-0.09952922910451889,0.1699868142604828,0.15440009534358978
0.3015120029449463,0.6044127941131592,-1.0458743572235107,0.7801945209503174,-0.10540121793746948,0.16622163355350494,0.1534733921289444
0.3216063976287842,0.60529625415802,-1.0474165678024292,0.7609642744064331,-0.10283870249986649,0.16983945667743683,0.15263263881206512
0.3417196273803711,0.6107181310653687,-1.0490013360977173,0.7820330858230591,-0.10316181182861328,0.16795174777507782,0.1541248857975006
0.3617525100708008,0.6054041981697083,-1.0453059673309326,0.7809852957725525,-0.10420769453048706,0.16675548255443573,0.15376703441143036
0.3818378448486328,0.592456579208374,-1.0406348705291748,0.7325889468193054,-0.09567961096763611,0.16528987884521484,0.15059641003608704
0.40189313888549805,0.6003954410552979,-1.0399788618087769,0.7487218379974365,-0.09707458317279816,0.16387583315372467,0.15251334011554718
0.421964168548584,0.5886102914810181,-1.0374966859817505,0.7494574785232544,-0.10007661581039429,0.15955397486686707,0.15205679833889008
0.44205331802368164,0.6043423414230347,-1.0418108701705933,0.7626257538795471,-0.09869690239429474,0.1631956845521927,0.15372280776500702
0.4621105194091797,0.602750301361084,-1.0473839044570923,0.7611967325210571,-0.09622803330421448,0.16496886312961578,0.15323780477046967
0.482175350189209,0.5825862288475037,-1.0418931245803833,0.7283079028129578,-0.09414701163768768,0.16233085095882416,0.15101300179958344
0.5022656917572021,0.5999437570571899,-1.0505903959274292,0.808615505695343,-0.1070450097322464,0.15715883672237396,0.15540944039821625
0.5223455429077148,0.6021237373352051,-1.051668405532837,0.7997437715530396,-0.10290440917015076,0.15957297384738922,0.1550537645816803
0.5424144268035889,0.5986350774765015,-1.0452638864517212,0.7724021673202515,-0.09754782170057297,0.15936626493930817,0.15409870445728302
0.5625061988830566,0.5885332822799683,-1.0404469966888428,0.7577142715454102,-0.10116873681545258,0.155538871884346,0.1522095948457718
0.5826232433319092,0.5839936137199402,-1.0439540147781372,0.7544714212417603,-0.0974545031785965,0.15592530369758606,0.15254205465316772
0.6026914119720459,0.5936768054962158,-1.0484731197357178,0.7414675951004028,-0.09319479763507843,0.16229774057865143,0.15267044305801392
0.6229076385498047,0.6145960688591003,-1.0521448850631714,0.8077572584152222,-0.09837941825389862,0.15838173031806946,0.15647517144680023
0.6429905891418457,0.6060454845428467,-1.0582704544067383,0.812076210975647,-0.10270094126462936,0.15789557993412018,0.15637753903865814
0.6630649566650391,0.5988539457321167,-1.0583871603012085,0.8170811533927917,-0.10506859421730042,0.15319593250751495,0.15680870413780212
0.683265209197998,0.5966898798942566,-1.0591131448745728,0.8193253874778748,-0.10662850737571716,0.15210263431072235,0.15681539475917816
0.7033882141113281,0.5818461179733276,-1.0470765829086304,0.7472577095031738,-0.09769085049629211,0.15621209144592285,0.1532040387392044
0.7234494686126709,0.5775185823440552,-1.0516393184661865,0.761431097984314,-0.10107758641242981,0.15314240753650665,0.1536889225244522
0.7435240745544434,0.591032862663269,-1.054042100906372,0.7782183289527893,-0.09669139981269836,0.1527661383152008,0.15573401749134064
0.7636208534240723,0.6065948009490967,-1.0631848573684692,0.8269078731536865,-0.1052299290895462,0.15259374678134918,0.15837462246418
0.7837066650390625,0.6144131422042847,-1.0665509700775146,0.8539376258850098,-0.10780316591262817,0.15178725123405457,0.16001412272453308
0.8041424751281738,0.5971227288246155,-1.055138349533081,0.8279311656951904,-0.10596108436584473,0.1467309296131134,0.15792138874530792
0.8242311477661133,0.5863488912582397,-1.055270791053772,0.777976393699646,-0.09901734441518784,0.15156717598438263,0.15564237534999847
0.8442978858947754,0.582754909992218,-1.0613700151443481,0.7875290513038635,-0.09843776375055313,0.15065650641918182,0.15616214275360107
0.8645343780517578,0.5781035423278809,-1.0595768690109253,0.792747974395752,-0.09957282245159149,0.14566923677921295,0.1557203084230423
0.8846182823181152,0.6003010272979736,-1.0664571523666382,0.8338336944580078,-0.10302311182022095,0.14850403368473053,0.15976542234420776
0.9046998023986816,0.6025332808494568,-1.0679956674575806,0.8390017747879028,-0.10467645525932312,0.1465383619070053,0.15961842238903046
0.9247598648071289,0.5972081422805786,-1.069993019104004,0.857245147228241,-0.10701610147953033,0.14110633730888367,0.15933942794799805
0.944847822189331,0.5849510431289673,-1.0665075778961182,0.7966046929359436,-0.09900996834039688,0.14744122326374054,0.15668149292469025
0.9649543762207031,0.572533905506134,-1.061392068862915,0.7734241485595703,-0.09548688679933548,0.1437968611717224,0.15471471846103668
0.9849836826324463,0.5655134916305542,-1.0580180883407593,0.7698420286178589,-0.09416274726390839,0.1390344649553299,0.15440218150615692
1.0050740242004395,0.6064269542694092,-1.064968466758728,0.8581473231315613,-0.1074690967798233,0.14271143078804016,0.16155053675174713
1.0251548290252686,0.6015766859054565,-1.0712850093841553,0.874855637550354,-0.10767324268817902,0.13680388033390045,0.1619236320257187
1.0452063083648682,0.6009320616722107,-1.067414402961731,0.86625075340271,-0.10340357571840286,0.1344136744737625,0.16071414947509766
1.0652964115142822,0.5803443789482117,-1.0659503936767578,0.7801088094711304,-0.09388041496276855,0.14570672810077667,0.15704943239688873
1.0853776931762695,0.5682814121246338,-1.0676603317260742,0.7835038900375366,-0.09492024779319763,0.14205527305603027,0.1560998260974884
1.1054339408874512,0.5689529776573181,-1.068364143371582,0.7859258055686951,-0.09423336386680603,0.13796913623809814,0.15590868890285492
1.1255171298980713,0.6014508008956909,-1.0722116231918335,0.8823249340057373,-0.11094117164611816,0.1342509388923645,0.161993607878685
1.1455881595611572,0.6079740524291992,-1.0778909921646118,0.89912348985672,-0.11114709079265594,0.1332356333732605,0.1639556884765625
1.1656575202941895,0.6068952679634094,-1.079871416091919,0.9009138345718384,-0.105311319231987,0.1316516101360321,0.16476614773273468
1.1857430934906006,0.5605857968330383,-1.0698826313018799,0.782397985458374,-0.09120117127895355,0.13278891146183014,0.1556863933801651
1.2058393955230713,0.5641841888427734,-1.070454478263855,0.7901370525360107,-0.09349384903907776,0.1340535432100296,0.15636920928955078
1.2259018421173096,0.5604066848754883,-1.0729880332946777,0.7957566976547241,-0.09581231325864792,0.13150466978549957,0.15622682869434357
1.2459900379180908,0.6103634834289551,-1.0822638273239136,0.9001494646072388,-0.10656164586544037,0.13233423233032227,0.1644701510667801
1.266066074371338,0.5948363542556763,-1.073911428451538,0.8809703588485718,-0.10442939400672913,0.12832225859165192,0.1628655046224594
1.2861199378967285,0.5855759978294373,-1.0796968936920166,0.8936468958854675,-0.10764823853969574,0.12241087853908539,0.16338691115379333
1.3062028884887695,0.5751707553863525,-1.0764024257659912,0.8158431649208069,-0.09295961260795593,0.13007530570030212,0.1594323366880417
1.326286792755127,0.5701342821121216,-1.0779093503952026,0.7992532253265381,-0.08772057294845581,0.13117320835590363,0.1582825630903244
1.3463339805603027,0.5639815926551819,-1.0797697305679321,0.8132755756378174,-0.09267603605985641,0.12752948701381683,0.15854687988758087
1.3664374351501465,0.5881049036979675,-1.0835988521575928,0.9231458902359009,-0.11747340857982635,0.11643797159194946,0.1638055443763733
1.3865313529968262,0.5852172374725342,-1.081138014793396,0.9220951795578003,-0.1126575618982315,0.11248765885829926,0.1636105179786682
1.4065754413604736,0.5980908870697021,-1.0856081247329712,0.9211816191673279,-0.11173193156719208,0.11857941746711731,0.16572031378746033
1.426664113998413,0.5522879958152771,-1.0788224935531616,0.819625735282898,-0.09637388586997986,0.119471475481987,0.15859301388263702
1.4467353820800781,0.5630327463150024,-1.0796074867248535,0.8142105340957642,-0.09068252146244049,0.1224534660577774,0.15928088128566742
1.466817855834961,0.5619158744812012,-1.0831702947616577,0.8241473436355591,-0.09884261339902878,0.12539534270763397,0.15999239683151245
1.486966848373413,0.5798512101173401,-1.0809109210968018,0.9134068489074707,-0.11171869933605194,0.11010630428791046,0.16386699676513672
1.5069856643676758,0.5953242778778076,-1.0923175811767578,0.931049108505249,-0.1126614511013031,0.11457343399524689,0.16718454658985138
1.5271053314208984,0.594355583190918,-1.0915124416351318,0.9430062174797058,-0.11036345362663269,0.11017821729183197,0.1686384528875351
1.5471618175506592,0.527379035949707,-1.0820194482803345,0.800288200378418,-0.09033561497926712,0.10775493085384369,0.1588907241821289
1.5672321319580078,0.532227098941803,-1.083679437637329,0.8238284587860107,-0.09421274065971375,0.1042875200510025,0.16050511598587036
1.5872845649719238,0.5669457316398621,-1.0827068090438843,0.8561103343963623,-0.09768456965684891,0.10903418064117432,0.16376718878746033
1.6074013710021973,0.5866215229034424,-1.0871244668960571,0.8941448330879211,-0.10360336303710938,0.11031375825405121,0.16652393341064453
1.6274700164794922,0.5671440362930298,-1.08383047580719,0.8948925733566284,-0.1022944301366806,0.1019674688577652,0.16536375880241394
1.6475417613983154,0.5495116710662842,-1.0815225839614868,0.8928499221801758,-0.10561878979206085,0.09481848776340485,0.1638336032629013
1.6676416397094727,0.5798320770263672,-1.0905152559280396,0.881372332572937,-0.09849785268306732,0.10980381071567535,0.16713783144950867
1.6876983642578125,0.5756420493125916,-1.089306116104126,0.8809497356414795,-0.09530295431613922,0.10513029992580414,0.16659466922283173
1.7077581882476807,0.5693278312683105,-1.0890172719955444,0.8836845755577087,-0.09542074799537659,0.10119937360286713,0.1659945696592331
1.7278497219085693,0.5465078353881836,-1.0897512435913086,0.8986531496047974,-0.10204514861106873,0.08991776406764984,0.1648145169019699
1.7479734420776367,0.5502331852912903,-1.0894256830215454,0.9003545045852661,-0.1011996939778328,0.09024615585803986,0.1660768687725067
1.7679965496063232,0.5668193101882935,-1.0940227508544922,0.919750988483429,-0.10038374364376068,0.09129370748996735,0.16885028779506683
1.7880876064300537,0.5577298402786255,-1.0944163799285889,0.8641897439956665,-0.08618338406085968,0.09722423553466797,0.16613046824932098
1.8081512451171875,0.5445866584777832,-1.0949108600616455,0.8758811950683594,-0.09192690253257751,0.08988647162914276,0.16521434485912323
1.8282229900360107,0.5470637083053589,-1.096866488456726,0.8675274848937988,-0.09411159157752991,0.09558823704719543,0.1663682907819748
1.8483128547668457,0.5593330264091492,-1.1022686958312988,0.9607506990432739,-0.11143900454044342,0.07934089004993439,0.16989603638648987
1.8683929443359375,0.5535913705825806,-1.1087983846664429,0.9764437675476074,-0.11529715359210968,0.07812787592411041,0.17174287140369415
1.8884656429290771,0.5630422830581665,-1.1174763441085815,1.0082097053527832,-0.11997832357883453,0.07433414459228516,0.17349645495414734
1.908627986907959,0.5632381439208984,-1.1185914278030396,1.0048918724060059,-0.11788460612297058,0.07480189204216003,0.1732885092496872
1.928722620010376,0.5439605712890625,-1.1097196340560913,0.8747698068618774,-0.08920543640851974,0.09151211380958557,0.16757647693157196
1.9487874507904053,0.5284408330917358,-1.109838843345642,0.875617265701294,-0.08742617070674896,0.08716973662376404,0.1674494743347168
1.968881607055664,0.5350083708763123,-1.1087442636489868,0.8767634034156799,-0.0880131945014,0.0831899344921112,0.16770343482494354
1.9890079498291016,0.5684728026390076,-1.1097016334533691,0.990665853023529,-0.10901106894016266,0.07006338238716125,0.1721067577600479
2.009073495864868,0.5616041421890259,-1.1127715110778809,0.9762468338012695,-0.10010392218828201,0.06661832332611084,0.17083555459976196
2.0291690826416016,0.553900957107544,-1.1141672134399414,0.993276834487915,-0.10571880638599396,0.06586405634880066,0.17260952293872833
2.0492355823516846,0.5250095129013062,-1.108907699584961,0.8803753852844238,-0.0839913859963417,0.07430961728096008,0.16659249365329742
2.069301128387451,0.5177886486053467,-1.1099706888198853,0.8728371262550354,-0.0805104672908783,0.07252830266952515,0.16793367266654968
2.0894439220428467,0.5200202465057373,-1.110990285873413,0.8749402761459351,-0.07945673167705536,0.06923697888851166,0.16819025576114655
2.109466075897217,0.5652718544006348,-1.1112536191940308,0.9918790459632874,-0.10361598432064056,0.06432604789733887,0.17331068217754364
2.1295511722564697,0.5590161085128784,-1.1140234470367432,0.991002082824707,-0.0986824631690979,0.062037307769060135,0.17421941459178925
2.1496052742004395,0.55205237865448,-1.1198465824127197,0.99384605884552,-0.10208192467689514,0.059919748455286026,0.1748536378145218
2.169682741165161,0.5231574773788452,-1.1171587705612183,0.9147040247917175,-0.08459112048149109,0.06281116604804993,0.16981275379657745
2.1897506713867188,0.5328513383865356,-1.1201802492141724,0.9085724353790283,-0.08384814858436584,0.0672924816608429,0.17130674421787262
2.2098371982574463,0.5399316549301147,-1.1217066049575806,0.9220556616783142,-0.08515091240406036,0.06687349081039429,0.1713680922985077
2.2299036979675293,0.5261408090591431,-1.1275027990341187,1.011277675628662,-0.10532397031784058,0.04050968959927559,0.17336681485176086
2.24997878074646,0.5115013718605042,-1.1277722120285034,1.0229792594909668,-0.10298331081867218,0.032082151621580124,0.1740918755531311
2.2700555324554443,0.5111675262451172,-1.1308308839797974,1.0233179330825806,-0.1031891256570816,0.031020913273096085,0.17502091825008392
2.290627956390381,0.5308568477630615,-1.1315361261367798,1.0412178039550781,-0.10919933021068573,0.031132642179727554,0.17662110924720764
2.3107187747955322,0.5064945220947266,-1.1287219524383545,0.8854677081108093,-0.07120206952095032,0.052780259400606155,0.17243680357933044
2.330801248550415,0.5033422708511353,-1.1304864883422852,0.8907583951950073,-0.0724102258682251,0.050101388245821,0.17188404500484467
2.350870370864868,0.48497065901756287,-1.1287370920181274,0.9014869928359985,-0.07217643409967422,0.035820502787828445,0.17097333073616028
2.3709535598754883,0.5407575368881226,-1.1209126710891724,1.0120447874069214,-0.09422554075717926,0.04165549948811531,0.17662174999713898
2.3910248279571533,0.53851717710495,-1.1231738328933716,0.9940978288650513,-0.09211455285549164,0.04211093857884407,0.1779460459947586
2.411086082458496,0.529394805431366,-1.1266021728515625,0.9877673387527466,-0.08945660293102264,0.035865578800439835,0.1770653873682022
2.4312102794647217,0.4956904351711273,-1.1357582807540894,0.9636350870132446,-0.08619314432144165,0.02629031613469124,0.17586778104305267
2.451251983642578,0.4806404411792755,-1.1397526264190674,0.9995815753936768,-0.08862103521823883,0.010915633291006088,0.1769677698612213
2.4713659286499023,0.4746433198451996,-1.1434639692306519,1.018675446510315,-0.08956310153007507,0.00013241544365882874,0.17739543318748474
2.491436004638672,0.5034774541854858,-1.1373080015182495,0.9546542167663574,-0.07632720470428467,0.029457490891218185,0.17778123915195465
2.511486291885376,0.48952022194862366,-1.142305612564087,0.9547827839851379,-0.07434344291687012,0.018280789256095886,0.1763971894979477
2.531684398651123,0.4880337417125702,-1.1435130834579468,0.9534199237823486,-0.07682745158672333,0.019676782190799713,0.17711539566516876
2.551914930343628,0.4702816903591156,-1.1490535736083984,0.9526384472846985,-0.06976716220378876,0.006906177848577499,0.17694753408432007
2.5720038414001465,0.5380682945251465,-1.1497410535812378,1.0460530519485474,-0.09993663430213928,0.022707603871822357,0.1838093101978302
2.5920863151550293,0.5307662487030029,-1.1512945890426636,1.0355792045593262,-0.09132901579141617,0.020106010138988495,0.18505513668060303
2.6121344566345215,0.5222049951553345,-1.1545168161392212,1.0291346311569214,-0.08379940688610077,0.010799925774335861,0.1831669807434082
2.6322216987609863,0.46212679147720337,-1.156485915184021,0.9966916441917419,-0.07508988678455353,-0.007755711674690247,0.18016579747200012
2.652373790740967,0.4434925615787506,-1.158072829246521,1.0101394653320312,-0.07822267711162567,-0.02382601425051689,0.18165403604507446
2.6723906993865967,0.4647408425807953,-1.1582822799682617,1.0399421453475952,-0.0803392082452774,-0.024293314665555954,0.18167930841445923
2.692476749420166,0.4926081895828247,-1.1611740589141846,1.010735273361206,-0.0673503577709198,-0.0039465948939323425,0.183755561709404
2.712550163269043,0.483060747385025,-1.1581331491470337,1.0099265575408936,-0.06806965172290802,-0.008573353290557861,0.1836978644132614
2.732611894607544,0.49664488434791565,-1.1674811840057373,1.001022458076477,-0.07085134088993073,-0.0005934648215770721,0.18718074262142181
2.7526793479919434,0.45046213269233704,-1.1814396381378174,1.0709877014160156,-0.08263789862394333,-0.04731657728552818,0.19268958270549774
2.772763729095459,0.4345669746398926,-1.1852704286575317,1.0691943168640137,-0.0742482990026474,-0.061937570571899414,0.19494487345218658
2.7928192615509033,0.48254677653312683,-1.185343861579895,1.0879353284835815,-0.08629973232746124,-0.04322991520166397,0.19537118077278137
2.812920331954956,0.49426156282424927,-1.1865570545196533,1.0907442569732666,-0.0890035405755043,-0.038221023976802826,0.1953151971101761
2.8330655097961426,0.45777788758277893,-1.194548487663269,0.9793902635574341,-0.05836860463023186,-0.028754986822605133,0.1928543895483017
2.853100299835205,0.4531981647014618,-1.1897295713424683,1.0273228883743286,-0.07068667560815811,-0.0410957969725132,0.19080853462219238
2.8731579780578613,0.4808277189731598,-1.1959630250930786,1.0362628698349,-0.07132117450237274,-0.031305134296417236,0.19247345626354218
2.8932483196258545,0.4604845345020294,-1.2039510011672974,1.0700520277023315,-0.07646980881690979,-0.053545065224170685,0.19844505190849304
2.913318395614624,0.44546422362327576,-1.2055643796920776,1.0832500457763672,-0.07458458840847015,-0.06900502741336823,0.20085440576076508
2.933375120162964,0.4615495502948761,-1.2100011110305786,1.090611219406128,-0.08004635572433472,-0.06584693491458893,0.20678944885730743
2.953460693359375,0.460412859916687,-1.2241824865341187,1.0182932615280151,-0.06375143676996231,-0.048415035009384155,0.20898137986660004
2.973522901535034,0.4514351189136505,-1.2339988946914673,1.025400996208191,-0.06585712730884552,-0.060070205479860306,0.21307390928268433
2.993675470352173,0.42468929290771484,-1.2428014278411865,1.0104047060012817,-0.06261438876390457,-0.06653308868408203,0.2176399677991867
3.0138278007507324,0.45532914996147156,-1.2274467945098877,1.0547757148742676,-0.06873118877410889,-0.06605944037437439,0.21471856534481049
3.033914566040039,0.44350793957710266,-1.242468237876892,1.0224775075912476,-0.06820111721754074,-0.06623083353042603,0.22146610915660858
3.0540058612823486,0.4175805449485779,-1.244908332824707,1.00864839553833,-0.07243140041828156,-0.07103069126605988,0.22884541749954224
3.0741617679595947,0.39242789149284363,-1.2461743354797363,1.001002550125122,-0.07254207134246826,-0.0828227549791336,0.23514963686466217
3.0942628383636475,0.3299427628517151,-1.2597148418426514,1.0482044219970703,-0.07636170089244843,-0.11913320422172546,0.2473832666873932
3.1143240928649902,0.33877065777778625,-1.3045722246170044,1.025490164756775,-0.09840533882379532,-0.1012871116399765,0.26897621154785156
3.1343889236450195,0.3136354684829712,-1.2834781408309937,0.9890428781509399,-0.08329768478870392,-0.11090752482414246,0.26552814245224
3.1544809341430664,0.31029611825942993,-1.3232426643371582,0.9827150702476501,-0.07502183318138123,-0.10895121097564697,0.2880544066429138
3.1745686531066895,0.30082932114601135,-1.3069058656692505,1.0174708366394043,-0.07452739030122757,-0.13780882954597473,0.283992201089859
3.194711923599243,0.2622714936733246,-1.3122313022613525,1.054465413093567,-0.0571652352809906,-0.19110821187496185,0.28058740496635437
3.2148029804229736,0.3130173683166504,-1.2983366250991821,1.0497426986694336,-0.05635782331228256,-0.1729286015033722,0.2786730229854584
3.234877109527588,0.36100348830223083,-1.3145085573196411,1.0907058715820312,-0.08312002569437027,-0.16980254650115967,0.28344735503196716
3.2550816535949707,0.38391271233558655,-1.3388397693634033,1.1201248168945312,-0.11064468324184418,-0.1670108139514923,0.28828850388526917
3.2751777172088623,0.42138421535491943,-1.325250506401062,1.1201729774475098,-0.11809912323951721,-0.15400384366512299,0.29053542017936707
3.29526948928833,0.3950554430484772,-1.3157378435134888,1.1714696884155273,-0.1559566855430603,-0.17485781013965607,0.29902973771095276
3.315311908721924,0.402578741312027,-1.312231421470642,1.1013542413711548,-0.1659146100282669,-0.16153579950332642,0.3034987151622772
3.3354251384735107,0.3158244490623474,-1.2647745609283447,1.1672648191452026,-0.14037689566612244,-0.22126652300357819,0.2983182966709137
3.355520248413086,0.21955950558185577,-1.2405186891555786,1.2323777675628662,-0.09014676511287689,-0.32057344913482666,0.28452229499816895
3.3755640983581543,0.17692206799983978,-1.2232064008712769,1.2841817140579224,-0.08749374747276306,-0.36514946818351746,0.27825817465782166
3.3956682682037354,0.23652996122837067,-1.2270050048828125,1.2511420249938965,-0.06203899905085564,-0.3378523588180542,0.28385043144226074
3.415722608566284,0.1692654937505722,-1.2164443731307983,1.2755903005599976,-0.024742435663938522,-0.357013076543808,0.27175983786582947
3.4357941150665283,0.1335148960351944,-1.2220418453216553,1.2912724018096924,-0.031211253255605698,-0.32816630601882935,0.25755366683006287
3.455876111984253,0.11229290068149567,-1.2395235300064087,1.2857584953308105,-0.030461382120847702,-0.31098589301109314,0.25337475538253784
3.47598934173584,0.18474189937114716,-1.253365159034729,1.2492073774337769,-0.041243474930524826,-0.2518722116947174,0.25476303696632385
3.4960107803344727,0.19192998111248016,-1.283979058265686,1.2488064765930176,-0.0482967235147953,-0.23567713797092438,0.2524622082710266
3.5161068439483643,0.2735712230205536,-1.269489049911499,1.2321724891662598,-0.06951794028282166,-0.18568648397922516,0.2522900402545929
3.5361788272857666,0.2679454982280731,-1.276201605796814,1.2603905200958252,-0.062306541949510574,-0.19616304337978363,0.2496451884508133
3.5562453269958496,0.2637353241443634,-1.2596355676651,1.2862696647644043,-0.045394737273454666,-0.22030885517597198,0.24549823999404907
3.576328992843628,0.21393422782421112,-1.2657933235168457,1.3099653720855713,-0.03755984827876091,-0.2529693841934204,0.242762491106987
3.596449613571167,0.20998354256153107,-1.2584179639816284,1.3075013160705566,-0.03158263489603996,-0.2515518367290497,0.24135930836200714
3.616462469100952,0.16858290135860443,-1.2544875144958496,1.3067022562026978,-0.018927615135908127,-0.26879239082336426,0.2404530793428421
3.6365530490875244,0.17772556841373444,-1.2494508028030396,1.292601466178894,-0.01648281142115593,-0.256306916475296,0.2416592240333557
3.6566364765167236,0.17180196940898895,-1.2514137029647827,1.2921465635299683,-0.015897270292043686,-0.25844764709472656,0.2413296401500702
3.676694869995117,0.16623073816299438,-1.2466741800308228,1.2995131015777588,-0.015995044261217117,-0.2662959694862366,0.24075408279895782
3.6968698501586914,0.17977744340896606,-1.247968077659607,1.2940763235092163,-0.018367785960435867,-0.25929880142211914,0.2409171462059021
3.7169580459594727,0.17597606778144836,-1.2437976598739624,1.3072459697723389,-0.016833174973726273,-0.26872459053993225,0.239592507481575
3.7370316982269287,0.18666306138038635,-1.2514148950576782,1.304630160331726,-0.020240608602762222,-0.2603329122066498,0.24006298184394836
3.7571616172790527,0.19350965321063995,-1.252560019493103,1.3001381158828735,-0.02479417249560356,-0.25352153182029724,0.24016375839710236
3.777261257171631,0.21306142210960388,-1.2541037797927856,1.293187141418457,-0.023633453994989395,-0.24099193513393402,0.24091897904872894
3.7973461151123047,0.21606846153736115,-1.2570656538009644,1.293448805809021,-0.024601425975561142,-0.23907379806041718,0.24008573591709137
3.817477226257324,0.24812845885753632,-1.2597370147705078,1.2751400470733643,-0.03135814145207405,-0.22125716507434845,0.23978586494922638
3.837566614151001,0.20565496385097504,-1.2668260335922241,1.3004364967346191,-0.02665364369750023,-0.24523426592350006,0.2384997308254242
3.8576393127441406,0.22552312910556793,-1.2728866338729858,1.3018286228179932,-0.02980184182524681,-0.23309485614299774,0.23736107349395752
3.8787429332733154,0.23136834800243378,-1.282927393913269,1.2981393337249756,-0.02646559104323387,-0.22919714450836182,0.2360951453447342
3.898798704147339,0.29371586441993713,-1.2784818410873413,1.2503169775009155,-0.02937677875161171,-0.17777971923351288,0.23756226897239685
3.918877124786377,0.30793315172195435,-1.2876050472259521,1.2347254753112793,-0.03867558017373085,-0.1594521701335907,0.23718707263469696
3.938944101333618,0.32791420817375183,-1.2892159223556519,1.2172634601593018,-0.0412115640938282,-0.13809475302696228,0.2369861602783203
3.959030866622925,0.28354671597480774,-1.300536036491394,1.2589058876037598,-0.03300480917096138,-0.17231695353984833,0.2344779521226883
3.979104518890381,0.2831733524799347,-1.303109049797058,1.224584698677063,-0.02931446209549904,-0.15303456783294678,0.23391802608966827
3.9991562366485596,0.31657636165618896,-1.3085020780563354,1.2082809209823608,-0.04208134487271309,-0.12473128736019135,0.2334502637386322
4.019257545471191,0.2965421974658966,-1.3093169927597046,1.2224689722061157,-0.03595555201172829,-0.13911405205726624,0.23329143226146698
4.039326190948486,0.2896314859390259,-1.3022440671920776,1.2105813026428223,-0.02853250876069069,-0.1422010213136673,0.23621904850006104
4.059395790100098,0.2884725034236908,-1.307380199432373,1.2165318727493286,-0.035496246069669724,-0.13802869617938995,0.23780383169651031
4.0802483558654785,0.3051861524581909,-1.283271312713623,1.2374179363250732,-0.032539788633584976,-0.1517726480960846,0.24110616743564606
4.1003406047821045,0.32949915528297424,-1.293495535850525,1.220241665840149,-0.040865909308195114,-0.13142074644565582,0.24400438368320465
4.120399475097656,0.26296043395996094,-1.28400456905365,1.2368412017822266,-0.027204062789678574,-0.17262665927410126,0.24590511620044708
4.140463829040527,0.2742568254470825,-1.2927693128585815,1.2297029495239258,-0.026116084307432175,-0.16823461651802063,0.24882858991622925
4.160556793212891,0.23656482994556427,-1.293105125427246,1.215366005897522,-0.01798785850405693,-0.16879060864448547,0.24911580979824066
4.180627346038818,0.29334771633148193,-1.2970753908157349,1.2083131074905396,-0.027694497257471085,-0.13991160690784454,0.25278440117836
4.200718879699707,0.3007992208003998,-1.2734607458114624,1.2183654308319092,-0.025053557008504868,-0.14717531204223633,0.25587043166160583
4.220809698104858,0.33924606442451477,-1.2915948629379272,1.1972320079803467,-0.033829424530267715,-0.1164606511592865,0.2590096890926361
4.240884304046631,0.18055319786071777,-1.2801047563552856,1.2506579160690308,-0.029346037656068802,-0.20659951865673065,0.2545899748802185
4.260929107666016,0.3140803277492523,-1.282859206199646,1.2144625186920166,-0.060003843158483505,-0.13294830918312073,0.26476573944091797
4.281055927276611,0.2664635479450226,-1.2565823793411255,1.2386810779571533,-0.028192732483148575,-0.17048271000385284,0.26535189151763916
4.301161050796509,0.2880460321903229,-1.2667416334152222,1.219696044921875,-0.04352099075913429,-0.16000016033649445,0.26530370116233826
4.3212339878082275,0.2571640908718109,-1.274523377418518,1.2151051759719849,-0.017841380089521408,-0.16756601631641388,0.2701323330402374
4.341421127319336,0.28465643525123596,-1.2819575071334839,1.1890896558761597,-0.013213861733675003,-0.1503593623638153,0.27254948019981384
4.361501932144165,0.2748531997203827,-1.2806073427200317,1.2077579498291016,-0.014193151146173477,-0.14335356652736664,0.2720947265625
4.381582260131836,0.36183151602745056,-1.2655879259109497,1.190241813659668,-0.03836338594555855,-0.11046350002288818,0.2765352725982666
4.401646137237549,0.29502585530281067,-1.275057077407837,1.245821475982666,-0.035577449947595596,-0.16101136803627014,0.27512326836586
4.421730995178223,0.22654575109481812,-1.2665313482284546,1.2373065948486328,-0.03745438531041145,-0.17812786996364594,0.2765561044216156
4.441816091537476,0.3775728642940521,-1.2811704874038696,1.1954466104507446,-0.10982945561408997,-0.08530017733573914,0.28143250942230225
4.46186089515686,0.20899328589439392,-1.2566455602645874,1.2506420612335205,-0.032234448939561844,-0.19069330394268036,0.27983859181404114
4.481950521469116,0.27736982703208923,-1.246890902519226,1.1904789209365845,-0.025964122265577316,-0.15137170255184174,0.2858547270298004
4.502053260803223,0.22668671607971191,-1.2637850046157837,1.2284650802612305,-0.006597016006708145,-0.17855581641197205,0.28314200043678284
4.52210545539856,0.28295189142227173,-1.2542039155960083,1.1763670444488525,-0.016113746911287308,-0.1481417864561081,0.2848723828792572
4.5422163009643555,0.32094642519950867,-1.271213412284851,1.176605463027954,-0.013830039650201797,-0.12494820356369019,0.2859286665916443
4.562381744384766,0.1949204057455063,-1.2565503120422363,1.2484540939331055,0.00016630813479423523,-0.21114443242549896,0.28272587060928345
4.582382917404175,0.3334239423274994,-1.2701700925827026,1.1957391500473022,-0.04640982672572136,-0.12491875886917114,0.28974851965904236
4.6024863719940186,0.22766804695129395,-1.2604107856750488,1.2694675922393799,-0.03203935548663139,-0.1915406584739685,0.2834451198577881
4.622575759887695,0.3621094524860382,-1.2597161531448364,1.2023446559906006,-0.07597489655017853,-0.09722745418548584,0.292885959148407
4.642638444900513,0.19397354125976562,-1.2574032545089722,1.251571536064148,-0.03264899179339409,-0.19960689544677734,0.2898775041103363
4.662729740142822,0.22987623512744904,-1.2525608539581299,1.1518503427505493,-0.02912689372897148,-0.16886155307292938,0.29885923862457275
4.6828014850616455,0.24504627287387848,-1.2394548654556274,1.1931495666503906,-0.018454674631357193,-0.187467560172081,0.3011922836303711
4.702883958816528,0.32456186413764954,-1.2551639080047607,1.153946876525879,-0.022266458719968796,-0.12942786514759064,0.29948756098747253
4.722938060760498,0.17232388257980347,-1.2351974248886108,1.2901732921600342,0.004224959760904312,-0.23642410337924957,0.2920779287815094
4.743050575256348,0.34554213285446167,-1.2399914264678955,1.1817455291748047,-0.008646935224533081,-0.13949379324913025,0.3001454472541809
4.763123273849487,0.23387405276298523,-1.2542214393615723,1.241853952407837,-0.03819062188267708,-0.19083161652088165,0.2955380976200104
4.783292293548584,0.3769778311252594,-1.274990200996399,1.1635808944702148,-0.07767781615257263,-0.09262126684188843,0.30628129839897156
4.803376197814941,0.2943856418132782,-1.2644158601760864,1.2310473918914795,-0.06380568444728851,-0.14481104910373688,0.30464670062065125
4.823437929153442,0.3191523253917694,-1.2615591287612915,1.1758575439453125,-0.05247325077652931,-0.14069972932338715,0.30880388617515564
4.843717098236084,0.2533070743083954,-1.2534431219100952,1.206274390220642,-0.01979972794651985,-0.1743495613336563,0.30790671706199646
4.8638083934783936,0.23245109617710114,-1.2450875043869019,1.19332754611969,-0.006377287209033966,-0.18538719415664673,0.3083322048187256
4.883911371231079,0.23079366981983185,-1.243850588798523,1.199001431465149,-0.005211230367422104,-0.20818676054477692,0.30588391423225403
4.903955459594727,0.33354246616363525,-1.2420982122421265,1.1553608179092407,-0.005229756236076355,-0.141379252076149,0.3098638951778412
4.924047470092773,0.32415398955345154,-1.2729443311691284,1.1761360168457031,-0.03317028656601906,-0.13798893988132477,0.3106096684932709
4.94415807723999,0.28950169682502747,-1.234086513519287,1.1993566751480103,-0.02714516595005989,-0.16518349945545197,0.3112451434135437
4.964197158813477,0.3828607499599457,-1.2558468580245972,1.2013261318206787,-0.08130371570587158,-0.10766912996768951,0.3158780038356781
4.984290599822998,0.263782799243927,-1.268383264541626,1.224231481552124,-0.06585533916950226,-0.15979312360286713,0.31408432126045227
5.004393577575684,0.39022552967071533,-1.258036732673645,1.1468656063079834,-0.06048226356506348,-0.1017657071352005,0.3215908706188202
5.024463891983032,0.28177347779273987,-1.2531142234802246,1.2030065059661865,-0.03767210617661476,-0.16385406255722046,0.31778663396835327
5.0446226596832275,0.24227716028690338,-1.2469849586486816,1.2192728519439697,-0.017261628061532974,-0.18861833214759827,0.3180791139602661
5.06467604637146,0.32680487632751465,-1.253287434577942,1.1832613945007324,-0.030028481036424637,-0.140308678150177,0.3215406835079193
5.084730386734009,0.21575863659381866,-1.2492778301239014,1.2155863046646118,-0.02585868164896965,-0.2051689177751541,0.3171255588531494
5.104830026626587,0.3043212890625,-1.2380787134170532,1.1780469417572021,-0.034059736877679825,-0.15747672319412231,0.3216896653175354
5.1248862743377686,0.2904500365257263,-1.2581803798675537,1.2250401973724365,-0.042203161865472794,-0.1729734092950821,0.3208928108215332
5.144941568374634,0.34724119305610657,-1.2624245882034302,1.1436983346939087,-0.06440339982509613,-0.11629928648471832,0.32742783427238464
5.165027379989624,0.3286588191986084,-1.2607709169387817,1.1988822221755981,-0.0573137067258358,-0.14312613010406494,0.3256373703479767
5.185099124908447,0.26148343086242676,-1.2552335262298584,1.1917210817337036,-0.03162269666790962,-0.16472645103931427,0.32573845982551575
5.205161094665527,0.342788964509964,-1.2655993700027466,1.1686819791793823,-0.06403777003288269,-0.11582872271537781,0.3284302055835724
5.2253594398498535,0.24224542081356049,-1.2522730827331543,1.2204582691192627,-0.02288180962204933,-0.18484407663345337,0.3252761662006378
5.245471715927124,0.2904588580131531,-1.2437604665756226,1.1910388469696045,-0.02281983569264412,-0.15311861038208008,0.32827597856521606
5.265533924102783,0.2845081388950348,-1.258649230003357,1.21339750289917,-0.047705817967653275,-0.16639257967472076,0.32581108808517456
5.285691022872925,0.2965336740016937,-1.2402831315994263,1.1978116035461426,-0.042754966765642166,-0.165413036942482,0.32852572202682495
5.305782794952393,0.3638893663883209,-1.2596091032028198,1.1535577774047852,-0.053144220262765884,-0.11183573305606842,0.3327160179615021
5.3258583545684814,0.28885504603385925,-1.2518037557601929,1.1942479610443115,-0.04520596191287041,-0.1597839593887329,0.3298864960670471
5.345931768417358,0.31417444348335266,-1.2580506801605225,1.185774326324463,-0.04811577871441841,-0.13503392040729523,0.3332673907279968
5.366008043289185,0.297210156917572,-1.254461646080017,1.2088876962661743,-0.03385818377137184,-0.14892813563346863,0.33303597569465637
5.3860764503479,0.30201080441474915,-1.2470825910568237,1.1810493469238281,-0.04753144457936287,-0.1394876390695572,0.334268182516098
5.406134366989136,0.28886744379997253,-1.2593704462051392,1.2231488227844238,-0.042051251977682114,-0.16987694799900055,0.3325594961643219
5.426203012466431,0.21949739754199982,-1.2398923635482788,1.2259643077850342,-0.026653822511434555,-0.21188966929912567,0.3313116729259491
5.446286916732788,0.32964447140693665,-1.2495454549789429,1.1967849731445312,-0.05975440517067909,-0.14213712513446808,0.337102472782135
5.4663615226745605,0.2376595437526703,-1.2453869581222534,1.2032835483551025,-0.028901357203722,-0.17785651981830597,0.3364928066730499
5.486712217330933,0.3613012731075287,-1.2496520280838013,1.177317500114441,-0.06015526130795479,-0.11170046031475067,0.3404284417629242
5.506798267364502,0.2852693200111389,-1.260288119316101,1.2058806419372559,-0.04743829742074013,-0.16275669634342194,0.3383753001689911
5.526869773864746,0.3081829249858856,-1.23611581325531,1.178431510925293,-0.04862501099705696,-0.15594452619552612,0.3399682343006134
5.546919822692871,0.3170013129711151,-1.2604960203170776,1.195880651473999,-0.05503791943192482,-0.14653004705905914,0.340873658657074
5.567009925842285,0.21611595153808594,-1.2510684728622437,1.212275505065918,-0.040418315678834915,-0.19936402142047882,0.33791306614875793
5.58708119392395,0.3222346901893616,-1.2589632272720337,1.1871833801269531,-0.06296336650848389,-0.1371874064207077,0.34221673011779785
5.6071577072143555,0.27858051657676697,-1.240160346031189,1.1826679706573486,-0.047711845487356186,-0.15384769439697266,0.3428266942501068
5.627260446548462,0.28911733627319336,-1.2527142763137817,1.2061841487884521,-0.05018137767910957,-0.16687311232089996,0.3424607515335083
5.647346019744873,0.20483703911304474,-1.2392125129699707,1.2267301082611084,-0.031364697962999344,-0.21275943517684937,0.34031611680984497
5.667423963546753,0.2914641201496124,-1.2510755062103271,1.1902722120285034,-0.0397515632212162,-0.15696673095226288,0.34621259570121765
5.687678337097168,0.2738136947154999,-1.2517379522323608,1.184941053390503,-0.03950643911957741,-0.16926679015159607,0.3459286391735077
5.707850694656372,0.3021921217441559,-1.2462756633758545,1.1771663427352905,-0.04804776981472969,-0.15535686910152435,0.3465287387371063
5.7278807163238525,0.3212807774543762,-1.2609593868255615,1.1898183822631836,-0.0549633763730526,-0.143228217959404,0.34672078490257263
5.747932434082031,0.3296287953853607,-1.2455404996871948,1.16566801071167,-0.06430962681770325,-0.12427239120006561,0.3489285111427307
5.768036842346191,0.40121978521347046,-1.2621420621871948,1.1626355648040771,-0.07896304875612259,-0.08945053815841675,0.35013335943222046
5.788094997406006,0.3075866103172302,-1.2449487447738647,1.18605637550354,-0.05598042532801628,-0.13833294808864594,0.34891578555107117
5.8081700801849365,0.2803017199039459,-1.2655298709869385,1.2045331001281738,-0.05814922973513603,-0.16238708794116974,0.34772565960884094
5.828275680541992,0.3053440749645233,-1.24016535282135,1.1997816562652588,-0.04906575009226799,-0.16186079382896423,0.35008153319358826
5.848458528518677,0.29506638646125793,-1.2567867040634155,1.188071370124817,-0.05518750473856926,-0.15311017632484436,0.35039734840393066
5.868445158004761,0.3021446466445923,-1.2361527681350708,1.174675464630127,-0.04566812887787819,-0.1463412195444107,0.3526778519153595
5.888607025146484,0.2909137010574341,-1.2520020008087158,1.1862123012542725,-0.04082551971077919,-0.14696210622787476,0.3533143103122711
5.908622980117798,0.2569042146205902,-1.2438127994537354,1.1928915977478027,-0.03768054023385048,-0.17825578153133392,0.35120293498039246
5.928807258605957,0.3714735805988312,-1.2434945106506348,1.1654736995697021,-0.05330289527773857,-0.12451888620853424,0.35340720415115356
5.948821067810059,0.34120360016822815,-1.2641457319259644,1.1919140815734863,-0.06235891208052635,-0.1384355127811432,0.3525754511356354
5.968891620635986,0.26551273465156555,-1.24360990524292,1.1775939464569092,-0.05632777884602547,-0.15418004989624023,0.3534577786922455
5.988988876342773,0.36179855465888977,-1.2790566682815552,1.186250925064087,-0.06636247038841248,-0.11387462913990021,0.3551805913448334
6.00905179977417,0.3241550326347351,-1.2601310014724731,1.203208565711975,-0.06360690295696259,-0.13596074283123016,0.3522491753101349
6.029142618179321,0.29787495732307434,-1.2608052492141724,1.167849063873291,-0.05450238659977913,-0.1437741219997406,0.3549335300922394
6.049160718917847,0.2896330654621124,-1.249219298362732,1.208343267440796,-0.045708660036325455,-0.16615907847881317,0.35535988211631775
6.069971323013306,0.2523063123226166,-1.2103809118270874,1.189103364944458,-0.05824536457657814,-0.19615598022937775,0.35190442204475403
6.090094327926636,0.32647958397865295,-1.2391597032546997,1.1713874340057373,-0.053690869361162186,-0.13346228003501892,0.36047419905662537
6.110137939453125,0.15374912321567535,-1.2321135997772217,1.2253798246383667,-0.012811500579118729,-0.24203847348690033,0.35195282101631165
6.130198240280151,0.2325785607099533,-1.2292999029159546,1.1676888465881348,-0.040634673088788986,-0.18948712944984436,0.3579784333705902
6.150288105010986,0.2729262709617615,-1.2380400896072388,1.1622892618179321,-0.052118245512247086,-0.15932118892669678,0.3614642322063446
6.170408725738525,0.3140452802181244,-1.2601138353347778,1.1925252676010132,-0.04577822610735893,-0.16028277575969696,0.35989364981651306
6.190419435501099,0.3290115296840668,-1.2292728424072266,1.1541613340377808,-0.07308943569660187,-0.13249900937080383,0.36326929926872253
6.210512638092041,0.36524519324302673,-1.2554945945739746,1.173698902130127,-0.09604206681251526,-0.11319036781787872,0.3651128113269806
6.230586051940918,0.24678640067577362,-1.2483834028244019,1.1996583938598633,-0.07368537038564682,-0.16692572832107544,0.3633587658405304
6.250657081604004,0.39023926854133606,-1.2494646310806274,1.1847635507583618,-0.07692159712314606,-0.12081646919250488,0.3670424818992615
6.270858526229858,0.24506080150604248,-1.245644450187683,1.2274948358535767,-0.03969592973589897,-0.21110941469669342,0.3625811040401459
6.291001558303833,0.2923188805580139,-1.242663025856018,1.1634554862976074,-0.06230681762099266,-0.15635646879673004,0.3649267852306366
6.31104302406311,0.2598782479763031,-1.249495267868042,1.1805651187896729,-0.03790273889899254,-0.17963947355747223,0.3634569048881531
6.331106662750244,0.29091891646385193,-1.237037181854248,1.1789557933807373,-0.05628753826022148,-0.1662014275789261,0.36377838253974915
6.351189851760864,0.3031825125217438,-1.260433316230774,1.19098961353302,-0.06095531955361366,-0.15978799760341644,0.36264094710350037
6.371259450912476,0.36091849207878113,-1.2362927198410034,1.1587114334106445,-0.07798224687576294,-0.11616824567317963,0.366654634475708
6.391324281692505,0.25865647196769714,-1.2702902555465698,1.2075992822647095,-0.0659141093492508,-0.1680617481470108,0.36201906204223633
6.411419153213501,0.3525051176548004,-1.2410557270050049,1.169602394104004,-0.06341296434402466,-0.11330170929431915,0.3671063780784607
6.431479454040527,0.27458927035331726,-1.272499918937683,1.2059639692306519,-0.07947632670402527,-0.1504732221364975,0.3631783425807953
6.45180344581604,0.3273451626300812,-1.260402798652649,1.1865055561065674,-0.05346759036183357,-0.14624415338039398,0.36494994163513184
6.471963405609131,0.3021259307861328,-1.251285433769226,1.1893216371536255,-0.06051410362124443,-0.147213414311409,0.36496034264564514
6.4920814037323,0.32201245427131653,-1.2254313230514526,1.1801137924194336,-0.06326933205127716,-0.1411164253950119,0.3666262626647949
6.512513160705566,0.22332508862018585,-1.248151421546936,1.188306212425232,-0.05268733575940132,-0.18466755747795105,0.36364760994911194
6.532635450363159,0.275335431098938,-1.2302848100662231,1.1794242858886719,-0.055837493389844894,-0.1621178388595581,0.36576053500175476
6.552689552307129,0.2730332612991333,-1.2503069639205933,1.1820144653320312,-0.04041283205151558,-0.168909952044487,0.3656187951564789
6.572788715362549,0.2949804663658142,-1.2489959001541138,1.1760824918746948,-0.0532623715698719,-0.15369930863380432,0.3651404082775116
6.5928919315338135,0.3346267640590668,-1.2505347728729248,1.1742119789123535,-0.0718231350183487,-0.12206915020942688,0.36664000153541565
6.613001108169556,0.29050588607788086,-1.252224087715149,1.1940397024154663,-0.06590241193771362,-0.1518680304288864,0.3663494288921356
6.633035898208618,0.35359257459640503,-1.2520304918289185,1.1938447952270508,-0.08254919946193695,-0.12445603311061859,0.369259774684906
6.653139352798462,0.25618216395378113,-1.2478421926498413,1.2279123067855835,-0.07394082844257355,-0.16956739127635956,0.36526116728782654
6.6731884479522705,0.36146530508995056,-1.2537258863449097,1.1137923002243042,-0.08046075701713562,-0.10369284451007843,0.3724574148654938
6.693267822265625,0.26438775658607483,-1.24669349193573,1.1822497844696045,-0.055167023092508316,-0.1711377501487732,0.3668045103549957
6.71336555480957,0.12269794195890427,-1.2178012132644653,1.2019861936569214,-0.017942432314157486,-0.25162845849990845,0.3629363775253296
6.733437538146973,0.24644427001476288,-1.261473536491394,1.18068265914917,-0.05148248001933098,-0.17200106382369995,0.36778831481933594
6.753535032272339,0.40658289194107056,-1.2267554998397827,1.1355565786361694,-0.059027109295129776,-0.08988888561725616,0.3707255721092224
6.77360463142395,0.33369526267051697,-1.2763973474502563,1.181891679763794,-0.06988880783319473,-0.13452331721782684,0.3695935308933258
6.7936906814575195,0.32928457856178284,-1.2582648992538452,1.1664060354232788,-0.07913453131914139,-0.12584570050239563,0.37365102767944336
6.813776254653931,0.31775355339050293,-1.2629882097244263,1.2033065557479858,-0.08226490020751953,-0.1464172601699829,0.3721063435077667
6.834097146987915,0.32154855132102966,-1.2481123208999634,1.1864901781082153,-0.09379102289676666,-0.13355913758277893,0.3727891743183136
6.8541765213012695,0.3250161111354828,-1.241714596748352,1.2111467123031616,-0.08088265359401703,-0.14413557946681976,0.3738989531993866
6.874257564544678,0.24925456941127777,-1.2405791282653809,1.1640329360961914,-0.0538000650703907,-0.1808723658323288,0.37442055344581604
6.894305944442749,0.3142887055873871,-1.2374742031097412,1.1521186828613281,-0.039177361875772476,-0.14678072929382324,0.3765140473842621
6.914443731307983,0.27532532811164856,-1.2300803661346436,1.2182714939117432,-0.02860868349671364,-0.1901238113641739,0.37090620398521423
6.934507369995117,0.2627600431442261,-1.2316113710403442,1.1706244945526123,-0.051043231040239334,-0.18759797513484955,0.3707689642906189
6.954575300216675,0.3516586124897003,-1.2680883407592773,1.1829644441604614,-0.0684811919927597,-0.1371653527021408,0.37392547726631165
6.974661111831665,0.3505466878414154,-1.266396403312683,1.1702430248260498,-0.07177284359931946,-0.12297703325748444,0.37586089968681335
6.994744777679443,0.3643140494823456,-1.2367043495178223,1.1637399196624756,-0.0972774550318718,-0.10868047177791595,0.3776615560054779
7.01480507850647,0.27563753724098206,-1.2701226472854614,1.2107775211334229,-0.10695256292819977,-0.13229595124721527,0.3737029433250427
7.03488826751709,0.32643410563468933,-1.2401812076568604,1.1851032972335815,-0.08811919391155243,-0.12892282009124756,0.3771136701107025
7.054968357086182,0.3051247298717499,-1.2443987131118774,1.204288125038147,-0.07329961657524109,-0.1575278490781784,0.3770499527454376
7.0750415325164795,0.258077472448349,-1.2179149389266968,1.1597955226898193,-0.05721800774335861,-0.18014413118362427,0.37743911147117615
7.0951173305511475,0.24775256216526031,-1.2275499105453491,1.1773860454559326,-0.055411480367183685,-0.18965096771717072,0.3767077624797821
7.115196466445923,0.2917458415031433,-1.2535964250564575,1.151451587677002,-0.03689052537083626,-0.15630249679088593,0.37555965781211853
7.135236740112305,0.27199411392211914,-1.2388783693313599,1.201969861984253,-0.05427318438887596,-0.18061043322086334,0.3746693730354309
7.155317306518555,0.38014501333236694,-1.2540414333343506,1.1363248825073242,-0.07475612312555313,-0.10110251605510712,0.3788507878780365
7.175408363342285,0.35334131121635437,-1.274185061454773,1.197779893875122,-0.09032399952411652,-0.12271499633789062,0.37625497579574585
7.195465087890625,0.3290504813194275,-1.2687238454818726,1.1819838285446167,-0.09705197066068649,-0.11411246657371521,0.3770238161087036
7.2155373096466064,0.3542107045650482,-1.2499665021896362,1.1860582828521729,-0.10305827856063843,-0.10420137643814087,0.37874460220336914
7.2356178760528564,0.2536569833755493,-1.2478954792022705,1.2057493925094604,-0.08381620049476624,-0.15613697469234467,0.37622764706611633
7.255664110183716,0.35604164004325867,-1.2215791940689087,1.1622785329818726,-0.06570591032505035,-0.13703595101833344,0.37855055928230286
7.275776147842407,0.25757479667663574,-1.2309134006500244,1.2023404836654663,-0.05010301247239113,-0.1994526982307434,0.3747495710849762
7.295856237411499,0.29590925574302673,-1.2138025760650635,1.160419225692749,-0.04675360396504402,-0.17483831942081451,0.3769513666629791
7.315948247909546,0.26256364583969116,-1.237716555595398,1.1797106266021729,-0.04492891952395439,-0.17853082716464996,0.37598279118537903
7.336033344268799,0.3001630902290344,-1.2498291730880737,1.149479627609253,-0.052079495042562485,-0.13770630955696106,0.3780270516872406
7.356100797653198,0.3706776797771454,-1.2772927284240723,1.162794828414917,-0.08684128522872925,-0.09213024377822876,0.37926894426345825
7.3761820793151855,0.3749257028102875,-1.259585976600647,1.1571762561798096,-0.09273775666952133,-0.08942016959190369,0.38066425919532776
7.396258354187012,0.3473965525627136,-1.2584086656570435,1.198613166809082,-0.09946663677692413,-0.12320372462272644,0.3792741596698761
7.416327714920044,0.27896735072135925,-1.2525514364242554,1.1912033557891846,-0.09239892661571503,-0.1396661400794983,0.38071978092193604
7.43638014793396,0.3177551031112671,-1.2176436185836792,1.1981552839279175,-0.06748250126838684,-0.167335644364357,0.3797214925289154
7.456469774246216,0.35487839579582214,-1.2402315139770508,1.1723017692565918,-0.06989465653896332,-0.1328938603401184,0.38106822967529297
7.476546287536621,0.1527923196554184,-1.2011743783950806,1.1849727630615234,-0.033962685614824295,-0.22608371078968048,0.3757956326007843
7.496614217758179,0.16892807185649872,-1.2260452508926392,1.1477864980697632,-0.04146495833992958,-0.2134673148393631,0.37887507677078247
7.516703844070435,0.294368177652359,-1.2204498052597046,1.1305205821990967,-0.05461174249649048,-0.15107178688049316,0.3834354877471924
7.536793231964111,0.2679084539413452,-1.2363125085830688,1.205251932144165,-0.04549607262015343,-0.18062107264995575,0.380733847618103
7.556907653808594,0.34873494505882263,-1.2778056859970093,1.1308631896972656,-0.07570088654756546,-0.12060000002384186,0.3855411410331726
7.577691316604614,0.4082329273223877,-1.2398639917373657,1.1734563112258911,-0.12113861739635468,-0.10511909425258636,0.3886338770389557
7.597771883010864,0.3874334990978241,-1.2683261632919312,1.1960707902908325,-0.09833677113056183,-0.11466562747955322,0.389614075422287
7.617847919464111,0.3392298221588135,-1.2515321969985962,1.192878246307373,-0.11249960958957672,-0.11972159147262573,0.3862481713294983
7.637920141220093,0.26442214846611023,-1.2362444400787354,1.211883783340454,-0.08026717603206635,-0.17540596425533295,0.38578560948371887
7.65800142288208,0.2721104919910431,-1.232123851776123,1.1782951354980469,-0.06428700685501099,-0.17485398054122925,0.38872218132019043
7.6780760288238525,0.24490925669670105,-1.227293610572815,1.1860318183898926,-0.05374904349446297,-0.1959886997938156,0.3824257552623749
7.698123931884766,0.28710314631462097,-1.2140733003616333,1.1394884586334229,-0.04312722012400627,-0.16952483355998993,0.3831459581851959
7.718211650848389,0.28224775195121765,-1.2415217161178589,1.1492935419082642,-0.0433800183236599,-0.1679845154285431,0.383552223443985
7.738309860229492,0.26495954394340515,-1.2493561506271362,1.1976137161254883,-0.044108305126428604,-0.1835671365261078,0.38295260071754456
7.758379220962524,0.4052518308162689,-1.2484971284866333,1.1534795761108398,-0.10870407521724701,-0.09973163902759552,0.38816899061203003
7.7784507274627686,0.3565514385700226,-1.2684985399246216,1.203484296798706,-0.09058026969432831,-0.13045401871204376,0.3862049877643585
7.798570871353149,0.28281137347221375,-1.2700096368789673,1.1935561895370483,-0.09060854464769363,-0.15291354060173035,0.3834038972854614
7.81865119934082,0.38409048318862915,-1.2672213315963745,1.1845190525054932,-0.10763227939605713,-0.10017013549804688,0.3873955309391022
7.839017152786255,0.2742731273174286,-1.2317415475845337,1.2158457040786743,-0.07624083757400513,-0.1757766306400299,0.38352277874946594
7.859113931655884,0.27521026134490967,-1.2322250604629517,1.1678301095962524,-0.07929292321205139,-0.16087940335273743,0.38542503118515015
7.879183769226074,0.2728736102581024,-1.2216979265213013,1.1973031759262085,-0.054029326885938644,-0.18325312435626984,0.38172125816345215
7.899240970611572,0.23360151052474976,-1.2166509628295898,1.14427649974823,-0.03800992667675018,-0.19002416729927063,0.3803502321243286
7.919340133666992,0.2808971703052521,-1.2329344749450684,1.1468219757080078,-0.05582239478826523,-0.15131981670856476,0.38345518708229065
7.939414739608765,0.3249419927597046,-1.270072102546692,1.1638330221176147,-0.06603769958019257,-0.12416404485702515,0.38317421078681946
7.959484100341797,0.31576237082481384,-1.2445169687271118,1.1672730445861816,-0.06862200796604156,-0.14130951464176178,0.3836950957775116
7.979628324508667,0.4305570423603058,-1.2621999979019165,1.1116490364074707,-0.09949080646038055,-0.06935203075408936,0.3894369304180145
7.999674081802368,0.40185782313346863,-1.2631080150604248,1.1767473220825195,-0.10150271654129028,-0.09411954879760742,0.38731688261032104
8.019732475280762,0.3292471766471863,-1.2440305948257446,1.2029106616973877,-0.10578964650630951,-0.13086628913879395,0.383354514837265
8.039831638336182,0.2606031596660614,-1.2490359544754028,1.178536295890808,-0.09392665326595306,-0.15290890634059906,0.3839225172996521
8.059898853302002,0.3322342038154602,-1.2373017072677612,1.1823781728744507,-0.08114716410636902,-0.13418807089328766,0.38780277967453003
8.079961061477661,0.16399595141410828,-1.2283388376235962,1.1908214092254639,-0.05220000818371773,-0.21536487340927124,0.3786950409412384
8.100133180618286,0.25593802332878113,-1.2287503480911255,1.1877562999725342,-0.05831754580140114,-0.18690963089466095,0.38289907574653625
8.120246171951294,0.1592380404472351,-1.2014331817626953,1.2923526763916016,-0.018437709659337997,-0.270590215921402,0.37408721446990967
8.140305042266846,0.2837378680706024,-1.2521356344223022,1.1840038299560547,-0.06482571363449097,-0.1585799902677536,0.382312148809433
8.160390138626099,0.35263606905937195,-1.2347439527511597,1.137526512145996,-0.09030067920684814,-0.1208711564540863,0.3866907060146332
8.18049669265747,0.35956284403800964,-1.2592335939407349,1.1652384996414185,-0.11191864311695099,-0.11527319252490997,0.38896122574806213
8.200595378875732,0.3318467438220978,-1.244002103805542,1.1890920400619507,-0.08588384836912155,-0.1333988904953003,0.38935044407844543
8.220733642578125,0.3230505883693695,-1.2532132863998413,1.1830843687057495,-0.12060663104057312,-0.11511009931564331,0.3900417387485504
8.24083399772644,0.23940439522266388,-1.241539716720581,1.1899224519729614,-0.08206265419721603,-0.18059572577476501,0.38736918568611145
8.260946035385132,0.31535276770591736,-1.2332533597946167,1.1692308187484741,-0.07660352438688278,-0.14223265647888184,0.3898940980434418
8.2809739112854,0.22038497030735016,-1.21703040599823,1.175971508026123,-0.045463982969522476,-0.20558923482894897,0.38558030128479004
8.301060438156128,0.3012872040271759,-1.2155145406723022,1.1626708507537842,-0.055600233376026154,-0.1720522791147232,0.38741806149482727
8.321147918701172,0.27043601870536804,-1.2488666772842407,1.1711232662200928,-0.06438399851322174,-0.1683734804391861,0.3872170150279999
8.341171979904175,0.3796748220920563,-1.2520512342453003,1.1625844240188599,-0.08678444474935532,-0.11370852589607239,0.3902420401573181
8.361350297927856,0.31565916538238525,-1.253942608833313,1.1900805234909058,-0.08481872081756592,-0.14512835443019867,0.3892867863178253
8.381472110748291,0.32591962814331055,-1.2476626634597778,1.1855888366699219,-0.09626852720975876,-0.14133238792419434,0.3911699056625366
8.401530265808105,0.32593825459480286,-1.2601771354675293,1.1867341995239258,-0.09808595478534698,-0.12964972853660583,0.3925867974758148
8.421651124954224,0.27268052101135254,-1.2364197969436646,1.1812506914138794,-0.0827258750796318,-0.16719472408294678,0.39139148592948914
8.441737413406372,0.2795458137989044,-1.2287698984146118,1.169231653213501,-0.07053585350513458,-0.17044268548488617,0.39160284399986267
8.461848258972168,0.25662386417388916,-1.2288262844085693,1.1731107234954834,-0.05189508572220802,-0.18599623441696167,0.3893182873725891
8.484206438064575,0.33763933181762695,-1.245579719543457,1.150547742843628,-0.066998690366745,-0.13543245196342468,0.3890001177787781
8.504290103912354,0.34110188484191895,-1.2605191469192505,1.1747665405273438,-0.0860089659690857,-0.11437003314495087,0.39104464650154114
8.524338483810425,0.26634305715560913,-1.2426362037658691,1.1928012371063232,-0.07882934808731079,-0.16166749596595764,0.3907372057437897
8.544430017471313,0.43051961064338684,-1.2315579652786255,1.172757863998413,-0.10546115040779114,-0.09494560956954956,0.3972197473049164
8.564558744430542,0.3348558247089386,-1.259688377380371,1.201695442199707,-0.09144710749387741,-0.14619888365268707,0.3911476731300354
8.584606409072876,0.29602494835853577,-1.242980718612671,1.2071598768234253,-0.08959192037582397,-0.17717811465263367,0.3908427059650421
8.604699611663818,0.32945939898490906,-1.2398282289505005,1.169115662574768,-0.10770487785339355,-0.13108883798122406,0.3960172235965729
8.624751091003418,0.2834418714046478,-1.2533791065216064,1.1842187643051147,-0.07993872463703156,-0.14575397968292236,0.39432746171951294
8.645017385482788,0.15141801536083221,-1.239420771598816,1.175530195236206,-0.04927557334303856,-0.20916791260242462,0.3908718228340149
8.665132284164429,0.20611442625522614,-1.2356635332107544,1.15326726436615,-0.028317753225564957,-0.1832679957151413,0.39788487553596497
8.685194253921509,0.28006479144096375,-1.264098048210144,1.1758819818496704,-0.043618518859148026,-0.17163924872875214,0.3933121860027313
8.705280542373657,0.13868297636508942,-1.2232297658920288,1.1897668838500977,-0.03336982801556587,-0.2540164589881897,0.38799598813056946
8.725357055664062,0.3492034375667572,-1.254489779472351,1.1611454486846924,-0.0903041809797287,-0.12735262513160706,0.398664265871048
8.745429039001465,0.32843074202537537,-1.2564473152160645,1.1920759677886963,-0.08967997133731842,-0.15128065645694733,0.39725133776664734
8.765514612197876,0.33307594060897827,-1.2485049962997437,1.151708960533142,-0.12001141905784607,-0.1285390704870224,0.39784368872642517
8.785568714141846,0.32554560899734497,-1.261262059211731,1.192641019821167,-0.07306323945522308,-0.134036585688591,0.4041617810726166
8.805658340454102,0.18269379436969757,-1.2399581670761108,1.1992974281311035,-0.0676172524690628,-0.21725678443908691,0.39612993597984314
8.82571816444397,0.2919694483280182,-1.2335084676742554,1.1828131675720215,-0.07594813406467438,-0.17032675445079803,0.40062326192855835
8.845804214477539,0.26307597756385803,-1.2370331287384033,1.1911746263504028,-0.05842072144150734,-0.18799225986003876,0.4009690582752228
8.865876913070679,0.2960760295391083,-1.2194472551345825,1.1641066074371338,-0.06353163719177246,-0.1840619444847107,0.398624986410141
8.885927200317383,0.26922422647476196,-1.2500371932983398,1.1836116313934326,-0.0667591542005539,-0.18602758646011353,0.39881590008735657
8.906006813049316,0.2827504575252533,-1.2474205493927002,1.1566226482391357,-0.07047536969184875,-0.15931041538715363,0.40094617009162903
8.926093339920044,0.37512320280075073,-1.2654699087142944,1.176142692565918,-0.10154840350151062,-0.10880139470100403,0.4008411169052124
8.946166515350342,0.3360619843006134,-1.2570010423660278,1.1775120496749878,-0.09906977415084839,-0.1287427693605423,0.4000340402126312
8.96640920639038,0.289215624332428,-1.2556217908859253,1.1961159706115723,-0.11006921529769897,-0.14955173432826996,0.3995721936225891
8.986523628234863,0.249223992228508,-1.2341467142105103,1.2036387920379639,-0.09484293311834335,-0.17493654787540436,0.401410847902298
9.006614923477173,0.36842605471611023,-1.2528047561645508,1.1663105487823486,-0.10296639800071716,-0.12063334882259369,0.40503838658332825
9.026674509048462,0.22261488437652588,-1.2074319124221802,1.1883940696716309,-0.060784101486206055,-0.20868907868862152,0.39946410059928894
9.046770334243774,0.18925228714942932,-1.2143418788909912,1.1876544952392578,-0.04657522961497307,-0.22662626206874847,0.40083372592926025
9.066829204559326,0.2119617462158203,-1.2219828367233276,1.1632869243621826,-0.04639721289277077,-0.21728189289569855,0.4018051028251648
9.086881399154663,0.3034386932849884,-1.2512391805648804,1.1604756116867065,-0.06306365132331848,-0.1629832237958908,0.40375569462776184
9.106970310211182,0.3123791813850403,-1.2555367946624756,1.1795226335525513,-0.07712721824645996,-0.14696653187274933,0.4039698839187622
9.127062559127808,0.33257240056991577,-1.2604855298995972,1.1738309860229492,-0.09731335192918777,-0.13427616655826569,0.40515926480293274
9.147116661071777,0.35271522402763367,-1.2594751119613647,1.1803884506225586,-0.10843454301357269,-0.12494499981403351,0.4070282280445099
9.167316675186157,0.331188827753067,-1.2560722827911377,1.1763181686401367,-0.12155422568321228,-0.11750233173370361,0.4083903729915619
9.187427520751953,0.26298001408576965,-1.232706069946289,1.2075865268707275,-0.09521964192390442,-0.18510019779205322,0.404509961605072
9.20748496055603,0.30157670378685,-1.2386282682418823,1.148410439491272,-0.07929230481386185,-0.16214211285114288,0.4075576066970825
9.22762131690979,0.22646799683570862,-1.2244387865066528,1.1798118352890015,-0.05160379037261009,-0.20601840317249298,0.40557441115379333
9.24770450592041,0.22289378941059113,-1.218025803565979,1.1703472137451172,-0.0405154712498188,-0.21544717252254486,0.4055277407169342
9.267785787582397,0.3305467665195465,-1.2419730424880981,1.1478681564331055,-0.06285975873470306,-0.15112172067165375,0.4080303907394409
9.287834167480469,0.26711055636405945,-1.260006308555603,1.1931476593017578,-0.08287031948566437,-0.1731138378381729,0.40528008341789246
9.307899475097656,0.27993044257164,-1.2550880908966064,1.1604762077331543,-0.0858735740184784,-0.156161367893219,0.40741828083992004
9.328007221221924,0.38826557993888855,-1.2928193807601929,1.1887691020965576,-0.12579108774662018,-0.1027793437242508,0.4085032343864441
9.348066091537476,0.3720991611480713,-1.2778908014297485,1.1907552480697632,-0.12020722031593323,-0.1082468181848526,0.40620899200439453
9.368149757385254,0.3847793936729431,-1.2590694427490234,1.2029539346694946,-0.11546260118484497,-0.11067163944244385,0.40609011054039
9.388306379318237,0.3062354624271393,-1.2424291372299194,1.1905841827392578,-0.1095355898141861,-0.13383470475673676,0.40839603543281555
9.408318519592285,0.2702881693840027,-1.2403419017791748,1.1849360466003418,-0.0871867835521698,-0.1662045270204544,0.40526247024536133
9.428491115570068,0.2915899455547333,-1.2218307256698608,1.153045892715454,-0.06253129243850708,-0.16137400269508362,0.40520915389060974
9.44857931137085,0.2714258134365082,-1.2409168481826782,1.1452434062957764,-0.06336520612239838,-0.1620480716228485,0.40341535210609436
9.468650817871094,0.24005913734436035,-1.217307686805725,1.1734564304351807,-0.049545470625162125,-0.20006071031093597,0.4016517102718353
9.488966226577759,0.34290048480033875,-1.2608269453048706,1.1531356573104858,-0.07957331836223602,-0.1265798658132553,0.40410178899765015
9.509087324142456,0.21577244997024536,-1.2445791959762573,1.2489746809005737,-0.065236896276474,-0.21573929488658905,0.3974463641643524
9.529145956039429,0.4154917299747467,-1.2369015216827393,1.1299159526824951,-0.10838249325752258,-0.08361878991127014,0.41069766879081726
9.549347877502441,0.37642258405685425,-1.259934902191162,1.1871216297149658,-0.11763350665569305,-0.11003409326076508,0.40680745244026184
9.569448709487915,0.2866970896720886,-1.257153868675232,1.2002700567245483,-0.10366768389940262,-0.14856193959712982,0.40641194581985474
9.589499950408936,0.3376326560974121,-1.239484190940857,1.1657114028930664,-0.09277130663394928,-0.15087389945983887,0.4088151454925537
9.609618902206421,0.17640268802642822,-1.2307528257369995,1.203229546546936,-0.06747092306613922,-0.22571372985839844,0.40041711926460266
9.62970232963562,0.17073798179626465,-1.2116378545761108,1.1888712644577026,-0.055376987904310226,-0.21606072783470154,0.402283251285553
9.649776458740234,0.21178054809570312,-1.2292643785476685,1.1711211204528809,-0.06044698506593704,-0.19595381617546082,0.4062618613243103
9.669880151748657,0.24595339596271515,-1.224469542503357,1.1697165966033936,-0.059056464582681656,-0.20847173035144806,0.40492966771125793
9.689980030059814,0.2923365831375122,-1.2291251420974731,1.1652470827102661,-0.059607211500406265,-0.17858439683914185,0.40491682291030884
9.710050344467163,0.35408350825309753,-1.2769988775253296,1.1639024019241333,-0.08839177340269089,-0.1223486065864563,0.40664663910865784
9.730332851409912,0.3553222119808197,-1.2515546083450317,1.158368468284607,-0.09887427091598511,-0.11615370213985443,0.4093775153160095
9.75042176246643,0.4219942092895508,-1.2679060697555542,1.1327096223831177,-0.13555587828159332,-0.06758473813533783,0.4102858901023865
9.770490407943726,0.40532955527305603,-1.2369630336761475,1.1597744226455688,-0.12539821863174438,-0.0768761932849884,0.41241180896759033
9.790583610534668,0.2867392301559448,-1.2555822134017944,1.2112444639205933,-0.10139292478561401,-0.15059083700180054,0.4042269289493561
9.810678243637085,0.27472570538520813,-1.2321337461471558,1.2022080421447754,-0.08684590458869934,-0.17381341755390167,0.404472678899765
9.830750465393066,0.31845080852508545,-1.2402355670928955,1.1818251609802246,-0.08863730728626251,-0.1518034189939499,0.40708839893341064
9.850812673568726,0.2058919221162796,-1.207485318183899,1.1641764640808105,-0.044911205768585205,-0.21785350143909454,0.4031493365764618
9.87090516090393,0.20085108280181885,-1.2129234075546265,1.1779519319534302,-0.05842398479580879,-0.21945585310459137,0.4031691253185272
9.891000032424927,0.27629271149635315,-1.2487901449203491,1.1594538688659668,-0.06469032913446426,-0.16880196332931519,0.4084160029888153
9.911057472229004,0.36374178528785706,-1.2483744621276855,1.1520668268203735,-0.0871572345495224,-0.12036429345607758,0.40885043144226074
9.93115234375,0.3586175739765167,-1.276594638824463,1.1385992765426636,-0.09847089648246765,-0.11249081790447235,0.4090920090675354
9.951241970062256,0.3724093735218048,-1.2486869096755981,1.1622473001480103,-0.1056896299123764,-0.11920331418514252,0.41030415892601013
9.97130823135376,0.3002493977546692,-1.2676516771316528,1.1903505325317383,-0.1229049563407898,-0.1308915764093399,0.40756458044052124
9.991391897201538,0.3741891086101532,-1.2442010641098022,1.1749390363693237,-0.1142130196094513,-0.1070343554019928,0.41159960627555847
10.011513471603394,0.23019181191921234,-1.246904730796814,1.2013912200927734,-0.0912768542766571,-0.1763986498117447,0.40551045536994934
10.031580924987793,0.33354270458221436,-1.231857419013977,1.1408629417419434,-0.0821484625339508,-0.1338270604610443,0.4094848334789276
10.051771640777588,0.16269217431545258,-1.224826455116272,1.232574224472046,-0.06061791256070137,-0.2393554300069809,0.3995238244533539
10.071856498718262,0.1959400475025177,-1.20775306224823,1.1787490844726562,-0.042454224079847336,-0.21793042123317719,0.4044703245162964
10.091939210891724,0.2306920737028122,-1.2194794416427612,1.1717029809951782,-0.05981791019439697,-0.20554637908935547,0.40667444467544556
10.112005949020386,0.3156273066997528,-1.2469373941421509,1.1697490215301514,-0.08337454497814178,-0.15425051748752594,0.40893080830574036
10.132189512252808,0.30725812911987305,-1.2534608840942383,1.186335802078247,-0.08429040014743805,-0.15488117933273315,0.40886443853378296
10.152202367782593,0.35962674021720886,-1.252274513244629,1.1436316967010498,-0.11376599967479706,-0.10554641485214233,0.4139873683452606
10.172296285629272,0.3368118703365326,-1.259869933128357,1.180358648300171,-0.10329294204711914,-0.12850239872932434,0.41214221715927124
10.192425012588501,0.33005213737487793,-1.2527772188186646,1.171431303024292,-0.11805972456932068,-0.11704865097999573,0.4127025008201599
10.21246862411499,0.3099935054779053,-1.2361806631088257,1.1980903148651123,-0.10210207849740982,-0.14349786937236786,0.41118672490119934
10.232544660568237,0.2687723934650421,-1.2232376337051392,1.1833033561706543,-0.07424981892108917,-0.19247226417064667,0.4096367657184601
10.252621173858643,0.2671419382095337,-1.2272528409957886,1.165196180343628,-0.07386811077594757,-0.1842387318611145,0.40785476565361023
10.272708892822266,0.2791883945465088,-1.2350965738296509,1.1451255083084106,-0.0561884343624115,-0.16629494726657867,0.40756955742836
10.292770147323608,0.31414860486984253,-1.2484307289123535,1.1740615367889404,-0.0761445164680481,-0.13959988951683044,0.40688762068748474
10.312982082366943,0.31093907356262207,-1.2610108852386475,1.1657328605651855,-0.08650892972946167,-0.13066914677619934,0.4077785015106201
10.333125829696655,0.34857824444770813,-1.2504500150680542,1.187232494354248,-0.10318081825971603,-0.13806965947151184,0.4096681773662567
10.353185892105103,0.27097615599632263,-1.2444812059402466,1.192352056503296,-0.10872505605220795,-0.1730453372001648,0.41014939546585083
10.373449563980103,0.41617777943611145,-1.2610491514205933,1.157716989517212,-0.13187603652477264,-0.08685821294784546,0.4144240915775299
10.39357590675354,0.21716533601284027,-1.2523069381713867,1.2150676250457764,-0.10255531221628189,-0.19130142033100128,0.40637362003326416
10.41365361213684,0.31541410088539124,-1.23711097240448,1.1663326025009155,-0.09298616647720337,-0.1472800225019455,0.4132746756076813
10.433705568313599,0.22632408142089844,-1.226518988609314,1.1911227703094482,-0.06966844201087952,-0.19720607995986938,0.4077654480934143
10.45380973815918,0.21774296462535858,-1.2114577293395996,1.1813828945159912,-0.05332246795296669,-0.2139299511909485,0.40711846947669983
10.473901271820068,0.31751254200935364,-1.249802827835083,1.1363463401794434,-0.07226099073886871,-0.1356390416622162,0.4116958677768707
10.49395489692688,0.2615886330604553,-1.2410398721694946,1.2032687664031982,-0.07386235892772675,-0.17965835332870483,0.4085402190685272
10.514066457748413,0.33295705914497375,-1.24857497215271,1.1358222961425781,-0.0947556346654892,-0.12114913761615753,0.41231146454811096
10.534138679504395,0.291341096162796,-1.2647490501403809,1.2352813482284546,-0.09607008099555969,-0.16195769608020782,0.4069198668003082
10.554338455200195,0.4011159837245941,-1.2909659147262573,1.0801045894622803,-0.13181588053703308,-0.06096048280596733,0.41531312465667725
10.57443618774414,0.3475698232650757,-1.2533881664276123,1.187731385231018,-0.15405815839767456,-0.10154908895492554,0.40924763679504395
10.594513654708862,0.30380550026893616,-1.255872130393982,1.162404179573059,-0.10877691209316254,-0.12782515585422516,0.4131464958190918
10.61456561088562,0.2736082375049591,-1.2183300256729126,1.184701919555664,-0.07381288707256317,-0.1674233227968216,0.410249799489975
10.634660482406616,0.34778571128845215,-1.2312779426574707,1.1533063650131226,-0.0774926170706749,-0.12588182091712952,0.4110731780529022
10.654809474945068,0.14694596827030182,-1.206765055656433,1.2066069841384888,-0.04533805325627327,-0.25217026472091675,0.4011862576007843
10.674927711486816,0.26261886954307556,-1.2320860624313354,1.164509892463684,-0.06916211545467377,-0.18165844678878784,0.4102763831615448
10.695022344589233,0.3270324766635895,-1.2396620512008667,1.138285756111145,-0.07208849489688873,-0.1344439536333084,0.4103306233882904
10.715103387832642,0.2472052127122879,-1.2590636014938354,1.2156764268875122,-0.0809929221868515,-0.17177318036556244,0.40403440594673157
10.735161304473877,0.44682273268699646,-1.2827130556106567,1.077751636505127,-0.1287534087896347,-0.033744487911462784,0.4144693911075592
10.755286455154419,0.26255539059638977,-1.2700121402740479,1.1868081092834473,-0.12451796233654022,-0.148411825299263,0.40362370014190674
10.775326490402222,0.4295823872089386,-1.2787688970565796,1.1578534841537476,-0.1191098690032959,-0.06756259500980377,0.4130076766014099
10.795417308807373,0.3376709818840027,-1.254184603691101,1.1891363859176636,-0.09378021955490112,-0.12996500730514526,0.4049917757511139
10.815475702285767,0.32314333319664,-1.2473458051681519,1.1835722923278809,-0.09434705972671509,-0.1344628483057022,0.4052746295928955
10.83555006980896,0.2579211890697479,-1.2155487537384033,1.197811484336853,-0.07510922849178314,-0.18278945982456207,0.40500038862228394
10.855612993240356,0.2885759472846985,-1.2364329099655151,1.1615077257156372,-0.06965526938438416,-0.16156096756458282,0.40459492802619934
10.875753402709961,0.22090797126293182,-1.2168992757797241,1.2000274658203125,-0.05400470271706581,-0.21466220915317535,0.4006630778312683
10.895853757858276,0.2877465486526489,-1.2179138660430908,1.1587477922439575,-0.06627358496189117,-0.17537030577659607,0.40528157353401184
10.915901899337769,0.2891029715538025,-1.2495278120040894,1.1679446697235107,-0.07290571928024292,-0.15558190643787384,0.40553751587867737
10.936074495315552,0.3151695728302002,-1.2492586374282837,1.1587446928024292,-0.08231891691684723,-0.13670144975185394,0.4061411917209625
10.956172943115234,0.3931214213371277,-1.2505176067352295,1.162177562713623,-0.10385648906230927,-0.10086911916732788,0.40888211131095886
10.976227760314941,0.3537404537200928,-1.247541904449463,1.188185691833496,-0.10759922862052917,-0.12907648086547852,0.4053482115268707
10.996313333511353,0.3180491030216217,-1.2493433952331543,1.1918938159942627,-0.10986754298210144,-0.1407618373632431,0.40685319900512695
11.016419649124146,0.3396570682525635,-1.224189043045044,1.1860179901123047,-0.10523189604282379,-0.13331642746925354,0.4088800251483917
11.03646993637085,0.17946690320968628,-1.2415827512741089,1.1929705142974854,-0.07310108095407486,-0.20953987538814545,0.39991578459739685
11.05655837059021,0.22225357592105865,-1.213875651359558,1.1593581438064575,-0.06068054959177971,-0.18503731489181519,0.4032101333141327
11.076625347137451,0.26517054438591003,-1.2273615598678589,1.1572890281677246,-0.05701513960957527,-0.17454566061496735,0.40656933188438416
11.096780776977539,0.3113086521625519,-1.2458689212799072,1.1514630317687988,-0.06304986774921417,-0.1524381935596466,0.4036073684692383
11.116806030273438,0.3692602217197418,-1.2589277029037476,1.1464987993240356,-0.0863017588853836,-0.09315188229084015,0.40860265493392944
11.136880159378052,0.34011176228523254,-1.2463520765304565,1.174474835395813,-0.09645725786685944,-0.1336762011051178,0.4074588716030121
11.156939506530762,0.30834871530532837,-1.2566355466842651,1.182344675064087,-0.10988642275333405,-0.13521181046962738,0.40647101402282715
11.177270412445068,0.3533525764942169,-1.24115788936615,1.1866129636764526,-0.10890628397464752,-0.12268924713134766,0.40931856632232666
11.197360754013062,0.2736836373806,-1.2543504238128662,1.1916313171386719,-0.11414037644863129,-0.13579580187797546,0.4064302444458008
11.21743655204773,0.3165932297706604,-1.2237913608551025,1.158362865447998,-0.08650215715169907,-0.15026941895484924,0.40691468119621277
11.237517595291138,0.3550191819667816,-1.2455157041549683,1.143630027770996,-0.09038648009300232,-0.11098189651966095,0.40789809823036194
11.257599592208862,0.20291553437709808,-1.2125544548034668,1.1621544361114502,-0.04796266183257103,-0.20665289461612701,0.40171968936920166
11.277673721313477,0.2672083079814911,-1.2340909242630005,1.1405996084213257,-0.04394615814089775,-0.17017768323421478,0.4063175618648529
11.2978835105896,0.31465521454811096,-1.2585874795913696,1.16762113571167,-0.06645211577415466,-0.15100738406181335,0.4044085741043091
11.317970037460327,0.26109012961387634,-1.2452384233474731,1.2083134651184082,-0.07218098640441895,-0.18434229493141174,0.4020501971244812
11.338019847869873,0.43128472566604614,-1.2619563341140747,1.096836805343628,-0.11033119261264801,-0.06488507986068726,0.41194918751716614
11.358148574829102,0.3858206868171692,-1.267616868019104,1.177081823348999,-0.11127670109272003,-0.10028859972953796,0.4071389138698578
11.378237009048462,0.3018944561481476,-1.25851309299469,1.201078176498413,-0.10677197575569153,-0.15381677448749542,0.4021267294883728
11.398316860198975,0.36798226833343506,-1.2530452013015747,1.1796391010284424,-0.11536452174186707,-0.10627467930316925,0.4070011079311371
11.4183828830719,0.23472346365451813,-1.2227141857147217,1.1886037588119507,-0.08153608441352844,-0.1754189282655716,0.40363815426826477
11.438483715057373,0.37970784306526184,-1.2324382066726685,1.1175462007522583,-0.0970500260591507,-0.09312745928764343,0.40814509987831116
11.458562850952148,0.2446889877319336,-1.2295609712600708,1.1770384311676025,-0.05128978565335274,-0.18549008667469025,0.4030750095844269
11.478652477264404,0.37567147612571716,-1.2307820320129395,1.1297833919525146,-0.07483260333538055,-0.11784808337688446,0.4045476019382477
11.498716115951538,0.291625440120697,-1.2499173879623413,1.169843316078186,-0.06770963966846466,-0.17055168747901917,0.40064454078674316
11.518794059753418,0.3244604170322418,-1.2418588399887085,1.158979892730713,-0.08088847249746323,-0.13518382608890533,0.4023737907409668
11.538889408111572,0.29504695534706116,-1.2729099988937378,1.1874572038650513,-0.09936858713626862,-0.1368987262248993,0.4012357294559479
11.55941653251648,0.39533400535583496,-1.268784761428833,1.166546106338501,-0.11718913912773132,-0.08817961812019348,0.40516629815101624
11.579506635665894,0.34923022985458374,-1.2638264894485474,1.1784629821777344,-0.11443451046943665,-0.09755870699882507,0.4050899147987366
11.599647760391235,0.25527071952819824,-1.2419742345809937,1.2072921991348267,-0.09294465184211731,-0.17014771699905396,0.4012377858161926
11.61964750289917,0.39603039622306824,-1.2283498048782349,1.117457628250122,-0.09174621105194092,-0.09490296244621277,0.4057648181915283
11.639781951904297,0.2739352285861969,-1.2345465421676636,1.1897032260894775,-0.07879352569580078,-0.18536989390850067,0.39904823899269104
11.659822225570679,0.26566269993782043,-1.2135554552078247,1.1708743572235107,-0.05157207325100899,-0.1998348832130432,0.39977583289146423
11.679879426956177,0.3092134892940521,-1.2586277723312378,1.155341625213623,-0.07323352992534637,-0.137757807970047,0.39910292625427246
11.699966430664062,0.20740388333797455,-1.2415730953216553,1.2184889316558838,-0.06387512385845184,-0.1929965615272522,0.3950473964214325
11.72003960609436,0.38072308897972107,-1.2477689981460571,1.1509714126586914,-0.09836114943027496,-0.09436781704425812,0.40436550974845886
11.740115642547607,0.3343842327594757,-1.2557293176651,1.1865088939666748,-0.09409613907337189,-0.13433238863945007,0.40026459097862244
11.7601900100708,0.2982398569583893,-1.24410879611969,1.203978180885315,-0.09070900827646255,-0.16273634135723114,0.40014001727104187
11.780279159545898,0.3142370283603668,-1.2324625253677368,1.2016003131866455,-0.10292821377515793,-0.1587526649236679,0.40183642506599426
11.800413370132446,0.2868783175945282,-1.2381155490875244,1.1903419494628906,-0.08057639002799988,-0.17545801401138306,0.4013955891132355
11.820564031600952,0.2792825996875763,-1.2269937992095947,1.1741242408752441,-0.06923872232437134,-0.17432963848114014,0.4019913375377655
11.840657234191895,0.3308678865432739,-1.239611029624939,1.1401708126068115,-0.07329203188419342,-0.1384136974811554,0.40173783898353577
11.860875606536865,0.1994512677192688,-1.2257159948349,1.2096173763275146,-0.05499042198061943,-0.21057339012622833,0.39453867077827454
11.880996704101562,0.3044198453426361,-1.2756308317184448,1.166419267654419,-0.08444128185510635,-0.1348237693309784,0.3991799056529999
11.901079416275024,0.27520570158958435,-1.2392269372940063,1.2099249362945557,-0.0701623409986496,-0.17962291836738586,0.3955572247505188
11.921195983886719,0.4041725993156433,-1.2702118158340454,1.1170461177825928,-0.11146663129329681,-0.08920782804489136,0.4047223627567291
11.941602945327759,0.3614777624607086,-1.2264271974563599,1.153580904006958,-0.11030822992324829,-0.11609970033168793,0.4026373326778412
11.96171259880066,0.4236254394054413,-1.2598756551742554,1.1428039073944092,-0.12741699814796448,-0.06393535435199738,0.40566426515579224
11.98179817199707,0.3187576234340668,-1.2322121858596802,1.1645864248275757,-0.10127997398376465,-0.12129300832748413,0.4007773697376251
12.002072095870972,0.22308297455310822,-1.2579563856124878,1.1949995756149292,-0.06657755374908447,-0.18312327563762665,0.3943895995616913
12.022169589996338,0.31142720580101013,-1.2205027341842651,1.164373517036438,-0.06115492805838585,-0.15131577849388123,0.39740222692489624
12.042288064956665,0.2064705640077591,-1.2365235090255737,1.20531165599823,-0.055062513798475266,-0.2100486308336258,0.39203885197639465
12.062323570251465,-0.4337468445301056,-0.35455965995788574,0.9541518092155457,-0.5990145206451416,-0.1408749371767044,0.1771313101053238
12.08241081237793,-0.5074971914291382,-0.3302336633205414,0.9678705930709839,-0.6202278137207031,-0.18748387694358826,0.16206271946430206
12.10248351097107,-0.47102484107017517,-0.3387795090675354,0.9616703987121582,-0.6113713383674622,-0.17453956604003906,0.15990811586380005
12.12255597114563,-0.4351697862148285,-0.35001665353775024,0.9738456010818481,-0.6169160604476929,-0.15969987213611603,0.16156810522079468
12.142727613449097,-0.4504539370536804,-0.3390541672706604,0.9591370820999146,-0.6090226769447327,-0.1604548692703247,0.1622779220342636
12.162827968597412,-0.4594747722148895,-0.3399515748023987,0.9579828977584839,-0.6115635633468628,-0.16135983169078827,0.16254578530788422
12.182917833328247,-0.4557243883609772,-0.33695080876350403,0.9553937911987305,-0.6108986139297485,-0.15800967812538147,0.16278056800365448
12.202969789505005,-0.47852590680122375,-0.33501484990119934,0.9608448147773743,-0.6099539995193481,-0.1722756028175354,0.15968088805675507
12.223057985305786,-0.46751633286476135,-0.3358989357948303,0.957162618637085,-0.6084756851196289,-0.16358532011508942,0.16217640042304993
12.24318265914917,-0.46348658204078674,-0.33402398228645325,0.9628491997718811,-0.6118226051330566,-0.16628359258174896,0.1620704084634781
12.263276815414429,-0.45098984241485596,-0.3411747217178345,0.9592341780662537,-0.6096322536468506,-0.16228839755058289,0.16040045022964478
12.283373594284058,-0.45101821422576904,-0.33952540159225464,0.956659734249115,-0.6098126173019409,-0.16048817336559296,0.16195638477802277
12.303449392318726,-0.4277232587337494,-0.3466278314590454,0.9495939016342163,-0.6129801273345947,-0.14285992085933685,0.1650834083557129
12.323500871658325,-0.4333439767360687,-0.34418782591819763,0.9536080360412598,-0.6103439331054688,-0.15234729647636414,0.16195140779018402
12.343596935272217,-0.42369139194488525,-0.345636785030365,0.95235276222229,-0.6114989519119263,-0.14717254042625427,0.1614997535943985
12.363672733306885,-0.4537779688835144,-0.3420408368110657,0.9551783800125122,-0.6076552867889404,-0.1540880650281906,0.16305257380008698
12.383740663528442,-0.4472675919532776,-0.3384430408477783,0.9550339579582214,-0.610251784324646,-0.1574893593788147,0.16225837171077728
12.40381383895874,-0.4409950375556946,-0.33990415930747986,0.9542090892791748,-0.6078953742980957,-0.15507259964942932,0.16197063028812408
12.423895835876465,-0.457234650850296,-0.3444484770298004,0.9578762054443359,-0.6074098348617554,-0.15538178384304047,0.16242171823978424
12.44396448135376,-0.45140212774276733,-0.33840593695640564,0.9575887322425842,-0.6011804342269897,-0.15904653072357178,0.16287364065647125
12.464654684066772,-0.4410991072654724,-0.3400583565235138,0.95711350440979,-0.606535017490387,-0.1555250883102417,0.16268275678157806
12.484738826751709,-0.4234526753425598,-0.3426985740661621,0.9624046087265015,-0.606225311756134,-0.15023809671401978,0.16163809597492218
12.504809141159058,-0.4395671486854553,-0.3517492115497589,0.9551845788955688,-0.6085305213928223,-0.14494743943214417,0.163274347782135
12.524850845336914,-0.42780691385269165,-0.346427321434021,0.955849289894104,-0.6133249402046204,-0.1493174284696579,0.161093607544899
12.544942617416382,-0.4309688210487366,-0.34265121817588806,0.9592244625091553,-0.6098378896713257,-0.15305116772651672,0.16119149327278137
12.565011978149414,-0.44588595628738403,-0.34938251972198486,0.9553174376487732,-0.6088292598724365,-0.14783704280853271,0.16274981200695038
12.585079669952393,-0.43613049387931824,-0.34178683161735535,0.9533637762069702,-0.6096057295799255,-0.1512884497642517,0.16175664961338043
12.60515832901001,-0.4379982054233551,-0.34107959270477295,0.9547491073608398,-0.6095753312110901,-0.15422885119915009,0.16121642291545868
12.625246286392212,-0.4463125467300415,-0.345195472240448,0.9546113610267639,-0.6093505620956421,-0.15230081975460052,0.16146168112754822
12.645291805267334,-0.4247618317604065,-0.3436233401298523,0.9537853002548218,-0.6085706949234009,-0.14733603596687317,0.16167499125003815
12.665578842163086,-0.4178115725517273,-0.3480527997016907,0.9503070712089539,-0.6107537150382996,-0.14292380213737488,0.16189421713352203
12.685694456100464,-0.42279645800590515,-0.3477836847305298,0.9510171413421631,-0.6099516153335571,-0.14289984107017517,0.16205552220344543
12.705753803253174,-0.39615413546562195,-0.3467487096786499,0.9505168199539185,-0.6072136163711548,-0.13740716874599457,0.16044999659061432
12.725939273834229,-0.42179274559020996,-0.34532564878463745,0.9550937414169312,-0.6059001684188843,-0.14568063616752625,0.1605362445116043
12.746034145355225,-0.4102073013782501,-0.3453352451324463,0.9625072479248047,-0.6037551164627075,-0.1448814570903778,0.15884293615818024
12.766111850738525,-0.4282712936401367,-0.3435266315937042,0.954508900642395,-0.6060932874679565,-0.14583800733089447,0.16065993905067444
12.786163091659546,-0.42231014370918274,-0.34290629625320435,0.9521816968917847,-0.6079632639884949,-0.14650605618953705,0.16067299246788025
12.806252479553223,-0.42013055086135864,-0.34749284386634827,0.9510561227798462,-0.607123851776123,-0.14349941909313202,0.16083680093288422
12.826355457305908,-0.40659165382385254,-0.34575146436691284,0.9501136541366577,-0.6097893714904785,-0.1392449289560318,0.1602267175912857
12.846426010131836,-0.41651421785354614,-0.34595751762390137,0.9512763023376465,-0.6059161424636841,-0.14344993233680725,0.1606583148241043
12.866510152816772,-0.40374118089675903,-0.3495277166366577,0.9494412541389465,-0.6035645008087158,-0.13726752996444702,0.1600494682788849
12.886581659317017,-0.42298007011413574,-0.3471671938896179,0.9571039080619812,-0.6005818843841553,-0.14311593770980835,0.16126997768878937
12.9066321849823,-0.41026338934898376,-0.3498598635196686,0.951388955116272,-0.6044202446937561,-0.1414516568183899,0.15995126962661743
12.926729679107666,-0.40952977538108826,-0.3503139615058899,0.9507784247398376,-0.6039773225784302,-0.13759420812129974,0.16160082817077637
12.946810007095337,-0.4179058074951172,-0.34579843282699585,0.9526941180229187,-0.6057809591293335,-0.14070312678813934,0.16139163076877594
12.966869592666626,-0.4203806519508362,-0.34668439626693726,0.9559352397918701,-0.6022282242774963,-0.1427573710680008,0.16078941524028778
12.986949443817139,-0.4258768856525421,-0.3530089855194092,0.9556810855865479,-0.6056463122367859,-0.13975368440151215,0.16083811223506927
13.007005453109741,-0.4104557931423187,-0.3492106795310974,0.9511690735816956,-0.6050742864608765,-0.1380634605884552,0.1606244593858719
13.027073383331299,-0.41681548953056335,-0.3468504250049591,0.9498698115348816,-0.6058975458145142,-0.14143630862236023,0.16121946275234222
13.047152280807495,-0.39813122153282166,-0.3485536575317383,0.9475404024124146,-0.6081258654594421,-0.13450844585895538,0.16067039966583252
13.067230463027954,-0.40563973784446716,-0.3529775142669678,0.9513169527053833,-0.6120719909667969,-0.13809847831726074,0.1595958024263382
13.087279558181763,-0.4001942276954651,-0.3549026548862457,0.9483704566955566,-0.6048527956008911,-0.13257764279842377,0.16065485775470734
13.107364892959595,-0.39314353466033936,-0.35640496015548706,0.9493241310119629,-0.6086236238479614,-0.12756159901618958,0.16025350987911224
13.127504348754883,-0.3942342698574066,-0.347551554441452,0.9543980360031128,-0.6086863875389099,-0.1370859295129776,0.1587740033864975
13.147505760192871,-0.4095381200313568,-0.3533427119255066,0.9531773328781128,-0.6001428961753845,-0.14071547985076904,0.15896739065647125
13.167585134506226,-0.4093465209007263,-0.34707528352737427,0.9525203108787537,-0.6060992479324341,-0.13904815912246704,0.16015678644180298
13.187674760818481,-0.4049697816371918,-0.3474859893321991,0.9519453644752502,-0.6043524146080017,-0.13859321177005768,0.16036777198314667
13.207751989364624,-0.39687851071357727,-0.3499969244003296,0.9486493468284607,-0.6025577783584595,-0.1347355991601944,0.16037596762180328
13.227931022644043,-0.4054829776287079,-0.35365408658981323,0.9514487981796265,-0.605847954750061,-0.13387365639209747,0.16026253998279572
13.248096704483032,-0.4013027846813202,-0.3455418050289154,0.9551843404769897,-0.6050430536270142,-0.13927452266216278,0.1593054085969925
13.268123626708984,-0.37523263692855835,-0.3587212860584259,0.9460882544517517,-0.6045066118240356,-0.12100797891616821,0.1597597897052765
13.288177967071533,-0.3816066086292267,-0.35094118118286133,0.9460541009902954,-0.6015194654464722,-0.12760865688323975,0.1599971354007721
13.30827522277832,-0.39601895213127136,-0.3522455096244812,0.950656533241272,-0.6099015474319458,-0.1354987472295761,0.15859244763851166
13.328455686569214,-0.3924170434474945,-0.35638704895973206,0.9499863386154175,-0.6066718697547913,-0.13324682414531708,0.15842027962207794
13.348522186279297,-0.40916958451271057,-0.35850790143013,0.9503465294837952,-0.6052403450012207,-0.1294735223054886,0.15951915085315704
13.368613004684448,-0.398924857378006,-0.34630832076072693,0.950985312461853,-0.6042434573173523,-0.13418646156787872,0.15918484330177307
13.388731002807617,-0.3983921408653259,-0.35049304366111755,0.9467190504074097,-0.6007943749427795,-0.1307605803012848,0.15973637998104095
13.408761024475098,-0.37929582595825195,-0.3525572419166565,0.9512065052986145,-0.6050640344619751,-0.12794098258018494,0.15795950591564178
13.42885446548462,-0.39063718914985657,-0.35727906227111816,0.9497870206832886,-0.6070466041564941,-0.12959200143814087,0.15786804258823395
13.448922872543335,-0.36981692910194397,-0.3548319935798645,0.9474806785583496,-0.6037033796310425,-0.12311244010925293,0.15779797732830048
13.469058275222778,-0.37377047538757324,-0.35344797372817993,0.9476103782653809,-0.6057904958724976,-0.12551510334014893,0.1578538864850998
13.489096641540527,-0.3761385381221771,-0.35638171434402466,0.9455113410949707,-0.6048558950424194,-0.12527690827846527,0.15831546485424042
13.509165525436401,-0.3763236403465271,-0.3611346483230591,0.9491753578186035,-0.6052490472793579,-0.12353041768074036,0.1570441573858261
13.529249668121338,-0.38344594836235046,-0.3608214259147644,0.954525351524353,-0.6028128266334534,-0.12912839651107788,0.15590927004814148
13.549376010894775,-0.3860626816749573,-0.3524763584136963,0.9487401247024536,-0.6049647331237793,-0.13047455251216888,0.1569034457206726
13.569494485855103,-0.38147372007369995,-0.35505300760269165,0.945578932762146,-0.6007074117660522,-0.1249256283044815,0.15850865840911865
13.58962631225586,-0.3697192966938019,-0.35662585496902466,0.9469900727272034,-0.6023096442222595,-0.1200067400932312,0.15787093341350555
13.6096510887146,-0.387371301651001,-0.3631677031517029,0.9467097520828247,-0.5967682600021362,-0.1203915923833847,0.15914012491703033
13.62973141670227,-0.3782101273536682,-0.3537125587463379,0.945030927658081,-0.5941235423088074,-0.12206478416919708,0.15999354422092438
13.649814128875732,-0.3821489214897156,-0.363937109708786,0.9483698606491089,-0.6070939302444458,-0.12017421424388885,0.15799972414970398
13.669909477233887,-0.36461663246154785,-0.3542354702949524,0.9466984272003174,-0.6041750907897949,-0.1216183602809906,0.15763069689273834
13.690002202987671,-0.3455851376056671,-0.3621453642845154,0.9402665495872498,-0.6035737991333008,-0.11082011461257935,0.15760953724384308
13.710062265396118,-0.3685232400894165,-0.3578459620475769,0.9436166286468506,-0.6035968065261841,-0.11905138194561005,0.1586124449968338
13.730561256408691,-0.37107592821121216,-0.3560017943382263,0.9439259171485901,-0.6086161136627197,-0.12101328372955322,0.15803539752960205
13.750655174255371,-0.3687379062175751,-0.3538484573364258,0.9446674585342407,-0.6079028844833374,-0.12281100451946259,0.15740646421909332
13.770776510238647,-0.378806471824646,-0.3595482110977173,0.9457142353057861,-0.6009654998779297,-0.12269575893878937,0.1578686684370041
13.79080867767334,-0.3635404706001282,-0.35361433029174805,0.9505938291549683,-0.6007221937179565,-0.1203562468290329,0.15798869729042053
13.810899496078491,-0.36582162976264954,-0.36170732975006104,0.9559153914451599,-0.5991872549057007,-0.11933344602584839,0.15722618997097015
13.830970764160156,-0.36639752984046936,-0.3599458932876587,0.9481883645057678,-0.6016734838485718,-0.11939661204814911,0.15781058371067047
13.851250648498535,-0.34523260593414307,-0.36345499753952026,0.9449605941772461,-0.6039712429046631,-0.11326807737350464,0.15681782364845276
13.87134051322937,-0.35212442278862,-0.36271315813064575,0.9459399580955505,-0.60310298204422,-0.11347620189189911,0.1574060618877411
13.891417741775513,-0.35050761699676514,-0.3611988425254822,0.94688481092453,-0.6009753942489624,-0.1139802634716034,0.15609382092952728
13.911472082138062,-0.36277198791503906,-0.3602772057056427,0.9436661005020142,-0.6073487997055054,-0.11492644250392914,0.15740282833576202
13.931560039520264,-0.3542187511920929,-0.36109659075737,0.9402258396148682,-0.6009002923965454,-0.10970304906368256,0.15854938328266144
13.951788902282715,-0.3591312766075134,-0.3609122633934021,0.9420757293701172,-0.6046748757362366,-0.11419118940830231,0.1564338356256485
13.971800804138184,-0.3602951169013977,-0.35510796308517456,0.9421506524085999,-0.6004547476768494,-0.11601436138153076,0.1567327380180359
13.991944551467896,-0.3607516586780548,-0.35760900378227234,0.9424974918365479,-0.6042662858963013,-0.11802889406681061,0.1565372198820114
14.011988162994385,-0.35125818848609924,-0.36304354667663574,0.9400938749313354,-0.6055669188499451,-0.11045181751251221,0.15681637823581696
14.032047033309937,-0.3408370316028595,-0.36364907026290894,0.9463464021682739,-0.6067257523536682,-0.11054973304271698,0.1552760899066925
14.052132844924927,-0.3393513858318329,-0.36222338676452637,0.9539004564285278,-0.6008312106132507,-0.11128546297550201,0.15553981065750122
14.072221517562866,-0.3362812101840973,-0.3688559830188751,0.9394188523292542,-0.5991337299346924,-0.098880335688591,0.15774418413639069
14.092289686203003,-0.342947393655777,-0.35878098011016846,0.9436937570571899,-0.6054939031600952,-0.1109032928943634,0.1561153680086136
14.112393856048584,-0.35033178329467773,-0.3624155521392822,0.9441567063331604,-0.6021261215209961,-0.11213620007038116,0.1558305025100708
14.132506847381592,-0.3611164689064026,-0.3631104826927185,0.9440780878067017,-0.5988104343414307,-0.1129876971244812,0.15645724534988403
14.152618169784546,-0.3469022512435913,-0.361728310585022,0.942348301410675,-0.5986404418945312,-0.1100950688123703,0.156801238656044
14.172704219818115,-0.3503544330596924,-0.36747080087661743,0.9417567253112793,-0.5994194149971008,-0.1066598892211914,0.15661193430423737
14.192801475524902,-0.3334721028804779,-0.36106735467910767,0.9399999380111694,-0.600471556186676,-0.10476367175579071,0.15713682770729065
14.212865352630615,-0.33594489097595215,-0.36700382828712463,0.939619243144989,-0.600566029548645,-0.10506096482276917,0.1566678136587143
14.232993602752686,-0.3367043435573578,-0.36900007724761963,0.9370380640029907,-0.6005401015281677,-0.10041652619838715,0.1577899158000946
14.25306749343872,-0.2925078272819519,-0.36918535828590393,0.9331156015396118,-0.6055600047111511,-0.0885130912065506,0.15670621395111084
14.273157596588135,-0.2933632731437683,-0.36918899416923523,0.9334021806716919,-0.6002476215362549,-0.08725734800100327,0.15573498606681824
14.293403625488281,-0.34035512804985046,-0.36905333399772644,0.9399274587631226,-0.6007627248764038,-0.09897879511117935,0.1568855196237564
14.313501596450806,-0.33988189697265625,-0.36035412549972534,0.9539859294891357,-0.5985091924667358,-0.1091063916683197,0.15497532486915588
14.333576440811157,-0.31600257754325867,-0.36632072925567627,0.9416099786758423,-0.5991390943527222,-0.09560251235961914,0.15596124529838562
14.35386323928833,-0.32869380712509155,-0.36290422081947327,0.9405852556228638,-0.5942267179489136,-0.10325470566749573,0.15595132112503052
14.37395453453064,-0.3166753649711609,-0.37068015336990356,0.9380534291267395,-0.5932456254959106,-0.09400025010108948,0.15658432245254517
14.394028902053833,-0.33005568385124207,-0.36281758546829224,0.9421770572662354,-0.6015565991401672,-0.10284577310085297,0.15593691170215607
14.414185762405396,-0.3204983174800873,-0.36638742685317993,0.9391865730285645,-0.6005634069442749,-0.09767358750104904,0.15641237795352936
14.434268712997437,-0.33039548993110657,-0.3727276921272278,0.9386494159698486,-0.6003357172012329,-0.09832558035850525,0.1556439995765686
14.454344034194946,-0.3222200572490692,-0.3651740849018097,0.9376676082611084,-0.6010266542434692,-0.09936000406742096,0.15608687698841095
14.474536418914795,-0.32385680079460144,-0.36692461371421814,0.9364905953407288,-0.6044594049453735,-0.0965721383690834,0.1564130187034607
14.494627952575684,-0.3184170126914978,-0.3642025291919708,0.9394803643226624,-0.6027680039405823,-0.09775017201900482,0.15548056364059448
14.51471757888794,-0.31679096817970276,-0.36128509044647217,0.9457717537879944,-0.5997207760810852,-0.1001242846250534,0.15375272929668427
14.534918785095215,-0.32593873143196106,-0.3708362579345703,0.9411560297012329,-0.5991175770759583,-0.09913498163223267,0.15381915867328644
