liuyurong129/humanoid-gym/humanoid/data/target_q_20250522-040034.csv
timestamp,joint_1,joint_2,joint_3,joint_4,joint_5,joint_6
5.078315734863281e-05,0.0,0.0,0.0,0.0,0.0,0.0
0.020133018493652344,0.0,0.0,0.0,0.0,0.0,0.0
0.04021620750427246,0.0,0.0,0.0,0.0,0.0,0.0
0.06029343605041504,0.0,0.0,0.0,0.0,0.0,0.0
0.0803687572479248,0.0,0.0,0.0,0.0,0.0,0.0
0.10065841674804688,0.14060021936893463,-0.8262791633605957,0.7943372130393982,0.5161043405532837,-0.20086775720119476,-0.1417403668165207
0.12078642845153809,0.13067945837974548,-0.8457677960395813,0.803713321685791,0.5237682461738586,-0.20116059482097626,-0.1419392228126526
0.14090681076049805,0.10895150154829025,-0.8840636014938354,0.8205314874649048,0.5385856628417969,-0.20110128819942474,-0.14241233468055725
0.16095805168151855,0.09756486862897873,-0.9035431742668152,0.8285019993782043,0.5457040667533875,-0.19983842968940735,-0.1427217274904251
0.18103265762329102,0.07546276599168777,-0.9407050013542175,0.8489831686019897,0.5596991777420044,-0.19776347279548645,-0.14322422444820404
0.2011575698852539,0.053224436938762665,-0.9786828756332397,0.8683562278747559,0.5727282762527466,-0.19412238895893097,-0.14369794726371765
0.2212839126586914,0.0431087389588356,-0.9956511855125427,0.8821947574615479,0.5788581371307373,-0.191756010055542,-0.14396034181118011
0.24133610725402832,0.020298101007938385,-1.032147765159607,0.900856077671051,0.5895728468894958,-0.18517833948135376,-0.1446416825056076
0.2616572380065918,-0.0014670025557279587,-1.0674078464508057,0.9237987399101257,0.5983160734176636,-0.17604097723960876,-0.14557084441184998
0.28178930282592773,-0.013453609310090542,-1.0857168436050415,0.9301066398620605,0.6017470359802246,-0.17230840027332306,-0.14605459570884705
0.30185365676879883,-0.02942049875855446,-1.1165285110473633,0.9503492116928101,0.6059107780456543,-0.16449591517448425,-0.14646781980991364
0.32230663299560547,-0.04365787282586098,-1.141817331314087,0.9633455276489258,0.6074917316436768,-0.15785466134548187,-0.14719539880752563
0.3424086570739746,-0.04721355438232422,-1.1529898643493652,0.9699839353561401,0.6063189506530762,-0.15549522638320923,-0.1471824198961258
0.36246252059936523,-0.05427328124642372,-1.1722521781921387,0.9811740517616272,0.6029841303825378,-0.15148773789405823,-0.14783400297164917
0.3825709819793701,-0.05737844109535217,-1.180081844329834,0.9885503053665161,0.6028063297271729,-0.14934583008289337,-0.14813077449798584
0.4026498794555664,-0.062339313328266144,-1.1935162544250488,0.9998077154159546,0.6010631322860718,-0.14570792019367218,-0.14867855608463287
0.42302370071411133,-0.0650436133146286,-1.2044984102249146,1.0098402500152588,0.5978390574455261,-0.14342239499092102,-0.14943085610866547
0.44312143325805664,-0.06514772027730942,-1.2094815969467163,1.0149903297424316,0.5957885980606079,-0.14338813722133636,-0.1495324820280075
0.46320390701293945,-0.06631214171648026,-1.2171884775161743,1.0250110626220703,0.592964768409729,-0.14247547090053558,-0.15011823177337646
0.4833989143371582,-0.06417886912822723,-1.2225042581558228,1.036197304725647,0.5893040895462036,-0.14220675826072693,-0.15056845545768738
0.5034923553466797,-0.06335937976837158,-1.2242186069488525,1.0422801971435547,0.5886171460151672,-0.1416928917169571,-0.1507549285888672
0.5235552787780762,-0.059174757450819016,-1.226727843284607,1.0534204244613647,0.5849365592002869,-0.14214281737804413,-0.15110287070274353
0.5436491966247559,-0.05721746385097504,-1.227996826171875,1.0522544384002686,0.5819544196128845,-0.14345136284828186,-0.15128539502620697
0.5637760162353516,-0.05368533357977867,-1.2280118465423584,1.0595159530639648,0.5808017253875732,-0.14429417252540588,-0.15174514055252075
0.5838019847869873,-0.04893654212355614,-1.224636435508728,1.07174551486969,0.580545961856842,-0.1426836997270584,-0.1526319682598114
0.6039083003997803,-0.045440927147865295,-1.2222568988800049,1.0877641439437866,0.5820930600166321,-0.1427716612815857,-0.15309812128543854
0.6240131855010986,-0.0408751554787159,-1.2178397178649902,1.1068211793899536,0.5833866596221924,-0.1458723396062851,-0.15384510159492493
0.6440579891204834,-0.038375068455934525,-1.217414379119873,1.1020628213882446,0.5802537798881531,-0.14835147559642792,-0.15430785715579987
0.6641621589660645,-0.027840064838528633,-1.2080177068710327,1.1155462265014648,0.5797950625419617,-0.14957435429096222,-0.15478619933128357
0.6842482089996338,-0.024354539811611176,-1.2051293849945068,1.1199833154678345,0.5816268920898438,-0.1564434915781021,-0.15560860931873322
0.7044880390167236,-0.02214384637773037,-1.2033820152282715,1.129929780960083,0.5831661224365234,-0.15914970636367798,-0.1559644490480423
0.72458815574646,-0.023398566991090775,-1.2023963928222656,1.123486876487732,0.5827031135559082,-0.165456160902977,-0.15724244713783264
0.7446818351745605,-0.024014178663492203,-1.1989943981170654,1.1223604679107666,0.5832411646842957,-0.1698741763830185,-0.15881523489952087
0.7647595405578613,-0.028852220624685287,-1.1997978687286377,1.1053409576416016,0.5811396837234497,-0.17447365820407867,-0.16013950109481812
0.7848999500274658,-0.03390812128782272,-1.1970900297164917,1.0991692543029785,0.5825650691986084,-0.18087425827980042,-0.1622377187013626
0.8050026893615723,-0.030782431364059448,-1.1904399394989014,1.1186257600784302,0.5879470109939575,-0.18160966038703918,-0.1621779203414917
0.8251593112945557,-0.03216716647148132,-1.1870660781860352,1.116842269897461,0.587130069732666,-0.18948625028133392,-0.16428399085998535
0.8457033634185791,-0.03584319353103638,-1.1846758127212524,1.1070023775100708,0.5868422985076904,-0.19512546062469482,-0.16683638095855713
0.8658113479614258,-0.041016217321157455,-1.1862425804138184,1.0882725715637207,0.5833616256713867,-0.20037178695201874,-0.16884301602840424
0.8858332633972168,-0.04470018297433853,-1.1812021732330322,1.0868393182754517,0.5858541131019592,-0.20700305700302124,-0.1711954027414322
0.9059817790985107,-0.04122695326805115,-1.1777483224868774,1.1028244495391846,0.5905447602272034,-0.2094254493713379,-0.1712356060743332
0.9260382652282715,-0.03754093125462532,-1.1740983724594116,1.1027730703353882,0.5911310911178589,-0.21328654885292053,-0.17378957569599152
0.9460973739624023,-0.04088280349969864,-1.1747488975524902,1.0865074396133423,0.5865123271942139,-0.21682636439800262,-0.1761639267206192
0.9662935733795166,-0.041898392140865326,-1.1706534624099731,1.0869243144989014,0.5872533321380615,-0.2228662371635437,-0.17847709357738495
0.9862847328186035,-0.04628460109233856,-1.1675928831100464,1.0849316120147705,0.5894320011138916,-0.23051446676254272,-0.1802603304386139
1.006429672241211,-0.04347218945622444,-1.1637932062149048,1.0928213596343994,0.5915416479110718,-0.23131012916564941,-0.18093149363994598
1.026625394821167,-0.04372803121805191,-1.1596325635910034,1.0869818925857544,0.5929843783378601,-0.23548594117164612,-0.18360406160354614
1.0467462539672852,-0.04833553731441498,-1.159598469734192,1.0724165439605713,0.5900803208351135,-0.24309398233890533,-0.18783468008041382
1.0668275356292725,-0.05300373584032059,-1.160328984260559,1.0619840621948242,0.5883227586746216,-0.24693791568279266,-0.19004125893115997
1.0869266986846924,-0.048981066793203354,-1.157074213027954,1.058105230331421,0.584916889667511,-0.2477576732635498,-0.19462689757347107
1.1070101261138916,-0.041745107620954514,-1.1527771949768066,1.0641549825668335,0.5859821438789368,-0.24574396014213562,-0.19620348513126373
1.1271021366119385,-0.03292448818683624,-1.1476713418960571,1.0756317377090454,0.5860244631767273,-0.24902833998203278,-0.19960419833660126
1.1472489833831787,-0.025830943137407303,-1.1414555311203003,1.0815247297286987,0.5834707617759705,-0.25132596492767334,-0.2034226357936859
1.1673986911773682,-0.023265337571501732,-1.1384154558181763,1.0804187059402466,0.5803822875022888,-0.25191375613212585,-0.20596741139888763
1.1873860359191895,-0.01096494309604168,-1.1244444847106934,1.103601336479187,0.5837125778198242,-0.2569827437400818,-0.2074112594127655
1.2075755596160889,-0.00436699204146862,-1.1136237382888794,1.1174254417419434,0.5867266654968262,-0.26840129494667053,-0.20874172449111938
1.2276828289031982,-0.0034035358112305403,-1.1078389883041382,1.1174429655075073,0.5883442759513855,-0.273855060338974,-0.20935875177383423
1.247753620147705,-0.0025894176214933395,-1.096545696258545,1.1153911352157593,0.5893885493278503,-0.28613343834877014,-0.2114126980304718
1.2679262161254883,-0.0010873917490243912,-1.0901468992233276,1.114722728729248,0.5895336270332336,-0.29101771116256714,-0.21258816123008728
1.2879486083984375,0.004105133004486561,-1.0760493278503418,1.1205893754959106,0.5907591581344604,-0.3033013641834259,-0.21392783522605896
1.308013677597046,0.01075647585093975,-1.0612820386886597,1.1225454807281494,0.5884023904800415,-0.31186771392822266,-0.21723107993602753
1.3281078338623047,0.015275312587618828,-1.0549286603927612,1.127889633178711,0.5884350538253784,-0.3191116750240326,-0.218103289604187
1.348327398300171,0.02185116708278656,-1.0450681447982788,1.122595191001892,0.5837804675102234,-0.32649585604667664,-0.22332856059074402
1.3686363697052002,0.027407491579651833,-1.0388892889022827,1.113221526145935,0.5728963017463684,-0.3280843198299408,-0.23165594041347504
1.3887500762939453,0.031563300639390945,-1.0362827777862549,1.1114507913589478,0.5665464401245117,-0.32719773054122925,-0.23628464341163635
1.4088830947875977,0.03437962383031845,-1.0314817428588867,1.0942230224609375,0.5441064238548279,-0.3168586790561676,-0.24885471165180206
1.4289422035217285,0.032344043254852295,-1.0278245210647583,1.0810257196426392,0.5272752642631531,-0.3098900020122528,-0.25584521889686584
1.4490647315979004,0.026736559346318245,-1.0154281854629517,1.050747275352478,0.4975641965866089,-0.2908678948879242,-0.2662944793701172
1.4691863059997559,0.024667173624038696,-1.0071568489074707,1.0360685586929321,0.48338302969932556,-0.2798525094985962,-0.2700883448123932
1.489232063293457,0.022892415523529053,-0.9902136921882629,1.0078665018081665,0.4564158320426941,-0.25454089045524597,-0.2767302393913269
1.5096378326416016,0.020179416984319687,-0.9741739630699158,0.9770004153251648,0.4322366416454315,-0.22910740971565247,-0.2833527624607086
1.5297467708587646,0.01876186393201351,-0.9670790433883667,0.9607154726982117,0.4204748272895813,-0.21638531982898712,-0.2860475182533264
1.5498201847076416,0.017419198527932167,-0.952569305896759,0.9294200539588928,0.39732852578163147,-0.18921305239200592,-0.29164478182792664
1.5699105262756348,0.015726381912827492,-0.9455181956291199,0.9129461050033569,0.3860568404197693,-0.17633973062038422,-0.294517457485199
1.5900580883026123,0.017230650410056114,-0.93086177110672,0.882929265499115,0.3638545870780945,-0.14708757400512695,-0.3001537322998047
1.610074520111084,0.02083832398056984,-0.9159730672836304,0.8541936278343201,0.3429110646247864,-0.11608348041772842,-0.30617037415504456
1.6301836967468262,0.023525182157754898,-0.9088689088821411,0.8397601842880249,0.3347201943397522,-0.09935343265533447,-0.309634804725647
1.6502604484558105,0.035489559173583984,-0.8938488364219666,0.8179288506507874,0.32058584690093994,-0.06235498934984207,-0.3173011243343353
1.6703016757965088,0.05748719722032547,-0.8824203610420227,0.8150182962417603,0.3203578293323517,-0.022472510114312172,-0.32689425349235535
1.6903905868530273,0.07172026485204697,-0.8790761828422546,0.8246185779571533,0.3235572278499603,-0.005400678142905235,-0.33106398582458496
1.7105107307434082,0.09805996716022491,-0.8786675333976746,0.8582553863525391,0.33956578373908997,0.014113729819655418,-0.3366369903087616
1.7310161590576172,0.11947158724069595,-0.8810192942619324,0.8980610966682434,0.3589935302734375,0.020082801580429077,-0.3398106098175049
1.7510912418365479,0.1291012018918991,-0.8823875188827515,0.9188781380653381,0.36879003047943115,0.020460916683077812,-0.34077808260917664
1.7711572647094727,0.14489507675170898,-0.886916995048523,0.9595094919204712,0.39227578043937683,0.015392862260341644,-0.3418445289134979
1.791430950164795,0.16062770783901215,-0.891946017742157,0.9987776279449463,0.4179061949253082,0.01030084677040577,-0.343110591173172
1.8115386962890625,0.1632004678249359,-0.8978360891342163,1.0151219367980957,0.4334375262260437,0.0016282089054584503,-0.34344834089279175
1.8316171169281006,0.16219112277030945,-0.9141765236854553,1.033735990524292,0.4692726135253906,-0.020745521411299706,-0.3450777232646942
1.8517341613769531,0.16146960854530334,-0.9227395057678223,1.0382453203201294,0.4895206093788147,-0.03165927156805992,-0.3463929295539856
1.8718154430389404,0.15034224092960358,-0.9410485625267029,1.0368026494979858,0.5241568088531494,-0.060286372900009155,-0.3489324450492859
1.891911268234253,0.13370491564273834,-0.957823634147644,1.0242589712142944,0.551990807056427,-0.08943267166614532,-0.35203298926353455
1.9119973182678223,0.12461941689252853,-0.9656825661659241,1.0157324075698853,0.5641524195671082,-0.10388350486755371,-0.35376444458961487
1.932093620300293,0.10866592824459076,-0.9784886240959167,1.00174081325531,0.5842815041542053,-0.1273471713066101,-0.35756775736808777
1.9526216983795166,0.08931944519281387,-0.9897688031196594,0.9850781559944153,0.5985414981842041,-0.14990811049938202,-0.3627568781375885
1.9726715087890625,0.0748533234000206,-0.995015025138855,0.9733403921127319,0.6032825112342834,-0.1620996594429016,-0.36606764793395996
1.9930715560913086,0.04331453517079353,-1.0055780410766602,0.9549233317375183,0.6165505647659302,-0.18983469903469086,-0.3726118803024292
2.0131614208221436,0.03297807648777962,-1.0062499046325684,0.9508039951324463,0.624328076839447,-0.19795456528663635,-0.3759501576423645
2.0332281589508057,0.011174000799655914,-1.008170485496521,0.9450105428695679,0.6415714025497437,-0.22082838416099548,-0.3812968134880066
2.053407669067383,0.0013857660815119743,-1.0083110332489014,0.9392308592796326,0.6460384130477905,-0.22901082038879395,-0.38541746139526367
2.073603868484497,0.00044180703116580844,-1.0040030479431152,0.9481837153434753,0.6571407318115234,-0.2342519313097,-0.39342379570007324
2.093574285507202,0.023600973188877106,-0.9935247898101807,0.9699476957321167,0.6620575189590454,-0.2197873592376709,-0.4044792056083679
2.1137139797210693,0.03883212432265282,-0.9881418943405151,0.9838189482688904,0.6615050435066223,-0.20779240131378174,-0.4097176194190979
2.13385272026062,0.06060396134853363,-0.9748036861419678,0.9974291920661926,0.6517040133476257,-0.17831160128116608,-0.42206496000289917
2.154682159423828,0.0728788673877716,-0.9547809958457947,0.9874119162559509,0.6333034038543701,-0.14135819673538208,-0.430625319480896
2.174777030944824,0.07458816468715668,-0.9461709260940552,0.9744892716407776,0.6255350112915039,-0.1245349645614624,-0.4367557466030121
2.1948812007904053,0.06364598870277405,-0.9376353025436401,0.9346872568130493,0.6209011673927307,-0.10465594381093979,-0.4511287808418274
2.2150628566741943,0.05271684378385544,-0.9364922046661377,0.9131724834442139,0.6201379895210266,-0.10273707658052444,-0.4572196304798126
2.235123634338379,0.03225480020046234,-0.9345720410346985,0.8704274296760559,0.626320481300354,-0.09784048050642014,-0.46894487738609314
2.255160331726074,0.02822737768292427,-0.9321109652519226,0.857542872428894,0.6412001848220825,-0.08834114670753479,-0.47811180353164673
2.2753114700317383,0.030300138518214226,-0.9315140247344971,0.8626775741577148,0.6500371098518372,-0.08446826785802841,-0.4818507432937622
2.295381546020508,0.03796049579977989,-0.9284325242042542,0.8747732043266296,0.6638283729553223,-0.0679665133357048,-0.4902035593986511
2.315603733062744,0.05831574648618698,-0.9251954555511475,0.9072447419166565,0.6789612174034119,-0.04332872852683067,-0.5005501508712769
2.3356990814208984,0.06356150656938553,-0.9274880290031433,0.9262073040008545,0.6911994814872742,-0.04027905687689781,-0.5048215389251709
2.355787992477417,0.07162105292081833,-0.9257042407989502,0.9418953061103821,0.7068955898284912,-0.02163916826248169,-0.5137560367584229
2.375990629196167,0.07005593180656433,-0.9257665872573853,0.9384452700614929,0.7131562829017639,-0.014858664944767952,-0.517664909362793
2.396092653274536,0.05174551531672478,-0.9279223084449768,0.9082528352737427,0.7235307693481445,-0.009605541825294495,-0.5241466164588928
2.416396379470825,0.028554921969771385,-0.9319789409637451,0.8739170432090759,0.73073410987854,-0.01105658058077097,-0.5305575132369995
2.436478614807129,0.01566583290696144,-0.93415367603302,0.8565253019332886,0.7323635816574097,-0.013738426379859447,-0.5337028503417969
2.456639528274536,0.008994419127702713,-0.9386965036392212,0.8526782989501953,0.7419171929359436,-0.014831420965492725,-0.5383965373039246
2.476750373840332,0.013270106166601181,-0.9429621696472168,0.862998366355896,0.7545850872993469,-0.0112164206802845,-0.541201114654541
2.496838331222534,0.01586189866065979,-0.943607747554779,0.868253767490387,0.7581874132156372,-0.004827136639505625,-0.543815016746521
2.5169179439544678,0.0334380567073822,-0.9403660297393799,0.8926287889480591,0.7693597078323364,0.022403592243790627,-0.5495039820671082
2.5370025634765625,0.03863103687763214,-0.9400871992111206,0.9014894366264343,0.7755535244941711,0.03270655870437622,-0.5522544384002686
2.5571539402008057,0.04207579046487808,-0.9392402768135071,0.905168890953064,0.7839252352714539,0.05126168578863144,-0.5582546591758728
2.5776121616363525,0.035173073410987854,-0.9419099688529968,0.8919916152954102,0.7935982942581177,0.06234152615070343,-0.5632386207580566
2.5976967811584473,0.02515333890914917,-0.9442917108535767,0.8807235956192017,0.7955594062805176,0.06183028221130371,-0.5658448934555054
2.6177921295166016,0.004710519686341286,-0.9505293965339661,0.859508752822876,0.8012834787368774,0.05679099261760712,-0.570106565952301
2.6379411220550537,-0.0035670697689056396,-0.953708827495575,0.8516714572906494,0.8042558431625366,0.05393845587968826,-0.5719130635261536
2.6580731868743896,-0.013027019798755646,-0.9598606824874878,0.8497665524482727,0.8106298446655273,0.048983290791511536,-0.574584424495697
2.678954601287842,-0.006950426381081343,-0.9638203978538513,0.8618226051330566,0.8218346834182739,0.0567946694791317,-0.5758201479911804
2.6990134716033936,0.002277994528412819,-0.964512050151825,0.8738049864768982,0.8293033838272095,0.06718768179416656,-0.5763489007949829
2.7190959453582764,0.017556630074977875,-0.9641975164413452,0.896680474281311,0.842260479927063,0.08899512887001038,-0.578626275062561
2.7392117977142334,0.020488709211349487,-0.9632589817047119,0.8993056416511536,0.8457406163215637,0.09966542571783066,-0.580494225025177
2.75925874710083,0.024332860484719276,-0.9615432620048523,0.8980081081390381,0.8530040979385376,0.12113966047763824,-0.5840744972229004
2.7800629138946533,0.01544828712940216,-0.96270352602005,0.8881168961524963,0.8568950891494751,0.13077816367149353,-0.5885652303695679
2.800149440765381,0.00641300855204463,-0.9653981328010559,0.8794637322425842,0.8588145971298218,0.1295311003923416,-0.5903659462928772
2.8202097415924072,-0.015631865710020065,-0.9734123349189758,0.8619024753570557,0.8612715005874634,0.11784951388835907,-0.5932414531707764
2.840474843978882,-0.02499965950846672,-0.976588249206543,0.8551347851753235,0.8624926209449768,0.11347900331020355,-0.5944942235946655
2.8605856895446777,-0.03673113137483597,-0.9847981929779053,0.8532777428627014,0.8699707984924316,0.10210441797971725,-0.5947547554969788
2.8806450366973877,-0.03109501302242279,-0.9890135526657104,0.8608962297439575,0.8811218738555908,0.10855333507061005,-0.5944175720214844
2.9007811546325684,-0.022508325055241585,-0.9886533617973328,0.8694995045661926,0.8872352838516235,0.11941754817962646,-0.5945236682891846
2.9208476543426514,-0.005150820594280958,-0.9858590960502625,0.889472246170044,0.896988034248352,0.14363469183444977,-0.5954526662826538
2.9413464069366455,0.00048150215297937393,-0.9824374318122864,0.8934811353683472,0.9010612368583679,0.1644563525915146,-0.5980157852172852
2.9614381790161133,0.0019774565007537603,-0.9808077812194824,0.8923933506011963,0.9025930166244507,0.174515962600708,-0.5994779467582703
2.9815430641174316,-0.0037052491679787636,-0.9818580150604248,0.8825268745422363,0.904956042766571,0.18452192842960358,-0.6026342511177063
3.00160551071167,-0.010155770927667618,-0.9845380187034607,0.8768551349639893,0.905497670173645,0.18330255150794983,-0.6043056845664978
3.021785020828247,-0.028200654312968254,-0.9916687607765198,0.865514874458313,0.9070727825164795,0.17352664470672607,-0.6064045429229736
3.0419323444366455,-0.044289276003837585,-0.9997715353965759,0.8597785234451294,0.9096649289131165,0.16008172929286957,-0.6069940328598022
3.06204891204834,-0.048818450421094894,-1.0035748481750488,0.8615924715995789,0.9125451445579529,0.15464729070663452,-0.6065965294837952
3.082221508026123,-0.043803464621305466,-1.0084092617034912,0.8718796372413635,0.923052191734314,0.15656311810016632,-0.6047771573066711
3.1022322177886963,-0.03803212195634842,-1.007986307144165,0.876112699508667,0.9277595281600952,0.16511990129947662,-0.6044654846191406
3.1223063468933105,-0.02681785821914673,-1.0072628259658813,0.8878774642944336,0.9370130300521851,0.18082407116889954,-0.6040840148925781
3.1426076889038086,-0.018712591379880905,-1.0048038959503174,0.8904939293861389,0.9413349032402039,0.19973120093345642,-0.604990541934967
3.1626951694488525,-0.018770374357700348,-1.005030870437622,0.888057291507721,0.942642331123352,0.20550549030303955,-0.6058173179626465
3.182750940322876,-0.028726011514663696,-1.0084730386734009,0.8811963796615601,0.9426636695861816,0.20502258837223053,-0.6078901290893555
3.2028419971466064,-0.03462281823158264,-1.0111007690429688,0.8780288100242615,0.943101167678833,0.20236068964004517,-0.6083598136901855
3.2229182720184326,-0.047958265990018845,-1.0184385776519775,0.8742749691009521,0.9449149966239929,0.19095057249069214,-0.6082602739334106
3.2430427074432373,-0.05689569190144539,-1.0250111818313599,0.8767035007476807,0.9489244222640991,0.18063627183437347,-0.606574296951294
3.263129472732544,-0.057831764221191406,-1.0274304151535034,0.8784156441688538,0.9519203901290894,0.17885196208953857,-0.6053361296653748
3.2832908630371094,-0.047584958374500275,-1.0257984399795532,0.8849481344223022,0.959959864616394,0.19394811987876892,-0.6036239862442017
3.303386926651001,-0.040991172194480896,-1.0244228839874268,0.889738917350769,0.9632574319839478,0.20322619378566742,-0.6032707095146179
3.323606014251709,-0.02952646091580391,-1.0217052698135376,0.9014784097671509,0.9691821336746216,0.21976338326931,-0.6031206846237183
3.3436388969421387,-0.025554517284035683,-1.0203025341033936,0.9003852009773254,0.9720432162284851,0.23413489758968353,-0.6038892865180969
3.3637988567352295,-0.027867846190929413,-1.0204925537109375,0.8958984613418579,0.9717666506767273,0.23807990550994873,-0.6047015190124512
3.3838179111480713,-0.03583717346191406,-1.0212886333465576,0.8866620659828186,0.9696952104568481,0.2421661764383316,-0.6065672039985657
3.403881549835205,-0.04122175648808479,-1.0229192972183228,0.8818473815917969,0.9688079357147217,0.24128010869026184,-0.6072641611099243
3.4240455627441406,-0.053198881447315216,-1.0296058654785156,0.8771722316741943,0.9685527086257935,0.23140369355678558,-0.6071453094482422
3.444075345993042,-0.05904398113489151,-1.0350514650344849,0.8816808462142944,0.9719154834747314,0.22351591289043427,-0.6055873036384583
3.4642326831817627,-0.06055114045739174,-1.0367929935455322,0.8840301036834717,0.9738098382949829,0.22155742347240448,-0.6047290563583374
3.4842917919158936,-0.05338871106505394,-1.037602424621582,0.8948478102684021,0.981101393699646,0.2268453985452652,-0.6024317145347595
3.5043466091156006,-0.04421737417578697,-1.0359764099121094,0.9053345322608948,0.9868528842926025,0.23733121156692505,-0.6011924743652344
3.524430513381958,-0.040899477899074554,-1.035159707069397,0.9079063534736633,0.9879059791564941,0.2427636682987213,-0.6012009382247925
3.5445094108581543,-0.0364399328827858,-1.0332196950912476,0.9091365337371826,0.9905333518981934,0.2542598843574524,-0.6015071868896484
3.5645663738250732,-0.04073905199766159,-1.0332156419754028,0.899027407169342,0.990205705165863,0.260597288608551,-0.6027122735977173
3.584653377532959,-0.04527014493942261,-1.0350141525268555,0.8944677114486694,0.9899024963378906,0.259247362613678,-0.6030153036117554
3.604792833328247,-0.05793740600347519,-1.0411975383758545,0.8869533538818359,0.9876524806022644,0.2484738826751709,-0.6029658317565918
3.6248323917388916,-0.06318904459476471,-1.0442286729812622,0.8857097625732422,0.9877691864967346,0.24261166155338287,-0.602246880531311
3.644909143447876,-0.06800434738397598,-1.047876238822937,0.8873056769371033,0.9890424013137817,0.23651930689811707,-0.6007207632064819
3.6649725437164307,-0.059438496828079224,-1.0474610328674316,0.8973249793052673,0.9950869083404541,0.24318750202655792,-0.5985708832740784
3.6850879192352295,-0.05251592397689819,-1.0458706617355347,0.9035667777061462,0.9987555742263794,0.2502176761627197,-0.5975622534751892
3.7051446437835693,-0.04190995916724205,-1.0424566268920898,0.9134483337402344,1.0029209852218628,0.2633849084377289,-0.5966740846633911
3.725397825241089,-0.03112812712788582,-1.0372999906539917,0.9182969927787781,1.0060418844223022,0.2819351553916931,-0.5967589020729065
3.745497465133667,-0.03205546736717224,-1.0371342897415161,0.9154021143913269,1.0057233572006226,0.28537237644195557,-0.5972186326980591
3.765594959259033,-0.041570741683244705,-1.0390996932983398,0.9078986644744873,1.0015708208084106,0.28293392062187195,-0.5989989042282104
3.7856829166412354,-0.04805285111069679,-1.0411350727081299,0.90382981300354,0.9996005296707153,0.27874571084976196,-0.5995675325393677
3.8057613372802734,-0.06599728763103485,-1.0475890636444092,0.8930697441101074,0.995087742805481,0.26287326216697693,-0.5995975136756897
3.8258564472198486,-0.07483723759651184,-1.0529361963272095,0.8903865218162537,0.9958900213241577,0.2514305114746094,-0.5975866317749023
3.8460562229156494,-0.0765322893857956,-1.0542209148406982,0.8901695013046265,0.9963527321815491,0.24899305403232574,-0.5966609716415405
3.8660664558410645,-0.06771146506071091,-1.0539588928222656,0.8963730335235596,1.0021651983261108,0.2555035948753357,-0.5943034291267395
3.886392116546631,-0.060254085808992386,-1.0527434349060059,0.9020956158638,1.0058071613311768,0.26188915967941284,-0.5931383371353149
3.906599283218384,-0.04693429544568062,-1.0475414991378784,0.9090737700462341,1.0102583169937134,0.2796480357646942,-0.5922476053237915
3.9265997409820557,-0.039029624313116074,-1.0453517436981201,0.9140156507492065,1.0123528242111206,0.2907423675060272,-0.5923389196395874
3.946680784225464,-0.0390048548579216,-1.0455163717269897,0.9142414331436157,1.0124406814575195,0.2925257086753845,-0.5926014184951782
3.966759204864502,-0.04926568642258644,-1.0496059656143188,0.9103038311004639,1.0093066692352295,0.2837234437465668,-0.5935343503952026
3.9873409271240234,-0.061663247644901276,-1.05427885055542,0.9041675329208374,1.0062388181686401,0.27176088094711304,-0.5936548709869385
4.007472991943359,-0.07019031047821045,-1.05807626247406,0.9002060890197754,1.004768967628479,0.2617643177509308,-0.5929485559463501
4.027572870254517,-0.07802500575780869,-1.0618098974227905,0.8960853815078735,1.0041786432266235,0.2519550323486328,-0.5912463068962097
4.047659397125244,-0.07792866230010986,-1.0617834329605103,0.8964166641235352,1.0045989751815796,0.2517958879470825,-0.5904690027236938
4.067762136459351,-0.06743607670068741,-1.059704065322876,0.9030768275260925,1.009659767150879,0.26065951585769653,-0.5883721113204956
4.087941884994507,-0.061073724180459976,-1.0585635900497437,0.9094062447547913,1.0126408338546753,0.2652144432067871,-0.587356448173523
4.108076333999634,-0.04746992513537407,-1.0530824661254883,0.9179949760437012,1.0169094800949097,0.28158748149871826,-0.586515486240387
4.128231525421143,-0.038193684071302414,-1.0504769086837769,0.9235348701477051,1.0194402933120728,0.29288846254348755,-0.5863264799118042
4.148325443267822,-0.0375065878033638,-1.050328254699707,0.9236756563186646,1.0194512605667114,0.2952370047569275,-0.5864936113357544
4.1685051918029785,-0.04634496569633484,-1.0532399415969849,0.9213025569915771,1.0164835453033447,0.2878970503807068,-0.587242066860199
4.188546657562256,-0.052638813853263855,-1.054618000984192,0.9152662754058838,1.0137856006622314,0.28425368666648865,-0.587614893913269
4.208622455596924,-0.06924094259738922,-1.0599517822265625,0.9035494327545166,1.0085816383361816,0.2694302201271057,-0.5875110030174255
4.228725433349609,-0.074666328728199,-1.0620479583740234,0.8996143341064453,1.0073432922363281,0.2639061212539673,-0.5869417190551758
4.248830318450928,-0.0796617865562439,-1.0648237466812134,0.8983269929885864,1.0061125755310059,0.2564113140106201,-0.585387647151947
4.2688915729522705,-0.06916968524456024,-1.0620535612106323,0.9008426666259766,1.0099818706512451,0.26774364709854126,-0.5833831429481506
4.288979768753052,-0.06194380670785904,-1.0598785877227783,0.9059455394744873,1.012445330619812,0.2750839293003082,-0.5825899243354797
4.309131145477295,-0.046276453882455826,-1.054001808166504,0.9146379232406616,1.0170100927352905,0.29428544640541077,-0.5817198753356934
4.329196929931641,-0.033523038029670715,-1.04867684841156,0.923008382320404,1.0204172134399414,0.3116592466831207,-0.5818193554878235
4.3493382930755615,-0.03381825610995293,-1.049239993095398,0.9263211488723755,1.0202220678329468,0.31096458435058594,-0.5823192596435547
4.369352340698242,-0.043775007128715515,-1.0525903701782227,0.9243476390838623,1.0161807537078857,0.30171653628349304,-0.5835875868797302
4.389425754547119,-0.050927482545375824,-1.054062008857727,0.9185640215873718,1.013719081878662,0.29698842763900757,-0.5843106508255005
4.409528493881226,-0.06879366934299469,-1.0598021745681763,0.9066221714019775,1.0088430643081665,0.28009167313575745,-0.5845222473144531
4.429603099822998,-0.08296173810958862,-1.064940333366394,0.8984544277191162,1.0052322149276733,0.26409369707107544,-0.5836116075515747
4.449774980545044,-0.08795459568500519,-1.0672025680541992,0.8952475786209106,1.0041589736938477,0.2573759853839874,-0.5827202200889587
4.4697959423065186,-0.0777735784649849,-1.0660247802734375,0.894175112247467,1.009211540222168,0.2662091851234436,-0.5803134441375732
4.4898481369018555,-0.0646786317229271,-1.0628875494003296,0.9039283990859985,1.0133697986602783,0.27740707993507385,-0.5787410736083984
4.509953498840332,-0.056999947875738144,-1.0606365203857422,0.9098889827728271,1.0154695510864258,0.2847471833229065,-0.5781719088554382
4.530039548873901,-0.034684646874666214,-1.0530054569244385,0.9250737428665161,1.0217797756195068,0.30893903970718384,-0.5769464373588562
4.550102710723877,-0.02695242315530777,-1.0495256185531616,0.9370278120040894,1.0239843130111694,0.31725335121154785,-0.5775319337844849
4.570214509963989,-0.030094826593995094,-1.0500633716583252,0.9382221698760986,1.0229042768478394,0.3145153820514679,-0.5782350301742554
4.590298414230347,-0.04125264286994934,-1.0515327453613281,0.9343535900115967,1.0183789730072021,0.3060404658317566,-0.5800710916519165
4.610620737075806,-0.05907941982150078,-1.0562307834625244,0.9219057559967041,1.0136277675628662,0.2905016839504242,-0.5811179876327515
4.630717754364014,-0.07104797661304474,-1.0603902339935303,0.913068950176239,1.0104503631591797,0.27809369564056396,-0.5809493064880371
4.6508119106292725,-0.0867915004491806,-1.0661672353744507,0.90113365650177,1.0054190158843994,0.2599630653858185,-0.5801131725311279
4.671280860900879,-0.08632274717092514,-1.0665130615234375,0.8880838751792908,1.0054073333740234,0.26227229833602905,-0.5788146257400513
4.691471099853516,-0.08220324665307999,-1.0662033557891846,0.8876851797103882,1.0068228244781494,0.26560908555984497,-0.578044593334198
4.711509466171265,-0.06743863224983215,-1.0619198083877563,0.8954442739486694,1.0100891590118408,0.28061163425445557,-0.5771051049232483
4.73162841796875,-0.05637173727154732,-1.0578862428665161,0.9038649201393127,1.01278555393219,0.29226934909820557,-0.5767296552658081
4.751680850982666,-0.03691709786653519,-1.0516647100448608,0.9183858036994934,1.0186779499053955,0.3130607604980469,-0.5763128995895386
4.771759748458862,-0.03538721799850464,-1.0514631271362305,0.9294401407241821,1.019177794456482,0.3121182918548584,-0.5774112343788147
4.791846752166748,-0.03762219101190567,-1.0524243116378784,0.9305719137191772,1.0182749032974243,0.30939820408821106,-0.578059732913971
4.81191873550415,-0.04927577078342438,-1.0554890632629395,0.9249324798583984,1.0145509243011475,0.2988240718841553,-0.5794100165367126
4.832324028015137,-0.06744498759508133,-1.0612080097198486,0.9101008772850037,1.0098979473114014,0.28208884596824646,-0.5796301364898682
4.852452278137207,-0.07936334609985352,-1.065733790397644,0.9028733372688293,1.0064271688461304,0.2683350741863251,-0.579097330570221
4.8729567527771,-0.08907796442508698,-1.0687953233718872,0.892379641532898,1.002748966217041,0.25789281725883484,-0.5780767202377319
4.893033504486084,-0.08550668507814407,-1.068295955657959,0.8873393535614014,1.0046725273132324,0.26225289702415466,-0.5770928263664246
4.9132184982299805,-0.07793740183115005,-1.067055106163025,0.8871938586235046,1.007155179977417,0.2691439390182495,-0.5756947994232178
4.933297872543335,-0.06945635378360748,-1.0646986961364746,0.8926501274108887,1.008980631828308,0.27701592445373535,-0.5751442313194275
4.953368663787842,-0.04686428979039192,-1.0566543340682983,0.9084763526916504,1.0141727924346924,0.300957590341568,-0.5743786096572876
4.973441123962402,-0.03616590425372124,-1.053533911705017,0.9160153865814209,1.0175681114196777,0.31230592727661133,-0.574073851108551
4.993530035018921,-0.03288181126117706,-1.0519089698791504,0.9284980297088623,1.0183420181274414,0.313992440700531,-0.5753600001335144
5.013628244400024,-0.04118240624666214,-1.0548163652420044,0.9302029609680176,1.0158579349517822,0.30375146865844727,-0.5769441723823547
5.033710479736328,-0.0485682338476181,-1.0569175481796265,0.9262701272964478,1.0127439498901367,0.2965041399002075,-0.5780045986175537
5.053812026977539,-0.06706541776657104,-1.0624698400497437,0.9120790362358093,1.0075994729995728,0.27881067991256714,-0.5785357356071472
5.073856830596924,-0.08789412677288055,-1.0704365968704224,0.9011671543121338,1.002436637878418,0.2529620826244354,-0.5769516825675964
5.0939671993255615,-0.09383676946163177,-1.072145938873291,0.8952630758285522,1.000279188156128,0.24635013937950134,-0.5763059854507446
5.114049434661865,-0.08556405454874039,-1.0715066194534302,0.8914589881896973,1.0054683685302734,0.25224894285202026,-0.5737855434417725
5.134189128875732,-0.07114469259977341,-1.0680192708969116,0.8973720073699951,1.0111078023910522,0.26529571413993835,-0.5719380974769592
5.154266834259033,-0.061207741498947144,-1.0656887292861938,0.9053387641906738,1.0143154859542847,0.2734213173389435,-0.5711396336555481
5.174358129501343,-0.03848075494170189,-1.0571656227111816,0.9228677153587341,1.0201268196105957,0.29731857776641846,-0.5704147219657898
5.19442343711853,-0.03002486564218998,-1.0529956817626953,0.9292775392532349,1.021712064743042,0.3079489767551422,-0.5706740021705627
5.214515686035156,-0.02670394629240036,-1.0519837141036987,0.9376507997512817,1.022214412689209,0.31138885021209717,-0.5718363523483276
5.234609603881836,-0.03733275458216667,-1.053127408027649,0.9358890056610107,1.0162979364395142,0.3033923804759979,-0.5744681358337402
5.2547266483306885,-0.04569949209690094,-1.0541913509368896,0.9293789267539978,1.0125219821929932,0.2981339395046234,-0.5758017301559448
5.274760484695435,-0.06297353655099869,-1.059708833694458,0.9161421060562134,1.0082457065582275,0.28222107887268066,-0.5765922665596008
5.294886589050293,-0.07920612394809723,-1.0668461322784424,0.9045043587684631,1.0047199726104736,0.2624886929988861,-0.5755465626716614
5.314975023269653,-0.08324813097715378,-1.0682138204574585,0.9007053375244141,1.0035291910171509,0.2579762637615204,-0.5751131176948547
5.335086107254028,-0.0796300396323204,-1.0681087970733643,0.8973535299301147,1.0050921440124512,0.2604832947254181,-0.5736348628997803
5.355137348175049,-0.0714896097779274,-1.0656317472457886,0.9009444117546082,1.007715106010437,0.26859191060066223,-0.572756290435791
5.3752055168151855,-0.055008336901664734,-1.0611056089401245,0.913744330406189,1.0128223896026611,0.2833760678768158,-0.571768045425415
5.395445823669434,-0.04127124696969986,-1.0547651052474976,0.919418454170227,1.0161505937576294,0.3021104633808136,-0.5721397399902344
5.415560483932495,-0.03800676763057709,-1.053490400314331,0.9218077659606934,1.017226219177246,0.3066670596599579,-0.5726395845413208
5.435694932937622,-0.043012458831071854,-1.0551271438598633,0.9232731461524963,1.0145461559295654,0.30167531967163086,-0.5744932293891907
5.455960035324097,-0.05036026984453201,-1.0572490692138672,0.9183619022369385,1.0116307735443115,0.2953125238418579,-0.5754746794700623
5.476111650466919,-0.0674276128411293,-1.064254879951477,0.9071083068847656,1.0064334869384766,0.2763059735298157,-0.5760852098464966
5.496182203292847,-0.07955347001552582,-1.0703508853912354,0.9000178575515747,1.0044194459915161,0.25941503047943115,-0.5748000144958496
5.516240119934082,-0.08073874562978745,-1.0710201263427734,0.8994513154029846,1.003954529762268,0.25676819682121277,-0.5742252469062805
5.53638219833374,-0.0729077085852623,-1.0685211420059204,0.9024754166603088,1.006826639175415,0.2635840177536011,-0.5726984739303589
5.556595087051392,-0.06712392717599869,-1.0670329332351685,0.9067258834838867,1.0092147588729858,0.268154501914978,-0.571868896484375
5.576686143875122,-0.04817638918757439,-1.0589909553527832,0.9202201962471008,1.0147690773010254,0.28864800930023193,-0.5708613395690918
5.5967631340026855,-0.03528033569455147,-1.0537877082824707,0.9293904900550842,1.0186158418655396,0.30383366346359253,-0.5710287690162659
5.616858720779419,-0.032589517533779144,-1.0523741245269775,0.9308726787567139,1.0189526081085205,0.308407723903656,-0.5716936588287354
5.63707709312439,-0.04090029001235962,-1.0546202659606934,0.9282965660095215,1.01516592502594,0.30156248807907104,-0.5738826394081116
5.657046318054199,-0.05617976188659668,-1.058132290840149,0.917086124420166,1.008448839187622,0.2896125912666321,-0.5759344696998596
5.67715048789978,-0.06403184682130814,-1.0611344575881958,0.9105662703514099,1.0062063932418823,0.2817455232143402,-0.5761329531669617
5.697216749191284,-0.07882087677717209,-1.066949725151062,0.9028552770614624,1.0025503635406494,0.26403531432151794,-0.575514018535614
5.717473745346069,-0.08051647245883942,-1.067766785621643,0.9022274613380432,1.0024967193603516,0.2609840929508209,-0.5750136971473694
5.737584114074707,-0.0754583328962326,-1.0672458410263062,0.9006327390670776,1.005419135093689,0.2649921178817749,-0.5735995769500732
5.757640838623047,-0.064325250685215,-1.0648958683013916,0.908842146396637,1.0102663040161133,0.2732142508029938,-0.5722098350524902
5.77772855758667,-0.05684792995452881,-1.0619425773620605,0.9134676456451416,1.0122449398040771,0.28143227100372314,-0.5718203186988831
5.797797679901123,-0.04502912983298302,-1.056560754776001,0.9187812209129333,1.0148894786834717,0.29728907346725464,-0.5720605254173279
5.81786584854126,-0.04051397368311882,-1.0559285879135132,0.9210256338119507,1.0159401893615723,0.30332282185554504,-0.5729262232780457
5.838070631027222,-0.04514460265636444,-1.057559609413147,0.9210646152496338,1.013672947883606,0.29822254180908203,-0.5739102363586426
5.8581695556640625,-0.054174184799194336,-1.0596654415130615,0.9166547656059265,1.0094870328903198,0.2905341386795044,-0.5754797458648682
5.878215551376343,-0.06627283245325089,-1.0649529695510864,0.9099480509757996,1.0063648223876953,0.27618420124053955,-0.5756164789199829
5.8982627391815186,-0.07301080971956253,-1.068119764328003,0.9073935747146606,1.0047516822814941,0.2669007480144501,-0.5751349329948425
5.918336629867554,-0.07508394867181778,-1.068995714187622,0.905585765838623,1.0051168203353882,0.26310306787490845,-0.5740714073181152
5.938402891159058,-0.07324790954589844,-1.0684894323349,0.907267153263092,1.0058506727218628,0.26385822892189026,-0.5736317038536072
5.958504676818848,-0.06405136734247208,-1.0658029317855835,0.913177490234375,1.0092189311981201,0.2715755105018616,-0.5724451541900635
5.97857928276062,-0.05265862122178078,-1.0605155229568481,0.9172924757003784,1.0125408172607422,0.28639087080955505,-0.5719261765480042
5.998653411865234,-0.04890744015574455,-1.0581483840942383,0.9180000424385071,1.0131253004074097,0.2928211987018585,-0.5722278356552124
6.0187602043151855,-0.045630455017089844,-1.0566937923431396,0.9189895987510681,1.0135642290115356,0.2986811101436615,-0.5731067657470703
6.038891792297363,-0.050706516951322556,-1.0589427947998047,0.9145374894142151,1.0120999813079834,0.2947869598865509,-0.5740494728088379
6.058931350708008,-0.056208424270153046,-1.061250925064087,0.911444902420044,1.0104501247406006,0.2889108955860138,-0.5744609832763672
6.079063415527344,-0.06882606446743011,-1.0669724941253662,0.9057014584541321,1.0071227550506592,0.27315500378608704,-0.5744473338127136
6.0990824699401855,-0.07631023228168488,-1.0703109502792358,0.901561439037323,1.005059838294983,0.2628241181373596,-0.573754608631134
6.119154691696167,-0.07632030546665192,-1.0704041719436646,0.9020664691925049,1.0050640106201172,0.26163697242736816,-0.5732688307762146
6.139228820800781,-0.07053542882204056,-1.0692365169525146,0.906612753868103,1.007258653640747,0.2646166980266571,-0.572077751159668
6.159342288970947,-0.05633509159088135,-1.064518690109253,0.9160504341125488,1.0122913122177124,0.2782677114009857,-0.5709208250045776
6.179418087005615,-0.04725749045610428,-1.0614380836486816,0.9235684275627136,1.0156395435333252,0.2867845594882965,-0.5704094767570496
6.199516296386719,-0.0344034843146801,-1.0564427375793457,0.931569516658783,1.0197782516479492,0.3020751476287842,-0.5704020261764526
6.219598293304443,-0.029396092519164085,-1.05404794216156,0.9362207055091858,1.021135926246643,0.30829620361328125,-0.570747435092926
6.2396626472473145,-0.03930766507983208,-1.0552728176116943,0.9334049224853516,1.0168317556381226,0.30107495188713074,-0.5727835893630981
6.259737730026245,-0.05331122502684593,-1.058284044265747,0.9238629937171936,1.0113497972488403,0.28983795642852783,-0.5746104717254639
6.279823064804077,-0.06327561289072037,-1.0610003471374512,0.9153900146484375,1.0081477165222168,0.2811740040779114,-0.5750674605369568
6.299956798553467,-0.07584835588932037,-1.0669944286346436,0.9076114296913147,1.0049984455108643,0.26459407806396484,-0.5743920207023621
6.320013046264648,-0.08180475980043411,-1.0692973136901855,0.9013656377792358,1.0027707815170288,0.25702255964279175,-0.5735071897506714
6.340086221694946,-0.07756300270557404,-1.0680203437805176,0.8995705842971802,1.0040271282196045,0.2620837092399597,-0.5728983879089355
6.360216379165649,-0.06450473517179489,-1.0643714666366577,0.9050899744033813,1.0076993703842163,0.27510058879852295,-0.5717597603797913
6.380244970321655,-0.04621605947613716,-1.05814528465271,0.9165894985198975,1.012673020362854,0.29478150606155396,-0.5709009170532227
6.400336503982544,-0.03746722266077995,-1.0549254417419434,0.9213400483131409,1.015599012374878,0.3055794835090637,-0.570737898349762
6.420553684234619,-0.029666345566511154,-1.050999641418457,0.932408332824707,1.0177104473114014,0.31489098072052,-0.5718529224395752
6.4407639503479,-0.032698437571525574,-1.0521401166915894,0.9341076016426086,1.0162489414215088,0.31131961941719055,-0.5727956295013428
6.460890769958496,-0.04514665901660919,-1.0550466775894165,0.9283292293548584,1.011853575706482,0.3005768656730652,-0.5746400952339172
6.480956077575684,-0.06225357949733734,-1.0604612827301025,0.9173500537872314,1.0072851181030273,0.2835419774055481,-0.5754883289337158
6.501047611236572,-0.07185416668653488,-1.0644338130950928,0.9129930734634399,1.005109429359436,0.27142012119293213,-0.57505863904953
6.521116256713867,-0.08371631056070328,-1.0693081617355347,0.9072906970977783,1.0020860433578491,0.2549089789390564,-0.5739735960960388
6.541490316390991,-0.07746300846338272,-1.068049669265747,0.9018564224243164,1.0051445960998535,0.2613723874092102,-0.5724701285362244
6.561587572097778,-0.0714988261461258,-1.0663737058639526,0.9033834934234619,1.0071601867675781,0.2673456370830536,-0.5718263387680054
6.581661701202393,-0.054505571722984314,-1.0607247352600098,0.9137044548988342,1.0121276378631592,0.2846241891384125,-0.5707471370697021
6.601744651794434,-0.04549175128340721,-1.0584619045257568,0.9198135137557983,1.0147250890731812,0.2932746112346649,-0.5703950524330139
6.621827602386475,-0.02566838450729847,-1.04988431930542,0.9307173490524292,1.0198216438293457,0.3188454806804657,-0.5701178312301636
6.642357110977173,-0.027750803157687187,-1.050225853919983,0.9372297525405884,1.0181934833526611,0.31622129678726196,-0.5723498463630676
6.662446737289429,-0.032338470220565796,-1.0511314868927002,0.9387652277946472,1.01646089553833,0.3110896646976471,-0.5734881162643433
6.682518005371094,-0.04690629988908768,-1.054260015487671,0.9323158264160156,1.011254906654358,0.29775741696357727,-0.5756109356880188
6.702629804611206,-0.05557034909725189,-1.0566738843917847,0.9274887442588806,1.009061336517334,0.2890145480632782,-0.5761994123458862
6.722764492034912,-0.074844129383564,-1.0631250143051147,0.9160246849060059,1.0045918226242065,0.2675417959690094,-0.5760374069213867
6.742803573608398,-0.08054579794406891,-1.0650737285614014,0.9119452238082886,1.0030573606491089,0.2605675160884857,-0.5757052898406982
6.762898683547974,-0.08476971834897995,-1.0681781768798828,0.9046316146850586,1.0028131008148193,0.25255659222602844,-0.5741167068481445
6.783034563064575,-0.07612521946430206,-1.0664997100830078,0.9009817838668823,1.0068352222442627,0.2612192630767822,-0.5724950432777405
6.803119897842407,-0.06932611763477325,-1.0643073320388794,0.904643714427948,1.008080005645752,0.267932653427124,-0.572223961353302
6.823182106018066,-0.05042178928852081,-1.05642831325531,0.9122735261917114,1.011519193649292,0.2915799617767334,-0.571980357170105
6.843276500701904,-0.04254045709967613,-1.05332350730896,0.9147964715957642,1.0131480693817139,0.3022567927837372,-0.5722255706787109
6.863346815109253,-0.037431541830301285,-1.0517280101776123,0.9201831817626953,1.0146801471710205,0.30913299322128296,-0.5735708475112915
6.883416652679443,-0.04349657893180847,-1.0540322065353394,0.9229258298873901,1.011277675628662,0.30177685618400574,-0.5756304264068604
6.903492450714111,-0.04833700507879257,-1.0560566186904907,0.9210299849510193,1.009120225906372,0.296356737613678,-0.5764225125312805
6.92355751991272,-0.061724476516246796,-1.060977578163147,0.9112356901168823,1.0060006380081177,0.28298839926719666,-0.5768262147903442
6.943767070770264,-0.07527485489845276,-1.0673636198043823,0.9093614220619202,1.0035520792007446,0.2630268335342407,-0.5758281350135803
6.9638543128967285,-0.07663093507289886,-1.0680246353149414,0.9081172347068787,1.0032331943511963,0.26039397716522217,-0.5754095911979675
6.983973503112793,-0.07311523705720901,-1.0672757625579834,0.9069766402244568,1.0062013864517212,0.2627452313899994,-0.5740114450454712
7.004214286804199,-0.06191651150584221,-1.0636582374572754,0.9126667976379395,1.010373830795288,0.2733021080493927,-0.572835385799408
7.024333715438843,-0.05575084686279297,-1.061093807220459,0.9157534241676331,1.0119521617889404,0.2804822623729706,-0.5727084279060364
7.044409275054932,-0.042777009308338165,-1.056688666343689,0.9235391020774841,1.0152788162231445,0.294918417930603,-0.5726689100265503
7.064494848251343,-0.036009326577186584,-1.0540508031845093,0.9263648986816406,1.0173941850662231,0.3038110136985779,-0.5727285742759705
7.084612131118774,-0.03749552369117737,-1.0538160800933838,0.9308381080627441,1.0158230066299438,0.302684485912323,-0.5744550824165344
7.104652643203735,-0.046166252344846725,-1.0556714534759521,0.9265276193618774,1.0116809606552124,0.29582712054252625,-0.5763108134269714
7.124749183654785,-0.053188662976026535,-1.0578200817108154,0.9221954345703125,1.0096977949142456,0.2891342043876648,-0.5768653154373169
7.1448681354522705,-0.06752102077007294,-1.0636250972747803,0.9125407934188843,1.0066572427749634,0.27285629510879517,-0.5768184661865234
7.165104627609253,-0.07474152743816376,-1.0675137042999268,0.9086688160896301,1.0054945945739746,0.26169776916503906,-0.5757474899291992
7.185198545455933,-0.07520004361867905,-1.0676542520523071,0.90802001953125,1.0054792165756226,0.26051566004753113,-0.57530677318573
7.205368757247925,-0.0691436231136322,-1.0654990673065186,0.9089578986167908,1.007309913635254,0.26652204990386963,-0.5742479562759399
7.225708484649658,-0.054375212639570236,-1.0604500770568848,0.9175066947937012,1.0113990306854248,0.2817474901676178,-0.573149561882019
7.245853662490845,-0.04758807644248009,-1.0580203533172607,0.9206268787384033,1.0130666494369507,0.28988659381866455,-0.5729151964187622
7.2658531665802,-0.033998746424913406,-1.0529743432998657,0.9270569086074829,1.0169785022735596,0.30717599391937256,-0.5728573203086853
7.286074161529541,-0.031036028638482094,-1.0507245063781738,0.9303011894226074,1.0174734592437744,0.3122979700565338,-0.5735421180725098
7.306164741516113,-0.03753306716680527,-1.0528695583343506,0.9320648312568665,1.0150988101959229,0.3054133951663971,-0.5753163695335388
7.3261799812316895,-0.05272185802459717,-1.056579351425171,0.9236690998077393,1.0097274780273438,0.29203370213508606,-0.5770761370658875
7.346306800842285,-0.06082182377576828,-1.0588054656982422,0.9170559644699097,1.0075047016143799,0.28492024540901184,-0.5775704979896545
7.36646294593811,-0.07636206597089767,-1.0653855800628662,0.9088953733444214,1.0043516159057617,0.2653747498989105,-0.5768769979476929
7.386444568634033,-0.08124120533466339,-1.0683505535125732,0.9020532369613647,1.003540277481079,0.2576417326927185,-0.5756849050521851
7.406609296798706,-0.07802920043468475,-1.067618489265442,0.8998619318008423,1.0050779581069946,0.2611108422279358,-0.5749187469482422
7.426668167114258,-0.06906752288341522,-1.0657696723937988,0.9023354053497314,1.007853388786316,0.2690593898296356,-0.5736789703369141
7.447269916534424,-0.04562218114733696,-1.0577138662338257,0.9177238941192627,1.0143777132034302,0.29342883825302124,-0.5722662806510925
7.467365741729736,-0.03683559596538544,-1.0550954341888428,0.9237018823623657,1.0165808200836182,0.30294591188430786,-0.5722261667251587
7.48747444152832,-0.026579037308692932,-1.0496625900268555,0.9366960525512695,1.0191586017608643,0.3150559961795807,-0.5731817483901978
7.507532835006714,-0.02879612147808075,-1.0502667427062988,0.9391493797302246,1.0182080268859863,0.3124311566352844,-0.5741603374481201
7.527654647827148,-0.03833672031760216,-1.0522289276123047,0.9375631809234619,1.0145467519760132,0.3036479949951172,-0.5761517286300659
7.547699689865112,-0.056885816156864166,-1.0571032762527466,0.9289742112159729,1.0090110301971436,0.2850951552391052,-0.5774810910224915
7.5677924156188965,-0.06720238924026489,-1.059675931930542,0.920794665813446,1.006229281425476,0.2756692171096802,-0.5777795314788818
7.5878660678863525,-0.08444231003522873,-1.066124677658081,0.9071448445320129,1.0022536516189575,0.25574734807014465,-0.5768231153488159
7.608084201812744,-0.08779120445251465,-1.067616581916809,0.9023006558418274,1.0012025833129883,0.2513578236103058,-0.5762501955032349
7.628255128860474,-0.08128557354211807,-1.0664374828338623,0.8919956088066101,1.0038726329803467,0.25991278886795044,-0.5746649503707886
7.648277759552002,-0.07259447872638702,-1.064525842666626,0.8971800804138184,1.0054926872253418,0.26708918809890747,-0.5738154649734497
7.668438911437988,-0.06413757055997849,-1.0618703365325928,0.9015250205993652,1.0076664686203003,0.276084840297699,-0.573464035987854
7.688522815704346,-0.04427962377667427,-1.0540492534637451,0.9124656319618225,1.012497901916504,0.30009397864341736,-0.5733705759048462
7.708592414855957,-0.033600322902202606,-1.0519347190856934,0.9250082969665527,1.0171656608581543,0.30953875184059143,-0.573769748210907
7.728703022003174,-0.034416429698467255,-1.0527739524841309,0.9303622245788574,1.0164164304733276,0.3065451383590698,-0.574553906917572
7.748770713806152,-0.047338057309389114,-1.0562065839767456,0.9257397651672363,1.011486530303955,0.29450705647468567,-0.5764502286911011
7.769296884536743,-0.0654226690530777,-1.0626587867736816,0.9135521650314331,1.0074089765548706,0.27567362785339355,-0.5769698619842529
7.789407968521118,-0.0755368173122406,-1.0659741163253784,0.9069958925247192,1.0046297311782837,0.26469701528549194,-0.5767790675163269
7.809491395950317,-0.08868179470300674,-1.0709331035614014,0.9002352952957153,1.0007654428482056,0.24750640988349915,-0.5755886435508728
7.829744815826416,-0.08288894593715668,-1.0696816444396973,0.8939952254295349,1.0037953853607178,0.2538882791996002,-0.5738776922225952
7.849816083908081,-0.07752712815999985,-1.068602204322815,0.8964374661445618,1.0060607194900513,0.25801882147789,-0.5729362964630127
7.870024919509888,-0.06248503178358078,-1.0644067525863647,0.9061517119407654,1.0099689960479736,0.27206265926361084,-0.5717536211013794
7.890300273895264,-0.05370208993554115,-1.0609663724899292,0.9118847250938416,1.0121192932128906,0.2819572687149048,-0.5714457035064697
7.910380840301514,-0.03790675848722458,-1.0541192293167114,0.9200159907341003,1.015801191329956,0.3027147054672241,-0.5718835592269897
7.930433988571167,-0.03522271662950516,-1.0537192821502686,0.9286450147628784,1.0166676044464111,0.30442315340042114,-0.573112428188324
7.950617551803589,-0.03944123163819313,-1.0543922185897827,0.9282642602920532,1.013986349105835,0.30104878544807434,-0.5744284987449646
7.970664739608765,-0.0506415031850338,-1.057006597518921,0.9216797351837158,1.0098129510879517,0.29203182458877563,-0.5761700868606567
7.990726709365845,-0.06655249744653702,-1.062882661819458,0.9108003377914429,1.0060280561447144,0.2754996418952942,-0.5764452219009399
8.010849475860596,-0.07272849231958389,-1.0657509565353394,0.9103434085845947,1.00484037399292,0.266411155462265,-0.5759510397911072
8.030914545059204,-0.07826417684555054,-1.0684595108032227,0.9068914651870728,1.0038151741027832,0.25784385204315186,-0.574864387512207
8.051593780517578,-0.0718158558011055,-1.0672378540039062,0.9074978232383728,1.0074875354766846,0.2629624605178833,-0.5733138918876648
8.071684122085571,-0.066339872777462,-1.0653743743896484,0.9100960493087769,1.0094647407531738,0.2684934735298157,-0.5726372003555298
8.091776847839355,-0.05262147635221481,-1.060136079788208,0.9174659848213196,1.013897180557251,0.2838660180568695,-0.5717917680740356
8.112064838409424,-0.046241339296102524,-1.0566831827163696,0.920566201210022,1.0150401592254639,0.2929839789867401,-0.5719812512397766
8.13215446472168,-0.03635342791676521,-1.0517953634262085,0.9238516092300415,1.016963005065918,0.30855512619018555,-0.5728570818901062
8.152222394943237,-0.04282797873020172,-1.0534456968307495,0.924042284488678,1.0125222206115723,0.30305448174476624,-0.5751155018806458
8.172359704971313,-0.047942500561475754,-1.054356575012207,0.9204821586608887,1.0099754333496094,0.2996922433376312,-0.5761716961860657
8.192519187927246,-0.060698192566633224,-1.059023141860962,0.9106086492538452,1.0067200660705566,0.28779780864715576,-0.5770226716995239
8.21255350112915,-0.06731855124235153,-1.0625272989273071,0.9069603085517883,1.0057038068771362,0.2790478765964508,-0.5767674446105957
8.232656240463257,-0.07621853053569794,-1.0670026540756226,0.9068684577941895,1.0040829181671143,0.26482653617858887,-0.5759505033493042
8.252719640731812,-0.07721865177154541,-1.0681720972061157,0.9063843488693237,1.0041966438293457,0.26172757148742676,-0.5753167867660522
8.27279806137085,-0.06911618262529373,-1.0662604570388794,0.9075272679328918,1.008134365081787,0.26903030276298523,-0.5738535523414612
8.292856216430664,-0.056770652532577515,-1.0623583793640137,0.9157297015190125,1.0122246742248535,0.28062519431114197,-0.5728976130485535
8.312993288040161,-0.04896003380417824,-1.0585249662399292,0.9183948040008545,1.0142548084259033,0.29138854146003723,-0.5727667808532715
8.333054065704346,-0.038145579397678375,-1.0544607639312744,0.9230459928512573,1.0176059007644653,0.30575448274612427,-0.5731118321418762
8.35326886177063,-0.042370397597551346,-1.0556349754333496,0.924934983253479,1.0152232646942139,0.3017479479312897,-0.5747753977775574
8.373362064361572,-0.04754370450973511,-1.0568788051605225,0.923172116279602,1.012692928314209,0.2970253825187683,-0.5757025480270386
8.393460750579834,-0.058989305049180984,-1.0616507530212402,0.9164240956306458,1.0098943710327148,0.28432443737983704,-0.5761492848396301
8.413658618927002,-0.0676533579826355,-1.065168857574463,0.9110947847366333,1.0078872442245483,0.2743271291255951,-0.575907289981842
8.433668613433838,-0.07905659079551697,-1.0697805881500244,0.9062951803207397,1.0048422813415527,0.25906625390052795,-0.5750697255134583
8.453904628753662,-0.0755121260881424,-1.0687732696533203,0.902992844581604,1.0060644149780273,0.2626326084136963,-0.5738710165023804
8.473956108093262,-0.07073419541120529,-1.0682244300842285,0.9062132835388184,1.007918119430542,0.26541584730148315,-0.5731310844421387
8.494122743606567,-0.05827062577009201,-1.063998818397522,0.9130659103393555,1.0113648176193237,0.2781682312488556,-0.5721902847290039
8.514301061630249,-0.04155149683356285,-1.0562163591384888,0.9226424098014832,1.0161889791488647,0.29919445514678955,-0.5719329714775085
8.534416675567627,-0.03601923584938049,-1.0540765523910522,0.9256514310836792,1.0181742906570435,0.30651888251304626,-0.5721121430397034
8.554474115371704,-0.04008495807647705,-1.0546153783798218,0.9288620352745056,1.015662670135498,0.3028690218925476,-0.5739282369613647
8.574628353118896,-0.04454178735613823,-1.0555508136749268,0.9260950088500977,1.0138710737228394,0.2996549606323242,-0.5748149156570435
8.594772338867188,-0.05949662625789642,-1.0607796907424927,0.9157581329345703,1.0097613334655762,0.2851300835609436,-0.5757715702056885
8.6148099899292,-0.07767298817634583,-1.0679831504821777,0.9042729139328003,1.0051411390304565,0.26395750045776367,-0.57529616355896
8.634899139404297,-0.08351468294858932,-1.0705227851867676,0.9003754258155823,1.0035098791122437,0.25624674558639526,-0.5746786594390869
8.654951810836792,-0.08235374093055725,-1.07059907913208,0.8940889835357666,1.0037065744400024,0.2572229504585266,-0.5732976794242859
8.67506456375122,-0.07783133536577225,-1.0692172050476074,0.893811821937561,1.0051627159118652,0.2623118460178375,-0.5726261734962463
8.69514536857605,-0.06591130793094635,-1.0667834281921387,0.9034905433654785,1.0089333057403564,0.2712276875972748,-0.5714340806007385
8.715224981307983,-0.04739971086382866,-1.0585287809371948,0.9146558046340942,1.013414740562439,0.2935730516910553,-0.5710271000862122
8.735310554504395,-0.0403130017220974,-1.0552349090576172,0.9189667701721191,1.0155558586120605,0.3030140697956085,-0.5712125301361084
8.755376815795898,-0.037685394287109375,-1.0553666353225708,0.9249192476272583,1.016837477684021,0.30517327785491943,-0.5722086429595947
8.775893449783325,-0.047744400799274445,-1.0585603713989258,0.9233289361000061,1.0130298137664795,0.2946873605251312,-0.5738703012466431
8.796004056930542,-0.055360086262226105,-1.0609710216522217,0.9182589054107666,1.0106253623962402,0.28751084208488464,-0.574431300163269
8.816099882125854,-0.07181179523468018,-1.0685209035873413,0.9098641872406006,1.0071004629135132,0.2665943205356598,-0.5736992359161377
8.836167573928833,-0.07794180512428284,-1.0710052251815796,0.9091624021530151,1.0055139064788818,0.2576838731765747,-0.5731312036514282
8.85631513595581,-0.07910981774330139,-1.0707759857177734,0.9075812697410583,1.0048686265945435,0.25527817010879517,-0.572174608707428
8.876454830169678,-0.07279130071401596,-1.0687111616134644,0.9078974723815918,1.007599115371704,0.2622443735599518,-0.5712648034095764
8.896552324295044,-0.060294974595308304,-1.0642485618591309,0.9137235283851624,1.01204514503479,0.2754661440849304,-0.5701726675033569
8.91662335395813,-0.04573109745979309,-1.0589710474014282,0.9220357537269592,1.016149878501892,0.29216495156288147,-0.5697640180587769
8.93674373626709,-0.04033304378390312,-1.0562556982040405,0.9239083528518677,1.0172113180160522,0.30029958486557007,-0.5701383352279663
8.956850528717041,-0.034620169550180435,-1.05354642868042,0.9298096895217896,1.0176386833190918,0.3084878921508789,-0.5713870525360107
8.976886510848999,-0.04446692019701004,-1.0559115409851074,0.9273671507835388,1.012932300567627,0.2996440827846527,-0.5734388828277588
8.996963024139404,-0.04963221400976181,-1.057170033454895,0.9237667322158813,1.011034369468689,0.2955860197544098,-0.5741932392120361
9.01705026626587,-0.06851762533187866,-1.0630918741226196,0.9101208448410034,1.005601167678833,0.2775375545024872,-0.5748553276062012
9.037163257598877,-0.0746145248413086,-1.0659053325653076,0.90575110912323,1.0042392015457153,0.2698555886745453,-0.5745302438735962
9.057257413864136,-0.08180024474859238,-1.0700122117996216,0.9021884202957153,1.0027339458465576,0.2578960359096527,-0.5733397006988525
9.077385663986206,-0.0754467025399208,-1.068129301071167,0.900274932384491,1.0050064325332642,0.2645851969718933,-0.5721760392189026
9.097521781921387,-0.06844327598810196,-1.0663484334945679,0.9043320417404175,1.007668137550354,0.2707039415836334,-0.5714485049247742
9.1175856590271,-0.04753166809678078,-1.0590286254882812,0.9169621467590332,1.013810634613037,0.2929798364639282,-0.5702210068702698
9.137695074081421,-0.0398554690182209,-1.0565168857574463,0.9223500490188599,1.0160083770751953,0.30144163966178894,-0.5702020525932312
9.157768964767456,-0.027855159714818,-1.0514185428619385,0.9327701330184937,1.0195753574371338,0.3159269690513611,-0.5708799362182617
9.177853107452393,-0.03677841275930405,-1.053979754447937,0.9336552619934082,1.0158472061157227,0.306705117225647,-0.573008120059967
9.19800090789795,-0.04249098524451256,-1.0553423166275024,0.931644082069397,1.0135741233825684,0.30134785175323486,-0.5740112066268921
9.218135118484497,-0.05817036330699921,-1.0598316192626953,0.9197317361831665,1.0090885162353516,0.2872767448425293,-0.5752284526824951
9.238179922103882,-0.0790986716747284,-1.0675430297851562,0.9082329273223877,1.0038872957229614,0.262971967458725,-0.5747334957122803
9.25825810432434,-0.08858088403940201,-1.0705621242523193,0.9047535061836243,1.0007890462875366,0.2512368857860565,-0.5743289589881897
9.278434991836548,-0.08429897576570511,-1.0710978507995605,0.895103394985199,1.0040202140808105,0.25424131751060486,-0.5721668004989624
9.298463344573975,-0.08042705059051514,-1.0701494216918945,0.8940656185150146,1.0055513381958008,0.2583100199699402,-0.5714237689971924
9.318554878234863,-0.06857030838727951,-1.0669711828231812,0.9012781977653503,1.0085867643356323,0.2689046263694763,-0.5704686641693115
9.338650226593018,-0.04843050613999367,-1.0595234632492065,0.914296567440033,1.013103723526001,0.2908083200454712,-0.5698592066764832
9.358762979507446,-0.03933566436171532,-1.0564777851104736,0.9196926355361938,1.0153617858886719,0.30126315355300903,-0.5699326992034912
9.378868818283081,-0.031454503536224365,-1.0539082288742065,0.9314291477203369,1.0179708003997803,0.3087350130081177,-0.5708027482032776
9.399173736572266,-0.04158702492713928,-1.0560975074768066,0.9311823844909668,1.0128496885299683,0.29910093545913696,-0.5730016827583313
9.419346809387207,-0.04653935134410858,-1.0570404529571533,0.9269466400146484,1.0112167596817017,0.2958577275276184,-0.5737268924713135
9.439372777938843,-0.06620468199253082,-1.0636228322982788,0.9125500321388245,1.006455421447754,0.2768043577671051,-0.5741773247718811
9.459457874298096,-0.0778145045042038,-1.0671464204788208,0.9037294387817383,1.0031547546386719,0.2653616964817047,-0.5741525292396545
9.479561567306519,-0.0927843302488327,-1.0723105669021606,0.8931037187576294,0.9990056753158569,0.2480204701423645,-0.5733085870742798
9.499939441680908,-0.08740054816007614,-1.0706536769866943,0.8875986337661743,1.0010907649993896,0.25437620282173157,-0.5718204379081726
9.520062685012817,-0.08114857971668243,-1.0696436166763306,0.8888572454452515,1.003654956817627,0.25979912281036377,-0.5708662271499634
9.540450096130371,-0.06945798546075821,-1.0677114725112915,0.8967333436012268,1.0062322616577148,0.2687228322029114,-0.5700368881225586
9.560521841049194,-0.05825474485754967,-1.0641874074935913,0.9049761295318604,1.0088884830474854,0.27957630157470703,-0.5695852041244507
9.580619096755981,-0.039799053221940994,-1.057122826576233,0.920757532119751,1.0131289958953857,0.2991054058074951,-0.5695870518684387
9.6007821559906,-0.03235473856329918,-1.0541832447052002,0.9266488552093506,1.0158425569534302,0.30777305364608765,-0.5696354508399963
9.621030330657959,-0.033389922231435776,-1.0529524087905884,0.9327394962310791,1.0148793458938599,0.30812007188796997,-0.5715253949165344
9.641117572784424,-0.04625726491212845,-1.0556702613830566,0.9279323220252991,1.0104483366012573,0.2968240976333618,-0.5737481117248535
9.661185503005981,-0.055413130670785904,-1.0582786798477173,0.9202109575271606,1.0077595710754395,0.28900349140167236,-0.5745284557342529
9.681270122528076,-0.07876642048358917,-1.0665701627731323,0.9049333333969116,1.0022220611572266,0.26378342509269714,-0.5743169784545898
9.701321601867676,-0.09186750650405884,-1.070440649986267,0.892899751663208,0.9980813264846802,0.24983429908752441,-0.5736392736434937
9.721420049667358,-0.09148222208023071,-1.0711121559143066,0.888054609298706,0.9991940855979919,0.24960394203662872,-0.572746217250824
9.741524934768677,-0.07835394144058228,-1.0687426328659058,0.8894611597061157,1.0040193796157837,0.26142001152038574,-0.5710514783859253
9.761584281921387,-0.06856854259967804,-1.066238522529602,0.8962105512619019,1.0068773031234741,0.2702341079711914,-0.570362389087677
9.78168535232544,-0.04748610407114029,-1.0594698190689087,0.9118485450744629,1.0117520093917847,0.29148921370506287,-0.569457471370697
9.801760196685791,-0.027771448716521263,-1.0507220029830933,0.9281084537506104,1.0166571140289307,0.3148422837257385,-0.5695916414260864
9.821856260299683,-0.027053706347942352,-1.0506627559661865,0.9340453743934631,1.0172923803329468,0.31453660130500793,-0.5702738165855408
9.841988563537598,-0.032274216413497925,-1.0509990453720093,0.9382243752479553,1.0152132511138916,0.30977100133895874,-0.5722981691360474
9.86203646659851,-0.05046376585960388,-1.055354356765747,0.927711546421051,1.0089492797851562,0.29399561882019043,-0.5745709538459778
9.882116794586182,-0.05959359556436539,-1.057948350906372,0.9214679002761841,1.006543517112732,0.28540635108947754,-0.5751578211784363
9.90219521522522,-0.08178336918354034,-1.0664197206497192,0.9060654044151306,1.001726508140564,0.260044127702713,-0.574248194694519
9.92236590385437,-0.09209077805280685,-1.068776249885559,0.889129102230072,0.9977354407310486,0.2518661618232727,-0.5736104249954224
9.942490100860596,-0.08709675073623657,-1.06768000125885,0.8872119188308716,0.9996713399887085,0.2571241855621338,-0.5729414224624634
9.962552309036255,-0.07155092060565948,-1.063954472541809,0.8929126858711243,1.0048565864562988,0.27235010266304016,-0.5717166662216187
9.98276424407959,-0.06380588561296463,-1.0621663331985474,0.8979878425598145,1.0069278478622437,0.2795574367046356,-0.5714458227157593
10.002825021743774,-0.04082915186882019,-1.054922342300415,0.9160558581352234,1.0133076906204224,0.3026540279388428,-0.5709109902381897
10.022955417633057,-0.02014913037419319,-1.0486552715301514,0.9367754459381104,1.0205516815185547,0.3221500515937805,-0.5705580711364746
10.043045043945312,-0.01762082800269127,-1.0481196641921997,0.944256603717804,1.0214160680770874,0.3229386806488037,-0.5712102055549622
10.063125848770142,-0.02251170575618744,-1.0491682291030884,0.9488415718078613,1.018985629081726,0.31755590438842773,-0.5731351971626282
10.083195924758911,-0.02991388738155365,-1.0509743690490723,0.9460938572883606,1.0162546634674072,0.3106670379638672,-0.5742766261100769
10.103337287902832,-0.0493297204375267,-1.055289626121521,0.9371662139892578,1.0108352899551392,0.29236987233161926,-0.5757187604904175
10.123385906219482,-0.0719284936785698,-1.0620827674865723,0.9224098920822144,1.005611538887024,0.2690941393375397,-0.5756570100784302
10.14359450340271,-0.07876263558864594,-1.064382791519165,0.9149783849716187,1.0042083263397217,0.2619085907936096,-0.5752990245819092
10.163701295852661,-0.08483749628067017,-1.0669896602630615,0.901231050491333,1.00351083278656,0.2556963562965393,-0.5740441679954529
10.183801651000977,-0.0796651765704155,-1.0665825605392456,0.8946324586868286,1.0049189329147339,0.26096975803375244,-0.5728141665458679
10.203904151916504,-0.07236785441637039,-1.0645277500152588,0.8953522443771362,1.0065404176712036,0.26929980516433716,-0.5723908543586731
10.223974704742432,-0.05470813065767288,-1.0581214427947998,0.9043101072311401,1.0093891620635986,0.2898787260055542,-0.5721745491027832
10.244070768356323,-0.0432388074696064,-1.0541150569915771,0.9132810235023499,1.0116548538208008,0.3019629716873169,-0.5721292495727539
10.264152526855469,-0.02501845173537731,-1.0486564636230469,0.9292589426040649,1.0176126956939697,0.3212389647960663,-0.5720893144607544
10.284210443496704,-0.02814793586730957,-1.049828290939331,0.9361358880996704,1.0159127712249756,0.3164677619934082,-0.5742601156234741
10.304327964782715,-0.033590249717235565,-1.0508697032928467,0.937042236328125,1.01406991481781,0.31059378385543823,-0.5754026174545288
10.324381589889526,-0.04712413251399994,-1.0542601346969604,0.930668830871582,1.0112357139587402,0.2977650761604309,-0.5768563747406006
10.344452142715454,-0.05856868252158165,-1.0584208965301514,0.92444908618927,1.0082640647888184,0.2850486934185028,-0.5771482586860657
10.364545583724976,-0.07900215685367584,-1.0658797025680542,0.9113149046897888,1.0041589736938477,0.26125338673591614,-0.5762264132499695
10.384618759155273,-0.09266963601112366,-1.0695557594299316,0.8961301445960999,1.0000488758087158,0.24761971831321716,-0.5753700733184814
10.404687643051147,-0.08920721709728241,-1.0699844360351562,0.8920259475708008,1.002481460571289,0.2495473176240921,-0.5740392208099365
10.424777269363403,-0.07501044124364853,-1.0674140453338623,0.893667995929718,1.0082334280014038,0.2625608742237091,-0.5720324516296387
10.444838762283325,-0.05522762984037399,-1.0616321563720703,0.910155177116394,1.012317180633545,0.2804287374019623,-0.5710184574127197
10.464995861053467,-0.040783628821372986,-1.055768370628357,0.9204013347625732,1.0156495571136475,0.29671916365623474,-0.570297122001648
10.485093832015991,-0.02009028010070324,-1.0481160879135132,0.9372178316116333,1.020395278930664,0.3194752335548401,-0.5700341463088989
10.505114078521729,-0.019201766699552536,-1.0448274612426758,0.9458633065223694,1.0198653936386108,0.32258644700050354,-0.5723432898521423
10.52520227432251,-0.02058139629662037,-1.0438711643218994,0.9488118290901184,1.0186395645141602,0.3221033215522766,-0.5735187530517578
10.545305728912354,-0.03471028804779053,-1.047086477279663,0.9415379762649536,1.0144164562225342,0.31070053577423096,-0.5759164690971375
10.565697431564331,-0.06065519154071808,-1.0533885955810547,0.9254039525985718,1.006890058517456,0.2872588634490967,-0.5778390765190125
10.585790157318115,-0.07304222136735916,-1.0569913387298584,0.9180968999862671,1.0033237934112549,0.2744292914867401,-0.5780395865440369
10.605868101119995,-0.08989077806472778,-1.0634825229644775,0.900359034538269,0.9986693859100342,0.2553931176662445,-0.5770196914672852
10.626078128814697,-0.09240005165338516,-1.0645651817321777,0.8918341398239136,0.9978674650192261,0.25330451130867004,-0.5764191746711731
10.646106004714966,-0.08605353534221649,-1.064168095588684,0.8844624161720276,1.0009413957595825,0.2595188617706299,-0.5748035311698914
10.666238784790039,-0.07436952739953995,-1.0630804300308228,0.8900300860404968,1.0039963722229004,0.26778313517570496,-0.5738331079483032
10.686347246170044,-0.06431664526462555,-1.0606979131698608,0.8967238664627075,1.0063681602478027,0.2768767178058624,-0.5735493898391724
10.706402063369751,-0.03809987008571625,-1.0519648790359497,0.9141095876693726,1.0128378868103027,0.3051978647708893,-0.572871744632721
10.726726293563843,-0.026655616238713264,-1.047874927520752,0.9300103187561035,1.0166054964065552,0.3161223828792572,-0.5738592147827148
10.746836185455322,-0.028424520045518875,-1.049088478088379,0.9331803321838379,1.0163103342056274,0.31308257579803467,-0.574768602848053
10.767016172409058,-0.03672794625163078,-1.0509746074676514,0.9337766170501709,1.012574315071106,0.30490952730178833,-0.577004075050354
10.787052869796753,-0.04548216611146927,-1.052990198135376,0.9294571876525879,1.009812355041504,0.2970365583896637,-0.5779178142547607
10.807202577590942,-0.06475067138671875,-1.0585238933563232,0.9173456430435181,1.005456805229187,0.2780759930610657,-0.5786118507385254
10.827288627624512,-0.08065896481275558,-1.0650664567947388,0.9062832593917847,1.0023263692855835,0.2584967613220215,-0.5777059197425842
10.847400426864624,-0.08753977715969086,-1.0676897764205933,0.9015122652053833,1.0008165836334229,0.24980700016021729,-0.5770081281661987
10.867444515228271,-0.08563487231731415,-1.0692232847213745,0.8938451409339905,1.0035136938095093,0.2489176094532013,-0.574672520160675
10.887608528137207,-0.07821168750524521,-1.067284345626831,0.8933711051940918,1.0060218572616577,0.2571849226951599,-0.5738096833229065
10.907734394073486,-0.06353312730789185,-1.0632802248001099,0.9020912051200867,1.0106661319732666,0.2710614800453186,-0.5725379586219788
10.92784070968628,-0.043455809354782104,-1.0551714897155762,0.9148455858230591,1.0145636796951294,0.294577419757843,-0.5724334716796875
10.947977542877197,-0.03456270694732666,-1.052044153213501,0.9196275472640991,1.0169446468353271,0.30562081933021545,-0.5726291537284851
10.96799349784851,-0.027550026774406433,-1.0492610931396484,0.9310870170593262,1.0180158615112305,0.31314340233802795,-0.5740705132484436
10.988058090209961,-0.03476904705166817,-1.0506993532180786,0.9334960579872131,1.0139546394348145,0.30642807483673096,-0.5763251185417175
11.008265495300293,-0.04249026998877525,-1.052607536315918,0.9301277995109558,1.01089346408844,0.2995428740978241,-0.5774309039115906
11.028264999389648,-0.06080307811498642,-1.0574196577072144,0.9187057018280029,1.0058538913726807,0.28291159868240356,-0.5785466432571411
11.048307180404663,-0.07930006086826324,-1.0648142099380493,0.9057512879371643,1.0020943880081177,0.26139527559280396,-0.5775548219680786
11.0684072971344,-0.08503560721874237,-1.0671589374542236,0.9014453887939453,1.0007131099700928,0.25401556491851807,-0.5769694447517395
11.088505268096924,-0.0879809558391571,-1.0694904327392578,0.8927476406097412,1.001241683959961,0.24895206093788147,-0.575117826461792
11.108778953552246,-0.07718829065561295,-1.06681227684021,0.8908854722976685,1.0052800178527832,0.2608364224433899,-0.5733656883239746
11.128918886184692,-0.07089824229478836,-1.0655035972595215,0.8947144150733948,1.0068397521972656,0.2663368284702301,-0.5728950500488281
11.14906907081604,-0.05030155926942825,-1.0596165657043457,0.9098853468894958,1.0121471881866455,0.28604966402053833,-0.5719776153564453
11.169151306152344,-0.04110176861286163,-1.0570857524871826,0.9159339070320129,1.0142583847045898,0.2957298755645752,-0.5719386339187622
11.189234018325806,-0.02568686380982399,-1.0511037111282349,0.9295368194580078,1.0192877054214478,0.3134775757789612,-0.5720627307891846
11.209360599517822,-0.026790305972099304,-1.0505422353744507,0.93739914894104,1.0182132720947266,0.3125414550304413,-0.5738927721977234
11.229413270950317,-0.03316594660282135,-1.051486611366272,0.93731689453125,1.015210509300232,0.3068293035030365,-0.575202465057373
11.249492406845093,-0.04985953867435455,-1.0554583072662354,0.930832028388977,1.0102699995040894,0.2909632623195648,-0.5768147706985474
11.26955771446228,-0.07098542153835297,-1.0626072883605957,0.9203474521636963,1.005968689918518,0.2672696113586426,-0.5765091776847839
11.289674043655396,-0.07876407355070114,-1.0654325485229492,0.9153706431388855,1.0038303136825562,0.25779202580451965,-0.5760486125946045
11.30978274345398,-0.08277071267366409,-1.0667797327041626,0.9041492342948914,1.0030266046524048,0.25403738021850586,-0.5748580694198608
11.330358266830444,-0.07637616246938705,-1.0655453205108643,0.8974484205245972,1.0063271522521973,0.2617189586162567,-0.5732998251914978
11.35045051574707,-0.07171159982681274,-1.0643998384475708,0.8989973664283752,1.0071992874145508,0.26631104946136475,-0.5730111002922058
11.370530366897583,-0.05292389169335365,-1.0577021837234497,0.9083442091941833,1.011301875114441,0.287958562374115,-0.5724478960037231
11.390594959259033,-0.04393915459513664,-1.054248332977295,0.9120899438858032,1.012547492980957,0.2994500994682312,-0.5727479457855225
11.41067123413086,-0.03256583213806152,-1.050340175628662,0.9232442378997803,1.01590096950531,0.3123779892921448,-0.5735169053077698
11.430717468261719,-0.03500712662935257,-1.0509194135665894,0.9306480884552002,1.0139120817184448,0.308658629655838,-0.5755706429481506
11.450809478759766,-0.04081501066684723,-1.052908182144165,0.9304227828979492,1.0115212202072144,0.30200719833374023,-0.5765696167945862
11.470889568328857,-0.05461777746677399,-1.0572772026062012,0.9223431348800659,1.0078871250152588,0.2886585593223572,-0.5776293277740479
11.491031169891357,-0.07724899053573608,-1.0654045343399048,0.9082812070846558,1.0026413202285767,0.2634589672088623,-0.5770421028137207
11.511188745498657,-0.08768480271100998,-1.0682039260864258,0.9021801352500916,0.9991174340248108,0.2523786127567291,-0.5766990184783936
11.531272888183594,-0.09090963006019592,-1.070722222328186,0.8922345638275146,1.0000368356704712,0.24650773406028748,-0.5745539665222168
11.55131983757019,-0.08793562650680542,-1.070627212524414,0.8894778490066528,1.0023208856582642,0.2487926036119461,-0.5734167695045471
11.571456909179688,-0.07642990350723267,-1.068772554397583,0.8943272829055786,1.006162166595459,0.2575078010559082,-0.5717290639877319
11.591489553451538,-0.0618087574839592,-1.0661455392837524,0.9049551486968994,1.0104889869689941,0.2686474621295929,-0.5706461071968079
11.611563444137573,-0.05090764909982681,-1.0618326663970947,0.9130998849868774,1.0129177570343018,0.2802481949329376,-0.5704797506332397
11.631708145141602,-0.035210974514484406,-1.0563536882400513,0.9264464378356934,1.0173343420028687,0.29660579562187195,-0.5706138014793396
11.652823448181152,-0.033628784120082855,-1.054564356803894,0.9329020977020264,1.0176712274551392,0.2994726896286011,-0.5720396637916565
11.672940254211426,-0.03902049362659454,-1.0550694465637207,0.9319615364074707,1.0145478248596191,0.29535919427871704,-0.573462963104248
11.693025588989258,-0.054480887949466705,-1.0581293106079102,0.9198333621025085,1.0086860656738281,0.28438693284988403,-0.5754377841949463
11.713225603103638,-0.07378317415714264,-1.0659259557724,0.9094072580337524,1.0041167736053467,0.2619200050830841,-0.5749257802963257
11.733320236206055,-0.08171708881855011,-1.0687721967697144,0.9032766819000244,1.0016062259674072,0.25312507152557373,-0.5745125412940979
11.75339150428772,-0.08459863066673279,-1.0692697763442993,0.8955963850021362,1.0009952783584595,0.2512816786766052,-0.5736526250839233
11.773544549942017,-0.07873769849538803,-1.067740559577942,0.895344614982605,1.0034528970718384,0.25760647654533386,-0.5727195739746094
11.793639183044434,-0.06498564779758453,-1.0639294385910034,0.9009349942207336,1.0078790187835693,0.27190709114074707,-0.5712186098098755
11.81371021270752,-0.048785820603370667,-1.0577577352523804,0.9124667048454285,1.011922836303711,0.2903481125831604,-0.5709409117698669
11.833813190460205,-0.04089641198515892,-1.0543209314346313,0.9164927005767822,1.013257384300232,0.3010071814060211,-0.5712388157844543
11.853915929794312,-0.03437710925936699,-1.051914930343628,0.9237813949584961,1.0152345895767212,0.30969396233558655,-0.5722594261169434
11.874102592468262,-0.03819339722394943,-1.0530521869659424,0.9252889156341553,1.0137248039245605,0.3055942952632904,-0.5733158588409424
11.894211292266846,-0.04796290770173073,-1.0563379526138306,0.9213836193084717,1.0096056461334229,0.2964417338371277,-0.5753498077392578
11.914416074752808,-0.05874912440776825,-1.0607614517211914,0.9162386059761047,1.006922721862793,0.2840791940689087,-0.5755289196968079
11.93458867073059,-0.07463976740837097,-1.067976713180542,0.9083065986633301,1.0038572549819946,0.26375335454940796,-0.574536144733429
11.954579830169678,-0.08120953291654587,-1.070793867111206,0.9041800498962402,1.0029680728912354,0.25413087010383606,-0.5731992721557617
11.974692106246948,-0.08008714020252228,-1.0701040029525757,0.9026784300804138,1.0036039352416992,0.2555229961872101,-0.5726165771484375
11.994899988174438,-0.06849201023578644,-1.0670090913772583,0.9067452549934387,1.008638858795166,0.26624053716659546,-0.5708796381950378
12.014943599700928,-0.05505269020795822,-1.0622738599777222,0.9154077768325806,1.012235164642334,0.28023335337638855,-0.5703028440475464
12.035032272338867,-0.0467793345451355,-1.0593485832214355,0.9205717444419861,1.0144634246826172,0.2893214523792267,-0.5701426863670349
12.055095434188843,-0.03426025062799454,-1.0536036491394043,0.9257243275642395,1.017635703086853,0.30731260776519775,-0.5706095099449158
12.075153112411499,-0.037543460726737976,-1.0536328554153442,0.928851842880249,1.014675259590149,0.30542123317718506,-0.5728412866592407
12.096132278442383,-0.04578392952680588,-1.0555425882339478,0.9239553809165955,1.0107421875,0.29935622215270996,-0.5749912261962891
12.116228103637695,-0.051792845129966736,-1.0576533079147339,0.9198789596557617,1.0088989734649658,0.29366162419319153,-0.5756903290748596
12.136338949203491,-0.0661240741610527,-1.0637279748916626,0.913191020488739,1.006181240081787,0.2762128710746765,-0.5756869316101074
12.156425952911377,-0.07908093929290771,-1.0690946578979492,0.9049684405326843,1.0033657550811768,0.2599339187145233,-0.5747398734092712
12.17659878730774,-0.0811862200498581,-1.0697016716003418,0.9026059508323669,1.003086805343628,0.2572076916694641,-0.5743153691291809
12.196735858917236,-0.07520397007465363,-1.0682848691940308,0.901972770690918,1.0054304599761963,0.2623540759086609,-0.5730575323104858
12.217751264572144,-0.0643225610256195,-1.065417766571045,0.9067036509513855,1.0096757411956787,0.2726345658302307,-0.5717604756355286
12.2379629611969,-0.05749230831861496,-1.0633682012557983,0.9098357558250427,1.0115187168121338,0.28003159165382385,-0.5714547634124756
12.257955074310303,-0.04043373465538025,-1.0562560558319092,0.9205645322799683,1.0152928829193115,0.30055031180381775,-0.5713677406311035
12.278027296066284,-0.03470078855752945,-1.0546157360076904,0.9228451251983643,1.017207145690918,0.30795276165008545,-0.571499228477478
12.298110961914062,-0.03506508842110634,-1.0542528629302979,0.9310030937194824,1.0157203674316406,0.30685561895370483,-0.5731214880943298
12.318176746368408,-0.0442584790289402,-1.0567879676818848,0.9289757609367371,1.012576937675476,0.29789045453071594,-0.5746819972991943
12.338290691375732,-0.052413906902074814,-1.0591175556182861,0.9233108758926392,1.0105609893798828,0.29056182503700256,-0.5751495957374573
12.358394145965576,-0.06959695369005203,-1.0657448768615723,0.9127625823020935,1.0068165063858032,0.2711823284626007,-0.5749247074127197
12.378432750701904,-0.07830988615751266,-1.068210482597351,0.9101767539978027,1.0043678283691406,0.2609107196331024,-0.5746669769287109
12.398585557937622,-0.08409314602613449,-1.0708541870117188,0.9036106467247009,1.0035827159881592,0.2523486614227295,-0.5732690691947937
12.418702840805054,-0.0754101574420929,-1.0686513185501099,0.9006301164627075,1.0071468353271484,0.26178184151649475,-0.5717915296554565
12.438781023025513,-0.06905344128608704,-1.0667797327041626,0.9043483734130859,1.008800983428955,0.267650306224823,-0.5712392926216125
12.458934783935547,-0.05266505852341652,-1.0610251426696777,0.9146013855934143,1.0120751857757568,0.2851334810256958,-0.5707052946090698
12.478946447372437,-0.03533615916967392,-1.05484139919281,0.9236558079719543,1.017106533050537,0.30632948875427246,-0.5705071687698364
12.499062538146973,-0.029756341129541397,-1.052581548690796,0.9301050305366516,1.0186375379562378,0.31248709559440613,-0.5708898305892944
12.519131183624268,-0.030863303691148758,-1.0519402027130127,0.9379823803901672,1.0172251462936401,0.31113579869270325,-0.5726564526557922
12.548357248306274,-0.04304996505379677,-1.0548312664031982,0.9351931810379028,1.0131558179855347,0.29930394887924194,-0.5744280815124512
12.568461894989014,-0.054549794644117355,-1.0573434829711914,0.9242872595787048,1.0094877481460571,0.29086434841156006,-0.5752862095832825
12.588515758514404,-0.07710127532482147,-1.0642695426940918,0.9098082780838013,1.0040881633758545,0.2676944434642792,-0.575339674949646
12.608607769012451,-0.08649378269910812,-1.0677313804626465,0.903557300567627,1.001252293586731,0.25645989179611206,-0.5748817920684814
12.62879467010498,-0.0860767588019371,-1.0691207647323608,0.892145574092865,1.0025322437286377,0.2562810182571411,-0.5733650326728821
12.648828506469727,-0.07681944221258163,-1.0675630569458008,0.8928003311157227,1.0046250820159912,0.2645139694213867,-0.5720987319946289
12.66898488998413,-0.06968601047992706,-1.0657206773757935,0.8969319462776184,1.0060707330703735,0.2712068259716034,-0.5716357231140137
12.689051866531372,-0.04601087421178818,-1.0576213598251343,0.9131062030792236,1.0115104913711548,0.29612836241722107,-0.5706544518470764
12.709121227264404,-0.03516511991620064,-1.0551674365997314,0.920515775680542,1.0154657363891602,0.30688560009002686,-0.5702131390571594
12.729174137115479,-0.021090107038617134,-1.0487520694732666,0.9385120272636414,1.0196112394332886,0.3212914764881134,-0.5707197189331055
12.749314785003662,-0.024512844160199165,-1.0492653846740723,0.9466396570205688,1.01869797706604,0.31651926040649414,-0.5723085999488831
12.769412994384766,-0.03310077264904976,-1.0512679815292358,0.9436163902282715,1.0157774686813354,0.308601975440979,-0.5734228491783142
12.789473295211792,-0.05471526086330414,-1.0562018156051636,0.9321887493133545,1.0095880031585693,0.2888239920139313,-0.5749878287315369
12.809567928314209,-0.06509275734424591,-1.0587446689605713,0.9249405264854431,1.0073082447052002,0.2791285812854767,-0.5752482414245605
12.829660415649414,-0.0833287239074707,-1.0653640031814575,0.910913348197937,1.0032817125320435,0.25810304284095764,-0.5745258331298828
12.849757432937622,-0.09109571576118469,-1.068925142288208,0.8968383073806763,1.001927137374878,0.24902129173278809,-0.5731932520866394
12.869935512542725,-0.08756501972675323,-1.0684019327163696,0.8920493125915527,1.0037168264389038,0.25294849276542664,-0.5722984075546265
12.889970064163208,-0.0734947919845581,-1.0646750926971436,0.8917239904403687,1.0071687698364258,0.2689223885536194,-0.571387767791748
12.910470485687256,-0.05484738573431969,-1.059417724609375,0.9028010964393616,1.010009527206421,0.28800705075263977,-0.5710895657539368
12.930577278137207,-0.04248517379164696,-1.0546847581863403,0.9090451598167419,1.012341022491455,0.3032231628894806,-0.5710192322731018
12.950654029846191,-0.027723627164959908,-1.0501834154129028,0.9258344769477844,1.01654851436615,0.3177058696746826,-0.5715754628181458
12.970753908157349,-0.024243764579296112,-1.048779010772705,0.9336298108100891,1.016487956047058,0.32041943073272705,-0.5725623965263367
12.990851163864136,-0.03010914847254753,-1.050346851348877,0.9405138492584229,1.0144436359405518,0.3124504089355469,-0.5745588541030884
13.010965347290039,-0.04708351194858551,-1.0546408891677856,0.9354794025421143,1.0096718072891235,0.2950693666934967,-0.5762068629264832
13.031064510345459,-0.05880507826805115,-1.058124303817749,0.9287590980529785,1.007167935371399,0.2830330729484558,-0.5764854550361633
13.05115270614624,-0.0782657340168953,-1.0650839805603027,0.9161447882652283,1.003354549407959,0.2603466510772705,-0.5755876898765564
13.071408748626709,-0.08485627919435501,-1.0677061080932617,0.9087791442871094,1.0020320415496826,0.25252658128738403,-0.5748208165168762
13.091503858566284,-0.08615434914827347,-1.0686719417572021,0.8955601453781128,1.0028446912765503,0.2519089877605438,-0.5732790231704712
13.111576557159424,-0.0763019472360611,-1.0662105083465576,0.8943365812301636,1.0065597295761108,0.2626070976257324,-0.5721033811569214
13.131659030914307,-0.06951440870761871,-1.0646672248840332,0.8990018367767334,1.0082712173461914,0.26840823888778687,-0.5718047618865967
13.151843786239624,-0.044205356389284134,-1.0546414852142334,0.9130387306213379,1.0139644145965576,0.29809442162513733,-0.5709551572799683
13.171865940093994,-0.02437203750014305,-1.0479975938796997,0.9302225708961487,1.0190154314041138,0.3193938732147217,-0.5711257457733154
13.191973209381104,-0.02295873686671257,-1.0463483333587646,0.9361848831176758,1.0184879302978516,0.3214612901210785,-0.5723665952682495
13.212048530578613,-0.023176679387688637,-1.045345425605774,0.9425756931304932,1.0184452533721924,0.32194313406944275,-0.5742999315261841
13.23213505744934,-0.03407827764749527,-1.048330307006836,0.939511775970459,1.0156843662261963,0.3116043210029602,-0.5762799978256226
13.252220869064331,-0.044145505875349045,-1.0511513948440552,0.9339849352836609,1.0122365951538086,0.30187880992889404,-0.5773204565048218
13.27230453491211,-0.06930911540985107,-1.0589913129806519,0.9211801886558533,1.0054967403411865,0.2747877836227417,-0.5779957175254822
13.292415618896484,-0.08652608096599579,-1.0649689435958862,0.9046360850334167,1.0015416145324707,0.2556943893432617,-0.5770991444587708
13.31247591972351,-0.09117217361927032,-1.066036343574524,0.8975847959518433,0.9997686147689819,0.25146985054016113,-0.5769056081771851
13.332555770874023,-0.0854346975684166,-1.0657691955566406,0.8881102800369263,1.0034376382827759,0.25721263885498047,-0.5751835703849792
13.35260820388794,-0.07499054819345474,-1.0643932819366455,0.892329752445221,1.0058766603469849,0.26515305042266846,-0.5743117928504944
13.372715473175049,-0.06592077761888504,-1.0618304014205933,0.8992806673049927,1.0076384544372559,0.2732332646846771,-0.5741837620735168
13.392777442932129,-0.04438071697950363,-1.0543798208236694,0.9136108160018921,1.0130503177642822,0.2961154580116272,-0.5738682150840759
13.412919521331787,-0.028788398951292038,-1.0505329370498657,0.9290395975112915,1.018570065498352,0.310322642326355,-0.5739260911941528
13.433014154434204,-0.02938096970319748,-1.0498532056808472,0.9310649037361145,1.0171655416488647,0.3109034597873688,-0.5751500129699707
13.453083753585815,-0.03649400919675827,-1.051110863685608,0.93336021900177,1.0130743980407715,0.30381831526756287,-0.5773190855979919
13.473367929458618,-0.044459253549575806,-1.0533463954925537,0.9294304847717285,1.0107989311218262,0.29631736874580383,-0.578142523765564
13.49348759651184,-0.06740519404411316,-1.060541033744812,0.9143022298812866,1.0046749114990234,0.2733294367790222,-0.5788416266441345
13.513586282730103,-0.08347306400537491,-1.0669994354248047,0.9044982194900513,1.001250982284546,0.2529776096343994,-0.5775223970413208
13.533643960952759,-0.08686001598834991,-1.0680344104766846,0.8992315530776978,1.0003657341003418,0.24936571717262268,-0.5768632292747498
13.55371904373169,-0.07903033494949341,-1.067296028137207,0.8957585096359253,1.005064845085144,0.25595611333847046,-0.5747892260551453
13.573771953582764,-0.06543408334255219,-1.064096450805664,0.9037488698959351,1.0101022720336914,0.26772135496139526,-0.5731832981109619
13.593984127044678,-0.05556633323431015,-1.0603091716766357,0.9101896286010742,1.012296199798584,0.27854570746421814,-0.5727930665016174
13.613946199417114,-0.038826774805784225,-1.0516459941864014,0.9186121821403503,1.0152398347854614,0.30188193917274475,-0.5731515884399414
13.634032011032104,-0.034482091665267944,-1.0504404306411743,0.9229299426078796,1.0169565677642822,0.3068121075630188,-0.5735335350036621
13.654132604598999,-0.03372199833393097,-1.0512620210647583,0.9287238121032715,1.0167080163955688,0.3068372905254364,-0.5749832987785339
13.674176454544067,-0.04648756980895996,-1.0554174184799194,0.9242161512374878,1.0117870569229126,0.29436856508255005,-0.5769236087799072
13.694284439086914,-0.05391475185751915,-1.0575131177902222,0.9180288314819336,1.0090821981430054,0.2882842719554901,-0.5775632858276367
13.714359760284424,-0.07198746502399445,-1.0645161867141724,0.9077260494232178,1.0046247243881226,0.2679736316204071,-0.5772921442985535
13.734440326690674,-0.07786247134208679,-1.066960334777832,0.904212236404419,1.0037922859191895,0.26048600673675537,-0.5766141414642334
13.754517316818237,-0.08005061745643616,-1.068374752998352,0.9016551971435547,1.0037297010421753,0.25592756271362305,-0.5753036737442017
13.774571895599365,-0.07696249336004257,-1.0680465698242188,0.903291642665863,1.0053794384002686,0.2574518620967865,-0.5744525194168091
13.794668436050415,-0.06503196060657501,-1.0644183158874512,0.9076939821243286,1.0103363990783691,0.26948222517967224,-0.5727732181549072
13.814757823944092,-0.04824940860271454,-1.0581926107406616,0.9185565710067749,1.014768123626709,0.28785449266433716,-0.572060227394104
13.8348708152771,-0.03924637660384178,-1.053995966911316,0.9229938387870789,1.0167734622955322,0.29995983839035034,-0.5719850063323975
13.855188369750977,-0.03299533948302269,-1.0511982440948486,0.9288449287414551,1.0179654359817505,0.3091481328010559,-0.573072612285614
13.875135898590088,-0.039207763969898224,-1.0526471138000488,0.928327739238739,1.013980507850647,0.3045322895050049,-0.5751556754112244
13.895280599594116,-0.04638584703207016,-1.0546770095825195,0.9243504405021667,1.0111538171768188,0.29829588532447815,-0.5762039422988892
13.915385961532593,-0.06290090084075928,-1.0603280067443848,0.9151118993759155,1.0067192316055298,0.28135234117507935,-0.5770771503448486
13.935898065567017,-0.07645557820796967,-1.0667941570281982,0.9068814516067505,1.0047049522399902,0.2634959816932678,-0.5759438276290894
13.955979108810425,-0.08021597564220428,-1.0688227415084839,0.9047123193740845,1.0041158199310303,0.2575293779373169,-0.5752700567245483
13.976046562194824,-0.07678713649511337,-1.0680606365203857,0.9043370485305786,1.0055290460586548,0.2595633268356323,-0.5741274356842041
13.99613356590271,-0.07148261368274689,-1.066632628440857,0.904924750328064,1.0079172849655151,0.26495254039764404,-0.5732646584510803
14.016296148300171,-0.058207303285598755,-1.0623037815093994,0.9136636257171631,1.0121874809265137,0.2777080237865448,-0.5721827745437622
14.036328315734863,-0.046140171587467194,-1.0557633638381958,0.9170957207679749,1.0141555070877075,0.2959657311439514,-0.572634220123291
14.056418180465698,-0.042480871081352234,-1.053778886795044,0.918779730796814,1.014597773551941,0.30201926827430725,-0.5731852650642395
14.076602935791016,-0.04441561549901962,-1.0553351640701294,0.9178428053855896,1.0135289430618286,0.3011200428009033,-0.5745339393615723
14.096810579299927,-0.05534812808036804,-1.0599267482757568,0.9123785495758057,1.0095394849777222,0.2897402048110962,-0.5758033990859985
14.11695909500122,-0.061685703694820404,-1.0626893043518066,0.9088553190231323,1.0078951120376587,0.2824600636959076,-0.5759277939796448
14.13700270652771,-0.07277345657348633,-1.0680809020996094,0.9042707681655884,1.0057214498519897,0.2674473822116852,-0.5752588510513306
14.15734577178955,-0.07774709165096283,-1.0710368156433105,0.9035491943359375,1.0054174661636353,0.2580784857273102,-0.5738945007324219
14.177451133728027,-0.07535628229379654,-1.0702825784683228,0.9052333831787109,1.0061876773834229,0.2594604790210724,-0.5733149647712708
14.197507619857788,-0.06467326730489731,-1.0664188861846924,0.9093800783157349,1.0103586912155151,0.2706005573272705,-0.57197105884552
14.21798849105835,-0.05868513882160187,-1.064625859260559,0.9133626222610474,1.0126217603683472,0.2762787342071533,-0.571445882320404
14.238111734390259,-0.04805471748113632,-1.058963418006897,0.9193722605705261,1.014478325843811,0.2905040681362152,-0.5716221928596497
14.258244276046753,-0.039619892835617065,-1.0551823377609253,0.9210349917411804,1.0165901184082031,0.3037811517715454,-0.5723243951797485
14.278260946273804,-0.0427388958632946,-1.0562503337860107,0.9219057559967041,1.015533685684204,0.3004378080368042,-0.5731455683708191
14.298445701599121,-0.05111371725797653,-1.0589463710784912,0.9175204634666443,1.0122020244598389,0.29302626848220825,-0.5745632648468018
14.31862735748291,-0.06441324949264526,-1.0640408992767334,0.9091107249259949,1.00838041305542,0.27903062105178833,-0.5750960111618042
14.338795900344849,-0.0704396665096283,-1.0666667222976685,0.9058893322944641,1.0071158409118652,0.27152782678604126,-0.5748226046562195
14.359170913696289,-0.0768171101808548,-1.0699338912963867,0.903100848197937,1.0055724382400513,0.26172783970832825,-0.5739216804504395
14.379289627075195,-0.07558208703994751,-1.0692555904388428,0.9033724069595337,1.0056536197662354,0.26279428601264954,-0.5735683441162109
14.399344682693481,-0.06567251682281494,-1.0667630434036255,0.9099184274673462,1.009028673171997,0.2707223892211914,-0.5724292993545532
14.419478416442871,-0.05824984982609749,-1.0636602640151978,0.9137918949127197,1.0111252069473267,0.27928632497787476,-0.572002112865448
14.439592123031616,-0.04480292648077011,-1.0584522485733032,0.9218467473983765,1.0151026248931885,0.29499533772468567,-0.5716103315353394
14.459659337997437,-0.03560560196638107,-1.0542482137680054,0.9266736507415771,1.0176911354064941,0.30819377303123474,-0.5721261501312256
14.479714393615723,-0.03898622468113899,-1.055121660232544,0.9278980493545532,1.0164334774017334,0.3046721816062927,-0.5730186700820923
14.49980616569519,-0.049980469048023224,-1.058469533920288,0.9229697585105896,1.0126910209655762,0.2941737771034241,-0.5744491815567017
14.52032208442688,-0.06582191586494446,-1.0641648769378662,0.9124828577041626,1.008314609527588,0.27771955728530884,-0.5749166011810303
14.54038119316101,-0.07215386629104614,-1.0669208765029907,0.9084658622741699,1.0069725513458252,0.26983386278152466,-0.574553370475769
14.56051254272461,-0.07991968095302582,-1.0700842142105103,0.9040716886520386,1.0047860145568848,0.2589587867259979,-0.5737705826759338
14.580943822860718,-0.0748026967048645,-1.0687121152877808,0.90367591381073,1.0064231157302856,0.26417243480682373,-0.5730793476104736
14.601104021072388,-0.06273450702428818,-1.0648763179779053,0.9104644656181335,1.0098953247070312,0.2756831645965576,-0.5719862580299377
14.621133804321289,-0.04575024172663689,-1.0580328702926636,0.9228873252868652,1.014894962310791,0.2939995229244232,-0.5714584589004517
14.64131212234497,-0.03911535441875458,-1.055214762687683,0.9276069402694702,1.0168598890304565,0.3019695281982422,-0.5715224742889404
14.661438226699829,-0.034076087176799774,-1.0524266958236694,0.9318477511405945,1.018023133277893,0.3100581467151642,-0.5726394057273865
14.681441068649292,-0.04332375526428223,-1.0548900365829468,0.9292613863945007,1.0142632722854614,0.30157923698425293,-0.5745341777801514
