liuyurong129/humanoid-gym/humanoid/data/target_q_20250521-035621.csv
timestamp,joint_1,joint_2,joint_3,joint_4,joint_5,joint_6
4.887580871582031e-05,0.0,0.0,0.0,0.0,0.0,0.0
0.020142555236816406,0.0,0.0,0.0,0.0,0.0,0.0
0.040213584899902344,0.0,0.0,0.0,0.0,0.0,0.0
0.06027507781982422,0.0,0.0,0.0,0.0,0.0,0.0
0.08033871650695801,0.0,0.0,0.0,0.0,0.0,0.0
0.1004183292388916,-0.49733564257621765,-0.8752171397209167,0.11154448986053467,0.24056929349899292,0.16313034296035767,-0.17746438086032867
0.12050342559814453,-0.48517876863479614,-0.7339963912963867,0.17429189383983612,0.25545820593833923,0.1747303009033203,-0.19199888408184052
0.14057159423828125,-0.4399220645427704,-0.6077728867530823,0.23221059143543243,0.23403321206569672,0.21002739667892456,-0.20551060140132904
0.16063618659973145,-0.36085960268974304,-0.47865867614746094,0.27618157863616943,0.16626347601413727,0.3412438631057739,-0.21592329442501068
0.18074750900268555,-0.2969314157962799,-0.4388783872127533,0.2713441848754883,0.09141568839550018,0.4401482343673706,-0.2226993590593338
0.20084095001220703,-0.13603974878787994,-0.37983182072639465,0.37577730417251587,-0.07557571679353714,0.5873953700065613,-0.24750754237174988
0.2209165096282959,-0.19419069588184357,-0.37491846084594727,0.29605644941329956,-0.07302072644233704,0.6154471039772034,-0.2744257152080536
0.24097776412963867,-0.18967992067337036,-0.40984997153282166,0.25644946098327637,-0.09309292584657669,0.6521058678627014,-0.27957800030708313
0.2610790729522705,-0.2188875824213028,-0.4979897737503052,0.126754030585289,-0.09638141840696335,0.6720243096351624,-0.28994953632354736
0.28114986419677734,-0.23555119335651398,-0.5394486784934998,0.13635696470737457,-0.05847445875406265,0.633064329624176,-0.2952204644680023
0.3017256259918213,-0.2708316743373871,-0.548956573009491,0.16841639578342438,-0.002571072429418564,0.6046134829521179,-0.298236608505249
0.3218190670013428,-0.2932022511959076,-0.5604985952377319,0.20747318863868713,0.043041668832302094,0.548370361328125,-0.30421850085258484
0.3418912887573242,-0.3018959164619446,-0.512364387512207,0.2842457890510559,0.07169043272733688,0.5394249558448792,-0.3114534318447113
0.3620133399963379,-0.28853359818458557,-0.5124447345733643,0.3499123454093933,0.07916568964719772,0.5255111455917358,-0.31602171063423157
0.3821089267730713,-0.3033468425273895,-0.4834668040275574,0.349820077419281,0.07326772809028625,0.582872211933136,-0.31733840703964233
0.4021944999694824,-0.2879154086112976,-0.4739154875278473,0.36766910552978516,0.06537257879972458,0.6071959137916565,-0.32250556349754333
0.4224848747253418,-0.3069576919078827,-0.484038770198822,0.34128159284591675,0.06751207262277603,0.6343891620635986,-0.3297956585884094
0.44264841079711914,-0.34484273195266724,-0.5172490477561951,0.3394428491592407,0.10078494995832443,0.5647186040878296,-0.34130358695983887
0.46266698837280273,-0.34279152750968933,-0.5740981698036194,0.3268889784812927,0.10313492268323898,0.566325306892395,-0.343717485666275
0.48273801803588867,-0.35930415987968445,-0.5881118774414062,0.3472583293914795,0.12876151502132416,0.5618331432342529,-0.34783315658569336
0.5028152465820312,-0.32002195715904236,-0.6093120574951172,0.3199436664581299,0.09089909493923187,0.6494298577308655,-0.33884552121162415
0.5228853225708008,-0.34217673540115356,-0.6465737819671631,0.36866629123687744,0.13402067124843597,0.5978392362594604,-0.3445096015930176
0.542933464050293,-0.35818764567375183,-0.646787166595459,0.39909684658050537,0.14818881452083588,0.5923537015914917,-0.34735581278800964
0.563173770904541,-0.3894454538822174,-0.5994042158126831,0.4342784285545349,0.18223637342453003,0.5089881420135498,-0.3593060076236725
0.5832562446594238,-0.3909897208213806,-0.6275286078453064,0.4235144853591919,0.18528194725513458,0.5227810144424438,-0.35614070296287537
0.6033275127410889,-0.374044269323349,-0.7032479047775269,0.4313529133796692,0.1871827095746994,0.5249523520469666,-0.35694625973701477
0.6239078044891357,-0.38088536262512207,-0.7115179896354675,0.4326161742210388,0.1875021904706955,0.5392071604728699,-0.36136746406555176
0.6440038681030273,-0.3570094406604767,-0.7017675042152405,0.43470239639282227,0.1602494716644287,0.5747676491737366,-0.3622365891933441
0.6640689373016357,-0.3688139021396637,-0.7166255116462708,0.4562813639640808,0.17600466310977936,0.5465623140335083,-0.3668721616268158
0.6841216087341309,-0.3671691119670868,-0.7020959258079529,0.4685242772102356,0.1759968101978302,0.5499469637870789,-0.3714769184589386
0.7042093276977539,-0.3676343262195587,-0.7268758416175842,0.4665758013725281,0.18954400718212128,0.5409473180770874,-0.3721202611923218
0.7243621349334717,-0.3741191327571869,-0.7626399993896484,0.47679412364959717,0.1995217651128769,0.5299325585365295,-0.3737850785255432
0.7443768978118896,-0.365895539522171,-0.7924538254737854,0.47095251083374023,0.19989828765392303,0.5322355628013611,-0.3740312457084656
0.7644712924957275,-0.3553880751132965,-0.799447774887085,0.48663562536239624,0.16970984637737274,0.5166488289833069,-0.381063312292099
0.7845420837402344,-0.35356399416923523,-0.7853984236717224,0.5177320837974548,0.1553831547498703,0.5151537656784058,-0.3912849426269531
0.8045945167541504,-0.3533250391483307,-0.8407726883888245,0.4995466470718384,0.1737232655286789,0.5286819338798523,-0.39097657799720764
0.824678897857666,-0.36201006174087524,-0.8513085842132568,0.5214051604270935,0.22211314737796783,0.5133281946182251,-0.3932763338088989
0.8447515964508057,-0.3582633137702942,-0.8736870288848877,0.5397500991821289,0.20858581364154816,0.5061580538749695,-0.3996308743953705
0.8648209571838379,-0.36381617188453674,-0.8614584803581238,0.5470626950263977,0.18388544023036957,0.5251747965812683,-0.4097481667995453
0.8850457668304443,-0.37691017985343933,-0.9268912672996521,0.5503841042518616,0.22098395228385925,0.5205526947975159,-0.4107612073421478
0.9051189422607422,-0.3616020977497101,-0.8364322185516357,0.5781718492507935,0.2030148208141327,0.5440735220909119,-0.4192740023136139
0.9251773357391357,-0.3579527735710144,-0.8841330409049988,0.5851238369941711,0.17402656376361847,0.5375356674194336,-0.4318303167819977
0.9455077648162842,-0.37885037064552307,-0.9863846898078918,0.548319399356842,0.2348470538854599,0.5599918365478516,-0.42538920044898987
0.9655892848968506,-0.3662398159503937,-0.8875003457069397,0.6027782559394836,0.2627224326133728,0.5414217710494995,-0.4342186748981476
0.9856700897216797,-0.3506448566913605,-0.8912445902824402,0.6197790503501892,0.17737871408462524,0.5648417472839355,-0.4463929831981659
1.0057868957519531,-0.374521404504776,-1.0131597518920898,0.5913659930229187,0.25509190559387207,0.6029835939407349,-0.44411733746528625
1.025876760482788,-0.3566376268863678,-1.0695180892944336,0.5614679455757141,0.2779085636138916,0.5750224590301514,-0.4359218180179596
1.0459544658660889,-0.3624376952648163,-0.7771763801574707,0.6773905158042908,0.2058248668909073,0.5882061719894409,-0.4665968120098114
1.0659997463226318,-0.36054596304893494,-0.8969765305519104,0.6317927241325378,0.17711253464221954,0.632808268070221,-0.4699937701225281
1.086094617843628,-0.38158831000328064,-0.9952957630157471,0.6248920559883118,0.24550215899944305,0.6197305917739868,-0.46469345688819885
1.1061639785766602,-0.35569024085998535,-1.115114688873291,0.6305602788925171,0.30085840821266174,0.5897974371910095,-0.4554736018180847
1.1262714862823486,-0.3693172037601471,-0.7706306576728821,0.7603549361228943,0.22131963074207306,0.5594530701637268,-0.4903412461280823
1.1463651657104492,-0.3553087115287781,-1.1195604801177979,0.6494037508964539,0.22191213071346283,0.58394855260849,-0.46898460388183594
1.1664402484893799,-0.38512012362480164,-0.8566232323646545,0.7051487565040588,0.29198288917541504,0.605442464351654,-0.4799647033214569
1.1864895820617676,-0.37196800112724304,-0.9516040682792664,0.7059979438781738,0.2764415740966797,0.5932976603507996,-0.4807332456111908
1.206571102142334,-0.37202391028404236,-1.1384320259094238,0.6539000272750854,0.30050939321517944,0.6457805037498474,-0.46404749155044556
1.2266719341278076,-0.3326203525066376,-0.9552614092826843,0.6839949488639832,0.2892325520515442,0.6157688498497009,-0.4728196859359741
1.2467384338378906,-0.35177290439605713,-1.0378365516662598,0.7126396298408508,0.18818750977516174,0.6332840919494629,-0.4895659387111664
1.2669920921325684,-0.3515898585319519,-1.1942329406738281,0.6482476592063904,0.28152066469192505,0.6612990498542786,-0.47426408529281616
1.2870864868164062,-0.35403671860694885,-1.167158842086792,0.6955361366271973,0.3470042943954468,0.6276830434799194,-0.47448912262916565
1.3071563243865967,-0.35308393836021423,-0.9295857548713684,0.7770262956619263,0.2734188735485077,0.5939595103263855,-0.4981639087200165
1.3272323608398438,-0.3472949266433716,-0.9846226572990417,0.7290445566177368,0.2590729594230652,0.6388938426971436,-0.4959395229816437
1.3473889827728271,-0.37442877888679504,-1.085472583770752,0.7432442903518677,0.31653666496276855,0.64168781042099,-0.49133679270744324
1.3674767017364502,-0.3526199460029602,-1.2676608562469482,0.7048840522766113,0.36623936891555786,0.632341742515564,-0.4724903404712677
1.3875062465667725,-0.34332120418548584,-0.9166890978813171,0.7836152911186218,0.23675747215747833,0.6186649203300476,-0.5075481534004211
1.4076123237609863,-0.36441439390182495,-1.1634821891784668,0.7882394194602966,0.24307219684123993,0.6145296692848206,-0.5021646618843079
1.42793869972229,-0.34907424449920654,-1.170969843864441,0.7102084755897522,0.30223312973976135,0.6645886301994324,-0.493775337934494
1.4479987621307373,-0.34891626238822937,-1.1749203205108643,0.7593081593513489,0.3451922535896301,0.6539701819419861,-0.49090856313705444
1.4681134223937988,-0.35128554701805115,-0.9502717852592468,0.83136385679245,0.31577056646347046,0.6177219152450562,-0.5113495588302612
1.488166332244873,-0.34447887539863586,-1.0199775695800781,0.7988482713699341,0.275512158870697,0.6373799443244934,-0.510057270526886
1.5082159042358398,-0.35597386956214905,-1.1903223991394043,0.7345531582832336,0.3356677293777466,0.6654664874076843,-0.49039074778556824
1.528320550918579,-0.37429922819137573,-1.210197925567627,0.7782151699066162,0.3900071978569031,0.6179553866386414,-0.49206066131591797
1.5484459400177002,-0.32395896315574646,-1.1416187286376953,0.7876645922660828,0.2968525290489197,0.6510103344917297,-0.5039986968040466
1.568481683731079,-0.39097774028778076,-1.3141281604766846,0.7656878232955933,0.3505670130252838,0.6533262133598328,-0.4949679672718048
1.58860182762146,-0.34575310349464417,-1.216301679611206,0.7618120312690735,0.30673277378082275,0.6708320379257202,-0.4971197545528412
1.6086888313293457,-0.34175851941108704,-1.1965622901916504,0.809353768825531,0.30032891035079956,0.6235705614089966,-0.5095511078834534
1.6287922859191895,-0.353528767824173,-1.2126622200012207,0.7902296185493469,0.34162136912345886,0.6865602135658264,-0.5008978843688965
1.6488842964172363,-0.339021235704422,-1.0823638439178467,0.7924420833587646,0.3425503671169281,0.6645302772521973,-0.5063666105270386
1.6689329147338867,-0.3717241883277893,-1.2102265357971191,0.8476643562316895,0.3664669096469879,0.6552565097808838,-0.5068034529685974
1.6889829635620117,-0.3165878355503082,-1.3002922534942627,0.7436525225639343,0.36529988050460815,0.6957067847251892,-0.49146774411201477
1.7092084884643555,-0.32593366503715515,-1.0677974224090576,0.8308674693107605,0.2955387532711029,0.6583922505378723,-0.5147600173950195
1.7292931079864502,-0.3638980984687805,-0.9951939582824707,0.8952032923698425,0.2650408148765564,0.6241133809089661,-0.532585620880127
1.7495508193969727,-0.34838780760765076,-1.191206455230713,0.8326649069786072,0.3043864965438843,0.6966546177864075,-0.5180704593658447
1.769608736038208,-0.345580130815506,-1.3651275634765625,0.7703341841697693,0.42678236961364746,0.6547662615776062,-0.4904405176639557
1.7896995544433594,-0.33261576294898987,-1.122162103652954,0.832391083240509,0.39969366788864136,0.6294054388999939,-0.5056816339492798
1.8097732067108154,-0.3686884343624115,-1.327219009399414,0.8848751783370972,0.32899174094200134,0.6180246472358704,-0.5167000889778137
1.830376148223877,-0.35056743025779724,-1.2018861770629883,0.7979616522789001,0.39076852798461914,0.6559792160987854,-0.505556046962738
1.8504879474639893,-0.34631797671318054,-1.3074007034301758,0.8072320818901062,0.40094488859176636,0.6239550709724426,-0.5025063753128052
1.870544672012329,-0.345119446516037,-1.1182582378387451,0.8798689246177673,0.339990496635437,0.6652451753616333,-0.5211014151573181
1.8905973434448242,-0.34943827986717224,-1.2590978145599365,0.8699775338172913,0.3228943645954132,0.6776087284088135,-0.5172932147979736
1.9107015132904053,-0.3432784974575043,-1.3353891372680664,0.8060144186019897,0.35235291719436646,0.7051353454589844,-0.5066976547241211
1.9307734966278076,-0.3293847143650055,-1.1524872779846191,0.8470233082771301,0.3813496530056,0.6607756018638611,-0.5098557472229004
1.9508485794067383,-0.3537638187408447,-1.3411998748779297,0.8992907404899597,0.32918569445610046,0.6819140911102295,-0.5180767774581909
1.970982313156128,-0.3514101207256317,-1.3038995265960693,0.8511776328086853,0.3622483015060425,0.7154823541641235,-0.5115474462509155
1.9910144805908203,-0.33735737204551697,-1.2881755828857422,0.8559120297431946,0.41326865553855896,0.6168750524520874,-0.5091803073883057
2.011086940765381,-0.34948310256004333,-1.2759027481079102,0.8870378136634827,0.36544615030288696,0.6820730566978455,-0.5168967247009277
2.0311472415924072,-0.3508457839488983,-1.3611111640930176,0.8419615030288696,0.3904340863227844,0.6867337822914124,-0.5069456696510315
2.051241874694824,-0.3261890113353729,-1.1174263954162598,0.8703518509864807,0.3787616491317749,0.6503192782402039,-0.514895498752594
2.0713157653808594,-0.34727638959884644,-1.2143571376800537,0.92215496301651,0.32420116662979126,0.6429645419120789,-0.526404619216919
2.091369152069092,-0.35387757420539856,-1.4740397930145264,0.8267911672592163,0.41948169469833374,0.6936998963356018,-0.49770885705947876
2.111456871032715,-0.3494011461734772,-1.372626781463623,0.8358978629112244,0.44030702114105225,0.7087720036506653,-0.49236148595809937
2.1315255165100098,-0.33637329936027527,-1.1835520267486572,0.9102330207824707,0.3785291612148285,0.634105384349823,-0.5220714211463928
2.1515843868255615,-0.36070716381073,-1.319382667541504,0.9026288390159607,0.37678980827331543,0.6795110106468201,-0.5192276835441589
2.171672821044922,-0.32636362314224243,-1.3901715278625488,0.8207176327705383,0.3769453763961792,0.6892973780632019,-0.5072751045227051
2.191753625869751,-0.32675138115882874,-1.207141399383545,0.8782240748405457,0.38448959589004517,0.6485460996627808,-0.5168617963790894
2.211820363998413,-0.371233731508255,-1.4322621822357178,0.9277328848838806,0.3800900876522064,0.6602568030357361,-0.519186794757843
2.231910467147827,-0.35436302423477173,-1.3507184982299805,0.8817048668861389,0.3868117332458496,0.7090288400650024,-0.5136719942092896
2.251997947692871,-0.3256283700466156,-1.3400886058807373,0.8668525815010071,0.41237300634384155,0.6403282880783081,-0.5134629011154175
2.2720491886138916,-0.3648810088634491,-1.2167079448699951,0.9292522072792053,0.3580894470214844,0.6769047975540161,-0.5271308422088623
2.2921295166015625,-0.35021424293518066,-1.2340712547302246,0.9051355719566345,0.3912997841835022,0.6665282845497131,-0.5240437388420105
2.3122053146362305,-0.3506547510623932,-1.4863789081573486,0.8584783673286438,0.4138363301753998,0.7068527340888977,-0.5031446218490601
2.3322744369506836,-0.3421383202075958,-1.3089795112609863,0.9010034799575806,0.39882251620292664,0.6531714797019958,-0.5214470624923706
2.353381633758545,-0.34096264839172363,-1.3425705432891846,0.8910066485404968,0.38527724146842957,0.67618328332901,-0.5193250179290771
2.3734962940216064,-0.33573251962661743,-1.2802300453186035,0.8800569176673889,0.3792269825935364,0.6790913343429565,-0.5203359127044678
2.393609046936035,-0.3396395146846771,-1.2584881782531738,0.9056379199028015,0.377912700176239,0.6744370460510254,-0.5258855819702148
2.413642644882202,-0.3627051115036011,-1.4045164585113525,0.8984609246253967,0.44559571146965027,0.7201473116874695,-0.5055480599403381
2.4337353706359863,-0.33566465973854065,-1.2000517845153809,0.9057247042655945,0.442590594291687,0.6426876187324524,-0.5158377289772034
2.453810691833496,-0.3409225046634674,-1.3493692874908447,0.9460075497627258,0.3412434458732605,0.6533728241920471,-0.5249829888343811
2.473897695541382,-0.3558354079723358,-1.4385409355163574,0.8541099429130554,0.4451873302459717,0.7263372540473938,-0.49802514910697937
2.4939873218536377,-0.33352532982826233,-1.2591290473937988,0.8741821050643921,0.44127824902534485,0.6663180589675903,-0.5086597204208374
2.5140891075134277,-0.3500642478466034,-1.3153390884399414,0.9713662266731262,0.331298828125,0.6676711440086365,-0.5306022763252258
2.5341415405273438,-0.33938851952552795,-1.42527437210083,0.8264899253845215,0.41520410776138306,0.7105945348739624,-0.5037222504615784
2.55425763130188,-0.3271782100200653,-1.2828114032745361,0.8609363436698914,0.42580991983413696,0.6444510221481323,-0.5139233469963074
2.5743367671966553,-0.3388352692127228,-1.1958823204040527,0.94680255651474,0.32900750637054443,0.6642048358917236,-0.5329129695892334
2.59439754486084,-0.36905643343925476,-1.4654273986816406,0.9024559855461121,0.4290826618671417,0.7194976210594177,-0.5077111721038818
2.614487886428833,-0.32251420617103577,-1.452324390411377,0.8342000842094421,0.4565991163253784,0.6999976634979248,-0.49505773186683655
2.6345365047454834,-0.3292571008205414,-1.2050111293792725,0.9267410635948181,0.37646621465682983,0.6644590497016907,-0.5281223654747009
2.654597759246826,-0.36220237612724304,-1.38554048538208,0.923382580280304,0.3942156434059143,0.7175413966178894,-0.5210810303688049
2.674692392349243,-0.33363237977027893,-1.4470009803771973,0.8618186116218567,0.4467639625072479,0.6951113939285278,-0.5050512552261353
2.6947615146636963,-0.31391623616218567,-1.1702735424041748,0.9262800812721252,0.36841315031051636,0.6669703125953674,-0.5280027389526367
2.7148334980010986,-0.3462775647640228,-1.3566393852233887,0.9462494850158691,0.37672650814056396,0.7029857039451599,-0.5274168252944946
2.735137701034546,-0.34781497716903687,-1.3864164352416992,0.8946202397346497,0.4622195363044739,0.6824512481689453,-0.5076178312301636
2.755228042602539,-0.32740747928619385,-1.1775729656219482,0.9235110878944397,0.4152635931968689,0.6415311694145203,-0.5225635766983032
2.7752926349639893,-0.3548022508621216,-1.4078936576843262,0.9519605040550232,0.3988656997680664,0.6772095561027527,-0.5238201022148132
2.795764446258545,-0.341373473405838,-1.3453290462493896,0.8885722756385803,0.4602738618850708,0.6887930035591125,-0.5054316520690918
2.8158719539642334,-0.3255069851875305,-1.2489924430847168,0.9147407412528992,0.4207122325897217,0.6366646885871887,-0.5194703340530396
2.8359384536743164,-0.37001416087150574,-1.432342767715454,0.9695225954055786,0.36853063106536865,0.6838647723197937,-0.5274451971054077
2.8559892177581787,-0.31256815791130066,-1.3026976585388184,0.8611496686935425,0.43843114376068115,0.6875964403152466,-0.5087288618087769
2.8760831356048584,-0.3242405652999878,-1.318518877029419,0.9058405756950378,0.41894349455833435,0.6274082660675049,-0.5216025114059448
2.8961925506591797,-0.35990557074546814,-1.2483835220336914,0.9860726594924927,0.3272880017757416,0.7083132863044739,-0.5377298593521118
2.9162631034851074,-0.3517628312110901,-1.5377061367034912,0.8589557409286499,0.4559934437274933,0.6858911514282227,-0.504281222820282
2.9364514350891113,-0.32610002160072327,-1.22373366355896,0.9085279107093811,0.44081342220306396,0.6453033685684204,-0.5189481377601624
2.9564547538757324,-0.35741379857063293,-1.4152746200561523,0.9558151364326477,0.3869519829750061,0.6705682873725891,-0.5260800123214722
2.976543664932251,-0.33561158180236816,-1.2931969165802002,0.8859908580780029,0.43201518058776855,0.7040383219718933,-0.5132565498352051
2.996638536453247,-0.33616477251052856,-1.3589985370635986,0.9200780391693115,0.43780726194381714,0.6481634974479675,-0.5206941962242126
3.0167109966278076,-0.3421972095966339,-1.3406579494476318,0.9469199776649475,0.4010865092277527,0.683925449848175,-0.5272122621536255
3.0367679595947266,-0.33457842469215393,-1.350102186203003,0.9084668159484863,0.41330891847610474,0.6852204203605652,-0.5200873613357544
3.0568647384643555,-0.3318686783313751,-1.3076775074005127,0.9238167405128479,0.39498114585876465,0.6821929812431335,-0.5248948335647583
3.0769317150115967,-0.346090167760849,-1.393599271774292,0.939561128616333,0.4198613166809082,0.689098060131073,-0.5239995121955872
3.0970141887664795,-0.3363948464393616,-1.3648231029510498,0.9117640852928162,0.44445884227752686,0.6613341569900513,-0.5168403387069702
3.1171369552612305,-0.3263951241970062,-1.1713159084320068,0.9486026167869568,0.38950350880622864,0.64691162109375,-0.5317680835723877
3.1372265815734863,-0.3491010367870331,-1.3557116985321045,0.9580405354499817,0.39812424778938293,0.6899780035018921,-0.5300838947296143
3.1573646068573,-0.3482511341571808,-1.4460315704345703,0.908638596534729,0.4758777916431427,0.6951667070388794,-0.5057371258735657
3.1778242588043213,-0.33353427052497864,-1.181518793106079,0.9753182530403137,0.3964603543281555,0.6507893800735474,-0.5330775380134583
3.197965621948242,-0.34321731328964233,-1.4024662971496582,0.9735166430473328,0.36893942952156067,0.678041398525238,-0.5291189551353455
3.2180187702178955,-0.3359738886356354,-1.3635857105255127,0.8944914937019348,0.4409758448600769,0.693255603313446,-0.5139569044113159
3.2380690574645996,-0.3387584686279297,-1.2763044834136963,0.9907874464988708,0.39037567377090454,0.6626192927360535,-0.5330091714859009
3.258167266845703,-0.37168318033218384,-1.4249560832977295,0.9924907684326172,0.39174318313598633,0.6820357441902161,-0.5298799276351929
3.2782645225524902,-0.32088664174079895,-1.3624310493469238,0.8770027756690979,0.45789530873298645,0.6869112253189087,-0.5071929097175598
3.2983052730560303,-0.35187873244285583,-1.2367138862609863,1.0369620323181152,0.39776360988616943,0.6590619087219238,-0.5377175807952881
3.318396806716919,-0.3795197010040283,-1.2562801837921143,1.0364218950271606,0.33566874265670776,0.6936879754066467,-0.5405197739601135
3.338463306427002,-0.34325483441352844,-1.4889445304870605,0.9034613370895386,0.4487437307834625,0.7089514136314392,-0.5080506205558777
3.358640432357788,-0.31134098768234253,-1.2059352397918701,0.9247027039527893,0.3887326121330261,0.6580477356910706,-0.5292965173721313
3.3787357807159424,-0.3548388183116913,-1.2020223140716553,1.012876033782959,0.36305922269821167,0.6616737246513367,-0.542726993560791
3.398766040802002,-0.34702983498573303,-1.4309298992156982,0.9521097540855408,0.40407049655914307,0.7149590253829956,-0.5268228054046631
3.418821096420288,-0.31156662106513977,-1.3148939609527588,0.9044666290283203,0.4549314081668854,0.6549766063690186,-0.5154479742050171
3.4390811920166016,-0.374990850687027,-1.278813362121582,1.0170174837112427,0.37445068359375,0.6638531684875488,-0.5379657745361328
3.459179162979126,-0.3678686320781708,-1.355973482131958,0.9914985299110413,0.3962630033493042,0.7421023845672607,-0.5302227139472961
3.4792861938476562,-0.30748823285102844,-1.5000817775726318,0.8649942874908447,0.47535037994384766,0.6832460761070251,-0.49914589524269104
3.4994466304779053,-0.3159814178943634,-1.2688755989074707,0.9451377987861633,0.3941652774810791,0.6445164084434509,-0.5303442478179932
3.5195374488830566,-0.3658948242664337,-1.2511248588562012,1.0271553993225098,0.3796880841255188,0.662283718585968,-0.5401106476783752
3.539613962173462,-0.35309508442878723,-1.4904711246490479,0.9299313426017761,0.41581273078918457,0.7282809615135193,-0.516460120677948
3.5597124099731445,-0.31665167212486267,-1.3764421939849854,0.9211342334747314,0.4490343928337097,0.6488770842552185,-0.521462082862854
3.5797665119171143,-0.35445937514305115,-1.2558281421661377,0.9964834451675415,0.38746899366378784,0.6494230628013611,-0.5367568731307983
3.599839448928833,-0.3523577153682709,-1.4493603706359863,0.9540685415267944,0.4115866422653198,0.7127206921577454,-0.5257213115692139
3.619919538497925,-0.32859379053115845,-1.248981237411499,0.9307989478111267,0.4673619568347931,0.6591426730155945,-0.5177196860313416
3.6399831771850586,-0.3286583721637726,-1.2381312847137451,0.9721232056617737,0.4163375198841095,0.5932662487030029,-0.533020555973053
3.6600186824798584,-0.3409937918186188,-1.3655157089233398,0.9395278096199036,0.3978639841079712,0.702729344367981,-0.5267096161842346
3.680088758468628,-0.3354301154613495,-1.4163472652435303,0.9085513949394226,0.45600414276123047,0.6699958443641663,-0.5115146636962891
3.700507640838623,-0.3414020240306854,-1.231548547744751,1.0181852579116821,0.39220333099365234,0.6420928835868835,-0.5405137538909912
3.720607280731201,-0.343068391084671,-1.3911066055297852,0.9897083640098572,0.4002785086631775,0.6657922863960266,-0.5321298837661743
3.7406907081604004,-0.3508457839488983,-1.405346155166626,0.9364431500434875,0.47210776805877686,0.7064350247383118,-0.510479211807251
3.760791301727295,-0.3300151228904724,-1.3514842987060547,0.9275712370872498,0.4400261640548706,0.6805525422096252,-0.5164743065834045
3.780879259109497,-0.3373396694660187,-1.3273484706878662,0.9697323441505432,0.41333627700805664,0.6838624477386475,-0.5290662050247192
3.801044225692749,-0.34071582555770874,-1.4452896118164062,0.9236093163490295,0.44997453689575195,0.7071018815040588,-0.5108940005302429
3.8211774826049805,-0.3245522677898407,-1.200129508972168,0.9747812151908875,0.37826788425445557,0.6377406716346741,-0.536046028137207
3.841261148452759,-0.33732107281684875,-1.2818078994750977,1.0010734796524048,0.36601316928863525,0.6439682245254517,-0.5385222434997559
3.8613409996032715,-0.3384452760219574,-1.4707450866699219,0.9214932322502136,0.4091028571128845,0.7138397097587585,-0.5200955867767334
3.8816120624542236,-0.332611620426178,-1.3284497261047363,0.9423225522041321,0.47009748220443726,0.6518105864524841,-0.5189089775085449
3.901702404022217,-0.3341468274593353,-1.2059767246246338,1.005332589149475,0.4220160245895386,0.6388782858848572,-0.5339326858520508
3.921783447265625,-0.34579625725746155,-1.3629851341247559,0.9760482311248779,0.40556690096855164,0.7114300727844238,-0.5296156406402588
3.942124128341675,-0.339446485042572,-1.463604211807251,0.9151206016540527,0.4704572558403015,0.6750765442848206,-0.510205864906311
3.9622843265533447,-0.324760764837265,-1.3312253952026367,0.9353082776069641,0.42624810338020325,0.6742927432060242,-0.5201637744903564
3.9823217391967773,-0.3378065526485443,-1.3175725936889648,0.9998490214347839,0.360819548368454,0.6806120872497559,-0.535071611404419
4.002382040023804,-0.3377941846847534,-1.5181512832641602,0.9060871005058289,0.44296449422836304,0.7027575373649597,-0.5109970569610596
4.022475242614746,-0.338049978017807,-1.4543304443359375,0.9162755012512207,0.4742516875267029,0.6796862483024597,-0.5100876092910767
4.042561292648315,-0.338485985994339,-1.2173657417297363,1.0118743181228638,0.4326108992099762,0.6404586434364319,-0.534537672996521
4.062612056732178,-0.346297949552536,-1.3863303661346436,0.982119083404541,0.41966181993484497,0.6911501884460449,-0.5287333130836487
4.082741022109985,-0.33956190943717957,-1.4525163173675537,0.9170544743537903,0.4526155889034271,0.7020309567451477,-0.510962963104248
4.102796792984009,-0.32861754298210144,-1.2050304412841797,0.9783827066421509,0.44597136974334717,0.663931667804718,-0.5238959789276123
4.122849464416504,-0.3447476923465729,-1.299086570739746,1.0194895267486572,0.3835258483886719,0.6610655784606934,-0.537071943283081
4.142945051193237,-0.3434365689754486,-1.3386719226837158,0.9880974292755127,0.4120299816131592,0.6993324756622314,-0.5294022560119629
4.1631269454956055,-0.34151092171669006,-1.5321998596191406,0.9070836305618286,0.47362402081489563,0.6972199082374573,-0.5040622353553772
4.183124780654907,-0.329876184463501,-1.2826337814331055,0.9826602339744568,0.4285295903682709,0.6259093880653381,-0.5289219617843628
4.203225135803223,-0.3364909887313843,-1.4323301315307617,0.9870008826255798,0.3784022927284241,0.6822506189346313,-0.5258679986000061
4.223285436630249,-0.33433178067207336,-1.4276819229125977,0.9137450456619263,0.4587635397911072,0.68604975938797,-0.5111818909645081
4.243347644805908,-0.3432298004627228,-1.240980863571167,1.025727391242981,0.39435553550720215,0.6594411134719849,-0.5364658236503601
4.263439178466797,-0.358064740896225,-1.2905237674713135,1.0215076208114624,0.3687315583229065,0.6699972748756409,-0.5368961691856384
4.283515453338623,-0.3577112853527069,-1.5313138961791992,0.9129725098609924,0.4651954174041748,0.700781524181366,-0.5039976239204407
4.303561687469482,-0.3179122805595398,-1.3028523921966553,0.9329860806465149,0.42889851331710815,0.6591315269470215,-0.5181824564933777
4.323716163635254,-0.33731210231781006,-1.1666133403778076,1.0174837112426758,0.3857727348804474,0.6653886437416077,-0.5378455519676208
4.343807220458984,-0.35301634669303894,-1.4276103973388672,0.9725183844566345,0.42135947942733765,0.7071079611778259,-0.5228677988052368
4.363879680633545,-0.3161793649196625,-1.4007468223571777,0.9021719098091125,0.44733887910842896,0.6616377234458923,-0.5152789950370789
4.383944272994995,-0.43247780203819275,-1.2950289249420166,1.0925288200378418,0.4516223669052124,0.6345745921134949,-0.539345383644104
4.404094219207764,-0.38202616572380066,-1.3669586181640625,1.0351166725158691,0.41550493240356445,0.7001665234565735,-0.5333513617515564
4.424189329147339,-0.30241793394088745,-1.4677114486694336,0.8626052141189575,0.44312983751296997,0.6969896554946899,-0.5016826391220093
4.44439697265625,-0.33803603053092957,-1.2759556770324707,0.9680789709091187,0.42156702280044556,0.6531603932380676,-0.5241285562515259
4.4644951820373535,-0.3790196478366852,-1.2620947360992432,1.038199543952942,0.3639369606971741,0.664529025554657,-0.5352694988250732
4.4845664501190186,-0.35635751485824585,-1.5142054557800293,0.9483658671379089,0.45919427275657654,0.6976836323738098,-0.5109714269638062
4.504633188247681,-0.3096517026424408,-1.3927679061889648,0.8829318881034851,0.444874107837677,0.6343270540237427,-0.5119591951370239
4.524718999862671,-0.3002719283103943,-1.3111076354980469,0.9144781231880188,0.4014682173728943,0.6777192950248718,-0.5202158689498901
4.5447916984558105,-0.4051460027694702,-1.3631596565246582,1.0438305139541626,0.3770415186882019,0.6856880784034729,-0.5353981256484985
4.5648510456085205,-0.30276575684547424,-1.526500940322876,0.8667683601379395,0.47812581062316895,0.706849992275238,-0.5002416372299194
4.584960699081421,-0.3023606240749359,-1.4617419242858887,0.8589625954627991,0.5016341805458069,0.6058169603347778,-0.5037111043930054
4.605018615722656,-0.33473846316337585,-1.1677014827728271,1.0071402788162231,0.3852810859680176,0.6564645767211914,-0.5390159487724304
4.625072717666626,-0.34962812066078186,-1.377537727355957,0.9864580035209656,0.4145992398262024,0.718205988407135,-0.5257142782211304
4.645161390304565,-0.3324100077152252,-1.5258255004882812,0.8861389756202698,0.48504775762557983,0.7008801102638245,-0.4968884289264679
4.665240526199341,-0.32385146617889404,-1.3263475894927979,0.9235839247703552,0.44274476170539856,0.6587014198303223,-0.5149621963500977
4.685295104980469,-0.34241971373558044,-1.2889132499694824,0.9995439648628235,0.3592318296432495,0.6665418148040771,-0.5343612432479858
4.705408811569214,-0.34767240285873413,-1.4108095169067383,0.9749581813812256,0.4127938151359558,0.6848528385162354,-0.5267568230628967
4.725443601608276,-0.337096631526947,-1.4914000034332275,0.907837450504303,0.4565002918243408,0.6888986229896545,-0.5085991024971008
4.745494604110718,-0.33373311161994934,-1.2319109439849854,0.9791321158409119,0.4009805917739868,0.656154453754425,-0.5324511528015137
4.765739917755127,-0.33833786845207214,-1.2699003219604492,0.9890983700752258,0.3738844394683838,0.6688628792762756,-0.5344354510307312
4.78582763671875,-0.3512361943721771,-1.540271520614624,0.9197295308113098,0.44879281520843506,0.7083579897880554,-0.5098802447319031
4.805910348892212,-0.33345499634742737,-1.3547511100769043,0.9482806921005249,0.4490637183189392,0.6490615010261536,-0.5200304985046387
4.825987100601196,-0.34057262539863586,-1.3879296779632568,0.977985680103302,0.3980283737182617,0.6700019836425781,-0.5267331004142761
4.846058130264282,-0.3451475203037262,-1.4081645011901855,0.942101776599884,0.4388945698738098,0.6999654173851013,-0.5198910236358643
4.866177797317505,-0.33528611063957214,-1.3799474239349365,0.9407402873039246,0.4318709373474121,0.6839882135391235,-0.5193526148796082
4.8871541023254395,-0.33842387795448303,-1.2947969436645508,0.9857566952705383,0.3963366150856018,0.66197669506073,-0.5329887866973877
4.9072465896606445,-0.34532126784324646,-1.5133380889892578,0.9536948204040527,0.41910457611083984,0.6838297247886658,-0.5205010175704956
4.927321195602417,-0.3347214460372925,-1.3165006637573242,0.9196056723594666,0.458010196685791,0.6966874003410339,-0.5112149119377136
4.947380542755127,-0.34059128165245056,-1.3379452228546143,0.9934823513031006,0.3778080940246582,0.6391169428825378,-0.5326545238494873
4.9674859046936035,-0.34379085898399353,-1.347029685974121,0.9676957726478577,0.39478445053100586,0.6968463063240051,-0.5294476747512817
4.987556457519531,-0.33397844433784485,-1.4103658199310303,0.9113801717758179,0.444491982460022,0.6827036738395691,-0.5142473578453064
5.007635116577148,-0.347849041223526,-1.2374663352966309,1.0231647491455078,0.3915868401527405,0.6534503102302551,-0.5403552055358887
5.027723550796509,-0.3516186773777008,-1.4614231586456299,0.9898439049720764,0.4112406075000763,0.667667031288147,-0.528487503528595
5.04782772064209,-0.3342764675617218,-1.2377758026123047,0.9195887446403503,0.44860175251960754,0.7026587128639221,-0.5141499042510986
5.067891597747803,-0.33799877762794495,-1.4075753688812256,0.9640632271766663,0.42820996046066284,0.6720361113548279,-0.5243033766746521
5.087965250015259,-0.3563928008079529,-1.2475411891937256,0.978614866733551,0.36919644474983215,0.7130462527275085,-0.5330800414085388
5.10813045501709,-0.3289717137813568,-1.430882215499878,0.9080732464790344,0.4402911067008972,0.6950120329856873,-0.5106713175773621
5.128141403198242,-0.33417901396751404,-1.182008981704712,0.9912930130958557,0.3926505446434021,0.6660604476928711,-0.536489725112915
5.149096250534058,-0.3333938717842102,-1.3474323749542236,0.9926908016204834,0.3859476149082184,0.6731670498847961,-0.5338562726974487
5.16918420791626,-0.34313908219337463,-1.4577505588531494,0.9468817114830017,0.43563419580459595,0.6881073117256165,-0.5215046405792236
5.189254283905029,-0.3249756991863251,-1.2378475666046143,0.9450313448905945,0.44589468836784363,0.6611364483833313,-0.5224130749702454
5.209327936172485,-0.3479234278202057,-1.420281171798706,0.9991697669029236,0.4175325036048889,0.6341670155525208,-0.530376672744751
5.229412078857422,-0.345598429441452,-1.3866298198699951,0.958547055721283,0.42697739601135254,0.6997506022453308,-0.5217241644859314
5.249511480331421,-0.33895114064216614,-1.3931810855865479,0.9326744675636292,0.457670658826828,0.673704206943512,-0.5110861659049988
5.269567489624023,-0.33930888772010803,-1.3199176788330078,0.9864745140075684,0.38477176427841187,0.669051468372345,-0.5336746573448181
5.289641618728638,-0.3718704283237457,-1.4536094665527344,0.98639976978302,0.4224259853363037,0.6907594203948975,-0.5258435010910034
5.309714317321777,-0.29305365681648254,-1.3917930126190186,0.8823032975196838,0.44983041286468506,0.6940131783485413,-0.5078825354576111
5.329771041870117,-0.41516202688217163,-1.2255163192749023,1.0982786417007446,0.41142404079437256,0.5888956189155579,-0.5489539504051208
5.3499205112457275,-0.3402743637561798,-1.220682144165039,1.0391194820404053,0.30297744274139404,0.6763928532600403,-0.5416207909584045
5.369995355606079,-0.3578706383705139,-1.4011428356170654,0.9885692000389099,0.4377710819244385,0.7085087895393372,-0.5245660543441772
5.390082597732544,-0.3235838711261749,-1.4861962795257568,0.9063466191291809,0.4951307475566864,0.661957323551178,-0.5065488219261169
5.410443067550659,-0.3396758735179901,-1.1983511447906494,0.997041642665863,0.3882068395614624,0.6414998173713684,-0.5366733074188232
5.430540084838867,-0.3732303977012634,-1.4594817161560059,0.9999163746833801,0.42408880591392517,0.6722080111503601,-0.5256823301315308
5.450664281845093,-0.2901597023010254,-1.3670289516448975,0.8947125673294067,0.45562154054641724,0.6957736611366272,-0.5099266171455383
5.470736980438232,-0.3962721526622772,-1.2375683784484863,1.0712565183639526,0.37325042486190796,0.6321389675140381,-0.544704794883728
5.490849494934082,-0.3878799080848694,-1.3955185413360596,1.0563294887542725,0.3601093590259552,0.6799898147583008,-0.5362824201583862
5.510969161987305,-0.27681833505630493,-1.4889812469482422,0.812019407749176,0.4583357274532318,0.7080603241920471,-0.4944116473197937
5.5310163497924805,-0.2987174391746521,-1.2904486656188965,0.9329422116279602,0.4166538119316101,0.6408402919769287,-0.5248480439186096
5.551113128662109,-0.33347341418266296,-1.2191269397735596,1.0011481046676636,0.3704371452331543,0.6295998692512512,-0.5399966835975647
5.571183204650879,-0.36155834794044495,-1.4762587547302246,0.9676626324653625,0.4264339208602905,0.744716227054596,-0.516661524772644
5.5912394523620605,-0.2850072979927063,-1.35603928565979,0.8842678070068359,0.44304320216178894,0.5926123857498169,-0.5224037170410156
5.6113433837890625,-0.31195616722106934,-1.2881476879119873,0.9788140654563904,0.405972957611084,0.6422867178916931,-0.534543514251709
5.6314377784729,-0.3896470069885254,-1.3463034629821777,1.0651612281799316,0.3767540454864502,0.7296404242515564,-0.5377702713012695
5.651484727859497,-0.343071848154068,-1.4864108562469482,0.9233586192131042,0.4937416911125183,0.7266066074371338,-0.4957646429538727
5.672332525253296,-0.30936166644096375,-1.2349143028259277,0.9540911316871643,0.4418303668498993,0.613170862197876,-0.5281898975372314
5.692507743835449,-0.3293861150741577,-1.2487962245941162,0.9975938200950623,0.39437079429626465,0.6778661608695984,-0.5341513156890869
5.712547540664673,-0.36388322710990906,-1.4677202701568604,0.97409588098526,0.44348108768463135,0.7134965062141418,-0.5198367238044739
5.732723236083984,-0.30834075808525085,-1.3248252868652344,0.9055201411247253,0.45799851417541504,0.6509476900100708,-0.5144805908203125
5.752809524536133,-0.30372172594070435,-1.274996280670166,0.9741668105125427,0.4007820188999176,0.6668973565101624,-0.5298119187355042
5.773025989532471,-0.35998600721359253,-1.4207208156585693,0.9950961470603943,0.3970639109611511,0.7261598706245422,-0.5275231003761292
5.793003797531128,-0.34722742438316345,-1.5118746757507324,0.918509304523468,0.49068769812583923,0.6925069689750671,-0.5046269297599792
5.813094854354858,-0.31106802821159363,-1.3062808513641357,0.9486344456672668,0.43939974904060364,0.6743718981742859,-0.5201594829559326
5.833183288574219,-0.407520592212677,-1.4546852111816406,1.0140970945358276,0.4216763973236084,0.6556958556175232,-0.527728259563446
5.853240013122559,-0.26796525716781616,-1.3927302360534668,0.8560400605201721,0.42751777172088623,0.7338128685951233,-0.5040209889411926
5.873338460922241,-0.32957521080970764,-1.3954880237579346,0.9158662557601929,0.44470787048339844,0.6366109848022461,-0.5217006802558899
5.89351224899292,-0.3835639953613281,-1.2474231719970703,1.0632413625717163,0.3741666078567505,0.6365015506744385,-0.542776346206665
5.913578987121582,-0.3475857675075531,-1.4789683818817139,0.9313521981239319,0.434270977973938,0.731429934501648,-0.5148645639419556
5.933651685714722,-0.3320513069629669,-1.2311100959777832,0.9228556752204895,0.44879665970802307,0.7131692171096802,-0.5146139860153198
5.953725337982178,-0.3348868787288666,-1.3562750816345215,0.9962655305862427,0.3952644169330597,0.6750706434249878,-0.53316330909729
5.97378134727478,-0.360797643661499,-1.4921479225158691,0.9271586537361145,0.4836301803588867,0.7359362244606018,-0.5000688433647156
5.993880033493042,-0.3416638672351837,-1.5013513565063477,0.8956698775291443,0.5128850936889648,0.6703877449035645,-0.4951897859573364
6.0139479637146,-0.33004194498062134,-1.2302660942077637,1.0072355270385742,0.35874712467193604,0.6483269929885864,-0.5387377142906189
6.03402853012085,-0.3495282828807831,-1.437751293182373,0.9521153569221497,0.3974870443344116,0.702600359916687,-0.5242111086845398
6.054121494293213,-0.34957802295684814,-1.506267786026001,0.912264883518219,0.4872087240219116,0.6895762085914612,-0.5060851573944092
6.074187278747559,-0.33995798230171204,-1.2481284141540527,1.0018341541290283,0.43510985374450684,0.6456785202026367,-0.5335232019424438
6.09424352645874,-0.36154529452323914,-1.4031856060028076,0.9889605641365051,0.43239450454711914,0.7019339799880981,-0.5249503254890442
6.114354848861694,-0.33624452352523804,-1.4844131469726562,0.9000340104103088,0.44827988743782043,0.7138252854347229,-0.5069257020950317
6.134413480758667,-0.3227285146713257,-1.293940782546997,0.9325966238975525,0.4318627715110779,0.667607307434082,-0.5193828344345093
6.154470682144165,-0.3564508259296417,-1.4670956134796143,0.9938316345214844,0.391926109790802,0.6983203291893005,-0.5266926288604736
6.174561977386475,-0.3498728573322296,-1.4773223400115967,0.9489412903785706,0.4129350781440735,0.7273270487785339,-0.5206339359283447
6.194653749465942,-0.3028610646724701,-1.3352539539337158,0.9403417706489563,0.4125428795814514,0.6528915166854858,-0.5272263884544373
6.214728116989136,-0.35686567425727844,-1.3095529079437256,0.9939027428627014,0.3774638772010803,0.7131349444389343,-0.5346078872680664
6.2352118492126465,-0.34311941266059875,-1.590259313583374,0.8795914053916931,0.5089264512062073,0.6823222041130066,-0.49416449666023254
6.255303621292114,-0.3286949098110199,-1.4096393585205078,0.9142044186592102,0.46290266513824463,0.6800398230552673,-0.5084156394004822
6.275399208068848,-0.34520918130874634,-1.27146577835083,1.0032614469528198,0.40024107694625854,0.6668380498886108,-0.5337345004081726
6.295529127120972,-0.34686583280563354,-1.457949161529541,0.9598967432975769,0.4192805886268616,0.7003600597381592,-0.5216464400291443
6.315624713897705,-0.351137638092041,-1.538466215133667,0.9268782734870911,0.45109352469444275,0.7113819122314453,-0.5104236602783203
6.335697174072266,-0.33530107140541077,-1.3309969902038574,0.9607995748519897,0.4342198967933655,0.6452000737190247,-0.5261335372924805
6.355750322341919,-0.35244593024253845,-1.3792450428009033,0.9545981287956238,0.41010284423828125,0.7165040969848633,-0.5239266157150269
6.375852346420288,-0.3378884494304657,-1.3416080474853516,0.9221401214599609,0.4381108582019806,0.6960394978523254,-0.5185623168945312
6.395933628082275,-0.33978864550590515,-1.343125820159912,0.9709157347679138,0.4080241918563843,0.6848685145378113,-0.5280406475067139
6.415990114212036,-0.3526025116443634,-1.413665533065796,0.95963054895401,0.45115602016448975,0.6960337162017822,-0.5216630697250366
6.4360809326171875,-0.34401217103004456,-1.405205249786377,0.9361112713813782,0.457307904958725,0.6925795078277588,-0.5140348076820374
6.4561567306518555,-0.3343966007232666,-1.2517518997192383,0.9836363792419434,0.369198203086853,0.6678797006607056,-0.5348813533782959
6.4762187004089355,-0.35766473412513733,-1.544750690460205,0.9541589617729187,0.4409187436103821,0.7150213122367859,-0.5170804262161255
6.496307134628296,-0.36172911524772644,-1.573695182800293,0.9068540930747986,0.4928472936153412,0.7164070010185242,-0.4974629282951355
6.516386032104492,-0.33576902747154236,-1.3626294136047363,0.9501664042472839,0.42797553539276123,0.6580877900123596,-0.5249758958816528
6.5364415645599365,-0.3399096131324768,-1.3729233741760254,0.9584447741508484,0.39060360193252563,0.6638776063919067,-0.5323485136032104
6.556529998779297,-0.3667713701725006,-1.4386110305786133,0.9534973502159119,0.43547919392585754,0.6823563575744629,-0.5245190858840942
6.576609373092651,-0.3282998502254486,-1.2589662075042725,0.9493460059165955,0.4542745351791382,0.6469245553016663,-0.5238300561904907
6.596659898757935,-0.35939648747444153,-1.4733681678771973,0.9820611476898193,0.4308292865753174,0.6568046808242798,-0.5263246893882751
6.616769313812256,-0.35804542899131775,-1.4082183837890625,0.9526731371879578,0.4391602575778961,0.7079362273216248,-0.5185210108757019
6.636852502822876,-0.33806803822517395,-1.3520219326019287,0.9570348858833313,0.45554518699645996,0.6364434361457825,-0.5214470624923706
6.656915903091431,-0.3368058502674103,-1.314316987991333,0.9590969681739807,0.39170318841934204,0.7175877690315247,-0.525636613368988
6.676993131637573,-0.3483479619026184,-1.3814067840576172,0.9464107155799866,0.4160785377025604,0.7417952418327332,-0.5184810757637024
6.697067975997925,-0.3352167010307312,-1.441565752029419,0.922804057598114,0.4227324426174164,0.6931281089782715,-0.5166985392570496
6.717122316360474,-0.330054372549057,-1.1985379457473755,1.0102086067199707,0.3644668459892273,0.6251712441444397,-0.5425122976303101
6.7372190952301025,-0.33637550473213196,-1.4562814235687256,0.9889597296714783,0.3762057423591614,0.6607642769813538,-0.5310457348823547
6.75729513168335,-0.3478332757949829,-1.186356782913208,0.9562860727310181,0.4050622582435608,0.6900072693824768,-0.5358627438545227
6.777364492416382,-0.35290881991386414,-1.4264576435089111,0.9604554772377014,0.4661951959133148,0.6707581877708435,-0.5166749358177185
6.7974207401275635,-0.33019670844078064,-1.324415922164917,0.9585133194923401,0.43306997418403625,0.6981422901153564,-0.5224677920341492
6.8175671100616455,-0.3566965162754059,-1.3944783210754395,0.9667453169822693,0.44203460216522217,0.6797639727592468,-0.5207986235618591
6.837722063064575,-0.34239837527275085,-1.4213287830352783,0.9414461851119995,0.4415351152420044,0.6734858155250549,-0.5194586515426636
6.857872486114502,-0.3327804505825043,-1.3718681335449219,0.9515461325645447,0.40469393134117126,0.6629298329353333,-0.5250771641731262
6.877891302108765,-0.33346617221832275,-1.3224365711212158,0.9636316895484924,0.37807586789131165,0.6881479620933533,-0.53423672914505
6.897942781448364,-0.3509266972541809,-1.5055358409881592,0.9178721904754639,0.4605977535247803,0.725342333316803,-0.5096175074577332
6.918059349060059,-0.34117475152015686,-1.429609775543213,0.922032356262207,0.4652791917324066,0.7030217051506042,-0.511624276638031
6.938155174255371,-0.33127740025520325,-1.2049872875213623,0.9927380681037903,0.3929852843284607,0.6462752223014832,-0.5383691787719727
6.958202362060547,-0.35325220227241516,-1.3710780143737793,0.9633426070213318,0.41538044810295105,0.7019110321998596,-0.5267426371574402
6.97832465171814,-0.34567853808403015,-1.401601791381836,0.9311563372612,0.4528031647205353,0.7091153264045715,-0.5147562026977539
6.998404026031494,-0.3402199447154999,-1.3729445934295654,0.9603442549705505,0.45630478858947754,0.6368610858917236,-0.5222994685173035
7.019020080566406,-0.3365863263607025,-1.3528850078582764,0.9580601453781128,0.4095464050769806,0.6943060755729675,-0.5261532664299011
7.039121866226196,-0.34409216046333313,-1.3677146434783936,0.9436730742454529,0.42160746455192566,0.7211667895317078,-0.5210254788398743
7.059214115142822,-0.33633312582969666,-1.3963096141815186,0.9503685832023621,0.427010715007782,0.6783744692802429,-0.5244897603988647
7.079285144805908,-0.333431214094162,-1.370305061340332,0.9493787288665771,0.4162766933441162,0.6760664582252502,-0.5282936096191406
7.099373817443848,-0.33912065625190735,-1.3546462059020996,0.9542664885520935,0.42329177260398865,0.6878064274787903,-0.5270228981971741
7.119428396224976,-0.3431360423564911,-1.3750975131988525,0.9528120160102844,0.4376550018787384,0.6877327561378479,-0.5243743658065796
7.1397247314453125,-0.3426230251789093,-1.3695309162139893,0.9607345461845398,0.4482243061065674,0.6785486340522766,-0.5225437879562378
7.159818172454834,-0.3393533527851105,-1.3725345134735107,0.9507952332496643,0.44249552488327026,0.6753597855567932,-0.522108256816864
7.179890871047974,-0.3547004163265228,-1.37123703956604,0.9590863585472107,0.43168240785598755,0.6742537021636963,-0.5243179798126221
7.21047043800354,-0.3533742129802704,-1.3692567348480225,0.9591068625450134,0.431799978017807,0.6722386479377747,-0.5241120457649231
7.2305378913879395,-0.33906829357147217,-1.3650991916656494,0.9533165097236633,0.41759997606277466,0.6832212805747986,-0.5247563719749451
7.25061559677124,-0.3383397161960602,-1.370396614074707,0.9495174288749695,0.4249500036239624,0.6850054860115051,-0.5242387056350708
7.2713868618011475,-0.33930012583732605,-1.3675601482391357,0.9522150158882141,0.4286234378814697,0.685849130153656,-0.5241397619247437
7.291483402252197,-0.3402943015098572,-1.3635318279266357,0.9521779417991638,0.42766231298446655,0.6846252083778381,-0.5241497755050659
7.3115739822387695,-0.3405863642692566,-1.3682656288146973,0.9521477818489075,0.42830339074134827,0.6824348568916321,-0.5235446691513062
7.331832408905029,-0.3403306305408478,-1.367849349975586,0.9526776671409607,0.4261072278022766,0.6805303692817688,-0.5242524147033691
7.351953029632568,-0.33745071291923523,-1.3765413761138916,0.9499589800834656,0.4265155792236328,0.6827556490898132,-0.5236513018608093
7.372042417526245,-0.33831462264060974,-1.3615708351135254,0.952340304851532,0.42557841539382935,0.6817757487297058,-0.5245233774185181
7.392094373703003,-0.3385072648525238,-1.3655028343200684,0.9509097337722778,0.425760418176651,0.6865199208259583,-0.5236928462982178
7.412208557128906,-0.3401281535625458,-1.3638832569122314,0.9552650451660156,0.42895612120628357,0.6866261959075928,-0.5240069031715393
7.432287931442261,-0.3381336033344269,-1.364678144454956,0.9501362442970276,0.42597880959510803,0.6823105216026306,-0.523932933807373
7.4523561000823975,-0.33853769302368164,-1.371443510055542,0.9515467286109924,0.4255664348602295,0.6811697483062744,-0.5242229700088501
7.472460985183716,-0.33862367272377014,-1.3716309070587158,0.9507591128349304,0.4283939003944397,0.6797681450843811,-0.523841381072998
7.492515325546265,-0.3385564386844635,-1.3716590404510498,0.9516419768333435,0.42549723386764526,0.6820610761642456,-0.5242366790771484
7.512580156326294,-0.33818528056144714,-1.3653733730316162,0.9514485001564026,0.42615658044815063,0.6822020411491394,-0.5242655277252197
7.533176898956299,-0.3381136357784271,-1.3675010204315186,0.9513100385665894,0.4252074360847473,0.6828182339668274,-0.5241755247116089
7.553284645080566,-0.3381980359554291,-1.366992473602295,0.951038122177124,0.4248182773590088,0.6830154061317444,-0.5242466330528259
7.57337212562561,-0.33835723996162415,-1.3704018592834473,0.9507865309715271,0.42504867911338806,0.6832854151725769,-0.5241137742996216
7.5936501026153564,-0.3382171094417572,-1.3684189319610596,0.9514762163162231,0.4254836440086365,0.6810360550880432,-0.5245141983032227
7.613771438598633,-0.33819589018821716,-1.3677103519439697,0.9515032172203064,0.4250701069831848,0.6829249262809753,-0.5244306325912476
7.633843660354614,-0.33851900696754456,-1.3714570999145508,0.9512075185775757,0.4281965494155884,0.681024432182312,-0.5241170525550842
7.653947114944458,-0.3383203446865082,-1.3682897090911865,0.9511734843254089,0.4259757399559021,0.6836153864860535,-0.5242599844932556
7.674036502838135,-0.33993953466415405,-1.3697731494903564,0.9509618282318115,0.42823880910873413,0.6820729374885559,-0.5239303112030029
7.6941728591918945,-0.3380970060825348,-1.3682031631469727,0.9512984156608582,0.4254242479801178,0.6819899678230286,-0.5244097709655762
7.714198112487793,-0.3382338881492615,-1.368340015411377,0.9513339400291443,0.42545753717422485,0.6818367838859558,-0.5243490934371948
7.734290838241577,-0.3385496437549591,-1.3737540245056152,0.9502809643745422,0.42793363332748413,0.6830624938011169,-0.5236668586730957
7.754370212554932,-0.3386838138103485,-1.3696684837341309,0.9521619081497192,0.4282858073711395,0.682192325592041,-0.5241285562515259
7.774439811706543,-0.33796730637550354,-1.3655099868774414,0.9512427449226379,0.42631617188453674,0.6823717951774597,-0.5243098735809326
7.794788360595703,-0.3380616009235382,-1.3691627979278564,0.9510861039161682,0.42654699087142944,0.6824375987052917,-0.5242138504981995
7.814874649047852,-0.33809831738471985,-1.3688671588897705,0.950819194316864,0.42642879486083984,0.6824873089790344,-0.5241709351539612
7.834961891174316,-0.337775856256485,-1.3639180660247803,0.9512627124786377,0.42486217617988586,0.6827684044837952,-0.5244826674461365
7.855093479156494,-0.3376704156398773,-1.357755422592163,0.9529789090156555,0.4247531294822693,0.6808745861053467,-0.5248929858207703
7.875186443328857,-0.338863730430603,-1.378549337387085,0.9523513913154602,0.4259805381298065,0.6824052929878235,-0.5241472125053406
7.89525294303894,-0.34053686261177063,-1.3661408424377441,0.9531270265579224,0.42847949266433716,0.6845536828041077,-0.5240777730941772
7.915328502655029,-0.3404887616634369,-1.3667302131652832,0.9548410177230835,0.4256954491138458,0.6824923157691956,-0.5244743227958679
7.935425519943237,-0.33958199620246887,-1.368835687637329,0.9508104920387268,0.42822691798210144,0.6799539923667908,-0.5239723920822144
7.955501079559326,-0.3385043442249298,-1.3666198253631592,0.9525426030158997,0.4265098571777344,0.6810269355773926,-0.5245375037193298
7.975571155548096,-0.3378365635871887,-1.3672268390655518,0.950264036655426,0.42609521746635437,0.6815646290779114,-0.524131178855896
7.995752334594727,-0.3382897675037384,-1.3686103820800781,0.9510441422462463,0.42621374130249023,0.6833566427230835,-0.5241401195526123
8.015812158584595,-0.338252991437912,-1.3691344261169434,0.9511416554450989,0.42650121450424194,0.6822865605354309,-0.524192750453949
8.035965919494629,-0.3383488357067108,-1.3693056106567383,0.9513710737228394,0.4265580475330353,0.6822109818458557,-0.5242010354995728
8.05605697631836,-0.33792153000831604,-1.3712713718414307,0.9500336647033691,0.4265540540218353,0.68093341588974,-0.5240911245346069
8.076119899749756,-0.33842939138412476,-1.3697757720947266,0.9517353177070618,0.4267212748527527,0.6820465326309204,-0.5241695046424866
8.096208810806274,-0.33837664127349854,-1.3694334030151367,0.9514222145080566,0.42660871148109436,0.6822158694267273,-0.5241733193397522
8.116359949111938,-0.33814260363578796,-1.3688924312591553,0.9507134556770325,0.42643702030181885,0.6831254363059998,-0.5239890217781067
8.136353969573975,-0.33845165371894836,-1.3701136112213135,0.9508883357048035,0.427560418844223,0.6829180121421814,-0.5239889025688171
8.156444311141968,-0.3382646441459656,-1.369335412979126,0.9511483311653137,0.42664894461631775,0.6822749972343445,-0.5241395831108093
8.176758527755737,-0.33861789107322693,-1.3727123737335205,0.9512434601783752,0.4267040491104126,0.6825671792030334,-0.5241088271141052
8.19676923751831,-0.33887535333633423,-1.374863862991333,0.9518908858299255,0.42836329340934753,0.6809098720550537,-0.5240613222122192
8.216862916946411,-0.3385179936885834,-1.3697049617767334,0.9517531991004944,0.4267120957374573,0.6822560429573059,-0.5241968035697937
8.236941576004028,-0.33818909525871277,-1.3668410778045654,0.951907217502594,0.42683345079421997,0.6807778477668762,-0.524325966835022
8.256995916366577,-0.33824095129966736,-1.3692963123321533,0.9514582753181458,0.42669975757598877,0.6822473406791687,-0.5241178870201111
8.27711033821106,-0.3383789360523224,-1.369511365890503,0.9513439536094666,0.4266107380390167,0.6822338700294495,-0.5241848826408386
8.297194004058838,-0.338588684797287,-1.3698852062225342,0.9520947337150574,0.4267282485961914,0.6813414692878723,-0.524387776851654
8.317281246185303,-0.338572233915329,-1.3699712753295898,0.9525159597396851,0.42683398723602295,0.6812375783920288,-0.5243690609931946
8.337356090545654,-0.33797839283943176,-1.3691179752349854,0.9509544968605042,0.4248650372028351,0.6825470328330994,-0.5243695974349976
8.357476949691772,-0.33813002705574036,-1.3661737442016602,0.9518490433692932,0.4265449643135071,0.6819513440132141,-0.5243663191795349
8.377493381500244,-0.3382437527179718,-1.3621139526367188,0.9532780051231384,0.4258582592010498,0.6817586421966553,-0.5248046517372131
8.397591829299927,-0.3382137715816498,-1.366539716720581,0.9524684548377991,0.4245949983596802,0.6846700310707092,-0.5244192481040955
8.417665481567383,-0.338226318359375,-1.369196891784668,0.9517017006874084,0.42661622166633606,0.6823744177818298,-0.524275541305542
8.437841176986694,-0.338116317987442,-1.3696002960205078,0.9515985250473022,0.4269389510154724,0.6822176575660706,-0.5241081714630127
8.457858800888062,-0.3383583128452301,-1.3693456649780273,0.9522936940193176,0.42657285928726196,0.6823765635490417,-0.524350106716156
8.47794795036316,-0.3378645181655884,-1.3672943115234375,0.9515643119812012,0.4250277280807495,0.6837289333343506,-0.5243232250213623
8.498376369476318,-0.3387826085090637,-1.3716092109680176,0.952692985534668,0.428251713514328,0.6808567643165588,-0.5243223309516907
8.518485069274902,-0.3381979167461395,-1.367018461227417,0.9525903463363647,0.4270032048225403,0.6808314919471741,-0.52446049451828
8.538542985916138,-0.33827367424964905,-1.369765043258667,0.951982319355011,0.4269185960292816,0.6821994185447693,-0.5242281556129456
8.558728694915771,-0.33862218260765076,-1.3702411651611328,0.9521092772483826,0.42761197686195374,0.682980477809906,-0.5241718888282776
8.578824520111084,-0.33835771679878235,-1.3694579601287842,0.9522396922111511,0.4266909956932068,0.6824683547019958,-0.5243810415267944
8.598882913589478,-0.3381030857563019,-1.3687987327575684,0.9521898627281189,0.4257400631904602,0.6817099452018738,-0.5245126485824585
8.619208812713623,-0.33824852108955383,-1.3695905208587646,0.9517427086830139,0.4267439544200897,0.6823933720588684,-0.5243176221847534
8.63930344581604,-0.33846965432167053,-1.3702239990234375,0.9525401592254639,0.42694494128227234,0.6814181208610535,-0.5245106220245361
8.659376621246338,-0.33832263946533203,-1.3681089878082275,0.9521743655204773,0.4281078279018402,0.6814058423042297,-0.5242363810539246
8.679616451263428,-0.3384224772453308,-1.3733491897583008,0.951910674571991,0.4271749258041382,0.6823782920837402,-0.5241008400917053
8.699735641479492,-0.33676639199256897,-1.370215654373169,0.9517397284507751,0.4262130856513977,0.6824557185173035,-0.5244941711425781
8.719782829284668,-0.335727721452713,-1.368793249130249,0.9491828680038452,0.42415106296539307,0.6851643323898315,-0.5246282815933228
8.739984273910522,-0.3380604684352875,-1.3695051670074463,0.9513304829597473,0.4266141951084137,0.6829443573951721,-0.524528980255127
8.760095596313477,-0.3381008207798004,-1.369715929031372,0.951558530330658,0.4267045259475708,0.6828114986419678,-0.5244930386543274
8.780229568481445,-0.3380296528339386,-1.3696844577789307,0.951204776763916,0.4267192482948303,0.6827262043952942,-0.5244143009185791
8.80032205581665,-0.33790165185928345,-1.3691143989562988,0.9511831402778625,0.4263855814933777,0.6839744448661804,-0.524459183216095
8.820408821105957,-0.33786290884017944,-1.368023157119751,0.951474130153656,0.4252854585647583,0.6833558082580566,-0.5246463418006897
8.840486288070679,-0.33834829926490784,-1.3747992515563965,0.9515655636787415,0.4277346730232239,0.6809872984886169,-0.5243796706199646
8.8605797290802,-0.3381253182888031,-1.3667724132537842,0.9527238607406616,0.4266231060028076,0.6814305186271667,-0.5248123407363892
8.88066029548645,-0.3380616009235382,-1.3663005828857422,0.9527036547660828,0.4264654219150543,0.6824261546134949,-0.5247031450271606
8.900737762451172,-0.3381625711917877,-1.3702929019927979,0.9517390131950378,0.42765355110168457,0.68342524766922,-0.5242964029312134
8.92080569267273,-0.338202565908432,-1.369450569152832,0.9523678421974182,0.4265626072883606,0.6829796433448792,-0.524601936340332
8.940885782241821,-0.33782362937927246,-1.3673639297485352,0.9518247842788696,0.4250483512878418,0.6842795014381409,-0.5245603322982788
8.960966348648071,-0.33824416995048523,-1.3707914352416992,0.9519174098968506,0.4278777837753296,0.6832042336463928,-0.5242449045181274
8.981025695800781,-0.3380597233772278,-1.3704018592834473,0.9522079825401306,0.42709410190582275,0.6817019581794739,-0.5244995355606079
9.001328706741333,-0.3380945324897766,-1.3704321384429932,0.9522475600242615,0.42710283398628235,0.6816996932029724,-0.5245003700256348
9.021406173706055,-0.33780261874198914,-1.36958646774292,0.9512199759483337,0.42682844400405884,0.6827779412269592,-0.5243149399757385
9.041471242904663,-0.33823302388191223,-1.3709361553192139,0.9515839219093323,0.4278920888900757,0.6825454831123352,-0.5243891477584839
9.061594247817993,-0.33829280734062195,-1.3745107650756836,0.9513000845909119,0.42830413579940796,0.6827208399772644,-0.5241295695304871
9.081692457199097,-0.3379170596599579,-1.3704538345336914,0.9516261219978333,0.4272347688674927,0.6817986965179443,-0.5243896245956421
9.101765394210815,-0.3381598889827728,-1.369507074356079,0.952339231967926,0.4265812635421753,0.6829537749290466,-0.5245790481567383
9.121876955032349,-0.33822232484817505,-1.3715887069702148,0.9517880082130432,0.4283193349838257,0.6814504265785217,-0.5243781805038452
9.141979455947876,-0.33788660168647766,-1.3670270442962646,0.9524289965629578,0.426948606967926,0.6814029216766357,-0.524617612361908
9.162062883377075,-0.3381844460964203,-1.3697741031646729,0.952255129814148,0.42675864696502686,0.6821051836013794,-0.5246652364730835
9.182209014892578,-0.3377753794193268,-1.3677678108215332,0.9518686532974243,0.42517244815826416,0.6841780543327332,-0.5245188474655151
9.20229983329773,-0.33807826042175293,-1.368786334991455,0.9516186118125916,0.4262903332710266,0.6837899684906006,-0.524397075176239
9.222378015518188,-0.3379412591457367,-1.3669564723968506,0.9522753357887268,0.42692023515701294,0.6812787055969238,-0.5245410203933716
9.242551326751709,-0.3407590091228485,-1.3556818962097168,0.9547749757766724,0.4275501072406769,0.6790371537208557,-0.5249383449554443
9.26268744468689,-0.33999699354171753,-1.3783466815948486,0.9532324075698853,0.4255247712135315,0.6810615658760071,-0.524248480796814
9.282768487930298,-0.3382410705089569,-1.3693263530731201,0.9512733221054077,0.42760932445526123,0.6844047904014587,-0.5237405300140381
9.303056716918945,-0.3380420207977295,-1.3719487190246582,0.9519091248512268,0.42817628383636475,0.6781730055809021,-0.5243339538574219
9.323140621185303,-0.3371911346912384,-1.371183156967163,0.9493691325187683,0.4250623881816864,0.6820817589759827,-0.5240568518638611
9.343154907226562,-0.33744749426841736,-1.3677966594696045,0.9508700966835022,0.42528319358825684,0.6838238835334778,-0.5243293046951294
9.363252878189087,-0.3381393253803253,-1.3725168704986572,0.9517195224761963,0.4259486198425293,0.6822351217269897,-0.5245356559753418
9.383321523666382,-0.33787569403648376,-1.3691823482513428,0.9521430134773254,0.4260084629058838,0.6818089485168457,-0.5245545506477356
9.403373718261719,-0.3379676938056946,-1.3675780296325684,0.9519509673118591,0.4251035749912262,0.6839654445648193,-0.5245837569236755
9.423466444015503,-0.338321715593338,-1.3689351081848145,0.9523121118545532,0.4262850880622864,0.6836687326431274,-0.5245873332023621
9.443541049957275,-0.33808866143226624,-1.3692166805267334,0.95176762342453,0.42659035325050354,0.6834567189216614,-0.5243671536445618
9.46387004852295,-0.3381916582584381,-1.3708419799804688,0.952423632144928,0.42733636498451233,0.6812087893486023,-0.5244663953781128
9.483959436416626,-0.33841922879219055,-1.371896505355835,0.9522318243980408,0.42841699719429016,0.6818247437477112,-0.5242466330528259
9.504039764404297,-0.3381291329860687,-1.3693413734436035,0.9518066048622131,0.426628053188324,0.6834936738014221,-0.5243557691574097
9.52409052848816,-0.33804258704185486,-1.3662059307098389,0.9529046416282654,0.42369142174720764,0.6843822002410889,-0.5248742699623108
9.544177770614624,-0.3384600877761841,-1.3695306777954102,0.9519331455230713,0.42653727531433105,0.6825711131095886,-0.524546205997467
9.564248323440552,-0.338046133518219,-1.3685812950134277,0.9520195126533508,0.42558151483535767,0.6827732920646667,-0.5245749950408936
9.584298372268677,-0.33822616934776306,-1.370868444442749,0.9516744017601013,0.4274069666862488,0.6812893748283386,-0.5243132710456848
9.60453748703003,-0.33864983916282654,-1.3683836460113525,0.9534932971000671,0.42697325348854065,0.6827958226203918,-0.5246385335922241
9.624640226364136,-0.33920058608055115,-1.3676707744598389,0.9551953673362732,0.42759522795677185,0.6827124953269958,-0.5247012376785278
9.644723176956177,-0.3384930193424225,-1.3717331886291504,0.9521872401237488,0.42846763134002686,0.6817047595977783,-0.5240907073020935
9.665215730667114,-0.33786678314208984,-1.3678247928619385,0.9517713189125061,0.4253399968147278,0.6837056279182434,-0.5243412852287292
9.68530821800232,-0.33852484822273254,-1.374549388885498,0.9514281153678894,0.42827311158180237,0.6822716593742371,-0.5240855813026428
9.705389738082886,-0.33830365538597107,-1.3696727752685547,0.9523489475250244,0.42669397592544556,0.6824490427970886,-0.5244666337966919
9.725579738616943,-0.3380431830883026,-1.3691825866699219,0.9521873593330383,0.4259554147720337,0.6817039847373962,-0.5245035886764526
9.745665788650513,-0.33793413639068604,-1.3685288429260254,0.9517348408699036,0.42559367418289185,0.6825971007347107,-0.5244167447090149
9.765737771987915,-0.33842733502388,-1.3691284656524658,0.9522718787193298,0.4263874292373657,0.6835013628005981,-0.5244603157043457
9.785796403884888,-0.33824965357780457,-1.3704307079315186,0.9521515965461731,0.4271411895751953,0.6813331842422485,-0.5244244337081909
9.80588412284851,-0.33838698267936707,-1.3709051609039307,0.9518159031867981,0.42795926332473755,0.6828119158744812,-0.5241246819496155
9.825953960418701,-0.3381476402282715,-1.3686985969543457,0.9522847533226013,0.42552343010902405,0.6819015145301819,-0.524700403213501
9.846078157424927,-0.3383837938308716,-1.3706564903259277,0.9514682292938232,0.4278566241264343,0.6829989552497864,-0.5241612195968628
9.86619257926941,-0.3385588824748993,-1.3719565868377686,0.9522514939308167,0.42845025658607483,0.6810491681098938,-0.5243555903434753
9.886289119720459,-0.338399201631546,-1.3715219497680664,0.9517306685447693,0.42831820249557495,0.6816944479942322,-0.5241310596466064
9.906370878219604,-0.3383041322231293,-1.3704471588134766,0.9521449208259583,0.427044540643692,0.6813778281211853,-0.5244735479354858
9.926469326019287,-0.3384310305118561,-1.3710567951202393,0.9517920613288879,0.4279862344264984,0.6828516125679016,-0.5241432189941406
9.946569681167603,-0.3380005359649658,-1.3683574199676514,0.9519640803337097,0.4255087375640869,0.6827665567398071,-0.5244975090026855
9.966633319854736,-0.3381197154521942,-1.3673176765441895,0.9522062540054321,0.42702990770339966,0.6810451149940491,-0.5245324969291687
9.98669147491455,-0.3377539813518524,-1.3643157482147217,0.9514111876487732,0.42501938343048096,0.6835290789604187,-0.524496853351593
10.006773233413696,-0.33799314498901367,-1.371523141860962,0.9502352476119995,0.42727434635162354,0.6828454732894897,-0.5241182446479797
10.026888847351074,-0.3384864032268524,-1.372314453125,0.9521337747573853,0.4285936653614044,0.6807968020439148,-0.5242657661437988
10.046964406967163,-0.33842626214027405,-1.3729465007781982,0.9519615769386292,0.42686110734939575,0.6834291815757751,-0.5241513252258301
10.067033052444458,-0.3377421200275421,-1.3621160984039307,0.9519832134246826,0.42606085538864136,0.6829715967178345,-0.5245639681816101
10.08710503578186,-0.3380372226238251,-1.3659186363220215,0.9514536261558533,0.42634665966033936,0.6833869814872742,-0.5244221687316895
10.107195377349854,-0.33800461888313293,-1.3685591220855713,0.9519956707954407,0.4256446361541748,0.6827453970909119,-0.5244541168212891
10.127718925476074,-0.3379327952861786,-1.365727186203003,0.9514479041099548,0.42629849910736084,0.683282732963562,-0.5244179368019104
10.147812128067017,-0.3379687964916229,-1.3674893379211426,0.9519235491752625,0.4250611662864685,0.6838769912719727,-0.524519681930542
10.1679105758667,-0.33838915824890137,-1.3671653270721436,0.9526644349098206,0.42758435010910034,0.6825726628303528,-0.5243564248085022
10.187958240509033,-0.3385492265224457,-1.375478982925415,0.9520565867424011,0.4289296865463257,0.6810246706008911,-0.52396559715271
10.208057641983032,-0.33834943175315857,-1.3723690509796143,0.9519719481468201,0.42880186438560486,0.6807493567466736,-0.5240434408187866
10.228212833404541,-0.33831384778022766,-1.3701167106628418,0.9525373578071594,0.42702004313468933,0.6813511252403259,-0.5244174599647522
10.248358488082886,-0.3380025029182434,-1.3685064315795898,0.9524497389793396,0.42560771107673645,0.6826897859573364,-0.5244746804237366
10.26843547821045,-0.33860498666763306,-1.374685525894165,0.9518183469772339,0.42835068702697754,0.6822084784507751,-0.5240331292152405
10.288467407226562,-0.3381330966949463,-1.3730666637420654,0.9511753916740417,0.42708268761634827,0.6826181411743164,-0.5240468382835388
10.308513164520264,-0.3383621871471405,-1.3731491565704346,0.9521414637565613,0.42703989148139954,0.6825457811355591,-0.5241799354553223
10.32861614227295,-0.3377992510795593,-1.3647773265838623,0.9521704316139221,0.42527690529823303,0.6825875043869019,-0.5245513319969177
10.348744630813599,-0.3384478986263275,-1.3747239112854004,0.9505165219306946,0.42846769094467163,0.6824494004249573,-0.5238909125328064
10.368767738342285,-0.3386293947696686,-1.3753554821014404,0.9516551494598389,0.42861542105674744,0.6811839938163757,-0.5240973830223083
10.38972282409668,-0.338202565908432,-1.3687818050384521,0.9516410827636719,0.42630359530448914,0.6842921376228333,-0.5241524577140808
10.409832239151001,-0.3383280336856842,-1.3730008602142334,0.951269805431366,0.4269810914993286,0.6827641129493713,-0.5241355895996094
10.429885625839233,-0.3383665382862091,-1.3747625350952148,0.9517269730567932,0.42570310831069946,0.6841621994972229,-0.5240963697433472
10.449939727783203,-0.33820661902427673,-1.3687744140625,0.9527963995933533,0.4257221519947052,0.681627094745636,-0.52460116147995
10.470032691955566,-0.3389025628566742,-1.3743610382080078,0.9531858563423157,0.42727839946746826,0.6809666752815247,-0.5246655941009521
10.49010181427002,-0.3379570245742798,-1.3681402206420898,0.9518142938613892,0.425304114818573,0.6830580234527588,-0.5245679616928101
10.510158061981201,-0.33827048540115356,-1.3702967166900635,0.9513552784919739,0.4275912642478943,0.6840841174125671,-0.5240943431854248
10.530790090560913,-0.3382239043712616,-1.3705832958221436,0.9520394206047058,0.4271315634250641,0.6814729571342468,-0.5244415402412415
10.550879716873169,-0.3386354446411133,-1.3720605373382568,0.9524783492088318,0.42835646867752075,0.6811445355415344,-0.5244213938713074
10.570947408676147,-0.33839645981788635,-1.3699760437011719,0.9526811242103577,0.4267842173576355,0.6824855804443359,-0.5244842767715454
10.591005086898804,-0.33846184611320496,-1.371781587600708,0.9517102837562561,0.4283667802810669,0.6812174916267395,-0.5243239402770996
10.611096858978271,-0.3380158245563507,-1.3666086196899414,0.9520959258079529,0.4266997277736664,0.6821851134300232,-0.5244867205619812
10.631168842315674,-0.33670803904533386,-1.3705623149871826,0.9513020515441895,0.42631036043167114,0.6825870275497437,-0.5244203209877014
10.651223182678223,-0.3359280228614807,-1.37074875831604,0.9490044713020325,0.4258817136287689,0.6835724115371704,-0.5244634747505188
10.671317338943481,-0.3377930223941803,-1.3687047958374023,0.9506955146789551,0.4260079860687256,0.6850742697715759,-0.5244049429893494
10.691402912139893,-0.3382381796836853,-1.3702435493469238,0.9521192908287048,0.42684870958328247,0.6819745898246765,-0.5246918797492981
10.71148133277893,-0.33797183632850647,-1.3698415756225586,0.9513874053955078,0.4267091453075409,0.6830432415008545,-0.524531900882721
10.73169493675232,-0.3380659818649292,-1.369612693786621,0.9513620734214783,0.42665690183639526,0.6829564571380615,-0.5244994759559631
10.751797676086426,-0.33809012174606323,-1.369774341583252,0.9515520930290222,0.42671775817871094,0.6828432083129883,-0.5244849920272827
10.771886348724365,-0.33810606598854065,-1.3706309795379639,0.9516986012458801,0.42717862129211426,0.6818001866340637,-0.5244826674461365
10.791942834854126,-0.3383033275604248,-1.372225046157837,0.9516211152076721,0.42855891585350037,0.6813183426856995,-0.5243056416511536
10.812026262283325,-0.33790963888168335,-1.3667166233062744,0.9519253373146057,0.4266905188560486,0.6824460029602051,-0.5245442390441895
10.832098007202148,-0.33808785676956177,-1.3697662353515625,0.9516645073890686,0.4267134666442871,0.682859480381012,-0.524463415145874
10.852149486541748,-0.33784571290016174,-1.367642879486084,0.9514824151992798,0.4250662326812744,0.6842939257621765,-0.5245580077171326
10.8722403049469,-0.3381277322769165,-1.3683948516845703,0.9522388577461243,0.4253005385398865,0.6825375556945801,-0.524901270866394
10.892330408096313,-0.337971955537796,-1.369615077972412,0.9510742425918579,0.42678648233413696,0.6828077435493469,-0.5243694186210632
10.912369728088379,-0.3382013738155365,-1.3717660903930664,0.951475203037262,0.4283101558685303,0.6814664006233215,-0.5243678689002991
10.932474851608276,-0.3383200466632843,-1.3723618984222412,0.95176762342453,0.42859330773353577,0.6812455058097839,-0.5243130326271057
10.952532052993774,-0.3381846249103546,-1.3707330226898193,0.9513023495674133,0.4277949929237366,0.6834183931350708,-0.5242181420326233
10.97258996963501,-0.33803850412368774,-1.3701834678649902,0.9516071677207947,0.4269464612007141,0.6819270253181458,-0.5245281457901001
10.992679834365845,-0.3384875953197479,-1.372955083847046,0.95154869556427,0.4294648766517639,0.6818620562553406,-0.5241583585739136
11.012743949890137,-0.33829858899116516,-1.3738572597503662,0.9518974423408508,0.42723843455314636,0.6820122599601746,-0.5243856310844421
11.03280520439148,-0.3380681276321411,-1.3701794147491455,0.951762855052948,0.42687830328941345,0.6818421483039856,-0.5245637893676758
11.053160429000854,-0.33805790543556213,-1.3707795143127441,0.950849711894989,0.42792272567749023,0.6832670569419861,-0.5241045951843262
11.07324743270874,-0.33827415108680725,-1.3711175918579102,0.9516969323158264,0.42799538373947144,0.6825264096260071,-0.5243662595748901
11.093320846557617,-0.3377320468425751,-1.3689074516296387,0.951416552066803,0.42580872774124146,0.6821091175079346,-0.5245273113250732
11.113388538360596,-0.3395191729068756,-1.368082046508789,0.9527827501296997,0.4259513020515442,0.6821618676185608,-0.5247479677200317
11.133491516113281,-0.3380362093448639,-1.3697686195373535,0.9516502618789673,0.4267231822013855,0.6828246712684631,-0.5244473814964294
11.153565883636475,-0.33805957436561584,-1.369694709777832,0.9516115784645081,0.42670226097106934,0.6828287243843079,-0.5244626998901367
11.173839569091797,-0.3398137390613556,-1.3689992427825928,0.9526918530464172,0.42704516649246216,0.6825206875801086,-0.5244706869125366
11.193930387496948,-0.3382476270198822,-1.3694636821746826,0.9519796371459961,0.4267977178096771,0.6824861168861389,-0.5243720412254333
11.21400785446167,-0.33841294050216675,-1.3744118213653564,0.9510538578033447,0.4282509684562683,0.6825717687606812,-0.5240703225135803
11.234067440032959,-0.343648761510849,-1.3765358924865723,0.9541186094284058,0.4296703636646271,0.6793412566184998,-0.5241321325302124
11.254151344299316,-0.3389091491699219,-1.377593994140625,0.9515154361724854,0.4281333088874817,0.6812907457351685,-0.5238065123558044
11.274231910705566,-0.3382812440395355,-1.3705055713653564,0.9512179493904114,0.42700353264808655,0.6814447045326233,-0.5243457555770874
11.294299602508545,-0.33891597390174866,-1.3724911212921143,0.9525988698005676,0.42833900451660156,0.6808783411979675,-0.5243964791297913
11.314383506774902,-0.33887770771980286,-1.3733582496643066,0.951427161693573,0.4296569526195526,0.6813571453094482,-0.523882269859314
11.334452152252197,-0.3384028375148773,-1.3688995838165283,0.9515146017074585,0.42611533403396606,0.6836696863174438,-0.5244210362434387
11.354515075683594,-0.3377935588359833,-1.3649940490722656,0.9509978294372559,0.4260445833206177,0.6841873526573181,-0.524214506149292
11.374685287475586,-0.33898577094078064,-1.3821775913238525,0.9506716132164001,0.4290235638618469,0.681749701499939,-0.5237746834754944
11.394777297973633,-0.33818724751472473,-1.36647367477417,0.9533886313438416,0.4266185760498047,0.6809037923812866,-0.5246903300285339
11.4148530960083,-0.3380514085292816,-1.3682527542114258,0.9518779516220093,0.42614835500717163,0.685049831867218,-0.5239938497543335
11.435019969940186,-0.3394829332828522,-1.3703744411468506,0.9551881551742554,0.4303644895553589,0.6810670495033264,-0.5242812037467957
11.455107688903809,-0.3391326069831848,-1.3668580055236816,0.9554780721664429,0.42749691009521484,0.6834819912910461,-0.5242713689804077
11.475171327590942,-0.33972904086112976,-1.3661134243011475,0.9575037360191345,0.42803385853767395,0.6818793416023254,-0.5246720314025879
11.495400667190552,-0.3382042348384857,-1.3693175315856934,0.9524965882301331,0.42684680223464966,0.6821292638778687,-0.5240543484687805
11.515527486801147,-0.338397353887558,-1.3698365688323975,0.9523970484733582,0.4275440573692322,0.6829940676689148,-0.5240306854248047
11.53557538986206,-0.33798012137413025,-1.3683135509490967,0.9517925381660461,0.42638587951660156,0.6833756566047668,-0.5240293741226196
11.555628538131714,-0.33798786997795105,-1.3685929775238037,0.9518296718597412,0.42646628618240356,0.6825007796287537,-0.5241695642471313
11.575722455978394,-0.3383992612361908,-1.369652509689331,0.9526009559631348,0.4267311990261078,0.6814377903938293,-0.5243736505508423
11.595812797546387,-0.33816030621528625,-1.3700194358825684,0.9521018266677856,0.4269697666168213,0.6811891198158264,-0.524209201335907
11.615849733352661,-0.33772608637809753,-1.3703052997589111,0.9502484202384949,0.42622947692871094,0.6821423172950745,-0.5240103602409363
11.635944604873657,-0.3379874527454376,-1.3685917854309082,0.9514794945716858,0.42628711462020874,0.683349609375,-0.5240976810455322
11.656023740768433,-0.3380095064640045,-1.3688228130340576,0.9514827132225037,0.42642486095428467,0.6831919550895691,-0.5240793824195862
11.676077842712402,-0.33792588114738464,-1.373521089553833,0.9496167302131653,0.42732173204421997,0.6805776953697205,-0.5239730477333069
11.69616961479187,-0.3369438350200653,-1.3736515045166016,0.9472454190254211,0.4260175824165344,0.6806014180183411,-0.5237178802490234
11.716243505477905,-0.33828094601631165,-1.3760428428649902,0.9517611265182495,0.42634254693984985,0.6812642216682434,-0.5242442488670349
11.736324548721313,-0.3391585648059845,-1.3825218677520752,0.9510160088539124,0.4281659722328186,0.6843658089637756,-0.5234506726264954
11.756397724151611,-0.3385202884674072,-1.3694686889648438,0.9516105055809021,0.4276353418827057,0.6817432641983032,-0.5241913795471191
11.776513814926147,-0.338382750749588,-1.3681106567382812,0.9522497057914734,0.4252067506313324,0.6828050017356873,-0.5245241522789001
11.796551704406738,-0.3385104238986969,-1.370591640472412,0.9509703516960144,0.4278099834918976,0.6820204854011536,-0.524071455001831
11.81663465499878,-0.3385871350765228,-1.3718235492706299,0.9513745307922363,0.4283970892429352,0.6807532906532288,-0.5240622162818909
11.8367178440094,-0.33802610635757446,-1.3669002056121826,0.9514228701591492,0.4247772693634033,0.6846256852149963,-0.52423095703125
11.856773376464844,-0.33810821175575256,-1.36905837059021,0.9506480693817139,0.42656999826431274,0.6831322312355042,-0.5239531993865967
11.876859903335571,-0.3380372226238251,-1.367737054824829,0.9512453675270081,0.425182580947876,0.6827870607376099,-0.5243210196495056
11.896949768066406,-0.33840158581733704,-1.369030475616455,0.9512766003608704,0.42634934186935425,0.6833385825157166,-0.5242254137992859
11.91704797744751,-0.3381660282611847,-1.3663101196289062,0.9515807628631592,0.4265357255935669,0.6819813847541809,-0.5243638753890991
11.93713927268982,-0.3382929861545563,-1.3666090965270996,0.9522242546081543,0.4266137182712555,0.6809483170509338,-0.5245330333709717
11.95719838142395,-0.3384310305118561,-1.3689656257629395,0.9513451457023621,0.42624419927597046,0.683363139629364,-0.5242539644241333
11.977338075637817,-0.33832845091819763,-1.369544506072998,0.9514135718345642,0.4266413152217865,0.6822966933250427,-0.5242566466331482
11.99741792678833,-0.33822473883628845,-1.3687489032745361,0.9517064690589905,0.42560967803001404,0.6817052960395813,-0.5244722366333008
12.01750135421753,-0.33823952078819275,-1.3696308135986328,0.9516481161117554,0.4268149137496948,0.6822157502174377,-0.5241698026657104
12.037570476531982,-0.33805039525032043,-1.3679592609405518,0.9517648220062256,0.42532289028167725,0.682720959186554,-0.5243708491325378
12.05765175819397,-0.33841705322265625,-1.36946702003479,0.9513019323348999,0.4265880584716797,0.6824057698249817,-0.5242955684661865
12.077712059020996,-0.39195170998573303,-1.422950267791748,0.8071528673171997,0.8130082488059998,0.6470759510993958,-0.22239069640636444
12.097776412963867,-0.3145364820957184,-1.3807530403137207,0.7033477425575256,0.8271058797836304,0.6170240640640259,-0.15293072164058685
12.117964506149292,-0.2836419641971588,-1.3797080516815186,0.6850181221961975,0.829760730266571,0.6092724204063416,-0.13818487524986267
12.137959003448486,-0.2881828248500824,-1.368725299835205,0.6947805285453796,0.8310901522636414,0.6137073636054993,-0.13789817690849304
12.15803050994873,-0.28937527537345886,-1.3605608940124512,0.6999704837799072,0.8315533995628357,0.6167179346084595,-0.13887768983840942
12.178115606307983,-0.2918829917907715,-1.3518495559692383,0.7190188765525818,0.8345453143119812,0.6144153475761414,-0.14133834838867188
12.198185205459595,-0.292888879776001,-1.3378973007202148,0.7265409827232361,0.836427628993988,0.6167337894439697,-0.1414131373167038
12.21829628944397,-0.29349014163017273,-1.334179401397705,0.7268357276916504,0.8328425288200378,0.6180371642112732,-0.14136651158332825
12.238413333892822,-0.29615873098373413,-1.324005126953125,0.7370670437812805,0.8317500352859497,0.6237960457801819,-0.14214976131916046
12.258493900299072,-0.3006943166255951,-1.319091796875,0.7536913752555847,0.833348274230957,0.6230037808418274,-0.14451541006565094
12.278551578521729,-0.3028140366077423,-1.297630786895752,0.7664889693260193,0.8320224285125732,0.6291093230247498,-0.14511650800704956
12.298620223999023,-0.30672189593315125,-1.2981915473937988,0.7790196537971497,0.836344301700592,0.6287946105003357,-0.14613927900791168
12.318739175796509,-0.3113439977169037,-1.2921040058135986,0.7634272575378418,0.8403494954109192,0.6476972699165344,-0.13942472636699677
12.3388671875,-0.30978700518608093,-1.2856526374816895,0.7725321650505066,0.8435960412025452,0.6426520943641663,-0.13931845128536224
12.358994960784912,-0.3026914596557617,-1.2956185340881348,0.7633575797080994,0.8448312878608704,0.6276274919509888,-0.13878639042377472
12.379157543182373,-0.3001396954059601,-1.299654483795166,0.7428570985794067,0.8395734429359436,0.6333873867988586,-0.1348620355129242
12.399203538894653,-0.3044363260269165,-1.2957305908203125,0.7494797706604004,0.8387210965156555,0.6432814002037048,-0.13291171193122864
12.419264554977417,-0.30031049251556396,-1.305452823638916,0.7547275424003601,0.8359724879264832,0.6290773749351501,-0.13535581529140472
12.439348936080933,-0.302971750497818,-1.3034021854400635,0.7459113597869873,0.8341241478919983,0.6210864186286926,-0.13424618542194366
12.45942759513855,-0.31070053577423096,-1.3096497058868408,0.760099470615387,0.8385321497917175,0.614315927028656,-0.1361936628818512
12.479468822479248,-0.3073456585407257,-1.3081369400024414,0.7601801753044128,0.834094226360321,0.6126305460929871,-0.13605459034442902
12.499562978744507,-0.2953585684299469,-1.3031253814697266,0.7302359342575073,0.8278395533561707,0.627397358417511,-0.1308399885892868
12.519655466079712,-0.3018760085105896,-1.2876596450805664,0.743230402469635,0.834058403968811,0.6317408084869385,-0.12851104140281677
12.53974199295044,-0.3019729554653168,-1.3024544715881348,0.7528932094573975,0.8415989279747009,0.6177435517311096,-0.13009706139564514
12.559792041778564,-0.29379311203956604,-1.3036794662475586,0.7518129944801331,0.8367497324943542,0.6099619269371033,-0.13207338750362396
12.57988429069519,-0.29249224066734314,-1.3008313179016113,0.7323418259620667,0.8246238827705383,0.6266072988510132,-0.12812934815883636
12.599973201751709,-0.2887325584888458,-1.2972166538238525,0.7253019213676453,0.8224295973777771,0.6191861033439636,-0.12800273299217224
12.620036363601685,-0.2946694493293762,-1.306765079498291,0.7295082211494446,0.8303083777427673,0.6248852610588074,-0.12606534361839294
12.64016056060791,-0.2821616232395172,-1.2893807888031006,0.7182081341743469,0.8145519495010376,0.6148551106452942,-0.12698785960674286
12.660227298736572,-0.2833079993724823,-1.3020439147949219,0.71286940574646,0.8241401314735413,0.6140566468238831,-0.12399514019489288
12.680262088775635,-0.2913258969783783,-1.3032417297363281,0.7222006916999817,0.8264281153678894,0.6185996532440186,-0.12176638841629028
12.700350284576416,-0.3060055077075958,-1.2981438636779785,0.7330778241157532,0.8322268128395081,0.5935928225517273,-0.1241476833820343
12.72042989730835,-0.30618780851364136,-1.286658525466919,0.738468587398529,0.8240849375724792,0.5872097611427307,-0.12556485831737518
12.740488290786743,-0.3133997619152069,-1.2923226356506348,0.7428959608078003,0.8230389952659607,0.5825212597846985,-0.1248178780078888
12.76060152053833,-0.2928120791912079,-1.3040556907653809,0.7256394028663635,0.826371967792511,0.6076584458351135,-0.11954671144485474
12.780714988708496,-0.2858901023864746,-1.3010475635528564,0.7119784355163574,0.8220997452735901,0.6023139953613281,-0.11671726405620575
12.800749778747559,-0.28706103563308716,-1.3023159503936768,0.7139083743095398,0.8175215125083923,0.604938805103302,-0.11551295220851898
12.820861577987671,-0.2836645245552063,-1.3044333457946777,0.7075399160385132,0.816937267780304,0.597099781036377,-0.11665600538253784
12.840926170349121,-0.2900688350200653,-1.3064601421356201,0.7124531865119934,0.8219148516654968,0.594916820526123,-0.11558741331100464
12.861019372940063,-0.2797659933567047,-1.2838737964630127,0.7048006653785706,0.7992161512374878,0.606855571269989,-0.11591261625289917
12.881092309951782,-0.2845825254917145,-1.2898900508880615,0.7044200897216797,0.8017755150794983,0.6229806542396545,-0.11352533102035522
12.901188611984253,-0.29914483428001404,-1.31327223777771,0.7203251719474792,0.8133886456489563,0.6059609055519104,-0.11615641415119171
12.921257495880127,-0.2931118905544281,-1.3037571907043457,0.7141366004943848,0.8166549801826477,0.5985293984413147,-0.11414051055908203
12.941545963287354,-0.300860732793808,-1.2928533554077148,0.721129298210144,0.8174169063568115,0.5932756066322327,-0.11310358345508575
12.961645603179932,-0.28460055589675903,-1.2859222888946533,0.7078203558921814,0.8132062554359436,0.596688449382782,-0.11161990463733673
12.981708288192749,-0.30737558007240295,-1.2876992225646973,0.7186216115951538,0.8139655590057373,0.602095365524292,-0.10881105065345764
13.00175929069519,-0.29359397292137146,-1.3090236186981201,0.7094334959983826,0.818604052066803,0.5936840176582336,-0.1088436096906662
13.02184772491455,-0.2937708795070648,-1.308720588684082,0.7053540349006653,0.8212689757347107,0.5979283452033997,-0.10679645836353302
13.041921377182007,-0.28311440348625183,-1.2942111492156982,0.6964171528816223,0.8177960515022278,0.60088711977005,-0.10478620231151581
13.062002897262573,-0.2782266139984131,-1.2865025997161865,0.6976050138473511,0.8172755241394043,0.5951601266860962,-0.10466967523097992
13.082095623016357,-0.27792009711265564,-1.2745652198791504,0.6974098682403564,0.8128920197486877,0.5951817631721497,-0.1037466824054718
13.102169036865234,-0.2939845025539398,-1.283794641494751,0.7061490416526794,0.8109765648841858,0.6014384627342224,-0.1020912379026413
13.122255802154541,-0.2844904959201813,-1.2912697792053223,0.6860052347183228,0.8116510510444641,0.6058293581008911,-0.0976741760969162
13.142330169677734,-0.29691413044929504,-1.3076603412628174,0.6982617974281311,0.8306561708450317,0.5932480692863464,-0.09690189361572266
13.162399530410767,-0.279937207698822,-1.2744176387786865,0.6859046220779419,0.8151276707649231,0.5888170599937439,-0.0938970148563385
13.182465553283691,-0.2923838794231415,-1.2859852313995361,0.6953903436660767,0.8177446722984314,0.5863781571388245,-0.09255662560462952
13.2026948928833,-0.2846749722957611,-1.2871286869049072,0.6827525496482849,0.8289675116539001,0.5827074646949768,-0.08752413094043732
13.222804546356201,-0.2820645272731781,-1.2710649967193604,0.6810905337333679,0.8267983198165894,0.5856483578681946,-0.08609813451766968
13.242860078811646,-0.2926132082939148,-1.2601397037506104,0.6915781497955322,0.822199821472168,0.5867455005645752,-0.08538292348384857
13.26299238204956,-0.29929497838020325,-1.3248229026794434,0.6579688787460327,0.842046856880188,0.6119523644447327,-0.07408289611339569
13.283082962036133,-0.2812453806400299,-1.3121929168701172,0.6558972001075745,0.8491242527961731,0.5816486477851868,-0.07519733905792236
13.303170919418335,-0.27519696950912476,-1.2182559967041016,0.7009164690971375,0.8336645364761353,0.555955708026886,-0.08229506015777588
13.323321104049683,-0.32026535272598267,-1.339120626449585,0.6863486766815186,0.8423852324485779,0.5975392460823059,-0.07286021113395691
13.343443632125854,-0.26139333844184875,-1.2543370723724365,0.6263543963432312,0.8526511192321777,0.5691620111465454,-0.06524410843849182
13.363503456115723,-0.305824339389801,-1.2261872291564941,0.7160698771476746,0.8415122032165527,0.5346562266349792,-0.07745334506034851
13.38361144065857,-0.2875059247016907,-1.3943870067596436,0.611788809299469,0.8517521023750305,0.5988451838493347,-0.06344908475875854
13.403706789016724,-0.2915962338447571,-1.3644793033599854,0.610122561454773,0.8807888031005859,0.6146566271781921,-0.04960581660270691
13.423789501190186,-0.26798516511917114,-1.1961543560028076,0.662028431892395,0.852324903011322,0.5543038845062256,-0.06465709209442139
13.443886995315552,-0.3158090114593506,-1.375471830368042,0.6639012098312378,0.8429893851280212,0.5908552408218384,-0.06386709213256836
13.463964462280273,-0.3004239797592163,-1.3617243766784668,0.6177471280097961,0.8653727173805237,0.6167541742324829,-0.05210857465863228
13.484038352966309,-0.2677172124385834,-1.1949617862701416,0.6759145855903625,0.8717402815818787,0.5395733714103699,-0.06298278272151947
13.504127025604248,-0.29678764939308167,-1.3569719791412354,0.6495519876480103,0.8597599267959595,0.5717925429344177,-0.06062135100364685
13.524204969406128,-0.32862409949302673,-1.4273405075073242,0.6044082045555115,0.8796389698982239,0.6271100044250488,-0.03969379514455795
13.544281482696533,-0.27336397767066956,-1.2870113849639893,0.6425843238830566,0.8836283087730408,0.5414592027664185,-0.05645895376801491
13.564361810684204,-0.26206836104393005,-1.187239170074463,0.6244581341743469,0.8331196904182434,0.5556322932243347,-0.05659504979848862
13.584800958633423,-0.29804709553718567,-1.314500093460083,0.6722596287727356,0.8880447149276733,0.5517171621322632,-0.05756622925400734
13.604897499084473,-0.3042686879634857,-1.3849678039550781,0.6279209852218628,0.8742203116416931,0.5944758653640747,-0.047961052507162094
13.624992609024048,-0.25070488452911377,-1.1838972568511963,0.6455214619636536,0.8619758486747742,0.4990043044090271,-0.06264841556549072
13.645054817199707,-0.32539716362953186,-1.264026403427124,0.6376209855079651,0.8431294560432434,0.6179946660995483,-0.04383021220564842
13.665143251419067,-0.255655437707901,-1.1853643655776978,0.5957211256027222,0.851377546787262,0.5827874541282654,-0.04835617542266846
13.6852126121521,-0.30805498361587524,-1.3192737102508545,0.6705208420753479,0.8971626162528992,0.4814007878303528,-0.060024283826351166
13.705266237258911,-0.2530980110168457,-1.1523935794830322,0.6500136256217957,0.8488304018974304,0.5149549245834351,-0.06076213717460632
13.725410223007202,-0.2740233242511749,-1.3225548267364502,0.6456242203712463,0.8893760442733765,0.5401647686958313,-0.054952364414930344
13.745442390441895,-0.27574241161346436,-1.1590644121170044,0.6088863015174866,0.8536576628684998,0.5844356417655945,-0.03977855667471886
13.765480756759644,-0.29811960458755493,-1.452282428741455,0.6494394540786743,0.9039455056190491,0.539761483669281,-0.052510816603899
13.785566091537476,-0.3036262094974518,-1.292637586593628,0.624287486076355,0.8603928685188293,0.5807496905326843,-0.04412132501602173
13.805657148361206,-0.23888328671455383,-1.2237017154693604,0.6356027126312256,0.8794963955879211,0.5095528960227966,-0.057070292532444
13.825705766677856,-0.29287007451057434,-1.2200617790222168,0.6479864716529846,0.8581425547599792,0.5546951293945312,-0.051132868975400925
13.84587836265564,-0.27836981415748596,-1.2412381172180176,0.6154314875602722,0.8658684492111206,0.5804557800292969,-0.044684041291475296
13.865980386734009,-0.27057984471321106,-1.2507574558258057,0.6353724598884583,0.8728745579719543,0.5486660003662109,-0.05186476185917854
13.885989427566528,-0.2771056890487671,-1.2763750553131104,0.6308891177177429,0.8835210800170898,0.5617145895957947,-0.04827188327908516
13.906079769134521,-0.2707439363002777,-1.2578387260437012,0.6236812472343445,0.8738712668418884,0.5515792965888977,-0.049663837999105453
13.926326990127563,-0.2693781554698944,-1.2543268203735352,0.6353194117546082,0.871120810508728,0.5394208431243896,-0.05373973399400711
13.946383237838745,-0.2864876687526703,-1.2456300258636475,0.6310132741928101,0.8751750588417053,0.5572323203086853,-0.04714842885732651
13.966461181640625,-0.27593234181404114,-1.251070499420166,0.6240858435630798,0.8732994794845581,0.5594492554664612,-0.047523919492959976
13.986536026000977,-0.27134427428245544,-1.2487752437591553,0.6362674832344055,0.8700128793716431,0.5470138192176819,-0.05245145410299301
14.006591558456421,-0.2735966742038727,-1.2653629779815674,0.6410048007965088,0.8813409805297852,0.5408700108528137,-0.05265188589692116
14.026668071746826,-0.27167341113090515,-1.250823736190796,0.6347568035125732,0.8770872354507446,0.545166552066803,-0.051294710487127304
14.046735286712646,-0.2690143883228302,-1.247875452041626,0.6343451738357544,0.8748199939727783,0.5445892214775085,-0.05199304223060608
14.066794157028198,-0.2759103775024414,-1.262021541595459,0.6296935081481934,0.87554532289505,0.557089626789093,-0.049152228981256485
14.086888074874878,-0.27545303106307983,-1.2612192630767822,0.6341724991798401,0.8778465390205383,0.5472677946090698,-0.05125066265463829
14.106953620910645,-0.26771411299705505,-1.2564244270324707,0.632282018661499,0.8699336051940918,0.5434276461601257,-0.053238626569509506
14.12700891494751,-0.2707740366458893,-1.2611668109893799,0.6366031169891357,0.8738810420036316,0.5433894991874695,-0.05334167554974556
14.147185325622559,-0.2746451199054718,-1.2613956928253174,0.6390476226806641,0.8801819086074829,0.5449019074440002,-0.052516598254442215
14.167215824127197,-0.275083988904953,-1.26851224899292,0.6358908414840698,0.8783465623855591,0.5458951592445374,-0.051405709236860275
14.187294960021973,-0.2709003686904907,-1.2603514194488525,0.6339620351791382,0.878301739692688,0.5471602082252502,-0.05138850212097168
14.207524061203003,-0.271046906709671,-1.2681834697723389,0.6345735192298889,0.8786792159080505,0.5447130799293518,-0.052096664905548096
14.227599859237671,-0.26832038164138794,-1.2606196403503418,0.6324330568313599,0.8731165528297424,0.5432854294776917,-0.05262481048703194
14.247674465179443,-0.27467647194862366,-1.2679038047790527,0.6397245526313782,0.8788437247276306,0.5412153601646423,-0.05298154801130295
14.267830610275269,-0.27349552512168884,-1.247504472732544,0.6375526785850525,0.8750523924827576,0.5484469532966614,-0.05150042101740837
14.288037538528442,-0.27148890495300293,-1.249971866607666,0.6367245316505432,0.8782491087913513,0.549285352230072,-0.05176287516951561
14.30800986289978,-0.27217504382133484,-1.268561601638794,0.6363810896873474,0.8800734877586365,0.546617329120636,-0.0521857813000679
14.328127384185791,-0.27260807156562805,-1.2732775211334229,0.6375373005867004,0.882287323474884,0.5434598326683044,-0.05217393487691879
14.348215818405151,-0.27233460545539856,-1.2721834182739258,0.6380159854888916,0.8811675310134888,0.5436058640480042,-0.05223387852311134
14.368266344070435,-0.2711363136768341,-1.2636284828186035,0.6372478604316711,0.8800655007362366,0.5425500273704529,-0.05233049765229225
14.388350248336792,-0.2694244086742401,-1.2499876022338867,0.6380858421325684,0.8787731528282166,0.5414808392524719,-0.052442826330661774
14.408431768417358,-0.2708118259906769,-1.2491161823272705,0.6367928981781006,0.8786601424217224,0.5480858683586121,-0.05108769237995148
14.428483486175537,-0.271607905626297,-1.260059118270874,0.6407635807991028,0.8798445463180542,0.5447036623954773,-0.05259869247674942
14.448708295822144,-0.27109670639038086,-1.2584779262542725,0.6397801041603088,0.8791271448135376,0.5445826649665833,-0.0522414967417717
14.468696594238281,-0.2716834843158722,-1.2661161422729492,0.6402762532234192,0.8819582462310791,0.5429088473320007,-0.0522964745759964
14.48872995376587,-0.2714901268482208,-1.2588908672332764,0.6385762095451355,0.8782870173454285,0.547997772693634,-0.05167730525135994
14.50881290435791,-0.27030429244041443,-1.2572219371795654,0.6397879719734192,0.8787700533866882,0.5448302626609802,-0.052477408200502396
14.528888463973999,-0.27236369252204895,-1.26499342918396,0.639760434627533,0.8800897002220154,0.5471400618553162,-0.0517253614962101
14.548944234848022,-0.2705390453338623,-1.2762634754180908,0.6344151496887207,0.8800678253173828,0.5423381328582764,-0.05218715965747833
14.569033861160278,-0.2714069187641144,-1.2756404876708984,0.6371676921844482,0.8821107149124146,0.542634904384613,-0.051847897469997406
14.589107990264893,-0.269965261220932,-1.261793851852417,0.6427518129348755,0.8814461827278137,0.5385432839393616,-0.053329240530729294
14.6091947555542,-0.27030566334724426,-1.2622103691101074,0.6387667059898376,0.8792572617530823,0.5427392721176147,-0.05239745229482651
14.629499673843384,-0.2693242132663727,-1.2611100673675537,0.6376113295555115,0.8792060613632202,0.5426846146583557,-0.05226673185825348
14.649587631225586,-0.274201363325119,-1.266557216644287,0.6418657898902893,0.8798179626464844,0.5478007197380066,-0.05182702839374542
14.669639587402344,-0.27083292603492737,-1.2667288780212402,0.6410005688667297,0.8801901936531067,0.5425887703895569,-0.05282559618353844
14.689844131469727,-0.2708011865615845,-1.2757155895233154,0.6422285437583923,0.8814873099327087,0.5385770797729492,-0.053683049976825714
14.709967374801636,-0.2715979516506195,-1.2724637985229492,0.6407698392868042,0.8801405429840088,0.5437860488891602,-0.05278283730149269
14.73000168800354,-0.27054962515830994,-1.2607243061065674,0.6415501236915588,0.8791691660881042,0.543630063533783,-0.052863847464323044
