liuyurong129/humanoid-gym/humanoid/data/target_q_20250521-000657.csv
timestamp,joint_1,joint_2,joint_3,joint_4,joint_5,joint_6
3.552436828613281e-05,0.0,0.0,0.0,0.0,0.0,0.0
0.020113706588745117,0.0,0.0,0.0,0.0,0.0,0.0
0.040177345275878906,0.0,0.0,0.0,0.0,0.0,0.0
0.0603947639465332,-0.7115774750709534,-2.241875410079956,1.5571632385253906,1.1157500743865967,-0.5418660640716553,-0.2024199664592743
0.08048892021179199,-1.2156051397323608,-2.9183459281921387,1.9344298839569092,0.930069088935852,-0.4185936450958252,-0.09370891749858856
0.10060286521911621,-1.4003856182098389,-2.96,2.240771532058716,0.7233014106750488,-0.25848856568336487,-0.05525489151477814
0.12063169479370117,-1.4071155786514282,-2.96,2.2867860794067383,0.6848198175430298,-0.2371438443660736,-0.05172465741634369
0.14071917533874512,-1.4062840938568115,-2.96,2.290764570236206,0.6813470125198364,-0.23489835858345032,-0.051833465695381165
0.16077971458435059,-1.403703212738037,-2.96,2.2933714389801025,0.6806947588920593,-0.23210205137729645,-0.052396148443222046
0.18088150024414062,-1.4015181064605713,-2.96,2.2947330474853516,0.6829062700271606,-0.23142695426940918,-0.052141495048999786
0.20092439651489258,-1.3974043130874634,-2.96,2.295220375061035,0.6849777102470398,-0.2297286093235016,-0.052388995885849
0.22105145454406738,-1.3954869508743286,-2.96,2.2946114540100098,0.6850806474685669,-0.22902631759643555,-0.05225783586502075
0.2412252426147461,-1.389321208000183,-2.96,2.2950387001037598,0.687337338924408,-0.22683647274971008,-0.05253671854734421
0.26137852668762207,-1.3846995830535889,-2.96,2.294076442718506,0.6880384683609009,-0.22542130947113037,-0.0530773401260376
0.2813851833343506,-1.3809802532196045,-2.96,2.2948691844940186,0.6904506683349609,-0.22338208556175232,-0.0536985844373703
0.30147647857666016,-1.3766067028045654,-2.96,2.2964882850646973,0.6925151348114014,-0.22132617235183716,-0.05410091578960419
0.3215184211730957,-1.3662999868392944,-2.96,2.2999095916748047,0.6958318948745728,-0.21593549847602844,-0.05488999933004379
0.3415486812591553,-1.361060619354248,-2.96,2.300682544708252,0.6979455947875977,-0.21357566118240356,-0.055090293288230896
0.3615875244140625,-1.3590229749679565,-2.96,2.2979087829589844,0.6985257267951965,-0.21373799443244934,-0.05509009212255478
0.3816854953765869,-1.3565442562103271,-2.96,2.298516273498535,0.6999337673187256,-0.21209007501602173,-0.055741086602211
0.4018263816833496,-1.349003791809082,-2.96,2.2998557090759277,0.7022100687026978,-0.20873555541038513,-0.05640611797571182
0.42182016372680664,-1.3433243036270142,-2.96,2.3005833625793457,0.7037989497184753,-0.20615407824516296,-0.05690784752368927
0.4418795108795166,-1.342882752418518,-2.96,2.2983903884887695,0.7044103145599365,-0.20670180022716522,-0.056783393025398254
0.46199488639831543,-1.3398727178573608,-2.96,2.3000431060791016,0.7067614793777466,-0.20546898245811462,-0.05722714215517044
0.48212337493896484,-1.3335790634155273,-2.96,2.3018507957458496,0.7099761962890625,-0.2027917504310608,-0.057709626853466034
0.5022084712982178,-1.3269290924072266,-2.96,2.3014657497406006,0.7107899188995361,-0.19991853833198547,-0.058085471391677856
0.5222113132476807,-1.3234143257141113,-2.96,2.3011693954467773,0.7120974063873291,-0.19792184233665466,-0.05894205719232559
0.5423891544342041,-1.3163154125213623,-2.96,2.30184268951416,0.7148171067237854,-0.19500896334648132,-0.05982854962348938
0.5624358654022217,-1.313584804534912,-2.96,2.3016839027404785,0.7156095504760742,-0.19418761134147644,-0.059872403740882874
0.582512378692627,-1.3040647506713867,-2.96,2.3034276962280273,0.7184702157974243,-0.1895689070224762,-0.06062357872724533
0.6025912761688232,-1.3024861812591553,-2.96,2.302661657333374,0.7198619842529297,-0.18875764310359955,-0.06069765239953995
0.622821569442749,-1.2987762689590454,-2.96,2.300699234008789,0.7208105325698853,-0.18833717703819275,-0.06141094118356705
0.6429409980773926,-1.2939937114715576,-2.96,2.3040037155151367,0.724206268787384,-0.1859649419784546,-0.06198178231716156
0.6630170345306396,-1.2868776321411133,-2.96,2.3040709495544434,0.7255716919898987,-0.1827351599931717,-0.0626940205693245
0.6830990314483643,-1.2856589555740356,-2.96,2.302663803100586,0.7264085412025452,-0.18265928328037262,-0.06268438696861267
0.7031519412994385,-1.2823631763458252,-2.96,2.3010077476501465,0.7274628281593323,-0.18120436370372772,-0.06376565247774124
0.7233128547668457,-1.280828833580017,-2.96,2.3010072708129883,0.7286109924316406,-0.18084488809108734,-0.06389491260051727
0.7433412075042725,-1.2743663787841797,-2.96,2.301337242126465,0.730432391166687,-0.1779400110244751,-0.06462045013904572
0.7634091377258301,-1.2667988538742065,-2.96,2.3029799461364746,0.7327353358268738,-0.17423956096172333,-0.0654505044221878
0.7834727764129639,-1.2627514600753784,-2.96,2.30258846282959,0.7347607612609863,-0.17298942804336548,-0.06595773249864578
0.8038699626922607,-1.261162519454956,-2.96,2.3020715713500977,0.7348858118057251,-0.17248888313770294,-0.0666109174489975
0.823960542678833,-1.2498078346252441,-2.96,2.3055500984191895,0.7394962310791016,-0.1670592874288559,-0.06770981848239899
0.8441040515899658,-1.2423712015151978,-2.96,2.3066205978393555,0.7414352893829346,-0.1635555922985077,-0.06886596232652664
0.864149808883667,-1.2407803535461426,-2.96,2.305950880050659,0.7425829172134399,-0.1633196622133255,-0.06925937533378601
0.8845183849334717,-1.2389463186264038,-2.96,2.3043041229248047,0.7424027919769287,-0.1623537242412567,-0.06939317286014557
0.9046874046325684,-1.2318201065063477,-2.96,2.3049492835998535,0.7445507049560547,-0.1594470739364624,-0.0705728530883789
0.924675703048706,-1.224345088005066,-2.96,2.3054840564727783,0.7465939521789551,-0.1566762924194336,-0.07160112261772156
0.9448332786560059,-1.2232797145843506,-2.96,2.3032829761505127,0.7469603419303894,-0.15617936849594116,-0.07229181379079819
0.9649679660797119,-1.2214438915252686,-2.96,2.301036834716797,0.7482740879058838,-0.15628156065940857,-0.07263082265853882
0.9850506782531738,-1.2208092212677002,-2.96,2.3006625175476074,0.7491508722305298,-0.15616345405578613,-0.07292137295007706
1.0051109790802002,-1.2143735885620117,-2.96,2.302161693572998,0.750985860824585,-0.1531011015176773,-0.07387606054544449
1.025174856185913,-1.2057563066482544,-2.96,2.304553985595703,0.7537505626678467,-0.1487644910812378,-0.07469212263822556
1.045325517654419,-1.199259638786316,-2.96,2.305176019668579,0.7565280199050903,-0.14596498012542725,-0.07536417245864868
1.065420150756836,-1.1972696781158447,-2.96,2.30349063873291,0.7562464475631714,-0.1456153839826584,-0.0755145326256752
1.0855293273925781,-1.189257264137268,-2.96,2.304295301437378,0.7583205699920654,-0.14179949462413788,-0.07691674679517746
1.105564832687378,-1.1822657585144043,-2.96,2.3062307834625244,0.7616668939590454,-0.13821645081043243,-0.07763629406690598
1.1256160736083984,-1.1810429096221924,-2.96,2.3036675453186035,0.7622640132904053,-0.1379145234823227,-0.07798241078853607
1.1456983089447021,-1.178370475769043,-2.96,2.303593873977661,0.7631483674049377,-0.1368943154811859,-0.07879239320755005
1.165769338607788,-1.1706254482269287,-2.96,2.3046905994415283,0.7661809921264648,-0.1334954798221588,-0.07986554503440857
1.185845136642456,-1.1623932123184204,-2.96,2.306574583053589,0.768867552280426,-0.1295889914035797,-0.0807509645819664
1.2059071063995361,-1.1624412536621094,-2.96,2.3046183586120605,0.7691218852996826,-0.12959106266498566,-0.08163126558065414
1.2260677814483643,-1.1607277393341064,-2.96,2.3022572994232178,0.7683060765266418,-0.1288491189479828,-0.08217150717973709
1.246150016784668,-1.1567316055297852,-2.96,2.302051067352295,0.7697590589523315,-0.12770281732082367,-0.08354345709085464
1.2662343978881836,-1.1495020389556885,-2.96,2.303663730621338,0.773179829120636,-0.12405659258365631,-0.0853932648897171
1.2863028049468994,-1.1410183906555176,-2.96,2.3051650524139404,0.7762380838394165,-0.12007765471935272,-0.08626558631658554
1.306394100189209,-1.1387083530426025,-2.96,2.3044204711914062,0.7762323617935181,-0.11917111277580261,-0.08668957650661469
1.3264732360839844,-1.1325265169143677,-2.96,2.3042752742767334,0.7783217430114746,-0.11594972014427185,-0.08780204504728317
1.346557378768921,-1.122534155845642,-2.96,2.3075549602508545,0.7826111912727356,-0.11106373369693756,-0.08886263519525528
1.3666083812713623,-1.1121407747268677,-2.96,2.3089475631713867,0.7851020693778992,-0.10603252798318863,-0.09027962386608124
1.386817216873169,-1.1035571098327637,-2.96,2.310206651687622,0.7878654599189758,-0.10204996168613434,-0.09097545593976974
1.4069240093231201,-1.1020889282226562,-2.96,2.31065034866333,0.7894922494888306,-0.10170281678438187,-0.09120867401361465
1.4269754886627197,-1.0998247861862183,-2.96,2.3088889122009277,0.7905508875846863,-0.10082796961069107,-0.09223808348178864
1.447021484375,-1.0960345268249512,-2.96,2.307342529296875,0.7917362451553345,-0.09942486137151718,-0.09340254217386246
1.4670863151550293,-1.09353506565094,-2.96,2.305124521255493,0.792940616607666,-0.09885834157466888,-0.09395726770162582
1.487180471420288,-1.093156337738037,-2.96,2.303128719329834,0.7925313711166382,-0.0993029996752739,-0.09437676519155502
1.5072414875030518,-1.0883619785308838,-2.96,2.3032591342926025,0.7942712306976318,-0.09712759405374527,-0.09574196487665176
1.52730393409729,-1.0808956623077393,-2.96,2.3047776222229004,0.7978057265281677,-0.09394201636314392,-0.09680230915546417
1.5473506450653076,-1.0746700763702393,-2.96,2.305429458618164,0.7992466688156128,-0.09146571159362793,-0.09786949306726456
1.5674381256103516,-1.0709984302520752,-2.96,2.3073315620422363,0.8012006282806396,-0.08948671817779541,-0.09882355481386185
1.5875236988067627,-1.0675981044769287,-2.96,2.305893898010254,0.8029568195343018,-0.08847343921661377,-0.09906166791915894
1.6075835227966309,-1.0608422756195068,-2.96,2.306138515472412,0.8046727180480957,-0.08496265113353729,-0.10058554261922836
1.6276392936706543,-1.051418423652649,-2.96,2.3080978393554688,0.8075814247131348,-0.08062353730201721,-0.10155650228261948
1.6476984024047852,-1.0473432540893555,-2.96,2.3088231086730957,0.8087930679321289,-0.0787099301815033,-0.10251478850841522
1.667917013168335,-1.0440948009490967,-2.96,2.306619644165039,0.8104122877120972,-0.07789280265569687,-0.10279367119073868
1.687898874282837,-1.0376367568969727,-2.96,2.307992696762085,0.8142404556274414,-0.07457023859024048,-0.10391975194215775
1.70798921585083,-1.0293148756027222,-2.96,2.3076417446136475,0.8160554766654968,-0.07145531475543976,-0.10511485487222672
1.7280158996582031,-1.0255354642868042,-2.96,2.307994842529297,0.8184987902641296,-0.06903383135795593,-0.10577664524316788
1.7481203079223633,-1.024559497833252,-2.96,2.306100845336914,0.8181009292602539,-0.06806228309869766,-0.10655316710472107
1.7682292461395264,-1.0191318988800049,-2.96,2.3062758445739746,0.8205361366271973,-0.06498488783836365,-0.10777437686920166
1.788292646408081,-1.0133111476898193,-2.96,2.306145191192627,0.8230686187744141,-0.06282782554626465,-0.1091110110282898
1.8083689212799072,-1.0016229152679443,-2.96,2.3086776733398438,0.8261294364929199,-0.05764574557542801,-0.11135327070951462
1.8284430503845215,-1.0008766651153564,-2.96,2.3082408905029297,0.8261265754699707,-0.057641565799713135,-0.11174840480089188
1.848501443862915,-0.9946677088737488,-2.96,2.307917594909668,0.8285160064697266,-0.055189020931720734,-0.11302033066749573
1.8685810565948486,-0.9859022498130798,-2.96,2.3084921836853027,0.8313347697257996,-0.051228225231170654,-0.11409913748502731
1.888624906539917,-0.9783827066421509,-2.96,2.309065580368042,0.8338462114334106,-0.04736919701099396,-0.11571789532899857
1.9087085723876953,-0.9773279428482056,-2.96,2.308702230453491,0.8346006870269775,-0.047689251601696014,-0.11563689261674881
1.9288196563720703,-0.9738954305648804,-2.958617925643921,2.3074541091918945,0.83641517162323,-0.046300869435071945,-0.1160058081150055
1.9488625526428223,-0.9664411544799805,-2.953939437866211,2.3081717491149902,0.8386287689208984,-0.043697696179151535,-0.11715441942214966
1.968912124633789,-0.9577537178993225,-2.9477527141571045,2.3093197345733643,0.8410347700119019,-0.038850899785757065,-0.11876282840967178
1.9889779090881348,-0.9541791677474976,-2.943572521209717,2.3106822967529297,0.8442345857620239,-0.03676443174481392,-0.11935995519161224
2.0091161727905273,-0.9520525932312012,-2.935673713684082,2.3073313236236572,0.8451359272003174,-0.03672388568520546,-0.12007856369018555
2.0291731357574463,-0.9422396421432495,-2.9308109283447266,2.307619094848633,0.8480342626571655,-0.032762352377176285,-0.12178395688533783
2.049224853515625,-0.9336095452308655,-2.9255363941192627,2.3089325428009033,0.8506227135658264,-0.02901257947087288,-0.12366914749145508
2.069533586502075,-0.9281560778617859,-2.9174580574035645,2.3085079193115234,0.8524396419525146,-0.02637525275349617,-0.12483709305524826
2.089616298675537,-0.9248648285865784,-2.9152984619140625,2.305490732192993,0.8522799015045166,-0.025861386209726334,-0.12551867961883545
2.1097052097320557,-0.9212023615837097,-2.9091246128082275,2.3041701316833496,0.8535646200180054,-0.02499264106154442,-0.12678995728492737
2.1297597885131836,-0.9144328236579895,-2.9052493572235107,2.303745746612549,0.8565496802330017,-0.02266072854399681,-0.1274859607219696
2.1498682498931885,-0.9080679416656494,-2.8997573852539062,2.3041141033172607,0.8587079644203186,-0.019580837339162827,-0.12855985760688782
2.1699228286743164,-0.9029103517532349,-2.8964662551879883,2.3074049949645996,0.8621984720230103,-0.016192849725484848,-0.12967154383659363
2.189997911453247,-0.897549569606781,-2.889376640319824,2.3057289123535156,0.8635960817337036,-0.013790418393909931,-0.13096246123313904
2.2100491523742676,-0.8873233795166016,-2.8845114707946777,2.3053698539733887,0.8664312362670898,-0.010405448265373707,-0.13197144865989685
2.230119466781616,-0.8852249979972839,-2.8766050338745117,2.303414821624756,0.8673785924911499,-0.009521235711872578,-0.13243570923805237
2.2502753734588623,-0.8838648796081543,-2.874080181121826,2.3027050495147705,0.8678480386734009,-0.008983106352388859,-0.13333866000175476
2.270310401916504,-0.8782619833946228,-2.867953300476074,2.301887273788452,0.8703107833862305,-0.006756649352610111,-0.13409511744976044
2.2903683185577393,-0.8711830973625183,-2.8626341819763184,2.3011813163757324,0.8718770742416382,-0.004427407868206501,-0.13585227727890015
2.310445547103882,-0.8609235286712646,-2.857496738433838,2.301563024520874,0.8739663362503052,0.0005741408094763756,-0.13797545433044434
2.3305180072784424,-0.8574920296669006,-2.8548738956451416,2.3014490604400635,0.8751592636108398,0.0020287809893488884,-0.13905031979084015
2.3508362770080566,-0.8499485850334167,-2.8473873138427734,2.3016645908355713,0.8777515888214111,0.0055120764300227165,-0.14097878336906433
2.370885133743286,-0.8423302173614502,-2.8400473594665527,2.3006858825683594,0.8798933029174805,0.008520185016095638,-0.14265650510787964
2.3908982276916504,-0.8322456479072571,-2.8326475620269775,2.30218768119812,0.8834233283996582,0.01334602665156126,-0.1445315182209015
2.410973072052002,-0.828416109085083,-2.829329490661621,2.3009066581726074,0.8840796947479248,0.015089395456016064,-0.14528021216392517
2.4310925006866455,-0.8209309577941895,-2.820622444152832,2.3010895252227783,0.886705219745636,0.01785079762339592,-0.1465456783771515
2.4511287212371826,-0.8129807710647583,-2.813258409500122,2.299771785736084,0.8888052105903625,0.02148796245455742,-0.1485304981470108
2.471186637878418,-0.8096837997436523,-2.8045413494110107,2.29756236076355,0.8906539678573608,0.02284618839621544,-0.14978912472724915
2.4912657737731934,-0.8076095581054688,-2.799327850341797,2.298388957977295,0.8924617767333984,0.025136448442935944,-0.15083281695842743
2.511352062225342,-0.7969021797180176,-2.7938103675842285,2.2971200942993164,0.8946782350540161,0.02823786437511444,-0.15289351344108582
2.531423807144165,-0.7868050336837769,-2.7867894172668457,2.2989344596862793,0.8970266580581665,0.03355574607849121,-0.15570425987243652
2.5515003204345703,-0.7791639566421509,-2.7784738540649414,2.2992310523986816,0.9001682996749878,0.0369684211909771,-0.15729588270187378
2.571976900100708,-0.7755115628242493,-2.7743687629699707,2.2982778549194336,0.9012377858161926,0.03837085887789726,-0.15787771344184875
2.5921075344085693,-0.764339804649353,-2.7674436569213867,2.298241138458252,0.9044507741928101,0.04356466606259346,-0.1603722721338272
2.612131357192993,-0.7554700374603271,-2.7604336738586426,2.29811692237854,0.9074587225914001,0.04735592007637024,-0.16181457042694092
2.632197856903076,-0.74833083152771,-2.752396821975708,2.2967967987060547,0.9085634350776672,0.050006669014692307,-0.16322076320648193
2.65250563621521,-0.7410731911659241,-2.743793487548828,2.2970263957977295,0.9119282960891724,0.05432548373937607,-0.1647593080997467
2.6726160049438477,-0.738823652267456,-2.7399742603302,2.2954299449920654,0.9121346473693848,0.05587854981422424,-0.16586285829544067
2.692683458328247,-0.7313852906227112,-2.7319154739379883,2.2934179306030273,0.9139940142631531,0.06002732366323471,-0.1687328964471817
2.7128047943115234,-0.72333163022995,-2.7222938537597656,2.2915217876434326,0.9159826040267944,0.06374037265777588,-0.1720181703567505
2.732935667037964,-0.721924901008606,-2.7169718742370605,2.2890865802764893,0.9161413908004761,0.06305296719074249,-0.17263686656951904
2.7530364990234375,-0.7083475589752197,-2.7101027965545654,2.289464235305786,0.9194811582565308,0.06928197294473648,-0.17584888637065887
2.773219347000122,-0.6999382376670837,-2.7003140449523926,2.290074348449707,0.9231423139572144,0.07347504794597626,-0.17755433917045593
2.793200969696045,-0.6886203289031982,-2.692129611968994,2.2877068519592285,0.9255372285842896,0.07794535160064697,-0.18002954125404358
2.813274621963501,-0.6876685619354248,-2.687246561050415,2.2849183082580566,0.9253413677215576,0.077308788895607,-0.18063411116600037
2.833339214324951,-0.6768704652786255,-2.6781165599823,2.284331798553467,0.9274848699569702,0.08282963186502457,-0.1837238371372223
2.853405475616455,-0.6671306490898132,-2.671696186065674,2.2829294204711914,0.929783821105957,0.08961966633796692,-0.18730652332305908
2.8734302520751953,-0.6608863472938538,-2.6633009910583496,2.2811100482940674,0.9316017627716064,0.09274071455001831,-0.1904468536376953
2.8934953212738037,-0.6556111574172974,-2.659419536590576,2.2792420387268066,0.9321597218513489,0.09474798291921616,-0.1921355128288269
2.9136250019073486,-0.6459624171257019,-2.6482534408569336,2.2784855365753174,0.9354838728904724,0.09882444888353348,-0.1944914162158966
2.9336795806884766,-0.6358053684234619,-2.637575626373291,2.2771682739257812,0.9385558366775513,0.1046212911605835,-0.19757691025733948
2.9537882804870605,-0.6228936314582825,-2.6277389526367188,2.2762885093688965,0.9425026774406433,0.11032618582248688,-0.20036256313323975
2.9738991260528564,-0.6215198040008545,-2.6211254596710205,2.2727677822113037,0.9420062303543091,0.10909348726272583,-0.20077922940254211
2.9939799308776855,-0.6069316864013672,-2.6093640327453613,2.27199387550354,0.9457424879074097,0.11563009768724442,-0.204023540019989
3.0140464305877686,-0.5920243263244629,-2.5981860160827637,2.2715725898742676,0.9482184648513794,0.12252576649188995,-0.2079939842224121
3.034109354019165,-0.5850070118904114,-2.5863242149353027,2.2684202194213867,0.9501670598983765,0.12587708234786987,-0.21170732378959656
3.0541648864746094,-0.5719732046127319,-2.5733346939086914,2.268883466720581,0.9550337791442871,0.13147634267807007,-0.21470364928245544
3.0742359161376953,-0.5662479996681213,-2.5666933059692383,2.2687830924987793,0.9566128253936768,0.13459603488445282,-0.2164376974105835
3.094306230545044,-0.5620266199111938,-2.5526857376098633,2.2628703117370605,0.9575452208518982,0.13566099107265472,-0.21857398748397827
3.114403247833252,-0.5506177544593811,-2.542001247406006,2.260277271270752,0.9582635164260864,0.14090561866760254,-0.22355735301971436
3.134479522705078,-0.5437778830528259,-2.536076545715332,2.258197546005249,0.9591585397720337,0.14301900565624237,-0.22615006566047668
3.154603958129883,-0.5300292372703552,-2.523110866546631,2.254915714263916,0.963238000869751,0.14891530573368073,-0.22988510131835938
3.174828290939331,-0.5189807415008545,-2.5093252658843994,2.250185966491699,0.9648950099945068,0.15282262861728668,-0.23370368778705597
3.1947576999664307,-0.5028010606765747,-2.4964394569396973,2.2437732219696045,0.9652707576751709,0.15910522639751434,-0.23941858112812042
3.214837074279785,-0.4952448010444641,-2.490755558013916,2.241024971008301,0.9667651653289795,0.16196253895759583,-0.2422603964805603
3.2349016666412354,-0.47689568996429443,-2.4766645431518555,2.236748695373535,0.9700254201889038,0.17046594619750977,-0.2483987808227539
3.2549781799316406,-0.46357113122940063,-2.4617557525634766,2.2304656505584717,0.972690761089325,0.17639794945716858,-0.25316786766052246
3.275052070617676,-0.4544914662837982,-2.447242259979248,2.2221193313598633,0.9730369448661804,0.17823737859725952,-0.2576811909675598
3.29546856880188,-0.4426397681236267,-2.4332919120788574,2.2138519287109375,0.9743895530700684,0.18257135152816772,-0.2635265588760376
3.3155481815338135,-0.437152236700058,-2.425234794616699,2.2112724781036377,0.9765370488166809,0.18398429453372955,-0.26548609137535095
3.3356709480285645,-0.4191794991493225,-2.407869338989258,2.205778121948242,0.9791104793548584,0.19082820415496826,-0.270573228597641
3.3557651042938232,-0.40459486842155457,-2.3911848068237305,2.1999635696411133,0.9795132875442505,0.19758570194244385,-0.27684828639030457
3.375776767730713,-0.38928765058517456,-2.37394380569458,2.1933913230895996,0.9820338487625122,0.20323878526687622,-0.28294602036476135
3.395874261856079,-0.37538862228393555,-2.367919921875,2.188931465148926,0.9828522205352783,0.20921826362609863,-0.2868698239326477
3.4159224033355713,-0.3589608669281006,-2.351296901702881,2.180751323699951,0.9838308095932007,0.21560794115066528,-0.2933231294155121
3.4359984397888184,-0.34437865018844604,-2.3344202041625977,2.1707592010498047,0.9823709726333618,0.2217421978712082,-0.3011062741279602
3.456098794937134,-0.33199357986450195,-2.3165154457092285,2.156825542449951,0.983094334602356,0.22534388303756714,-0.30741193890571594
3.476184606552124,-0.3262283205986023,-2.3059732913970947,2.153109073638916,0.9828982353210449,0.22753241658210754,-0.31136462092399597
3.4962568283081055,-0.31173962354660034,-2.2907490730285645,2.1368825435638428,0.9818115234375,0.2310861349105835,-0.3186285197734833
3.5163283348083496,-0.29536858201026917,-2.2700304985046387,2.130244255065918,0.9839921593666077,0.2355884611606598,-0.32404008507728577
3.536381721496582,-0.2783477008342743,-2.249370574951172,2.124743938446045,0.9855660200119019,0.24478870630264282,-0.3318309783935547
3.556464910507202,-0.26606884598731995,-2.2376136779785156,2.1256794929504395,0.9865264892578125,0.25136256217956543,-0.3361116647720337
3.5765302181243896,-0.2448427379131317,-2.2127161026000977,2.1184263229370117,0.9885833263397217,0.26091286540031433,-0.34342294931411743
3.596614122390747,-0.23206424713134766,-2.1860320568084717,2.1119132041931152,0.9870842099189758,0.2688424289226532,-0.35170838236808777
3.6166586875915527,-0.21076396107673645,-2.1620254516601562,2.098507881164551,0.9852588176727295,0.2784895598888397,-0.3622257709503174
3.636751651763916,-0.20163777470588684,-2.147536277770996,2.093486785888672,0.9844677448272705,0.28030261397361755,-0.36735737323760986
3.6568186283111572,-0.1774791181087494,-2.1254379749298096,2.0758931636810303,0.9853818416595459,0.28965649008750916,-0.37668943405151367
3.676906108856201,-0.16229921579360962,-2.1000475883483887,2.0567140579223633,0.9813656806945801,0.29220637679100037,-0.3855457305908203
3.6969499588012695,-0.1475706398487091,-2.076465368270874,2.0408897399902344,0.97902512550354,0.29643455147743225,-0.39537835121154785
3.7170188426971436,-0.13954389095306396,-2.06490159034729,2.036027431488037,0.9769654273986816,0.3014366626739502,-0.40132272243499756
3.7371089458465576,-0.12441598623991013,-2.046919345855713,2.0153112411499023,0.9750032424926758,0.3049091696739197,-0.4102095365524292
3.7571709156036377,-0.10268571227788925,-2.022566318511963,2.0010018348693848,0.9730187058448792,0.3104647397994995,-0.41954827308654785
3.777254343032837,-0.08683060854673386,-2.0032434463500977,1.9754351377487183,0.9655571579933167,0.3137276768684387,-0.43084046244621277
3.7972848415374756,-0.07188730686903,-1.9855928421020508,1.9536123275756836,0.9636109471321106,0.31688371300697327,-0.44022685289382935
3.817375421524048,-0.06618555635213852,-1.976424217224121,1.9446465969085693,0.962456464767456,0.31695473194122314,-0.44419825077056885
3.837439775466919,-0.05187523365020752,-1.9611268043518066,1.9203903675079346,0.9576628804206848,0.3176013231277466,-0.45211395621299744
3.8575077056884766,-0.037684448063373566,-1.9452427625656128,1.9021341800689697,0.9524370431900024,0.32045090198516846,-0.4622044265270233
3.8775739669799805,-0.02372630126774311,-1.9252960681915283,1.8874571323394775,0.9468262195587158,0.3265906274318695,-0.47305235266685486
3.8978497982025146,-0.019435347989201546,-1.9105064868927002,1.8883241415023804,0.9465249180793762,0.3311924934387207,-0.47758492827415466
3.9179728031158447,-0.0042196232825517654,-1.8792469501495361,1.8851878643035889,0.942482590675354,0.33586421608924866,-0.4860048294067383
3.9380133152008057,0.0073632728308439255,-1.84786057472229,1.885582685470581,0.9398351311683655,0.34703493118286133,-0.49560365080833435
3.9580726623535156,0.021055536344647408,-1.8116965293884277,1.8841874599456787,0.9349672794342041,0.36331573128700256,-0.5072101950645447
3.978239059448242,0.03717665374279022,-1.7699267864227295,1.8901629447937012,0.9354466795921326,0.3736216723918915,-0.5156204700469971
3.9983279705047607,0.04639560729265213,-1.753273844718933,1.8785793781280518,0.9288737773895264,0.3780093491077423,-0.5212292671203613
4.0184667110443115,0.05730276554822922,-1.7221934795379639,1.8734943866729736,0.9261274337768555,0.384609192609787,-0.5301466584205627
4.038482189178467,0.06771045178174973,-1.6990740299224854,1.8483564853668213,0.9199162721633911,0.3854888677597046,-0.5378835201263428
4.058545351028442,0.07143993675708771,-1.6775596141815186,1.8323476314544678,0.9142656326293945,0.386920690536499,-0.5466902256011963
4.0786452293396,0.0744752511382103,-1.6663055419921875,1.826134443283081,0.9140805006027222,0.3869495093822479,-0.5503945350646973
4.098731279373169,0.07719597220420837,-1.6456128358840942,1.812345027923584,0.9091520309448242,0.3887597918510437,-0.5577816963195801
4.118793249130249,0.07723793387413025,-1.6244125366210938,1.8052529096603394,0.906254768371582,0.39158469438552856,-0.5635033249855042
4.138842582702637,0.07178385555744171,-1.6041488647460938,1.7877779006958008,0.8993480205535889,0.3871206045150757,-0.5689231157302856
4.15891170501709,0.06788721680641174,-1.5967373847961426,1.7782316207885742,0.8964285850524902,0.3837713599205017,-0.5714023113250732
4.178992986679077,0.06569240242242813,-1.579849362373352,1.7601866722106934,0.8922815322875977,0.38180431723594666,-0.5767667293548584
4.1990556716918945,0.06072475016117096,-1.5651586055755615,1.7386797666549683,0.8889075517654419,0.3728657364845276,-0.5812170505523682
4.219134092330933,0.06344849616289139,-1.5533819198608398,1.718958854675293,0.8855651021003723,0.37087613344192505,-0.5861350297927856
4.239182472229004,0.06256569176912308,-1.5479897260665894,1.6890552043914795,0.8812413811683655,0.36364617943763733,-0.5917141437530518
4.259279489517212,0.059943050146102905,-1.5415730476379395,1.6826074123382568,0.8809969425201416,0.3624213933944702,-0.5940886735916138
4.27935791015625,0.058817386627197266,-1.5337575674057007,1.647682785987854,0.8717879056930542,0.35262352228164673,-0.6012763977050781
4.299420118331909,0.05344848334789276,-1.521046757698059,1.617992639541626,0.8664922714233398,0.34394246339797974,-0.6080199480056763
4.319572687149048,0.05224405974149704,-1.5166354179382324,1.5996959209442139,0.862061083316803,0.3422427773475647,-0.6119304299354553
4.339690446853638,0.035812683403491974,-1.5017573833465576,1.5599656105041504,0.8538435101509094,0.327517569065094,-0.6187996864318848
4.359753847122192,0.017364313825964928,-1.4829182624816895,1.5190742015838623,0.8471535444259644,0.31242936849594116,-0.6257903575897217
4.379910230636597,-0.011468539014458656,-1.4603643417358398,1.4634901285171509,0.8360049724578857,0.2909846305847168,-0.634985089302063
4.39989447593689,-0.017537394538521767,-1.4418885707855225,1.4567255973815918,0.8340016603469849,0.29726213216781616,-0.6420714855194092
4.419989824295044,-0.05597396194934845,-1.4060078859329224,1.401933193206787,0.8187544941902161,0.2739740014076233,-0.6556814908981323
4.440113306045532,-0.10181598365306854,-1.3720210790634155,1.3527283668518066,0.8007313013076782,0.26011958718299866,-0.6752070188522339
4.46015477180481,-0.13801723718643188,-1.3418992757797241,1.3201534748077393,0.7873291969299316,0.2285170555114746,-0.6973612904548645
4.480309963226318,-0.1195506602525711,-1.3225809335708618,1.3410265445709229,0.782590389251709,0.21676580607891083,-0.7259944081306458
4.500411033630371,-0.10629498213529587,-1.317976474761963,1.3510597944259644,0.7823678255081177,0.1980370283126831,-0.7393614053726196
4.520465612411499,-0.0631372481584549,-1.3140068054199219,1.374932885169983,0.7994157075881958,0.18549108505249023,-0.7642650604248047
4.5405356884002686,-0.041601456701755524,-1.3190529346466064,1.37129807472229,0.8040474653244019,0.1802014708518982,-0.7899415493011475
4.5610527992248535,-0.01364854909479618,-1.334735631942749,1.3453831672668457,0.8098526000976562,0.17664200067520142,-0.8194807767868042
4.581146001815796,-0.009487593546509743,-1.3470176458358765,1.3203816413879395,0.8148101568222046,0.1684776246547699,-0.834945559501648
4.601223707199097,-0.06821556389331818,-1.3760044574737549,1.2555038928985596,0.8314626216888428,0.11545336246490479,-0.8589930534362793
4.621272087097168,-0.12342075258493423,-1.397355556488037,1.2290836572647095,0.8535251617431641,0.09008947759866714,-0.8778996467590332
4.641335964202881,-0.14055481553077698,-1.4011703729629517,1.255433201789856,0.8844293355941772,0.08307288587093353,-0.890821099281311
4.6614556312561035,-0.14367011189460754,-1.3987488746643066,1.2768598794937134,0.908099889755249,0.07579956203699112,-0.8928471803665161
4.681581258773804,-0.1274876594543457,-1.3843328952789307,1.3433213233947754,0.9465263485908508,0.0802067443728447,-0.8982369303703308
4.7015907764434814,-0.07137779891490936,-1.365058422088623,1.4052894115447998,0.9684896469116211,0.11276958882808685,-0.9080283641815186
4.721643447875977,-0.08040937781333923,-1.340156078338623,1.4368209838867188,0.966975212097168,0.15906721353530884,-0.9299629926681519
4.7417075634002686,-0.08276907354593277,-1.3210808038711548,1.4710862636566162,0.9600114226341248,0.19549322128295898,-0.9444935321807861
4.761774301528931,-0.07727646827697754,-1.3105324506759644,1.4753408432006836,0.9619443416595459,0.22176463901996613,-0.9633066058158875
4.781849384307861,-0.06422680616378784,-1.3271141052246094,1.413610577583313,0.9645226001739502,0.1990286260843277,-0.9800293445587158
4.801946640014648,-0.055058881640434265,-1.371834397315979,1.2815985679626465,0.9743995070457458,0.12536264955997467,-0.9909073114395142
4.822141647338867,-0.08927546441555023,-1.4097929000854492,1.1917051076889038,0.9925148487091064,0.05024336278438568,-1.001873254776001
4.842259645462036,-0.10276814550161362,-1.431215524673462,1.1521425247192383,1.0072970390319824,0.0015947436913847923,-1.0030986070632935
4.862314939498901,-0.12680873274803162,-1.4672585725784302,1.082201361656189,1.0158618688583374,-0.05395633354783058,-1.0076913833618164
4.882381916046143,-0.13742056488990784,-1.487842082977295,1.047546148300171,1.0319275856018066,-0.08118212968111038,-1.00618314743042
4.902428150177002,-0.15294325351715088,-1.4895005226135254,1.0537714958190918,1.0445842742919922,-0.09035298228263855,-1.0029292106628418
4.9225077629089355,-0.16877120733261108,-1.4834723472595215,1.072313904762268,1.049285650253296,-0.0885019600391388,-1.0006375312805176
4.942582130432129,-0.17109572887420654,-1.462592601776123,1.1218667030334473,1.0497581958770752,-0.055196989327669144,-0.9997524619102478
4.96264386177063,-0.15485909581184387,-1.4218335151672363,1.2164692878723145,1.0471616983413696,0.017307091504335403,-1.003291130065918
4.982703924179077,-0.12374666333198547,-1.3718276023864746,1.3435132503509521,1.0424319505691528,0.10128308832645416,-1.0081701278686523
5.002835035324097,-0.09325210750102997,-1.350203037261963,1.4080398082733154,1.0317838191986084,0.13781385123729706,-1.0103768110275269
5.0229270458221436,-0.037619784474372864,-1.334212303161621,1.4575741291046143,1.0108914375305176,0.18210247159004211,-1.0226527452468872
5.042993545532227,-0.003993066027760506,-1.3242802619934082,1.489198923110962,1.0037697553634644,0.22207358479499817,-1.0369642972946167
5.063034534454346,0.0239665936678648,-1.3299777507781982,1.4778180122375488,1.0072287321090698,0.21903803944587708,-1.0457794666290283
5.083114385604858,0.0330023318529129,-1.3399584293365479,1.4516661167144775,1.0143998861312866,0.20126700401306152,-1.0479236841201782
5.103176832199097,0.02112617902457714,-1.3634533882141113,1.383454442024231,1.025153398513794,0.15521207451820374,-1.0506397485733032
5.123238563537598,-0.047531262040138245,-1.3959318399429321,1.2844314575195312,1.0337010622024536,0.08546198904514313,-1.0522446632385254
5.143310785293579,-0.1407942771911621,-1.4207673072814941,1.2171251773834229,1.0479021072387695,0.027263395488262177,-1.0509600639343262
5.163437843322754,-0.20737668871879578,-1.4427008628845215,1.1654412746429443,1.0622265338897705,-0.028791207820177078,-1.0457667112350464
5.183534622192383,-0.25812673568725586,-1.448120355606079,1.1483945846557617,1.0704128742218018,-0.05777578800916672,-1.041143774986267
5.203714370727539,-0.29199281334877014,-1.4468929767608643,1.1560204029083252,1.0860987901687622,-0.07072655856609344,-1.0336216688156128
5.2237160205841064,-0.30195605754852295,-1.4345802068710327,1.1866915225982666,1.087752342224121,-0.046890679746866226,-1.0309377908706665
5.244066476821899,-0.285139262676239,-1.4082303047180176,1.2534259557724,1.0878238677978516,0.008093110285699368,-1.0333287715911865
5.264196872711182,-0.26388442516326904,-1.3952713012695312,1.2899680137634277,1.0852570533752441,0.032487232238054276,-1.0343679189682007
5.284235239028931,-0.1913118064403534,-1.3688467741012573,1.375029444694519,1.0764716863632202,0.09337938576936722,-1.0391261577606201
5.304303884506226,-0.048726633191108704,-1.3454678058624268,1.4649252891540527,1.0663154125213623,0.15772265195846558,-1.0470077991485596
5.324373960494995,0.08470079302787781,-1.3267563581466675,1.5380702018737793,1.058763861656189,0.22194692492485046,-1.0585486888885498
5.344549894332886,0.11909991502761841,-1.3200173377990723,1.562598705291748,1.0540827512741089,0.23898378014564514,-1.0635340213775635
5.364582777023315,0.1811313033103943,-1.3151252269744873,1.5922737121582031,1.0468816757202148,0.26054292917251587,-1.072059154510498
5.384698390960693,0.2086179554462433,-1.3163857460021973,1.5959398746490479,1.0468488931655884,0.2675231099128723,-1.0768673419952393
5.40474534034729,0.2098233699798584,-1.3214963674545288,1.584913730621338,1.0438032150268555,0.2623787224292755,-1.0802571773529053
5.424960136413574,0.2053987681865692,-1.3225679397583008,1.5820629596710205,1.0439817905426025,0.26067641377449036,-1.0810600519180298
5.445014476776123,0.1766631007194519,-1.3289791345596313,1.5580472946166992,1.046008586883545,0.24006783962249756,-1.081305742263794
5.465097427368164,0.12329690158367157,-1.336690902709961,1.5250872373580933,1.049586296081543,0.2062605321407318,-1.078270435333252
5.485142230987549,0.039686888456344604,-1.348364233970642,1.4711930751800537,1.0533967018127441,0.16486862301826477,-1.074904441833496
5.5052289962768555,8.13659280538559e-05,-1.3563787937164307,1.4393980503082275,1.0587127208709717,0.1448187232017517,-1.0728799104690552
5.525325059890747,-0.13309630751609802,-1.380969762802124,1.3388004302978516,1.060978651046753,0.07771988958120346,-1.0688178539276123
5.545378684997559,-0.15042510628700256,-1.3993189334869385,1.2885382175445557,1.0793942213058472,0.04978301748633385,-1.0679075717926025
5.5655388832092285,-0.10833330452442169,-1.4076337814331055,1.2835943698883057,1.10464608669281,0.030344661325216293,-1.0675866603851318
5.585646390914917,-0.09963957220315933,-1.407433271408081,1.2938400506973267,1.1136975288391113,0.017676420509815216,-1.0668009519577026
5.605715751647949,-0.0631091296672821,-1.4027159214019775,1.3285971879959106,1.1248764991760254,0.022376343607902527,-1.0686228275299072
5.625765562057495,-0.05115318298339844,-1.3856837749481201,1.385327935218811,1.1122148036956787,0.055118534713983536,-1.0772132873535156
5.64582371711731,-0.06434008479118347,-1.3632431030273438,1.435470700263977,1.0872877836227417,0.12311919033527374,-1.0939198732376099
5.6659111976623535,-0.06735743582248688,-1.3541598320007324,1.451465368270874,1.0778043270111084,0.15197443962097168,-1.1026641130447388
5.685977935791016,-0.06930355727672577,-1.338913083076477,1.4784672260284424,1.0666563510894775,0.20200131833553314,-1.1170761585235596
5.706048965454102,-0.07135643064975739,-1.3385013341903687,1.466003656387329,1.0656921863555908,0.2181624323129654,-1.1276527643203735
5.726114749908447,-0.08399989455938339,-1.357641339302063,1.3945503234863281,1.0748445987701416,0.17872440814971924,-1.1323193311691284
5.746201515197754,-0.11503884941339493,-1.396747350692749,1.2662808895111084,1.0943217277526855,0.09389124065637589,-1.1334900856018066
5.766252040863037,-0.13102881610393524,-1.4109960794448853,1.2372019290924072,1.1195437908172607,0.0443483404815197,-1.129286289215088
5.786316156387329,-0.15235617756843567,-1.440737009048462,1.1795414686203003,1.1387091875076294,-0.018653318285942078,-1.123068928718567
5.806396961212158,-0.16498388350009918,-1.4642422199249268,1.1478180885314941,1.1525514125823975,-0.08444879949092865,-1.111531376838684
5.826451539993286,-0.16712260246276855,-1.4650936126708984,1.1620535850524902,1.1603405475616455,-0.07752157747745514,-1.1087602376937866
5.8465423583984375,-0.16456866264343262,-1.466231346130371,1.1584079265594482,1.1555335521697998,-0.08200022578239441,-1.1087777614593506
5.866637468338013,-0.15448643267154694,-1.4454315900802612,1.222921371459961,1.1555602550506592,-0.0451042465865612,-1.1091432571411133
5.886720895767212,-0.12397449463605881,-1.3986064195632935,1.3522424697875977,1.1470386981964111,0.04701739177107811,-1.114269495010376
5.906766653060913,-0.05081314593553543,-1.3437516689300537,1.5040587186813354,1.1222186088562012,0.167493999004364,-1.1216073036193848
5.9268434047698975,-0.03187856078147888,-1.3205814361572266,1.5570778846740723,1.1186003684997559,0.21786703169345856,-1.1264638900756836
5.946920156478882,0.007802104577422142,-1.2861008644104004,1.6629871129989624,1.0971050262451172,0.3004862666130066,-1.1335856914520264
5.9670023918151855,0.037008143961429596,-1.280523419380188,1.686476707458496,1.085618495941162,0.326211154460907,-1.1365582942962646
5.987041711807251,0.045264117419719696,-1.294647455215454,1.647165298461914,1.0872405767440796,0.2908894419670105,-1.1371217966079712
6.00718879699707,0.03947895020246506,-1.3062689304351807,1.6112648248672485,1.0929410457611084,0.2581506669521332,-1.1364455223083496
6.027266025543213,0.022144032642245293,-1.3349229097366333,1.5244449377059937,1.1066343784332275,0.18791049718856812,-1.1347652673721313
6.047333002090454,-0.010908784344792366,-1.3619239330291748,1.44146728515625,1.1225956678390503,0.12831640243530273,-1.1334043741226196
6.0674028396606445,-0.07784726470708847,-1.390791893005371,1.3416649103164673,1.1334278583526611,0.06791404634714127,-1.1323976516723633
6.087516784667969,-0.13584691286087036,-1.402807354927063,1.3036032915115356,1.1442992687225342,0.036202795803546906,-1.1321566104888916
6.107609272003174,-0.14730513095855713,-1.4044015407562256,1.305212140083313,1.1467891931533813,0.027270536869764328,-1.131181001663208
6.127814531326294,-0.1333276629447937,-1.4014480113983154,1.3255059719085693,1.1548556089401245,0.03151321038603783,-1.1302402019500732
6.14777946472168,-0.09079189598560333,-1.3865466117858887,1.3819681406021118,1.1582540273666382,0.05992990359663963,-1.1325587034225464
6.167832136154175,-0.05609709769487381,-1.3632689714431763,1.4466859102249146,1.1431729793548584,0.12276032567024231,-1.1416451930999756
6.187912702560425,-0.05885179340839386,-1.3612260818481445,1.4415397644042969,1.1345105171203613,0.1259453147649765,-1.146382451057434
6.207986354827881,-0.05792500078678131,-1.3470120429992676,1.4654898643493652,1.1199512481689453,0.18209904432296753,-1.1602550745010376
6.228056907653809,-0.04852316528558731,-1.3533682823181152,1.4373674392700195,1.1155821084976196,0.18375852704048157,-1.169363021850586
6.248111248016357,-0.056673817336559296,-1.374121904373169,1.3625820875167847,1.1186416149139404,0.14943726360797882,-1.1754381656646729
6.2681968212127686,-0.06890462338924408,-1.3911422491073608,1.3087048530578613,1.1257667541503906,0.11333094537258148,-1.177282452583313
6.288322448730469,-0.11937694251537323,-1.423252820968628,1.222836971282959,1.1473362445831299,0.02359967678785324,-1.1733286380767822
6.308358907699585,-0.15202432870864868,-1.458662748336792,1.1408265829086304,1.160808801651001,-0.05644622817635536,-1.165087103843689
6.328429698944092,-0.18184997141361237,-1.476076602935791,1.10364830493927,1.172075629234314,-0.09871859848499298,-1.1576201915740967
6.34852409362793,-0.19929584860801697,-1.4799866676330566,1.097468376159668,1.1761891841888428,-0.10721638798713684,-1.154753565788269
6.368610382080078,-0.2086620330810547,-1.4759931564331055,1.1122325658798218,1.1795071363449097,-0.09732897579669952,-1.1526192426681519
6.388682842254639,-0.20453745126724243,-1.453961730003357,1.1752166748046875,1.180978775024414,-0.06279028952121735,-1.152268886566162
6.408766746520996,-0.17965224385261536,-1.412353754043579,1.285502314567566,1.1738444566726685,0.026795372366905212,-1.1574734449386597
6.428892135620117,-0.15436908602714539,-1.3879904747009277,1.356238842010498,1.1670117378234863,0.07803332805633545,-1.160469651222229
6.449009418487549,-0.04891684651374817,-1.3448002338409424,1.4941308498382568,1.1537535190582275,0.17207184433937073,-1.1641579866409302
6.4690775871276855,0.03370380401611328,-1.3133938312530518,1.5922801494598389,1.139557957649231,0.26734110713005066,-1.1713917255401611
6.489172458648682,0.08553614467382431,-1.2995994091033936,1.6486234664916992,1.1259782314300537,0.309842586517334,-1.1755543947219849
6.509282350540161,0.09140464663505554,-1.2997596263885498,1.651077389717102,1.1226780414581299,0.30419594049453735,-1.176290512084961
6.529383659362793,0.10432709008455276,-1.3093055486679077,1.6273080110549927,1.1260405778884888,0.2788930833339691,-1.1767796277999878
6.549479722976685,0.09509215503931046,-1.3260328769683838,1.5747259855270386,1.1321487426757812,0.23595291376113892,-1.1767808198928833
6.569505929946899,0.06931164115667343,-1.3452491760253906,1.5120117664337158,1.1401723623275757,0.1857023537158966,-1.1758984327316284
6.589590549468994,0.053579121828079224,-1.3532352447509766,1.4859627485275269,1.1457972526550293,0.16603486239910126,-1.1752880811691284
6.609659910202026,-0.008820326998829842,-1.3700456619262695,1.4199445247650146,1.1525142192840576,0.12239040434360504,-1.1739996671676636
6.629741191864014,-0.12877735495567322,-1.3881858587265015,1.3397605419158936,1.1536914110183716,0.06954813748598099,-1.1719287633895874
6.6498332023620605,-0.1535966545343399,-1.3958303928375244,1.3166216611862183,1.168999433517456,0.050396986305713654,-1.167857050895691
6.669939279556274,-0.11444232612848282,-1.3962918519973755,1.3296871185302734,1.1845378875732422,0.04082508012652397,-1.1625726222991943
6.690004825592041,-0.09423069655895233,-1.3915090560913086,1.353513240814209,1.188672661781311,0.046479176729917526,-1.1614078283309937
6.710124254226685,-0.08202319592237473,-1.3833940029144287,1.3798635005950928,1.179844617843628,0.06701214611530304,-1.1638884544372559
6.730138540267944,-0.07991419732570648,-1.3715304136276245,1.412822961807251,1.165978193283081,0.10216527432203293,-1.1717185974121094
6.75020956993103,-0.062155380845069885,-1.3657374382019043,1.424903392791748,1.1540446281433105,0.13213291764259338,-1.1789610385894775
6.770275354385376,-0.05484233796596527,-1.364423394203186,1.4260014295578003,1.1534359455108643,0.1386173963546753,-1.1825642585754395
6.790338039398193,-0.05099506676197052,-1.3705767393112183,1.401863694190979,1.154421329498291,0.13854151964187622,-1.1882429122924805
6.810430526733398,-0.08306069672107697,-1.389704942703247,1.3414539098739624,1.1584656238555908,0.09546748548746109,-1.1907215118408203
6.830500602722168,-0.11265094578266144,-1.415571689605713,1.2753793001174927,1.1745151281356812,0.021900665014982224,-1.185403823852539
6.850622653961182,-0.12002715468406677,-1.4204028844833374,1.2736161947250366,1.180996060371399,0.010268225334584713,-1.1829594373703003
6.8706958293914795,-0.1350713074207306,-1.4261558055877686,1.2752655744552612,1.1917989253997803,-0.011412248946726322,-1.1774507761001587
6.890855312347412,-0.1542881429195404,-1.4189056158065796,1.3112075328826904,1.197472333908081,-0.016255803406238556,-1.1699196100234985
6.910861492156982,-0.15306951105594635,-1.3986773490905762,1.380981683731079,1.19484281539917,0.01838085800409317,-1.165885090827942
6.931070804595947,-0.1432049572467804,-1.385300636291504,1.4165376424789429,1.1890449523925781,0.028193674981594086,-1.1640232801437378
6.951148986816406,-0.052982963621616364,-1.3447296619415283,1.5301713943481445,1.1741318702697754,0.13006097078323364,-1.167609691619873
6.97123122215271,0.005158307030797005,-1.2973155975341797,1.6567740440368652,1.159366250038147,0.26719072461128235,-1.1808122396469116
6.991297245025635,0.036867305636405945,-1.2788584232330322,1.7167959213256836,1.1412301063537598,0.3133740723133087,-1.1838723421096802
7.011347055435181,0.06683603674173355,-1.2800219058990479,1.7227468490600586,1.13417387008667,0.3243698477745056,-1.1871191263198853
7.031527280807495,0.07231222838163376,-1.2887732982635498,1.6984648704528809,1.136498212814331,0.29896068572998047,-1.187044382095337
7.051592588424683,0.06784316152334213,-1.3113822937011719,1.630610466003418,1.1490874290466309,0.235072523355484,-1.1861766576766968
7.071638345718384,0.05468187481164932,-1.3345179557800293,1.5567669868469238,1.1566197872161865,0.18561971187591553,-1.1872085332870483
7.091728210449219,0.026097474619746208,-1.3556647300720215,1.4881911277770996,1.1675760746002197,0.13548928499221802,-1.1868391036987305
7.111851215362549,0.0029469262808561325,-1.3640294075012207,1.4576208591461182,1.171040654182434,0.11780025064945221,-1.187117099761963
7.131866455078125,-0.0860566794872284,-1.3829841613769531,1.3780288696289062,1.172966718673706,0.07303112000226974,-1.187195062637329
7.1519410610198975,-0.15901514887809753,-1.3951897621154785,1.3264460563659668,1.1788766384124756,0.041364964097738266,-1.1853008270263672
7.172013282775879,-0.1341637372970581,-1.3966227769851685,1.3323180675506592,1.188369631767273,0.033935703337192535,-1.1820526123046875
7.192137718200684,-0.11322777718305588,-1.3989471197128296,1.331722617149353,1.196161150932312,0.029098931699991226,-1.180087924003601
7.212202072143555,-0.07857691496610641,-1.3894927501678467,1.3688139915466309,1.2026751041412354,0.05137728899717331,-1.1800107955932617
7.232308387756348,-0.07214120030403137,-1.3799221515655518,1.395700454711914,1.194227933883667,0.07274404168128967,-1.1822686195373535
7.252392530441284,-0.06342951953411102,-1.3664443492889404,1.433058261871338,1.1815242767333984,0.11601071059703827,-1.1891143321990967
7.272433519363403,-0.061151809990406036,-1.365218162536621,1.4314374923706055,1.1743121147155762,0.12126242369413376,-1.191765546798706
7.292532205581665,-0.062437258660793304,-1.3598674535751343,1.436753749847412,1.1701592206954956,0.14586716890335083,-1.1984111070632935
7.31258749961853,-0.06660863012075424,-1.3673381805419922,1.4074420928955078,1.168238639831543,0.1374531239271164,-1.2025399208068848
7.332647323608398,-0.09025724232196808,-1.388091802597046,1.3377962112426758,1.1725900173187256,0.09611111879348755,-1.2041360139846802
7.352725028991699,-0.11373473703861237,-1.3991339206695557,1.309409737586975,1.1806824207305908,0.0630810409784317,-1.2021703720092773
7.372830152511597,-0.13217449188232422,-1.417778730392456,1.2819383144378662,1.197616696357727,0.0014573810622096062,-1.1927897930145264
7.392926454544067,-0.14623373746871948,-1.4283974170684814,1.2738063335418701,1.2087624073028564,-0.03461252897977829,-1.1841137409210205
7.413050174713135,-0.15641087293624878,-1.4215877056121826,1.3094332218170166,1.210424780845642,-0.034943245351314545,-1.1764389276504517
7.433821439743042,-0.14089567959308624,-1.3988704681396484,1.386505126953125,1.2085561752319336,0.004212747327983379,-1.172985553741455
7.45392370223999,-0.1192125454545021,-1.3788561820983887,1.4491068124771118,1.2054235935211182,0.03551464155316353,-1.1716549396514893
7.473960876464844,-0.060500189661979675,-1.3377199172973633,1.5579503774642944,1.1848201751708984,0.1292731761932373,-1.1752564907073975
7.4940197467803955,-0.010589422658085823,-1.29010009765625,1.6889333724975586,1.1680543422698975,0.2526680827140808,-1.1839561462402344
7.514482736587524,0.03791245073080063,-1.2635424137115479,1.7813608646392822,1.1470410823822021,0.32616594433784485,-1.1872974634170532
7.534600257873535,0.057568639516830444,-1.2614034414291382,1.7959721088409424,1.139288067817688,0.33915066719055176,-1.1878691911697388
7.554667234420776,0.06234085559844971,-1.2737120389938354,1.7621684074401855,1.1367409229278564,0.30088961124420166,-1.1871095895767212
7.574745416641235,0.05208263546228409,-1.2962918281555176,1.6900606155395508,1.146608591079712,0.23826532065868378,-1.1863523721694946
7.595128059387207,0.033862702548503876,-1.3225135803222656,1.6091783046722412,1.1586024761199951,0.1728130578994751,-1.1852712631225586
7.615211725234985,0.020126497372984886,-1.3326218128204346,1.5764946937561035,1.1654422283172607,0.14986221492290497,-1.1848077774047852
7.63532567024231,-0.02490280754864216,-1.353137731552124,1.5062000751495361,1.1752650737762451,0.10662348568439484,-1.1849772930145264
7.6557557582855225,-0.09403789043426514,-1.3694510459899902,1.4373908042907715,1.178053855895996,0.07068757712841034,-1.1851836442947388
7.675899267196655,-0.13862448930740356,-1.379528522491455,1.3898646831512451,1.1762654781341553,0.053149133920669556,-1.186707854270935
7.695948600769043,-0.11766254156827927,-1.3846442699432373,1.3688645362854004,1.1915826797485352,0.06290546804666519,-1.1897995471954346
7.716107130050659,-0.08441776037216187,-1.392545223236084,1.3581702709197998,1.1992435455322266,0.040847208350896835,-1.1888267993927002
7.736188650131226,-0.08277743309736252,-1.398469090461731,1.3435345888137817,1.1991748809814453,0.03554506227374077,-1.1894946098327637
7.7562620639801025,-0.08344206213951111,-1.400397539138794,1.3447091579437256,1.2027711868286133,0.03098147362470627,-1.1898545026779175
7.776306629180908,-0.07149306684732437,-1.3889120817184448,1.387326955795288,1.195276141166687,0.05694492906332016,-1.191899299621582
7.796393394470215,-0.07295458018779755,-1.3827508687973022,1.403145670890808,1.1886836290359497,0.06972013413906097,-1.193648338317871
7.816617250442505,-0.07341118156909943,-1.3645992279052734,1.4472665786743164,1.1789073944091797,0.11791631579399109,-1.198875069618225
7.8366711139678955,-0.07683506608009338,-1.349532127380371,1.473715901374817,1.170578956604004,0.1670030653476715,-1.2052303552627563
7.856764316558838,-0.07906796038150787,-1.347405195236206,1.4748570919036865,1.168031096458435,0.17261269688606262,-1.206829309463501
7.876840591430664,-0.10614942759275436,-1.3549864292144775,1.4402176141738892,1.1667201519012451,0.15986227989196777,-1.2092902660369873
7.896892309188843,-0.13756582140922546,-1.3835678100585938,1.3422160148620605,1.1725112199783325,0.09609212726354599,-1.2090401649475098
7.91697883605957,-0.1326560378074646,-1.3969593048095703,1.3055223226547241,1.1843358278274536,0.07235617935657501,-1.2082023620605469
7.937044382095337,-0.10734258592128754,-1.4177770614624023,1.275140404701233,1.2082722187042236,0.011667455546557903,-1.20010244846344
7.957105875015259,-0.07574338465929031,-1.426526427268982,1.285618782043457,1.2197072505950928,-0.012458846904337406,-1.193382740020752
7.977184295654297,-0.05953092873096466,-1.427114486694336,1.2967889308929443,1.2174063920974731,-0.014240392483770847,-1.1910243034362793
7.99725341796875,-0.03123067505657673,-1.4071029424667358,1.3780908584594727,1.2160214185714722,0.025009825825691223,-1.1891655921936035
8.017305612564087,-0.07060688734054565,-1.3774325847625732,1.4533250331878662,1.1983860731124878,0.058701395988464355,-1.187999963760376
8.037429809570312,-0.09384839236736298,-1.3658268451690674,1.4623801708221436,1.1837457418441772,0.10899174213409424,-1.1929130554199219
8.05752158164978,-0.11440459638834,-1.3354030847549438,1.5155742168426514,1.1732186079025269,0.17642611265182495,-1.2000616788864136
8.077569484710693,-0.12158782035112381,-1.3113508224487305,1.5679267644882202,1.158568024635315,0.2349708527326584,-1.2051334381103516
8.097622156143188,-0.14882144331932068,-1.3181750774383545,1.5321099758148193,1.152918815612793,0.22106218338012695,-1.2076480388641357
8.117713928222656,-0.15533623099327087,-1.334357738494873,1.4780675172805786,1.1585441827774048,0.18074673414230347,-1.2067433595657349
8.13777470588684,-0.17787489295005798,-1.3823237419128418,1.322868824005127,1.1742517948150635,0.07093186676502228,-1.2048466205596924
8.157821416854858,-0.10891058295965195,-1.4220505952835083,1.223812460899353,1.2108147144317627,-0.004623723216354847,-1.2008360624313354
8.178037405014038,-0.09452390670776367,-1.442389726638794,1.1830534934997559,1.2203552722930908,-0.06026122346520424,-1.1962840557098389
8.198054790496826,-0.026235664263367653,-1.4624680280685425,1.1693305969238281,1.230926275253296,-0.090023472905159,-1.1910457611083984
8.218207359313965,0.023218436166644096,-1.462589144706726,1.1978909969329834,1.2352311611175537,-0.07910659164190292,-1.191856026649475
8.238363027572632,0.07427611947059631,-1.451940655708313,1.2423031330108643,1.2389912605285645,-0.04360762983560562,-1.1933388710021973
8.258379936218262,0.1141224056482315,-1.4226720333099365,1.3379877805709839,1.2366259098052979,0.011703620664775372,-1.1959047317504883
8.27842926979065,0.1054045781493187,-1.376391887664795,1.4666308164596558,1.223219633102417,0.09340410679578781,-1.1986141204833984
8.298932552337646,0.057417452335357666,-1.3276951313018799,1.5894615650177002,1.1960787773132324,0.18497170507907867,-1.2002711296081543
8.31902289390564,-0.010903911665081978,-1.306884765625,1.6354894638061523,1.180235743522644,0.21158601343631744,-1.2000666856765747
8.339110136032104,-0.06585951149463654,-1.2798054218292236,1.6971709728240967,1.1560636758804321,0.27081912755966187,-1.1989336013793945
8.35921335220337,-0.11644171178340912,-1.2763702869415283,1.698412299156189,1.1417036056518555,0.26897355914115906,-1.1959964036941528
8.379276275634766,-0.15753726661205292,-1.292616367340088,1.6365077495574951,1.1459181308746338,0.21821892261505127,-1.192355751991272
8.39943265914917,-0.16074617207050323,-1.3080134391784668,1.5863614082336426,1.154651403427124,0.18588998913764954,-1.190787672996521
8.41952133178711,-0.20999076962471008,-1.3476413488388062,1.4538241624832153,1.1716352701187134,0.08842480182647705,-1.1867135763168335
8.439557790756226,-0.21525296568870544,-1.3941030502319336,1.3138527870178223,1.1874370574951172,-7.549021393060684e-05,-1.1842135190963745
8.459633350372314,-0.1595737636089325,-1.4191426038742065,1.2524149417877197,1.2097994089126587,-0.030093565583229065,-1.1855096817016602
8.47978925704956,-0.11127805709838867,-1.425339937210083,1.2500877380371094,1.2213306427001953,-0.03297634795308113,-1.1856811046600342
8.499844789505005,-0.017853381112217903,-1.4283509254455566,1.2737541198730469,1.2306662797927856,-0.02466685324907303,-1.1880781650543213
8.5199294090271,0.06008294224739075,-1.4169138669967651,1.3325679302215576,1.2330816984176636,0.002383357845246792,-1.191133975982666
8.540026426315308,0.09969259053468704,-1.3968632221221924,1.4030354022979736,1.222982406616211,0.04998656362295151,-1.1956030130386353
8.56007981300354,0.11707659065723419,-1.3830903768539429,1.4450421333312988,1.218740463256836,0.08404507488012314,-1.1980775594711304
8.580173254013062,0.08907407522201538,-1.3611637353897095,1.4978771209716797,1.2015533447265625,0.13345596194267273,-1.2024742364883423
8.600297212600708,0.010270653292536736,-1.3439443111419678,1.5269181728363037,1.1837453842163086,0.1717926263809204,-1.2060322761535645
8.620324850082397,-0.10479971766471863,-1.3450911045074463,1.4993267059326172,1.165732741355896,0.15845556557178497,-1.2061457633972168
8.64051103591919,-0.20380116999149323,-1.353727102279663,1.4546422958374023,1.1627051830291748,0.1145879477262497,-1.2035150527954102
8.660575866699219,-0.3185204863548279,-1.381402611732483,1.345815896987915,1.164825677871704,0.04230000451207161,-1.1985008716583252
8.680659055709839,-0.394384503364563,-1.4146384000778198,1.2316081523895264,1.1820478439331055,-0.043379250913858414,-1.1902981996536255
8.700716972351074,-0.4295242428779602,-1.4459419250488281,1.1392477750778198,1.199012279510498,-0.12070572376251221,-1.1806361675262451
8.720801591873169,-0.3663644790649414,-1.4558511972427368,1.1241413354873657,1.2101424932479858,-0.11075349152088165,-1.177216649055481
8.740952491760254,-0.37624481320381165,-1.4702823162078857,1.086946725845337,1.216138243675232,-0.14515656232833862,-1.1713303327560425
8.760998487472534,-0.34001481533050537,-1.466015100479126,1.1052074432373047,1.2174694538116455,-0.13119089603424072,-1.1725108623504639
8.781172752380371,-0.28760042786598206,-1.4479410648345947,1.1599819660186768,1.2177389860153198,-0.08115821331739426,-1.1791551113128662
8.80128788948059,-0.2679736614227295,-1.4330036640167236,1.2035958766937256,1.2134321928024292,-0.04552825912833214,-1.1840612888336182
8.821357727050781,-0.1741008758544922,-1.397311806678772,1.3197590112686157,1.2122517824172974,0.03978529945015907,-1.1928539276123047
8.841426849365234,-0.026085952296853065,-1.3568140268325806,1.4664745330810547,1.2087388038635254,0.13449367880821228,-1.199364185333252
8.861463785171509,0.04476296901702881,-1.3402942419052124,1.5241044759750366,1.1906323432922363,0.1942409873008728,-1.2064849138259888
8.881581544876099,0.04465367645025253,-1.3334358930587769,1.5459213256835938,1.1784615516662598,0.21701189875602722,-1.2109118700027466
8.90166711807251,0.06170840561389923,-1.3351956605911255,1.5457788705825806,1.1758110523223877,0.21635399758815765,-1.2136743068695068
8.921710729598999,0.049916282296180725,-1.3507399559020996,1.4954005479812622,1.1794300079345703,0.17400753498077393,-1.2130882740020752
8.941785097122192,0.002322128042578697,-1.3795077800750732,1.4017927646636963,1.1856871843338013,0.09949634224176407,-1.2109534740447998
8.961943626403809,-0.03712724149227142,-1.3952271938323975,1.3451626300811768,1.1896076202392578,0.06708168983459473,-1.2103042602539062
8.982000827789307,-0.1515251100063324,-1.4220409393310547,1.2593597173690796,1.2000315189361572,-0.004942302592098713,-1.204169750213623
9.002162218093872,-0.2251083254814148,-1.4453442096710205,1.1959773302078247,1.205962896347046,-0.07165880501270294,-1.1928458213806152
9.022164821624756,-0.27194735407829285,-1.4522706270217896,1.1724282503128052,1.2039895057678223,-0.10298192501068115,-1.188425064086914
9.04225778579712,-0.2930271029472351,-1.4503417015075684,1.1798033714294434,1.205092430114746,-0.10250192880630493,-1.1829193830490112
9.062324523925781,-0.2866484522819519,-1.4324326515197754,1.2290390729904175,1.2089438438415527,-0.06360378116369247,-1.181941270828247
9.082355260848999,-0.2644791007041931,-1.4008501768112183,1.316136360168457,1.2053704261779785,0.007144211791455746,-1.1858651638031006
9.102491617202759,-0.1742151379585266,-1.3632786273956299,1.437234878540039,1.200964093208313,0.09264206886291504,-1.1892335414886475
9.122578859329224,-0.11152685433626175,-1.3467130661010742,1.4939475059509277,1.1957933902740479,0.1350935697555542,-1.191580057144165
9.142667055130005,0.035193368792533875,-1.3196072578430176,1.594347596168518,1.1892242431640625,0.22485730051994324,-1.1989669799804688
9.16281795501709,0.12842640280723572,-1.304819107055664,1.6605253219604492,1.1823444366455078,0.2713839113712311,-1.204277753829956
9.182940244674683,0.16249540448188782,-1.3036783933639526,1.6732667684555054,1.1788946390151978,0.2789074182510376,-1.2056831121444702
9.203042984008789,0.1858654022216797,-1.3083760738372803,1.6687120199203491,1.1769176721572876,0.2675398588180542,-1.2066377401351929
9.223066568374634,0.17872214317321777,-1.3166272640228271,1.6483900547027588,1.1712896823883057,0.25190967321395874,-1.2089680433273315
9.243162631988525,0.1754104495048523,-1.3202729225158691,1.6388251781463623,1.1746912002563477,0.24260005354881287,-1.2092951536178589
9.263222455978394,0.160594642162323,-1.325946569442749,1.6180212497711182,1.1795463562011719,0.22621476650238037,-1.2090048789978027
9.283296823501587,0.11867087334394455,-1.3323955535888672,1.5885998010635376,1.1804755926132202,0.20027165114879608,-1.2077527046203613
9.303513050079346,0.06587282568216324,-1.337385654449463,1.559467077255249,1.1822335720062256,0.1827039122581482,-1.206304907798767
9.323577404022217,0.03172396868467331,-1.3405554294586182,1.5431967973709106,1.1805739402770996,0.17237186431884766,-1.205706238746643
9.34385895729065,-0.04496007412672043,-1.353378415107727,1.4866299629211426,1.1805888414382935,0.13225866854190826,-1.2033765316009521
9.36384630203247,-0.12616807222366333,-1.3747893571853638,1.3984278440475464,1.1883630752563477,0.07798725366592407,-1.2007204294204712
9.383901357650757,-0.14841580390930176,-1.3870289325714111,1.3510568141937256,1.1912310123443604,0.06013339385390282,-1.200486660003662
9.403939962387085,-0.09835352003574371,-1.3951897621154785,1.3375253677368164,1.2109265327453613,0.05404074490070343,-1.1995019912719727
9.4239981174469,-0.08546049147844315,-1.401759386062622,1.3336683511734009,1.21390700340271,0.022007886320352554,-1.195590853691101
9.4440598487854,-0.08459760248661041,-1.4015958309173584,1.344944715499878,1.2117576599121094,0.020191863179206848,-1.1938412189483643
9.46415090560913,-0.0740070566534996,-1.392998456954956,1.3705499172210693,1.2098228931427002,0.046363092958927155,-1.1954843997955322
9.484320878982544,-0.06611635535955429,-1.3722707033157349,1.4290966987609863,1.1970008611679077,0.09637212753295898,-1.2004506587982178
9.504319667816162,-0.0680752620100975,-1.3526190519332886,1.4731409549713135,1.1842814683914185,0.1474679857492447,-1.205411672592163
9.525033473968506,-0.06702560186386108,-1.3332215547561646,1.5179638862609863,1.176025629043579,0.2040981650352478,-1.210953950881958
9.545188665390015,-0.06674566864967346,-1.3286023139953613,1.530036211013794,1.1736489534378052,0.2194504290819168,-1.2128932476043701
9.565256357192993,-0.07989872992038727,-1.3357913494110107,1.500017523765564,1.1708451509475708,0.20511606335639954,-1.2145928144454956
9.585285663604736,-0.11228370666503906,-1.3622212409973145,1.4063031673431396,1.1779199838638306,0.14178666472434998,-1.2143542766571045
9.605494737625122,-0.12880069017410278,-1.3809831142425537,1.3418323993682861,1.17946195602417,0.10672793537378311,-1.2148414850234985
9.625589847564697,-0.1211591362953186,-1.4078469276428223,1.2733757495880127,1.2068685293197632,0.042981307953596115,-1.2105821371078491
9.645658016204834,-0.10365381091833115,-1.4329607486724854,1.2354212999343872,1.2158092260360718,-0.021670836955308914,-1.2023897171020508
9.665711402893066,-0.08142917603254318,-1.437246561050415,1.2517467737197876,1.217819094657898,-0.03888218104839325,-1.1959303617477417
9.685856819152832,-0.0710136890411377,-1.4263228178024292,1.3024251461029053,1.224767804145813,-0.017977379262447357,-1.1938871145248413
9.706007242202759,-0.03587093949317932,-1.4000264406204224,1.4018161296844482,1.2233681678771973,0.03730892762541771,-1.1926360130310059
9.726065397262573,-0.057094722986221313,-1.3700577020645142,1.4797053337097168,1.2028446197509766,0.08055713027715683,-1.1923799514770508
9.746577262878418,-0.09963633120059967,-1.33681321144104,1.5438902378082275,1.178181767463684,0.16377867758274078,-1.1984765529632568
9.766703605651855,-0.12648087739944458,-1.3164112567901611,1.589990258216858,1.1671788692474365,0.20716547966003418,-1.201416254043579
9.786783933639526,-0.1404452621936798,-1.2887179851531982,1.6621202230453491,1.1491416692733765,0.2715652883052826,-1.2028932571411133
9.806827783584595,-0.15796025097370148,-1.286273717880249,1.6666948795318604,1.137453556060791,0.27340152859687805,-1.202185869216919
9.826923608779907,-0.17123226821422577,-1.295708417892456,1.6342008113861084,1.1380196809768677,0.24669140577316284,-1.2010254859924316
9.846994876861572,-0.1899297684431076,-1.3248283863067627,1.5382980108261108,1.150658130645752,0.17291909456253052,-1.1988625526428223
9.867071390151978,-0.20430418848991394,-1.3638134002685547,1.4181357622146606,1.1687203645706177,0.08456169068813324,-1.1962281465530396
9.887122392654419,-0.16119888424873352,-1.3989883661270142,1.3123464584350586,1.1902250051498413,0.034944940358400345,-1.197139024734497
9.907273530960083,-0.0996539443731308,-1.4042048454284668,1.3130850791931152,1.2037405967712402,0.03690476343035698,-1.198623538017273
9.927330017089844,-0.028892794623970985,-1.4057512283325195,1.3360344171524048,1.2157409191131592,0.028164293617010117,-1.1979246139526367
9.947386264801025,-0.00642802007496357,-1.400869607925415,1.3689994812011719,1.2153372764587402,0.026457905769348145,-1.1963474750518799
9.967453956604004,-0.06710215657949448,-1.3932244777679443,1.3851511478424072,1.1945991516113281,0.0380312018096447,-1.1990395784378052
9.98753023147583,-0.10168180614709854,-1.3840816020965576,1.400212049484253,1.1885535717010498,0.06664416193962097,-1.2017531394958496
10.007616758346558,-0.0916426032781601,-1.3591159582138062,1.4605531692504883,1.1788196563720703,0.13490667939186096,-1.2075307369232178
10.027718782424927,-0.10311806201934814,-1.346484661102295,1.4781275987625122,1.1707773208618164,0.15866605937480927,-1.2098363637924194
10.04776382446289,-0.1174616888165474,-1.3455402851104736,1.4647221565246582,1.1741764545440674,0.1630111038684845,-1.2100993394851685
10.06785249710083,-0.13498690724372864,-1.352852702140808,1.4333006143569946,1.1789093017578125,0.14579662680625916,-1.209860920906067
10.087909460067749,-0.15581804513931274,-1.3831989765167236,1.328536033630371,1.189323902130127,0.07579776644706726,-1.2078521251678467
10.10798716545105,-0.09335687011480331,-1.4119257926940918,1.2702693939208984,1.2209570407867432,0.014960716478526592,-1.2012648582458496
10.128496885299683,-0.03616732358932495,-1.439344882965088,1.2348039150238037,1.2390681505203247,-0.0447983518242836,-1.1925511360168457
10.14859414100647,-0.03351651877164841,-1.4411826133728027,1.2402265071868896,1.242858648300171,-0.05345442518591881,-1.1909027099609375
10.168667793273926,0.011187879368662834,-1.4433410167694092,1.2645580768585205,1.2435593605041504,-0.044389236718416214,-1.1902353763580322
10.188745737075806,0.06146242469549179,-1.4274426698684692,1.3367562294006348,1.2432124614715576,-0.002951723523437977,-1.1918928623199463
10.208783149719238,0.06570545583963394,-1.3956111669540405,1.4375686645507812,1.2274384498596191,0.058815959841012955,-1.1950128078460693
10.228865623474121,0.06585794687271118,-1.3744940757751465,1.4966509342193604,1.2222628593444824,0.10805714130401611,-1.1966623067855835
10.248931646347046,-0.008582638576626778,-1.337010145187378,1.5770375728607178,1.1937086582183838,0.17525288462638855,-1.1989270448684692
10.269085884094238,-0.07358977198600769,-1.306764006614685,1.6442232131958008,1.1696659326553345,0.24186688661575317,-1.201329231262207
10.289122104644775,-0.1484326422214508,-1.2967569828033447,1.65587317943573,1.1505677700042725,0.25977951288223267,-1.1999486684799194
10.309184074401855,-0.22161266207695007,-1.2999074459075928,1.6308729648590088,1.1460390090942383,0.22455856204032898,-1.1974563598632812
10.329262971878052,-0.2805165946483612,-1.3220202922821045,1.5474348068237305,1.1523739099502563,0.16031378507614136,-1.1935081481933594
10.349385738372803,-0.34173715114593506,-1.3604462146759033,1.4180107116699219,1.1692547798156738,0.05365810543298721,-1.186509370803833
10.369476079940796,-0.3720259964466095,-1.4011807441711426,1.288240671157837,1.190173625946045,-0.0271257683634758,-1.1811769008636475
10.389540672302246,-0.3222186267375946,-1.4235343933105469,1.234318494796753,1.2137118577957153,-0.0582788810133934,-1.1789196729660034
10.409624099731445,-0.25542137026786804,-1.4296015501022339,1.2315690517425537,1.2224433422088623,-0.05701788514852524,-1.178094744682312
10.42969274520874,-0.15157391130924225,-1.428989052772522,1.2590456008911133,1.2335872650146484,-0.042758096009492874,-1.1784982681274414
10.449766397476196,0.0008467342704534531,-1.405228614807129,1.3553491830825806,1.2395689487457275,0.02843877300620079,-1.184830665588379
10.469818830490112,0.10435652732849121,-1.3696057796478271,1.4733023643493652,1.2306506633758545,0.1166146844625473,-1.1937532424926758
10.489904165267944,0.0326886922121048,-1.3577269315719604,1.495788812637329,1.2079906463623047,0.11483991891145706,-1.1978250741958618
10.51003122329712,0.024274690076708794,-1.3326342105865479,1.5639374256134033,1.1862828731536865,0.1880180537700653,-1.2067384719848633
10.530161619186401,-7.163174450397491e-05,-1.317959189414978,1.606823444366455,1.1644971370697021,0.2306138277053833,-1.2120532989501953
10.550174713134766,-0.05000414699316025,-1.3192946910858154,1.5960205793380737,1.1522223949432373,0.22527384757995605,-1.2130252122879028
10.570242166519165,-0.02353219874203205,-1.3253929615020752,1.5807161331176758,1.1544437408447266,0.23494207859039307,-1.2135848999023438
10.590323209762573,-0.10788338631391525,-1.3501505851745605,1.4875541925430298,1.1611878871917725,0.15937025845050812,-1.2102348804473877
10.610378742218018,-0.21141868829727173,-1.387773036956787,1.350266933441162,1.172376036643982,0.06706829369068146,-1.2060052156448364
10.630509853363037,-0.22315797209739685,-1.4192975759506226,1.2510926723480225,1.1987195014953613,0.004395852796733379,-1.1992930173873901
10.650554180145264,-0.30152764916419983,-1.431922435760498,1.2039361000061035,1.2060368061065674,-0.061008308082818985,-1.1943395137786865
10.670639753341675,-0.27080807089805603,-1.4467047452926636,1.1713063716888428,1.2288649082183838,-0.09845001995563507,-1.1861931085586548
10.690707445144653,-0.20233005285263062,-1.4516077041625977,1.175875186920166,1.243443489074707,-0.10426267236471176,-1.1808520555496216
