liuyurong129/humanoid-gym/humanoid/data/target_q_20250522-231942.csv
timestamp,joint_1,joint_2,joint_3,joint_4,joint_5,joint_6
3.600120544433594e-05,0.0,0.0,0.0,0.0,0.0,0.0
0.02014756202697754,0.0,0.0,0.0,0.0,0.0,0.0
0.0402681827545166,0.0,0.0,0.0,0.0,0.0,0.0
0.060278892517089844,0.1616288423538208,-0.5865909457206726,0.41959208250045776,0.5485936403274536,0.05350638926029205,0.2139614224433899
0.08035445213317871,0.1616288423538208,-0.5865909457206726,0.41959208250045776,0.5485936403274536,0.05350638926029205,0.2139614224433899
0.10043215751647949,0.16240288317203522,-0.5896888375282288,0.4201169013977051,0.5493595004081726,0.05350363627076149,0.21393552422523499
0.12049460411071777,0.16240288317203522,-0.5896888375282288,0.4201169013977051,0.5493595004081726,0.05350363627076149,0.21393552422523499
0.14066767692565918,0.163129061460495,-0.592543363571167,0.4208175241947174,0.5501393675804138,0.05356234312057495,0.2139020413160324
0.1606752872467041,0.163129061460495,-0.592543363571167,0.4208175241947174,0.5501393675804138,0.05356234312057495,0.2139020413160324
0.18074703216552734,0.1637977659702301,-0.5951876640319824,0.42170244455337524,0.5509277582168579,0.05367950350046158,0.2138614058494568
0.20079731941223145,0.16439920663833618,-0.5976174473762512,0.4227837920188904,0.551723837852478,0.05385810136795044,0.2138129621744156
0.2208855152130127,0.16439920663833618,-0.5976174473762512,0.4227837920188904,0.551723837852478,0.05385810136795044,0.2138129621744156
0.24103498458862305,0.1648898422718048,-0.5996813774108887,0.42419493198394775,0.5525302290916443,0.05414252728223801,0.21374697983264923
0.2610585689544678,0.1648898422718048,-0.5996813774108887,0.42419493198394775,0.5525302290916443,0.05414252728223801,0.21374697983264923
0.28122663497924805,0.1652432084083557,-0.6013635993003845,0.42596739530563354,0.5533451437950134,0.05453544482588768,0.21365606784820557
0.3012669086456299,0.1652432084083557,-0.6013635993003845,0.42596739530563354,0.5533451437950134,0.05453544482588768,0.21365606784820557
0.3213338851928711,0.16543741524219513,-0.602648138999939,0.4281061291694641,0.5541648268699646,0.055045176297426224,0.213531032204628
0.34139108657836914,0.16545811295509338,-0.6034866571426392,0.4306217432022095,0.5549869537353516,0.05567312240600586,0.21336503326892853
0.3615562915802002,0.16545811295509338,-0.6034866571426392,0.4306217432022095,0.5549869537353516,0.05567312240600586,0.21336503326892853
0.38161563873291016,0.16529537737369537,-0.6038682460784912,0.4334980845451355,0.5558051466941833,0.05642225965857506,0.21315255761146545
0.4017171859741211,0.16529537737369537,-0.6038682460784912,0.4334980845451355,0.5558051466941833,0.05642225965857506,0.21315255761146545
0.42177700996398926,0.16494987905025482,-0.6037625670433044,0.43672844767570496,0.5566158890724182,0.057291895151138306,0.21289166808128357
0.4419121742248535,0.16494987905025482,-0.6037625670433044,0.43672844767570496,0.5566158890724182,0.057291895151138306,0.21289166808128357
0.4620373249053955,0.16442322731018066,-0.6031733155250549,0.4402967393398285,0.5574129223823547,0.05827470123767853,0.21258112788200378
0.4820594787597656,0.1637304127216339,-0.6020970344543457,0.44418808817863464,0.5581936836242676,0.059366967529058456,0.21221919357776642
0.5021412372589111,0.1637304127216339,-0.6020970344543457,0.44418808817863464,0.5581936836242676,0.059366967529058456,0.21221919357776642
0.5222117900848389,0.1628832221031189,-0.6005765199661255,0.44835731387138367,0.558957576751709,0.06056428328156471,0.2117997109889984
0.542304277420044,0.1628832221031189,-0.6005765199661255,0.44835731387138367,0.558957576751709,0.06056428328156471,0.2117997109889984
0.5624716281890869,0.161902517080307,-0.5986625552177429,0.4527689516544342,0.5597065687179565,0.06184905767440796,0.2113196849822998
0.5824933052062988,0.161902517080307,-0.5986625552177429,0.4527689516544342,0.5597065687179565,0.06184905767440796,0.2113196849822998
0.6025989055633545,0.16080258786678314,-0.5964424014091492,0.4573870599269867,0.5604413151741028,0.06320254504680634,0.21077822148799896
0.622622013092041,0.15960583090782166,-0.5940237641334534,0.46216556429862976,0.5611653923988342,0.06459955871105194,0.2101757526397705
0.6427147388458252,0.15960583090782166,-0.5940237641334534,0.46216556429862976,0.5611653923988342,0.06459955871105194,0.2101757526397705
0.6628580093383789,0.15832918882369995,-0.5915430188179016,0.46705836057662964,0.5618810057640076,0.06600935757160187,0.20951612293720245
0.6828920841217041,0.15832918882369995,-0.5915430188179016,0.46705836057662964,0.5618810057640076,0.06600935757160187,0.20951612293720245
0.7029685974121094,0.15699294209480286,-0.5891231894493103,0.4720287621021271,0.5625907778739929,0.06739790737628937,0.2088066041469574
0.7230572700500488,0.15699294209480286,-0.5891231894493103,0.4720287621021271,0.5625907778739929,0.06739790737628937,0.2088066041469574
0.7431247234344482,0.15561193227767944,-0.5868861675262451,0.4770392179489136,0.5632979273796082,0.06873783469200134,0.20805516839027405
0.7631707191467285,0.15419842302799225,-0.584926187992096,0.48205894231796265,0.5640056729316711,0.06999939680099487,0.20727069675922394
0.7833740711212158,0.15419842302799225,-0.584926187992096,0.48205894231796265,0.5640056729316711,0.06999939680099487,0.20727069675922394
0.8034255504608154,0.15275664627552032,-0.5832955241203308,0.4870671331882477,0.5647172927856445,0.07116818428039551,0.2064633071422577
0.8235194683074951,0.15275664627552032,-0.5832955241203308,0.4870671331882477,0.5647172927856445,0.07116818428039551,0.2064633071422577
0.8435826301574707,0.15128670632839203,-0.5820178985595703,0.49203842878341675,0.5654370188713074,0.0722322165966034,0.20564113557338715
0.8637142181396484,0.15128670632839203,-0.5820178985595703,0.49203842878341675,0.5654370188713074,0.0722322165966034,0.20564113557338715
0.8837971687316895,0.1497812569141388,-0.5810986757278442,0.4969538152217865,0.5661687254905701,0.07319176197052002,0.2048124074935913
0.9038643836975098,0.148235484957695,-0.5805513262748718,0.5017894506454468,0.5669152736663818,0.07403405010700226,0.20398257672786713
0.92397141456604,0.148235484957695,-0.5805513262748718,0.5017894506454468,0.5669152736663818,0.07403405010700226,0.20398257672786713
0.9440467357635498,0.14664489030838013,-0.5803815722465515,0.5065188407897949,0.5676815509796143,0.0747600719332695,0.20315364003181458
0.9641196727752686,0.14664489030838013,-0.5803815722465515,0.5065188407897949,0.5676815509796143,0.0747600719332695,0.20315364003181458
0.9841935634613037,0.14500506222248077,-0.5806016325950623,0.5111199021339417,0.5684711337089539,0.07536342740058899,0.20232772827148438
1.0042524337768555,0.14331737160682678,-0.5812227725982666,0.5155751705169678,0.5692861080169678,0.07583960145711899,0.20150823891162872
1.0243496894836426,0.14331737160682678,-0.5812227725982666,0.5155751705169678,0.5692861080169678,0.07583960145711899,0.20150823891162872
1.0444118976593018,0.14158055186271667,-0.5822681784629822,0.5198609232902527,0.5701284408569336,0.07616989314556122,0.20069807767868042
1.0644793510437012,0.14158055186271667,-0.5822681784629822,0.5198609232902527,0.5701284408569336,0.07616989314556122,0.20069807767868042
1.0845465660095215,0.13979169726371765,-0.583747923374176,0.5239614248275757,0.5710011720657349,0.07634488493204117,0.19989967346191406
1.1046173572540283,0.13979169726371765,-0.583747923374176,0.5239614248275757,0.5710011720657349,0.07634488493204117,0.19989967346191406
1.1246886253356934,0.13794410228729248,-0.5856720209121704,0.5278648734092712,0.571905791759491,0.07635262608528137,0.19911687076091766
1.1447882652282715,0.13603195548057556,-0.5880482792854309,0.5315533876419067,0.572844386100769,0.07618459314107895,0.1983516365289688
1.164942741394043,0.13603195548057556,-0.5880482792854309,0.5315533876419067,0.572844386100769,0.07618459314107895,0.1983516365289688
1.1850035190582275,0.13405001163482666,-0.5908589363098145,0.5350176095962524,0.5738208293914795,0.07585009932518005,0.19760553538799286
1.2050750255584717,0.13405001163482666,-0.5908589363098145,0.5350176095962524,0.5738208293914795,0.07585009932518005,0.19760553538799286
1.225142002105713,0.13199937343597412,-0.5940463542938232,0.5382741093635559,0.574838399887085,0.07538042962551117,0.1968790739774704
1.2452125549316406,0.13199937343597412,-0.5940463542938232,0.5382741093635559,0.574838399887085,0.07538042962551117,0.1968790739774704
1.2653090953826904,0.12989194691181183,-0.5975349545478821,0.5413585305213928,0.5758975148200989,0.07482583075761795,0.19617336988449097
1.2854766845703125,0.12775804102420807,-0.6012312173843384,0.5443320274353027,0.5769967436790466,0.07425614446401596,0.19548772275447845
1.305586338043213,0.12775804102420807,-0.6012312173843384,0.5443320274353027,0.5769967436790466,0.07425614446401596,0.19548772275447845
1.3256721496582031,0.1256309449672699,-0.6050394177436829,0.5472622513771057,0.578127920627594,0.07373049855232239,0.19482144713401794
1.3457396030426025,0.1256309449672699,-0.6050394177436829,0.5472622513771057,0.578127920627594,0.07373049855232239,0.19482144713401794
1.3658092021942139,0.12354493141174316,-0.6088930368423462,0.5501883625984192,0.5792787671089172,0.07327844202518463,0.19417357444763184
1.385883092880249,0.12354493141174316,-0.6088930368423462,0.5501883625984192,0.5792787671089172,0.07327844202518463,0.19417357444763184
1.4059865474700928,0.12152864038944244,-0.6127501726150513,0.5531210899353027,0.5804381370544434,0.07290127128362656,0.19354113936424255
1.4260108470916748,0.11959569901227951,-0.6165897250175476,0.5560557246208191,0.5815988779067993,0.07258964329957962,0.19292062520980835
1.4460999965667725,0.11959569901227951,-0.6165897250175476,0.5560557246208191,0.5815988779067993,0.07258964329957962,0.19292062520980835
1.466160774230957,0.1177392229437828,-0.620410680770874,0.5589774250984192,0.5827570557594299,0.07231928408145905,0.19230838119983673
1.486234188079834,0.1177392229437828,-0.620410680770874,0.5589774250984192,0.5827570557594299,0.07231928408145905,0.19230838119983673
1.5063042640686035,0.11594942957162857,-0.6242113709449768,0.5618717074394226,0.5839123129844666,0.07207757979631424,0.19170105457305908
1.5264215469360352,0.11594942957162857,-0.6242113709449768,0.5618717074394226,0.5839123129844666,0.07207757979631424,0.19170105457305908
1.5464611053466797,0.11421674489974976,-0.6279852390289307,0.5647335052490234,0.5850657224655151,0.071858711540699,0.1910952925682068
1.5665054321289062,0.11253716051578522,-0.6317263245582581,0.5675653219223022,0.5862169861793518,0.07166722416877747,0.19048993289470673
1.586609125137329,0.11253716051578522,-0.6317263245582581,0.5675653219223022,0.5862169861793518,0.07166722416877747,0.19048993289470673
1.6066694259643555,0.11090458929538727,-0.63543301820755,0.5703722238540649,0.587364912033081,0.07149909436702728,0.18988490104675293
1.6267426013946533,0.11090458929538727,-0.63543301820755,0.5703722238540649,0.587364912033081,0.07149909436702728,0.18988490104675293
1.6468141078948975,0.10931906849145889,-0.6391024589538574,0.5731548070907593,0.5885079503059387,0.07135140895843506,0.18927866220474243
1.6668832302093506,0.10931906849145889,-0.6391024589538574,0.5731548070907593,0.5885079503059387,0.07135140895843506,0.18927866220474243
1.686952829360962,0.10777903348207474,-0.6427417397499084,0.5759128928184509,0.5896438956260681,0.07121097296476364,0.18867181241512299
1.7070178985595703,0.1062813475728035,-0.6463578939437866,0.5786457061767578,0.5907728672027588,0.07107429206371307,0.1880641132593155
1.727156162261963,0.1062813475728035,-0.6463578939437866,0.5786457061767578,0.5907728672027588,0.07107429206371307,0.1880641132593155
1.7472765445709229,0.10482202470302582,-0.6499596238136292,0.5813488364219666,0.5918945670127869,0.07094299793243408,0.1874554455280304
1.767305612564087,0.10482202470302582,-0.6499596238136292,0.5813488364219666,0.5918945670127869,0.07094299793243408,0.1874554455280304
1.787374496459961,0.10340121388435364,-0.6535282731056213,0.5840324759483337,0.5930095314979553,0.07083065062761307,0.18684475123882294
1.80778169631958,0.10340121388435364,-0.6535282731056213,0.5840324759483337,0.5930095314979553,0.07083065062761307,0.18684475123882294
1.8278701305389404,0.10201824456453323,-0.6570612788200378,0.5867006778717041,0.5941176414489746,0.07073727250099182,0.18623274564743042
1.8479206562042236,0.10067641735076904,-0.6605605483055115,0.5893514752388,0.5952194929122925,0.07066501677036285,0.1856183409690857
1.868001937866211,0.10067641735076904,-0.6605605483055115,0.5893514752388,0.5952194929122925,0.07066501677036285,0.1856183409690857
1.8880703449249268,0.0993778333067894,-0.6640175580978394,0.5919902324676514,0.5963146686553955,0.07061541080474854,0.1850019097328186
1.9081518650054932,0.0993778333067894,-0.6640175580978394,0.5919902324676514,0.5963146686553955,0.07061541080474854,0.1850019097328186
1.9283077716827393,0.09811560809612274,-0.6674290895462036,0.5946244597434998,0.5974025130271912,0.07058262825012207,0.18438312411308289
1.9483282566070557,0.0968884602189064,-0.6708119511604309,0.5972471237182617,0.5984817147254944,0.07055064290761948,0.18376322090625763
1.9684150218963623,0.0968884602189064,-0.6708119511604309,0.5972471237182617,0.5984817147254944,0.07055064290761948,0.18376322090625763
1.9885139465332031,0.09569134563207626,-0.6741702556610107,0.5998563766479492,0.5995526313781738,0.07051698863506317,0.18314191699028015
2.0085599422454834,0.09569134563207626,-0.6741702556610107,0.5998563766479492,0.5995526313781738,0.07051698863506317,0.18314191699028015
2.0286996364593506,0.09451715648174286,-0.6775064468383789,0.6024519205093384,0.6006155610084534,0.07048260420560837,0.18251943588256836
2.048771381378174,0.09451715648174286,-0.6775064468383789,0.6024519205093384,0.6006155610084534,0.07048260420560837,0.18251943588256836
2.0688180923461914,0.09336203336715698,-0.680817186832428,0.6050363779067993,0.6016708016395569,0.07045148313045502,0.1818956434726715
2.0888619422912598,0.09222901612520218,-0.6840943694114685,0.6076117753982544,0.6027191877365112,0.07042640447616577,0.1812710464000702
2.1089372634887695,0.09222901612520218,-0.6840943694114685,0.6076117753982544,0.6027191877365112,0.07042640447616577,0.1812710464000702
2.1290035247802734,0.0911160409450531,-0.6873276829719543,0.610184371471405,0.6037614345550537,0.07041402906179428,0.18064439296722412
2.149082899093628,0.0911160409450531,-0.6873276829719543,0.610184371471405,0.6037614345550537,0.07041402906179428,0.18064439296722412
2.169154644012451,0.090024933218956,-0.6905273795127869,0.6127488017082214,0.604796826839447,0.07041124999523163,0.18001510202884674
2.1892037391662598,0.08895561099052429,-0.6936888098716736,0.61530601978302,0.6058258414268494,0.07041633874177933,0.17938289046287537
2.20930814743042,0.08895561099052429,-0.6936888098716736,0.61530601978302,0.6058258414268494,0.07041633874177933,0.17938289046287537
2.2293596267700195,0.08790713548660278,-0.696823239326477,0.6178498268127441,0.6068482995033264,0.07042448222637177,0.17874769866466522
2.249460220336914,0.08790713548660278,-0.696823239326477,0.6178498268127441,0.6068482995033264,0.07042448222637177,0.17874769866466522
2.269551992416382,0.086878202855587,-0.6999351382255554,0.6203777194023132,0.6078643202781677,0.07043884694576263,0.17810939252376556
2.289591073989868,0.086878202855587,-0.6999351382255554,0.6203777194023132,0.6078643202781677,0.07043884694576263,0.17810939252376556
2.309661626815796,0.08587220311164856,-0.7030408382415771,0.6228775978088379,0.6088744401931763,0.07045410573482513,0.1774676889181137
2.329702615737915,0.08489038050174713,-0.7061287760734558,0.6253564953804016,0.6098796725273132,0.07047531008720398,0.17682377994060516
2.349834680557251,0.08489038050174713,-0.7061287760734558,0.6253564953804016,0.6098796725273132,0.07047531008720398,0.17682377994060516
2.3698747158050537,0.08393462747335434,-0.709202766418457,0.6278148293495178,0.6108800172805786,0.07050129771232605,0.17617802321910858
2.3899426460266113,0.08393462747335434,-0.709202766418457,0.6278148293495178,0.6108800172805786,0.07050129771232605,0.17617802321910858
2.4100139141082764,0.08300303667783737,-0.7122517824172974,0.6302605867385864,0.6118761897087097,0.07053401321172714,0.1755303293466568
2.4300806522369385,0.08300303667783737,-0.7122517824172974,0.6302605867385864,0.6118761897087097,0.07053401321172714,0.1755303293466568
2.4501659870147705,0.08209258317947388,-0.71527099609375,0.6327006816864014,0.612867534160614,0.07057245075702667,0.17488107085227966
2.4702212810516357,0.08120029419660568,-0.7182530164718628,0.6351418495178223,0.6138527393341064,0.07062070816755295,0.17423027753829956
2.4903488159179688,0.08120029419660568,-0.7182530164718628,0.6351418495178223,0.6138527393341064,0.07062070816755295,0.17423027753829956
2.510408401489258,0.08032698929309845,-0.7212133407592773,0.6375731229782104,0.6148310899734497,0.07067158818244934,0.173577219247818
2.5304596424102783,0.08032698929309845,-0.7212133407592773,0.6375731229782104,0.6148310899734497,0.07067158818244934,0.173577219247818
2.5505785942077637,0.07947322726249695,-0.7241556644439697,0.6399924755096436,0.6158022880554199,0.0707266703248024,0.17292244732379913
2.570615768432617,0.07947322726249695,-0.7241556644439697,0.6399924755096436,0.6158022880554199,0.0707266703248024,0.17292244732379913
2.5907678604125977,0.07864192128181458,-0.7270902395248413,0.6423898935317993,0.6167665123939514,0.07078558206558228,0.17226603627204895
2.6108269691467285,0.07783322036266327,-0.7300136089324951,0.6447656750679016,0.617724597454071,0.07084819674491882,0.1716083139181137
2.6309351921081543,0.07783322036266327,-0.7300136089324951,0.6447656750679016,0.617724597454071,0.07084819674491882,0.1716083139181137
2.650998592376709,0.07704667001962662,-0.7329226732254028,0.6471207141876221,0.6186773180961609,0.07091359049081802,0.1709502786397934
2.6710593700408936,0.07704667001962662,-0.7329226732254028,0.6471207141876221,0.6186773180961609,0.07091359049081802,0.1709502786397934
2.6911370754241943,0.07627857476472855,-0.7358103394508362,0.6494607925415039,0.6196251511573792,0.0709814503788948,0.1702922284603119
2.7112514972686768,0.0755242332816124,-0.7386643290519714,0.6517958641052246,0.6205679774284363,0.07105876505374908,0.16963402926921844
2.7314298152923584,0.0755242332816124,-0.7386643290519714,0.6517958641052246,0.6205679774284363,0.07105876505374908,0.16963402926921844
2.751452684402466,0.0747830793261528,-0.7414795756340027,0.6541287302970886,0.6215051412582397,0.07114420086145401,0.16897572576999664
2.7714827060699463,0.0747830793261528,-0.7414795756340027,0.6541287302970886,0.6215051412582397,0.07114420086145401,0.16897572576999664
2.7915713787078857,0.07405660301446915,-0.7442616820335388,0.656456470489502,0.6224361062049866,0.07123644649982452,0.16831688582897186
2.811631679534912,0.07405660301446915,-0.7442616820335388,0.656456470489502,0.6224361062049866,0.07123644649982452,0.16831688582897186
2.831697702407837,0.07334697991609573,-0.7470165491104126,0.6587753891944885,0.6233606338500977,0.07133589684963226,0.16765734553337097
2.851893186569214,0.07265765964984894,-0.7497408986091614,0.6610886454582214,0.62427818775177,0.07145000994205475,0.1669977307319641
2.8719773292541504,0.07265765964984894,-0.7497408986091614,0.6610886454582214,0.62427818775177,0.07145000994205475,0.1669977307319641
2.8920388221740723,0.07199355959892273,-0.7524421811103821,0.6633903384208679,0.625188410282135,0.0715726986527443,0.16633857786655426
2.9121253490448,0.07199355959892273,-0.7524421811103821,0.6633903384208679,0.625188410282135,0.0715726986527443,0.16633857786655426
2.932183265686035,0.07135524600744247,-0.7551222443580627,0.665680468082428,0.6260908842086792,0.0717032253742218,0.16568003594875336
2.952263832092285,0.07135524600744247,-0.7551222443580627,0.665680468082428,0.6260908842086792,0.0717032253742218,0.16568003594875336
2.972322463989258,0.07074359804391861,-0.7577905654907227,0.6679524779319763,0.6269854307174683,0.07183476537466049,0.1650223433971405
2.9923696517944336,0.07015562057495117,-0.7604493498802185,0.6702052354812622,0.6278729438781738,0.0719602108001709,0.1643660068511963
3.0124552249908447,0.07015562057495117,-0.7604493498802185,0.6702052354812622,0.6278729438781738,0.0719602108001709,0.1643660068511963
3.03252911567688,0.06958259642124176,-0.7631006240844727,0.6724363565444946,0.6287550330162048,0.07207206636667252,0.1637103408575058
3.0525968074798584,0.06958259642124176,-0.7631006240844727,0.6724363565444946,0.6287550330162048,0.07207206636667252,0.1637103408575058
3.0727057456970215,0.06901448965072632,-0.765744149684906,0.6746485233306885,0.6296321749687195,0.07217533141374588,0.16305482387542725
3.092761993408203,0.06901448965072632,-0.765744149684906,0.6746485233306885,0.6296321749687195,0.07217533141374588,0.16305482387542725
3.1128334999084473,0.06844838708639145,-0.7683719396591187,0.6768474578857422,0.6305046081542969,0.07227575778961182,0.16240032017230988
3.1328847408294678,0.06788484007120132,-0.7709730863571167,0.6790381669998169,0.6313727498054504,0.07238046824932098,0.161747008562088
3.1529629230499268,0.06788484007120132,-0.7709730863571167,0.6790381669998169,0.6313727498054504,0.07238046824932098,0.161747008562088
3.1730315685272217,0.06732533872127533,-0.7735370993614197,0.6812259554862976,0.6322361826896667,0.07250124961137772,0.16109409928321838
3.1931161880493164,0.06732533872127533,-0.7735370993614197,0.6812259554862976,0.6322361826896667,0.07250124961137772,0.16109409928321838
3.2132937908172607,0.06677531450986862,-0.7760665416717529,0.68341064453125,0.6330937147140503,0.07263622432947159,0.16044124960899353
3.2332851886749268,0.06677531450986862,-0.7760665416717529,0.68341064453125,0.6330937147140503,0.07263622432947159,0.16044124960899353
3.253347635269165,0.0662415474653244,-0.7785690426826477,0.6855850219726562,0.6339455842971802,0.07277470082044601,0.1597880721092224
3.273397922515869,0.06572225689888,-0.78105628490448,0.6877439618110657,0.634792149066925,0.07291111350059509,0.15913358330726624
3.293548345565796,0.06572225689888,-0.78105628490448,0.6877439618110657,0.634792149066925,0.07291111350059509,0.15913358330726624
3.313581705093384,0.06521298736333847,-0.783530592918396,0.6898888945579529,0.6356337666511536,0.0730448067188263,0.15847767889499664
3.333646774291992,0.06521298736333847,-0.783530592918396,0.6898888945579529,0.6356337666511536,0.0730448067188263,0.15847767889499664
3.353733539581299,0.0647125244140625,-0.7859963178634644,0.6920187473297119,0.636470377445221,0.0731726735830307,0.15782108902931213
3.3739287853240967,0.0647125244140625,-0.7859963178634644,0.6920187473297119,0.636470377445221,0.0731726735830307,0.15782108902931213
3.3940398693084717,0.06422173976898193,-0.7884519100189209,0.6941335797309875,0.6373019814491272,0.07330189645290375,0.15716439485549927
3.414090633392334,0.06374110281467438,-0.7908887267112732,0.6962358951568604,0.638128936290741,0.07343810796737671,0.15650780498981476
3.4341635704040527,0.06374110281467438,-0.7908887267112732,0.6962358951568604,0.638128936290741,0.07343810796737671,0.15650780498981476
3.454331159591675,0.06327060610055923,-0.7933052778244019,0.6983269453048706,0.6389508247375488,0.07357954233884811,0.15585170686244965
3.4743285179138184,0.06327060610055923,-0.7933052778244019,0.6983269453048706,0.6389508247375488,0.07357954233884811,0.15585170686244965
3.4943926334381104,0.0628121867775917,-0.7957065105438232,0.7004037499427795,0.6397672295570374,0.07372228056192398,0.15519659221172333
3.5144407749176025,0.06236425042152405,-0.7980976104736328,0.7024626135826111,0.6405784487724304,0.07386057078838348,0.15454216301441193
3.5345277786254883,0.06236425042152405,-0.7980976104736328,0.7024626135826111,0.6405784487724304,0.07386057078838348,0.15454216301441193
3.554593563079834,0.06192284822463989,-0.8004751205444336,0.7045075297355652,0.6413845419883728,0.07399436086416245,0.15388870239257812
3.5746676921844482,0.06192284822463989,-0.8004751205444336,0.7045075297355652,0.6413845419883728,0.07399436086416245,0.15388870239257812
3.594759225845337,0.06148700788617134,-0.802834689617157,0.7065427899360657,0.6421859860420227,0.07412471622228622,0.15323574841022491
3.614833116531372,0.06148700788617134,-0.802834689617157,0.7065427899360657,0.6421859860420227,0.07412471622228622,0.15323574841022491
3.634880304336548,0.06105565279722214,-0.8051770329475403,0.7085698246955872,0.6429827213287354,0.07425358891487122,0.15258339047431946
3.654921531677246,0.06062891334295273,-0.8074939846992493,0.7105913758277893,0.6437756419181824,0.07438613474369049,0.15193107724189758
3.6750190258026123,0.06062891334295273,-0.8074939846992493,0.7105913758277893,0.6437756419181824,0.07438613474369049,0.15193107724189758
3.6951053142547607,0.060204990208148956,-0.8097800612449646,0.7126119136810303,0.6445643305778503,0.07452638447284698,0.15127839148044586
3.7151718139648438,0.060204990208148956,-0.8097800612449646,0.7126119136810303,0.6445643305778503,0.07452638447284698,0.15127839148044586
3.7352473735809326,0.05978576838970184,-0.8120439648628235,0.7146210670471191,0.6453491449356079,0.07466777414083481,0.15062455832958221
3.7553815841674805,0.05978576838970184,-0.8120439648628235,0.7146210670471191,0.6453491449356079,0.07466777414083481,0.15062455832958221
3.7753779888153076,0.05937054380774498,-0.8142948746681213,0.7166151404380798,0.6461296081542969,0.07480589300394058,0.14997044205665588
3.7954659461975098,0.05895957723259926,-0.8165305256843567,0.7185934782028198,0.6469062566757202,0.07494168728590012,0.1493162363767624
3.815491199493408,0.05895957723259926,-0.8165305256843567,0.7185934782028198,0.6469062566757202,0.07494168728590012,0.1493162363767624
3.835557699203491,0.05855189263820648,-0.8187516927719116,0.7205567955970764,0.6476786136627197,0.07507667690515518,0.14866217970848083
3.855623483657837,0.05855189263820648,-0.8187516927719116,0.7205567955970764,0.6476786136627197,0.07507667690515518,0.14866217970848083
3.875696897506714,0.058149538934230804,-0.8209508061408997,0.7225092053413391,0.6484467387199402,0.07521726936101913,0.14800894260406494
3.895864725112915,0.05775545910000801,-0.8231320381164551,0.7244517207145691,0.6492099165916443,0.07535873353481293,0.14735722541809082
3.915936231613159,0.05775545910000801,-0.8231320381164551,0.7244517207145691,0.6492099165916443,0.07535873353481293,0.14735722541809082
3.936004877090454,0.057368744164705276,-0.8252962231636047,0.7263846397399902,0.6499677300453186,0.0755024328827858,0.14670723676681519
3.956070899963379,0.057368744164705276,-0.8252962231636047,0.7263846397399902,0.6499677300453186,0.0755024328827858,0.14670723676681519
3.9761643409729004,0.05699026584625244,-0.8274434208869934,0.7283068299293518,0.6507205963134766,0.07564473897218704,0.14605893194675446
3.9962360858917236,0.05699026584625244,-0.8274434208869934,0.7283068299293518,0.6507205963134766,0.07564473897218704,0.14605893194675446
4.016304016113281,0.05661912262439728,-0.8295736908912659,0.730218768119812,0.6514691114425659,0.07578357309103012,0.14541180431842804
4.036348342895508,0.056253544986248016,-0.8316954374313354,0.7321163415908813,0.6522137522697449,0.07591606676578522,0.14476540684700012
4.056432247161865,0.056253544986248016,-0.8316954374313354,0.7321163415908813,0.6522137522697449,0.07591606676578522,0.14476540684700012
4.076497554779053,0.055891506373882294,-0.8337928652763367,0.7340094447135925,0.652955174446106,0.07605472207069397,0.14411982893943787
4.096593856811523,0.055891506373882294,-0.8337928652763367,0.7340094447135925,0.652955174446106,0.07605472207069397,0.14411982893943787
4.116725206375122,0.05553470179438591,-0.8358631730079651,0.7358985543251038,0.6536930203437805,0.07620278000831604,0.14347484707832336
4.136746644973755,0.05553470179438591,-0.8358631730079651,0.7358985543251038,0.6536930203437805,0.07620278000831604,0.14347484707832336
4.156808137893677,0.05518866702914238,-0.837905764579773,0.7377867102622986,0.6544256210327148,0.07636293023824692,0.14283110201358795
4.176855564117432,0.05485749617218971,-0.8399277329444885,0.7396688461303711,0.6551514863967896,0.07653171569108963,0.14218947291374207
4.1969592571258545,0.05485749617218971,-0.8399277329444885,0.7396688461303711,0.6551514863967896,0.07653171569108963,0.14218947291374207
4.2170090675354,0.05454513058066368,-0.8419392108917236,0.7415405511856079,0.6558698415756226,0.07670008391141891,0.14155076444149017
4.237072467803955,0.05454513058066368,-0.8419392108917236,0.7415405511856079,0.6558698415756226,0.07670008391141891,0.14155076444149017
4.257140159606934,0.0542510561645031,-0.8439496755599976,0.7433968782424927,0.6565806269645691,0.07686147093772888,0.14091521501541138
4.277209758758545,0.0542510561645031,-0.8439496755599976,0.7433968782424927,0.6565806269645691,0.07686147093772888,0.14091521501541138
4.297271966934204,0.053972769528627396,-0.845959484577179,0.7452387809753418,0.6572848558425903,0.07701466232538223,0.14028282463550568
4.3173439502716064,0.05370309203863144,-0.8479607701301575,0.7470699548721313,0.6579841375350952,0.07716246694326401,0.13965308666229248
4.337420701980591,0.05370309203863144,-0.8479607701301575,0.7470699548721313,0.6579841375350952,0.07716246694326401,0.13965308666229248
4.357505559921265,0.05343776196241379,-0.849940299987793,0.7488994002342224,0.6586794257164001,0.07731190323829651,0.13902555406093597
4.377563953399658,0.05343776196241379,-0.849940299987793,0.7488994002342224,0.6586794257164001,0.07731190323829651,0.13902555406093597
4.397662878036499,0.05317172408103943,-0.8518880605697632,0.750731348991394,0.6593707799911499,0.07746902853250504,0.13839933276176453
4.417695999145508,0.0529034249484539,-0.8538016676902771,0.7525656819343567,0.6600577235221863,0.0776347741484642,0.13777372241020203
4.437814950942993,0.0529034249484539,-0.8538016676902771,0.7525656819343567,0.6600577235221863,0.0776347741484642,0.13777372241020203
4.457839250564575,0.05263473466038704,-0.8556845188140869,0.754398763179779,0.6607397198677063,0.07780478149652481,0.1371488720178604
4.477973699569702,0.05263473466038704,-0.8556845188140869,0.754398763179779,0.6607397198677063,0.07780478149652481,0.1371488720178604
4.498125791549683,0.05236674100160599,-0.8575513362884521,0.7562214136123657,0.6614164113998413,0.07797081023454666,0.13652464747428894
4.518143653869629,0.05236674100160599,-0.8575513362884521,0.7562214136123657,0.6614164113998413,0.07797081023454666,0.13652464747428894
4.538215160369873,0.05209700018167496,-0.8594148755073547,0.7580247521400452,0.6620883941650391,0.07812893390655518,0.13590028882026672
4.558283090591431,0.05182713270187378,-0.861274242401123,0.759809672832489,0.6627568006515503,0.07827795296907425,0.13527601957321167
4.5784010887146,0.05182713270187378,-0.861274242401123,0.759809672832489,0.6627568006515503,0.07827795296907425,0.13527601957321167
4.598451137542725,0.05155444145202637,-0.8631346821784973,0.7615723609924316,0.6634230613708496,0.07841608673334122,0.13465161621570587
4.618589878082275,0.05155444145202637,-0.8631346821784973,0.7615723609924316,0.6634230613708496,0.07841608673334122,0.13465161621570587
4.6386682987213135,0.05127435922622681,-0.8649852275848389,0.7633204460144043,0.6640883088111877,0.07855051010847092,0.1340268850326538
4.658810138702393,0.05127435922622681,-0.8649852275848389,0.7633204460144043,0.6640883088111877,0.07855051010847092,0.1340268850326538
4.678851127624512,0.05098510906100273,-0.8668147921562195,0.7650607824325562,0.6647531390190125,0.07868929207324982,0.13340149819850922
4.698880672454834,0.050689946860075,-0.8686189651489258,0.7667973041534424,0.6654165983200073,0.07883410900831223,0.13277611136436462
4.718962669372559,0.050689946860075,-0.8686189651489258,0.7667973041534424,0.6654165983200073,0.07883410900831223,0.13277611136436462
4.739031076431274,0.05039291828870773,-0.8703991174697876,0.7685279846191406,0.6660776138305664,0.07898672670125961,0.13215108215808868
4.759099006652832,0.05039291828870773,-0.8703991174697876,0.7685279846191406,0.6660776138305664,0.07898672670125961,0.13215108215808868
4.779170274734497,0.05009873956441879,-0.8721548914909363,0.7702540755271912,0.6667349934577942,0.0791487917304039,0.13152679800987244
4.799365282058716,0.049814146012067795,-0.8738975524902344,0.7719689607620239,0.6673874258995056,0.07931344211101532,0.13090360164642334
4.8195717334747314,0.049814146012067795,-0.8738975524902344,0.7719689607620239,0.6673874258995056,0.07931344211101532,0.13090360164642334
4.839643478393555,0.04954485222697258,-0.8756396770477295,0.7736657857894897,0.66803377866745,0.07947208732366562,0.13028262555599213
4.859673261642456,0.04954485222697258,-0.8756396770477295,0.7736657857894897,0.66803377866745,0.07947208732366562,0.13028262555599213
4.8797314167022705,0.04929179698228836,-0.8773906826972961,0.7753408551216125,0.6686738729476929,0.07961955666542053,0.12966489791870117
4.8998332023620605,0.04929179698228836,-0.8773906826972961,0.7753408551216125,0.6686738729476929,0.07961955666542053,0.12966489791870117
4.919916868209839,0.04905134066939354,-0.8791553974151611,0.7769917845726013,0.6693084836006165,0.0797540470957756,0.1290508359670639
4.939961671829224,0.04882188141345978,-0.8809270858764648,0.7786235809326172,0.669938325881958,0.07987809926271439,0.12844088673591614
4.9600670337677,0.04882188141345978,-0.8809270858764648,0.7786235809326172,0.669938325881958,0.07987809926271439,0.12844088673591614
4.980135679244995,0.04860047996044159,-0.8826952576637268,0.7802437543869019,0.6705634593963623,0.08000093698501587,0.12783481180667877
5.000246524810791,0.04860047996044159,-0.8826952576637268,0.7802437543869019,0.6705634593963623,0.08000093698501587,0.12783481180667877
5.020352363586426,0.048385653644800186,-0.8844467401504517,0.7818584442138672,0.6711848378181458,0.08012932538986206,0.12723174691200256
5.040437936782837,0.048385653644800186,-0.8844467401504517,0.7818584442138672,0.6711848378181458,0.08012932538986206,0.12723174691200256
5.060521841049194,0.048175979405641556,-0.8861740827560425,0.7834699749946594,0.6718032360076904,0.0802655965089798,0.12663042545318604
5.080548524856567,0.047971755266189575,-0.8878682255744934,0.7850842475891113,0.672418475151062,0.08041204512119293,0.12602995336055756
5.100716829299927,0.047971755266189575,-0.8878682255744934,0.7850842475891113,0.672418475151062,0.08041204512119293,0.12602995336055756
5.120757579803467,0.04777400568127632,-0.8895244002342224,0.7867048382759094,0.6730303764343262,0.08056943118572235,0.1254298835992813
5.140819311141968,0.04777400568127632,-0.8895244002342224,0.7867048382759094,0.6730303764343262,0.08056943118572235,0.1254298835992813
5.160886287689209,0.04758240655064583,-0.8911533951759338,0.788325846195221,0.6736385822296143,0.08073017001152039,0.12483000755310059
5.1809563636779785,0.04758240655064583,-0.8911533951759338,0.788325846195221,0.6736385822296143,0.08073017001152039,0.12483000755310059
5.201055526733398,0.04739462584257126,-0.8927645087242126,0.7899419069290161,0.6742429137229919,0.08089011907577515,0.12423023581504822
5.221097946166992,0.0472090020775795,-0.8943576812744141,0.7915536165237427,0.6748435497283936,0.08105149120092392,0.12363085150718689
5.241188287734985,0.0472090020775795,-0.8943576812744141,0.7915536165237427,0.6748435497283936,0.08105149120092392,0.12363085150718689
5.261427402496338,0.047025855630636215,-0.8959386944770813,0.7931563854217529,0.6754401326179504,0.08121222257614136,0.1230325847864151
5.281346559524536,0.047025855630636215,-0.8959386944770813,0.7931563854217529,0.6754401326179504,0.08121222257614136,0.1230325847864151
5.301436901092529,0.046844691038131714,-0.8975184559822083,0.7947425842285156,0.6760326027870178,0.08136831223964691,0.12243583053350449
5.321482181549072,0.04666665568947792,-0.8990957140922546,0.7963122725486755,0.6766215562820435,0.08151811361312866,0.12184096872806549
5.341562747955322,0.04666665568947792,-0.8990957140922546,0.7963122725486755,0.6766215562820435,0.08151811361312866,0.12184096872806549
5.3616907596588135,0.046490490436553955,-0.9006696939468384,0.7978682518005371,0.677207350730896,0.08166135847568512,0.12124800682067871
5.381717205047607,0.046490490436553955,-0.9006696939468384,0.7978682518005371,0.677207350730896,0.08166135847568512,0.12124800682067871
5.4018714427948,0.046314939856529236,-0.9022396206855774,0.7994092106819153,0.6777902841567993,0.08179926872253418,0.12065614014863968
5.421886205673218,0.046314939856529236,-0.9022396206855774,0.7994092106819153,0.6777902841567993,0.08179926872253418,0.12065614014863968
5.44205379486084,0.04613911360502243,-0.9038008451461792,0.8009398579597473,0.6783706545829773,0.08193305879831314,0.12006537616252899
5.46207070350647,0.04596205800771713,-0.9053567051887512,0.802460253238678,0.6789484620094299,0.0820615217089653,0.11947587877511978
5.4822142124176025,0.04596205800771713,-0.9053567051887512,0.802460253238678,0.6789484620094299,0.0820615217089653,0.11947587877511978
5.502231597900391,0.04578129202127457,-0.9069023132324219,0.8039731383323669,0.6795241236686707,0.08218826353549957,0.11888722330331802
5.522302865982056,0.04578129202127457,-0.9069023132324219,0.8039731383323669,0.6795241236686707,0.08218826353549957,0.11888722330331802
5.5423808097839355,0.04559491574764252,-0.9084330201148987,0.8054803013801575,0.6800975203514099,0.0823187604546547,0.11829927563667297
5.562449932098389,0.04559491574764252,-0.9084330201148987,0.8054803013801575,0.6800975203514099,0.0823187604546547,0.11829927563667297
5.582528114318848,0.04540671035647392,-0.9099552631378174,0.806976318359375,0.6806683540344238,0.0824473425745964,0.11771281808614731
5.602580785751343,0.04521802440285683,-0.9114770889282227,0.8084554672241211,0.6812360882759094,0.0825725570321083,0.11712783575057983
5.622697591781616,0.04521802440285683,-0.9114770889282227,0.8084554672241211,0.6812360882759094,0.0825725570321083,0.11712783575057983
5.642868995666504,0.045030806213617325,-0.9129928350448608,0.809919536113739,0.6818007826805115,0.08269623667001724,0.11654438823461533
5.662870645523071,0.045030806213617325,-0.9129928350448608,0.809919536113739,0.6818007826805115,0.08269623667001724,0.11654438823461533
5.682943344116211,0.044847868382930756,-0.9145045876502991,0.811366081237793,0.6823620796203613,0.0828220546245575,0.1159629374742508
5.703064441680908,0.04467349499464035,-0.9160133004188538,0.8127954602241516,0.6829196214675903,0.08294635266065598,0.11538408696651459
5.723149299621582,0.04467349499464035,-0.9160133004188538,0.8127954602241516,0.6829196214675903,0.08294635266065598,0.11538408696651459
5.743306636810303,0.04450816288590431,-0.9175150990486145,0.8142129182815552,0.6834734082221985,0.08307084441184998,0.11480787396430969
5.763391971588135,0.04450816288590431,-0.9175150990486145,0.8142129182815552,0.6834734082221985,0.08307084441184998,0.11480787396430969
5.783499479293823,0.04435041919350624,-0.9190070629119873,0.8156200647354126,0.6840240359306335,0.0831957459449768,0.11423377692699432
5.803551197052002,0.04435041919350624,-0.9190070629119873,0.8156200647354126,0.6840240359306335,0.0831957459449768,0.11423377692699432
5.823612213134766,0.04419843479990959,-0.9204862713813782,0.8170196413993835,0.6845719218254089,0.08332079648971558,0.11366154253482819
5.843655824661255,0.04405013471841812,-0.9219539761543274,0.8184126615524292,0.6851169466972351,0.08344130218029022,0.11309114843606949
5.86379337310791,0.04405013471841812,-0.9219539761543274,0.8184126615524292,0.6851169466972351,0.08344130218029022,0.11309114843606949
5.883859157562256,0.043904125690460205,-0.9234123229980469,0.8197973370552063,0.6856591701507568,0.0835576057434082,0.11252234876155853
5.90391731262207,0.043904125690460205,-0.9234123229980469,0.8197973370552063,0.6856591701507568,0.0835576057434082,0.11252234876155853
5.9240007400512695,0.04375804215669632,-0.9248619079589844,0.8211743235588074,0.6861984133720398,0.08367069810628891,0.11195541173219681
5.944090366363525,0.04375804215669632,-0.9248619079589844,0.8211743235588074,0.6861984133720398,0.08367069810628891,0.11195541173219681
5.9641571044921875,0.04361133649945259,-0.9263024926185608,0.8225438594818115,0.686734676361084,0.08378054946660995,0.11139041185379028
5.984264850616455,0.043463192880153656,-0.9277334213256836,0.8239076733589172,0.6872677803039551,0.08389022946357727,0.11082735657691956
6.004303932189941,0.043463192880153656,-0.9277334213256836,0.8239076733589172,0.6872677803039551,0.08389022946357727,0.11082735657691956
6.024415016174316,0.04331386089324951,-0.9291460514068604,0.8252707123756409,0.6877979636192322,0.08400372415781021,0.11026623845100403
6.044447422027588,0.04331386089324951,-0.9291460514068604,0.8252707123756409,0.6877979636192322,0.08400372415781021,0.11026623845100403
6.06451940536499,0.04316410422325134,-0.9305412769317627,0.8266331553459167,0.6883246898651123,0.0841207280755043,0.1097070574760437
6.084569931030273,0.043014511466026306,-0.9319177865982056,0.8279951810836792,0.6888476610183716,0.08424130082130432,0.10914964228868484
6.104682683944702,0.043014511466026306,-0.9319177865982056,0.8279951810836792,0.6888476610183716,0.08424130082130432,0.10914964228868484
6.124772548675537,0.04286644980311394,-0.9332769513130188,0.8293552398681641,0.6893666982650757,0.08436387032270432,0.10859433561563492
6.144821643829346,0.04286644980311394,-0.9332769513130188,0.8293552398681641,0.6893666982650757,0.08436387032270432,0.10859433561563492
6.164903163909912,0.04272141307592392,-0.9346207976341248,0.830708384513855,0.6898816823959351,0.08448974043130875,0.10804082453250885
6.1849610805511475,0.04272141307592392,-0.9346207976341248,0.830708384513855,0.6898816823959351,0.08448974043130875,0.10804082453250885
6.205030679702759,0.04258076101541519,-0.9359508752822876,0.8320527672767639,0.6903929114341736,0.08461463451385498,0.10748884826898575
6.22507381439209,0.04244295135140419,-0.9372628331184387,0.8333896398544312,0.690901517868042,0.08474016189575195,0.10693777352571487
6.245159149169922,0.04244295135140419,-0.9372628331184387,0.8333896398544312,0.690901517868042,0.08474016189575195,0.10693777352571487
6.265224933624268,0.042306382209062576,-0.9385550022125244,0.8347213864326477,0.6914077401161194,0.08486750721931458,0.106387197971344
6.2853102684021,0.042306382209062576,-0.9385550022125244,0.8347213864326477,0.6914077401161194,0.08486750721931458,0.106387197971344
6.305375337600708,0.04217027872800827,-0.9398290514945984,0.8360480666160583,0.6919116377830505,0.08499672263860703,0.10583635419607162
6.3254477977752686,0.04217027872800827,-0.9398290514945984,0.8360480666160583,0.6919116377830505,0.08499672263860703,0.10583635419607162
6.345509052276611,0.04203309491276741,-0.9410862922668457,0.8373723030090332,0.6924133896827698,0.08512464165687561,0.10528550297021866
6.365550756454468,0.04189449921250343,-0.942337691783905,0.8386881351470947,0.6929125189781189,0.08524876087903976,0.10473509132862091
6.385735988616943,0.04189449921250343,-0.942337691783905,0.8386881351470947,0.6929125189781189,0.08524876087903976,0.10473509132862091
6.405754089355469,0.04175446182489395,-0.9435866475105286,0.8399941921234131,0.6934087872505188,0.08536924421787262,0.10418568551540375
6.425816774368286,0.04175446182489395,-0.9435866475105286,0.8399941921234131,0.6934087872505188,0.08536924421787262,0.10418568551540375
6.445889234542847,0.04161420091986656,-0.9448360800743103,0.8412892818450928,0.693901777267456,0.0854831114411354,0.10363820195198059
6.466077566146851,0.04147282987833023,-0.9460853934288025,0.8425746560096741,0.6943916082382202,0.08559166640043259,0.10309367626905441
6.486158847808838,0.04147282987833023,-0.9460853934288025,0.8425746560096741,0.6943916082382202,0.08559166640043259,0.10309367626905441
6.506235361099243,0.04133082926273346,-0.9473333954811096,0.8438500165939331,0.6948783993721008,0.0856960192322731,0.10255245864391327
6.526299715042114,0.04133082926273346,-0.9473333954811096,0.8438500165939331,0.6948783993721008,0.0856960192322731,0.10255245864391327
6.546430587768555,0.04118726775050163,-0.9485716819763184,0.8451195359230042,0.6953619718551636,0.08580151200294495,0.10201410204172134
6.566457509994507,0.04118726775050163,-0.9485716819763184,0.8451195359230042,0.6953619718551636,0.08580151200294495,0.10201410204172134
6.586525201797485,0.04104343801736832,-0.9497983455657959,0.8463840484619141,0.6958425045013428,0.08590712398290634,0.10147859901189804
6.606765985488892,0.04090016707777977,-0.9510181546211243,0.847637951374054,0.6963204145431519,0.08601264655590057,0.10094531625509262
6.62685489654541,0.04090016707777977,-0.9510181546211243,0.847637951374054,0.6963204145431519,0.08601264655590057,0.10094531625509262
6.64691686630249,0.0407584048807621,-0.9522277116775513,0.8488831520080566,0.6967960000038147,0.08611790090799332,0.10041379928588867
6.666992664337158,0.0407584048807621,-0.9522277116775513,0.8488831520080566,0.6967960000038147,0.08611790090799332,0.10041379928588867
6.687061786651611,0.04061710834503174,-0.9534202814102173,0.8501242995262146,0.6972697377204895,0.08622617274522781,0.09988366067409515
6.70723819732666,0.04061710834503174,-0.9534202814102173,0.8501242995262146,0.6972697377204895,0.08622617274522781,0.09988366067409515
6.727252006530762,0.04047723859548569,-0.9546040892601013,0.851357102394104,0.6977413892745972,0.08633323013782501,0.09935485571622849
6.747327566146851,0.04034002870321274,-0.9557843804359436,0.8525794744491577,0.6982106566429138,0.08643831312656403,0.09882748872041702
6.767409563064575,0.04034002870321274,-0.9557843804359436,0.8525794744491577,0.6982106566429138,0.08643831312656403,0.09882748872041702
6.787524938583374,0.04020562767982483,-0.9569597244262695,0.8537929654121399,0.6986775994300842,0.08654215186834335,0.09830179065465927
6.807547569274902,0.04020562767982483,-0.9569597244262695,0.8537929654121399,0.6986775994300842,0.08654215186834335,0.09830179065465927
6.82761812210083,0.04007282108068466,-0.9581231474876404,0.8550021052360535,0.6991422176361084,0.08664865046739578,0.0977778360247612
6.847687244415283,0.04007282108068466,-0.9581231474876404,0.8550021052360535,0.6991422176361084,0.08664865046739578,0.0977778360247612
6.867756605148315,0.03994416072964668,-0.9592818021774292,0.8562017679214478,0.6996040344238281,0.08675283938646317,0.09725598990917206
6.887799978256226,0.03981906920671463,-0.9604363441467285,0.8573911190032959,0.700063169002533,0.0868544802069664,0.09673617780208588
6.90788197517395,0.03981906920671463,-0.9604363441467285,0.8573911190032959,0.700063169002533,0.0868544802069664,0.09673617780208588
6.9279420375823975,0.039695654064416885,-0.9615839123725891,0.8585716485977173,0.700519859790802,0.08695358783006668,0.09621816873550415
6.948076009750366,0.039695654064416885,-0.9615839123725891,0.8585716485977173,0.700519859790802,0.08695358783006668,0.09621816873550415
6.968242406845093,0.039573561400175095,-0.9627214074134827,0.8597465753555298,0.7009736895561218,0.08705217391252518,0.09570200741291046
6.988224267959595,0.039573561400175095,-0.9627214074134827,0.8597465753555298,0.7009736895561218,0.08705217391252518,0.09570200741291046
7.008291721343994,0.039453860372304916,-0.963855504989624,0.8609113097190857,0.7014245390892029,0.08714713156223297,0.09518779069185257
7.028368711471558,0.03933557868003845,-0.9649884104728699,0.8620649576187134,0.7018725275993347,0.08723863959312439,0.09467540681362152
7.048476219177246,0.03933557868003845,-0.9649884104728699,0.8620649576187134,0.7018725275993347,0.08723863959312439,0.09467540681362152
7.068526268005371,0.03922102972865105,-0.9661179184913635,0.8632076978683472,0.7023178339004517,0.08732914924621582,0.09416518360376358
7.088601589202881,0.03922102972865105,-0.9661179184913635,0.8632076978683472,0.7023178339004517,0.08732914924621582,0.09416518360376358
7.108655691146851,0.039108533412218094,-0.9672406315803528,0.8643429279327393,0.7027604579925537,0.08742079138755798,0.09365732967853546
7.12873911857605,0.039108533412218094,-0.9672406315803528,0.8643429279327393,0.7027604579925537,0.08742079138755798,0.09365732967853546
7.1487977504730225,0.038998495787382126,-0.9683546423912048,0.8654694557189941,0.7032006978988647,0.08751125633716583,0.0931515321135521
7.168838739395142,0.03889075666666031,-0.9694576859474182,0.8665903210639954,0.7036383748054504,0.08760219812393188,0.09264802932739258
7.188922166824341,0.03889075666666031,-0.9694576859474182,0.8665903210639954,0.7036383748054504,0.08760219812393188,0.09264802932739258
7.208991765975952,0.038784682750701904,-0.9705463647842407,0.8677061796188354,0.7040738463401794,0.08769494295120239,0.09214616566896439
7.229062080383301,0.038784682750701904,-0.9705463647842407,0.8677061796188354,0.7040738463401794,0.08769494295120239,0.09214616566896439
7.249171018600464,0.03867769613862038,-0.97161865234375,0.8688191771507263,0.7045069932937622,0.08778907358646393,0.09164585173130035
7.269276857376099,0.03867769613862038,-0.97161865234375,0.8688191771507263,0.7045069932937622,0.08778907358646393,0.09164585173130035
7.2893242835998535,0.0385713130235672,-0.972679853439331,0.8699251413345337,0.7049380540847778,0.08788198977708817,0.09114666283130646
7.3093695640563965,0.038465142250061035,-0.973733127117157,0.871025800704956,0.7053665518760681,0.08797390758991241,0.09064897149801254
7.3294517993927,0.038465142250061035,-0.973733127117157,0.871025800704956,0.7053665518760681,0.08797390758991241,0.09064897149801254
7.3496716022491455,0.03835972025990486,-0.9747834801673889,0.8721168041229248,0.7057926654815674,0.08806250989437103,0.09015262871980667
7.3696253299713135,0.03835972025990486,-0.9747834801673889,0.8721168041229248,0.7057926654815674,0.08806250989437103,0.09015262871980667
7.389700651168823,0.03825504705309868,-0.9758303165435791,0.8731998801231384,0.7062163352966309,0.08814827352762222,0.08965782821178436
7.409745931625366,0.03815101832151413,-0.9768717885017395,0.8742782473564148,0.7066373229026794,0.08823253959417343,0.08916458487510681
7.429853916168213,0.03815101832151413,-0.9768717885017395,0.8742782473564148,0.7066373229026794,0.08823253959417343,0.08916458487510681
7.449939489364624,0.038048356771469116,-0.9779044985771179,0.8753528594970703,0.7070555686950684,0.08831702917814255,0.08867308497428894
7.469996452331543,0.038048356771469116,-0.9779044985771179,0.8753528594970703,0.7070555686950684,0.08831702917814255,0.08867308497428894
7.490096569061279,0.037947509437799454,-0.9789292812347412,0.8764224052429199,0.7074712514877319,0.08840220421552658,0.08818350732326508
7.510148048400879,0.037947509437799454,-0.9789292812347412,0.8764224052429199,0.7074712514877319,0.08840220421552658,0.08818350732326508
7.530217170715332,0.03784855082631111,-0.9799432754516602,0.8774879574775696,0.707884669303894,0.08848835527896881,0.08769577741622925
7.550275087356567,0.03775117173790932,-0.980950653553009,0.8785480856895447,0.7082955837249756,0.08857393264770508,0.08721018582582474
7.5703444480896,0.03775117173790932,-0.980950653553009,0.8785480856895447,0.7082955837249756,0.08857393264770508,0.08721018582582474
7.5904364585876465,0.03765447065234184,-0.9819478392601013,0.8796016573905945,0.7087047696113586,0.0886596217751503,0.08672640472650528
7.61047887802124,0.03765447065234184,-0.9819478392601013,0.8796016573905945,0.7087047696113586,0.0886596217751503,0.08672640472650528
7.630554437637329,0.03755795955657959,-0.9829385280609131,0.8806480765342712,0.7091118693351746,0.08874442428350449,0.08624471724033356
7.650620460510254,0.03755795955657959,-0.9829385280609131,0.8806480765342712,0.7091118693351746,0.08874442428350449,0.08624471724033356
7.670704126358032,0.03746186941862106,-0.9839218854904175,0.8816860914230347,0.7095170021057129,0.08882778137922287,0.08576483279466629
7.690759181976318,0.037365686148405075,-0.9848998785018921,0.8827155828475952,0.709919810295105,0.0889095887541771,0.08528656512498856
7.710856676101685,0.037365686148405075,-0.9848998785018921,0.8827155828475952,0.709919810295105,0.0889095887541771,0.08528656512498856
7.730926990509033,0.03727012500166893,-0.985874354839325,0.8837334513664246,0.7103206515312195,0.08898789435625076,0.08480973541736603
7.751010417938232,0.03727012500166893,-0.985874354839325,0.8837334513664246,0.7103206515312195,0.08898789435625076,0.08480973541736603
7.771077871322632,0.03717680275440216,-0.9868488907814026,0.8847404718399048,0.7107188105583191,0.08906417340040207,0.08433478325605392
7.791139602661133,0.03717680275440216,-0.9868488907814026,0.8847404718399048,0.7107188105583191,0.08906417340040207,0.08433478325605392
7.811206102371216,0.03708663955330849,-0.9878218770027161,0.8857359290122986,0.7111146450042725,0.08913666754961014,0.08386140316724777
7.831262111663818,0.036997657269239426,-0.9887917041778564,0.8867222666740417,0.7115082740783691,0.08920754492282867,0.08338943868875504
7.851340293884277,0.036997657269239426,-0.9887917041778564,0.8867222666740417,0.7115082740783691,0.08920754492282867,0.08338943868875504
7.871466398239136,0.03691110014915466,-0.9897573590278625,0.8876982927322388,0.711899995803833,0.08927604556083679,0.08291888236999512
7.891509294509888,0.03691110014915466,-0.9897573590278625,0.8876982927322388,0.711899995803833,0.08927604556083679,0.08291888236999512
7.911606788635254,0.03682592883706093,-0.9907152056694031,0.8886682987213135,0.7122893333435059,0.08934507519006729,0.08244968205690384
7.931637763977051,0.036741703748703,-0.9916620850563049,0.889633059501648,0.7126770615577698,0.08941307663917542,0.08198177069425583
7.951720952987671,0.036741703748703,-0.9916620850563049,0.889633059501648,0.7126770615577698,0.08941307663917542,0.08198177069425583
7.97188138961792,0.03665655106306076,-0.9925976395606995,0.8905947804450989,0.7130630612373352,0.08948273211717606,0.08151526004076004
7.991907596588135,0.03665655106306076,-0.9925976395606995,0.8905947804450989,0.7130630612373352,0.08948273211717606,0.08151526004076004
8.01200532913208,0.036571089178323746,-0.9935201406478882,0.8915544152259827,0.7134473323822021,0.08955471217632294,0.08105020970106125
8.032079696655273,0.036571089178323746,-0.9935201406478882,0.8915544152259827,0.7134473323822021,0.08955471217632294,0.08105020970106125
8.052263498306274,0.03648480772972107,-0.9944323897361755,0.8925120830535889,0.7138294577598572,0.08962781727313995,0.08058685064315796
8.07233190536499,0.03639849275350571,-0.9953367710113525,0.8934658765792847,0.7142093777656555,0.08970148116350174,0.08012551069259644
8.092396259307861,0.03639849275350571,-0.9953367710113525,0.8934658765792847,0.7142093777656555,0.08970148116350174,0.08012551069259644
8.112494707107544,0.036314256489276886,-0.9962383508682251,0.8944125771522522,0.7145868539810181,0.0897754654288292,0.07966632395982742
8.132553577423096,0.036314256489276886,-0.9962383508682251,0.8944125771522522,0.7145868539810181,0.0897754654288292,0.07966632395982742
8.152629137039185,0.03623204678297043,-0.9971346855163574,0.8953535556793213,0.7149617075920105,0.08984962850809097,0.0792093425989151
8.172704219818115,0.03623204678297043,-0.9971346855163574,0.8953535556793213,0.7149617075920105,0.08984962850809097,0.0792093425989151
8.192769289016724,0.0361533984541893,-0.9980289340019226,0.8962865471839905,0.7153339982032776,0.08992110192775726,0.07875461876392365
8.212834358215332,0.036077968776226044,-0.9989185333251953,0.8972132802009583,0.7157037258148193,0.0899914875626564,0.07830225676298141
8.232955932617188,0.036077968776226044,-0.9989185333251953,0.8972132802009583,0.7157037258148193,0.0899914875626564,0.07830225676298141
8.252990245819092,0.03600481152534485,-0.9998000264167786,0.8981354236602783,0.716071367263794,0.09006153792142868,0.07785218209028244
8.273059844970703,0.03600481152534485,-0.9998000264167786,0.8981354236602783,0.716071367263794,0.09006153792142868,0.07785218209028244
8.293166160583496,0.03593079373240471,-1.0006674528121948,0.8990572690963745,0.716437041759491,0.0901327058672905,0.07740388810634613
8.313190937042236,0.035856880247592926,-1.0015230178833008,0.899975597858429,0.716801106929779,0.0902041494846344,0.07695706933736801
8.333276271820068,0.035856880247592926,-1.0015230178833008,0.899975597858429,0.716801106929779,0.0902041494846344,0.07695706933736801
8.353350400924683,0.03578151762485504,-1.0023690462112427,0.9008894562721252,0.7171635627746582,0.09027600288391113,0.07651179283857346
8.373435497283936,0.03578151762485504,-1.0023690462112427,0.9008894562721252,0.7171635627746582,0.09027600288391113,0.07651179283857346
8.39354157447815,0.035705164074897766,-1.0032109022140503,0.9017946124076843,0.7175244092941284,0.09034578502178192,0.0760679617524147
8.413605690002441,0.035705164074897766,-1.0032109022140503,0.9017946124076843,0.7175244092941284,0.09034578502178192,0.0760679617524147
8.4336576461792,0.03562808036804199,-1.004048466682434,0.902691662311554,0.7178833484649658,0.09041337668895721,0.07562557607889175
8.45370364189148,0.035550832748413086,-1.0048853158950806,0.90357905626297,0.7182400822639465,0.09047789126634598,0.07518506050109863
8.473785400390625,0.035550832748413086,-1.0048853158950806,0.90357905626297,0.7182400822639465,0.09047789126634598,0.07518506050109863
8.49385666847229,0.0354737713932991,-1.0057189464569092,0.9044612050056458,0.7185940742492676,0.09053985029459,0.07474687695503235
8.513919830322266,0.0354737713932991,-1.0057189464569092,0.9044612050056458,0.7185940742492676,0.09053985029459,0.07474687695503235
8.533992767333984,0.035397112369537354,-1.0065473318099976,0.9053394198417664,0.7189453840255737,0.09060002118349075,0.0743107721209526
8.554057836532593,0.035397112369537354,-1.0065473318099976,0.9053394198417664,0.7189453840255737,0.09060002118349075,0.0743107721209526
8.574185132980347,0.03531952202320099,-1.0073578357696533,0.9062216281890869,0.7192947268486023,0.09066382795572281,0.07387642562389374
8.594171285629272,0.035241011530160904,-1.0081512928009033,0.9071059823036194,0.7196425199508667,0.09073249250650406,0.0734432116150856
8.614241361618042,0.035241011530160904,-1.0081512928009033,0.9071059823036194,0.7196425199508667,0.09073249250650406,0.0734432116150856
8.634362936019897,0.035163119435310364,-1.0089354515075684,0.9079855680465698,0.7199890613555908,0.09080160409212112,0.07301100343465805
8.654398918151855,0.035163119435310364,-1.0089354515075684,0.9079855680465698,0.7199890613555908,0.09080160409212112,0.07301100343465805
8.674458026885986,0.03508594259619713,-1.0097157955169678,0.908856987953186,0.7203343510627747,0.09087072312831879,0.07257998734712601
8.6945321559906,0.03508594259619713,-1.0097157955169678,0.908856987953186,0.7203343510627747,0.09087072312831879,0.07257998734712601
8.714657306671143,0.035010430961847305,-1.010491967201233,0.9097189903259277,0.7206785082817078,0.09093979746103287,0.07215019315481186
8.734692096710205,0.034936465322971344,-1.0112676620483398,0.9105694890022278,0.7210213541984558,0.09100789576768875,0.07172174751758575
8.754768371582031,0.034936465322971344,-1.0112676620483398,0.9105694890022278,0.7210213541984558,0.09100789576768875,0.07172174751758575
8.774848461151123,0.03486492112278938,-1.012044906616211,0.911409318447113,0.7213620543479919,0.09107336401939392,0.07129546999931335
8.794913530349731,0.03486492112278938,-1.012044906616211,0.911409318447113,0.7213620543479919,0.09107336401939392,0.07129546999931335
8.815011501312256,0.034795742481946945,-1.0128206014633179,0.9122415781021118,0.7217004895210266,0.09113717824220657,0.07087148725986481
8.835084438323975,0.03472789376974106,-1.0135918855667114,0.9130688309669495,0.7220367193222046,0.09119927138090134,0.07044941931962967
8.855167150497437,0.03472789376974106,-1.0135918855667114,0.9130688309669495,0.7220367193222046,0.09119927138090134,0.07044941931962967
8.875266075134277,0.034660447388887405,-1.0143563747406006,0.9138924479484558,0.7223712205886841,0.09126108139753342,0.07002906501293182
8.895330667495728,0.034660447388887405,-1.0143563747406006,0.9138924479484558,0.7223712205886841,0.09126108139753342,0.07002906501293182
8.91540241241455,0.03459317237138748,-1.015120267868042,0.9147088527679443,0.7227038145065308,0.09132061898708344,0.06961051374673843
8.935485363006592,0.03459317237138748,-1.015120267868042,0.9147088527679443,0.7227038145065308,0.09132061898708344,0.06961051374673843
8.955570936203003,0.034526579082012177,-1.015882968902588,0.9155165553092957,0.7230349779129028,0.09137631207704544,0.06919334083795547
8.975602388381958,0.03445963189005852,-1.0166397094726562,0.9163196086883545,0.7233644127845764,0.09143169224262238,0.06877745687961578
8.995710849761963,0.03445963189005852,-1.0166397094726562,0.9163196086883545,0.7233644127845764,0.09143169224262238,0.06877745687961578
9.015840768814087,0.034393299371004105,-1.0173836946487427,0.9171191453933716,0.7236927151679993,0.09149163961410522,0.06836292892694473
9.035861253738403,0.034393299371004105,-1.0173836946487427,0.9171191453933716,0.7236927151679993,0.09149163961410522,0.06836292892694473
9.055985689163208,0.03432722017168999,-1.0181177854537964,0.917915403842926,0.7240193486213684,0.09155382215976715,0.06795009970664978
9.076024770736694,0.03432722017168999,-1.0181177854537964,0.917915403842926,0.7240193486213684,0.09155382215976715,0.06795009970664978
9.096097469329834,0.03426279127597809,-1.0188435316085815,0.918707549571991,0.7243438363075256,0.09161710739135742,0.06753918528556824
9.116158723831177,0.03420030698180199,-1.0195584297180176,0.9194983839988708,0.7246661186218262,0.09168261289596558,0.06713031232357025
9.136321067810059,0.03420030698180199,-1.0195584297180176,0.9194983839988708,0.7246661186218262,0.09168261289596558,0.06713031232357025
9.156336545944214,0.034139201045036316,-1.0202645063400269,0.9202865362167358,0.72498619556427,0.09174872189760208,0.06672351807355881
9.176426410675049,0.034139201045036316,-1.0202645063400269,0.9202865362167358,0.72498619556427,0.09174872189760208,0.06672351807355881
9.196495771408081,0.0340791754424572,-1.0209691524505615,0.9210686683654785,0.7253039479255676,0.09181127697229385,0.06631870567798615
9.216567516326904,0.0340791754424572,-1.0209691524505615,0.9210686683654785,0.7253039479255676,0.09181127697229385,0.06631870567798615
9.236734867095947,0.03402092307806015,-1.0216764211654663,0.9218410849571228,0.7256195545196533,0.09186875075101852,0.06591562181711197
9.256721258163452,0.033964503556489944,-1.0223835706710815,0.922605037689209,0.7259334325790405,0.09192243218421936,0.0655137300491333
9.276796102523804,0.033964503556489944,-1.0223835706710815,0.922605037689209,0.7259334325790405,0.09192243218421936,0.0655137300491333
9.296864032745361,0.03390848636627197,-1.02308988571167,0.923361599445343,0.7262457609176636,0.09197433292865753,0.06511310487985611
9.316935062408447,0.03390848636627197,-1.02308988571167,0.923361599445343,0.7262457609176636,0.09197433292865753,0.06511310487985611
9.337012767791748,0.033852797001600266,-1.0237963199615479,0.9241092205047607,0.7265569567680359,0.09202365577220917,0.06471367925405502
9.35707712173462,0.033852797001600266,-1.0237963199615479,0.9241092205047607,0.7265569567680359,0.09202365577220917,0.06471367925405502
9.377147436141968,0.03379708528518677,-1.0245006084442139,0.9248501062393188,0.7268667817115784,0.09207131713628769,0.06431564688682556
9.39719557762146,0.033740971237421036,-1.0251961946487427,0.9255889058113098,0.7271749377250671,0.09212075173854828,0.06391918659210205
9.417304039001465,0.033740971237421036,-1.0251961946487427,0.9255889058113098,0.7271749377250671,0.09212075173854828,0.06391918659210205
9.437390804290771,0.03368492051959038,-1.0258864164352417,0.9263240694999695,0.7274814248085022,0.09216899424791336,0.06352473050355911
9.45741319656372,0.03368492051959038,-1.0258864164352417,0.9263240694999695,0.7274814248085022,0.09216899424791336,0.06352473050355911
9.477485179901123,0.033628035336732864,-1.026570439338684,0.9270552396774292,0.7277864217758179,0.09221677482128143,0.0631319209933281
9.497556686401367,0.033628035336732864,-1.026570439338684,0.9270552396774292,0.7277864217758179,0.09221677482128143,0.0631319209933281
9.517659425735474,0.03356947749853134,-1.0272396802902222,0.9277879595756531,0.728090226650238,0.0922681912779808,0.062740758061409
9.537750482559204,0.03350990638136864,-1.0278995037078857,0.9285184144973755,0.7283926010131836,0.09232084453105927,0.0623510368168354
9.557826280593872,0.03350990638136864,-1.0278995037078857,0.9285184144973755,0.7283926010131836,0.09232084453105927,0.0623510368168354
9.577868223190308,0.03345048055052757,-1.0285552740097046,0.9292439818382263,0.7286933660507202,0.09237182885408401,0.06196285039186478
9.597938060760498,0.03345048055052757,-1.0285552740097046,0.9292439818382263,0.7286933660507202,0.09237182885408401,0.06196285039186478
9.618030548095703,0.033390436321496964,-1.0292041301727295,0.9299665093421936,0.7289924621582031,0.09242412447929382,0.0615764856338501
9.63821530342102,0.033390436321496964,-1.0292041301727295,0.9299665093421936,0.7289924621582031,0.09242412447929382,0.0615764856338501
9.658366680145264,0.033330630511045456,-1.029849648475647,0.930684506893158,0.7292896509170532,0.09247485548257828,0.06119218468666077
9.6783766746521,0.033271752297878265,-1.03049635887146,0.9313946962356567,0.7295846343040466,0.09252241253852844,0.06080956384539604
9.698506116867065,0.033271752297878265,-1.03049635887146,0.9313946962356567,0.7295846343040466,0.09252241253852844,0.06080956384539604
9.718552827835083,0.03321319818496704,-1.0311410427093506,0.9320986270904541,0.7298778295516968,0.09256785362958908,0.06042885035276413
9.738752841949463,0.03321319818496704,-1.0311410427093506,0.9320986270904541,0.7298778295516968,0.09256785362958908,0.06042885035276413
9.758896827697754,0.0331549346446991,-1.0317835807800293,0.9327948689460754,0.7301694750785828,0.092612124979496,0.06004977971315384
9.778992891311646,0.03309691697359085,-1.0324203968048096,0.9334856867790222,0.7304596900939941,0.0926574096083641,0.05967197194695473
9.799110174179077,0.03309691697359085,-1.0324203968048096,0.9334856867790222,0.7304596900939941,0.0926574096083641,0.05967197194695473
9.819133758544922,0.03303956985473633,-1.0330504179000854,0.9341702461242676,0.7307486534118652,0.09270481020212173,0.05929526686668396
9.839227676391602,0.03303956985473633,-1.0330504179000854,0.9341702461242676,0.7307486534118652,0.09270481020212173,0.05929526686668396
9.859368562698364,0.03298464044928551,-1.0336792469024658,0.9348466992378235,0.7310361862182617,0.0927506536245346,0.05892001837491989
9.879492044448853,0.03298464044928551,-1.0336792469024658,0.9348466992378235,0.7310361862182617,0.0927506536245346,0.05892001837491989
9.899506092071533,0.0329313799738884,-1.0343023538589478,0.9355190396308899,0.7313223481178284,0.09279704838991165,0.058546166867017746
9.91952633857727,0.03287959843873978,-1.0349197387695312,0.9361891150474548,0.7316070795059204,0.09284359961748123,0.05817410349845886
9.939607858657837,0.03287959843873978,-1.0349197387695312,0.9361891150474548,0.7316070795059204,0.09284359961748123,0.05817410349845886
9.959770917892456,0.032828815281391144,-1.0355308055877686,0.936856746673584,0.7318904399871826,0.09288953244686127,0.05780383571982384
9.979771852493286,0.032828815281391144,-1.0355308055877686,0.936856746673584,0.7318904399871826,0.09288953244686127,0.05780383571982384
9.999870777130127,0.03277793899178505,-1.0361384153366089,0.937519907951355,0.7321723699569702,0.09293360263109207,0.05743527412414551
10.019969463348389,0.03277793899178505,-1.0361384153366089,0.937519907951355,0.7321723699569702,0.09293360263109207,0.05743527412414551
10.040016651153564,0.03272583335638046,-1.0367398262023926,0.9381806254386902,0.7324528098106384,0.0929776281118393,0.057068657130002975
10.060070991516113,0.03267331421375275,-1.037335991859436,0.938836932182312,0.7327316403388977,0.09302066266536713,0.05670371651649475
10.080215215682983,0.03267331421375275,-1.037335991859436,0.938836932182312,0.7327316403388977,0.09302066266536713,0.05670371651649475
10.10024094581604,0.03261928632855415,-1.0379257202148438,0.9394887685775757,0.7330089807510376,0.09306344389915466,0.05633987486362457
10.120302677154541,0.03261928632855415,-1.0379257202148438,0.9394887685775757,0.7330089807510376,0.09306344389915466,0.05633987486362457
10.140371322631836,0.03256569430232048,-1.0385137796401978,0.9401324987411499,0.7332850098609924,0.09310367703437805,0.055976804345846176
10.160442113876343,0.03256569430232048,-1.0385137796401978,0.9401324987411499,0.7332850098609924,0.09310367703437805,0.055976804345846176
10.18050742149353,0.03251349925994873,-1.039097547531128,0.9407719373703003,0.7335596084594727,0.09314291179180145,0.055614717304706573
10.20057201385498,0.03246214985847473,-1.0396769046783447,0.9414068460464478,0.7338330745697021,0.09318219870328903,0.05525341257452965
10.220693826675415,0.03246214985847473,-1.0396769046783447,0.9414068460464478,0.7338330745697021,0.09318219870328903,0.05525341257452965
10.240763902664185,0.03241197019815445,-1.0402538776397705,0.9420374035835266,0.7341054677963257,0.09322075545787811,0.05489341914653778
10.260828018188477,0.03241197019815445,-1.0402538776397705,0.9420374035835266,0.7341054677963257,0.09322075545787811,0.05489341914653778
10.280952215194702,0.03236484155058861,-1.040830373764038,0.9426610469818115,0.7343765497207642,0.09325993806123734,0.05453496798872948
10.301031589508057,0.03231929615139961,-1.0413988828659058,0.9432845711708069,0.7346463799476624,0.09330251067876816,0.054178427904844284
10.321128845214844,0.03231929615139961,-1.0413988828659058,0.9432845711708069,0.7346463799476624,0.09330251067876816,0.054178427904844284
10.341190099716187,0.032276179641485214,-1.0419626235961914,0.9439048171043396,0.7349147200584412,0.09334620833396912,0.053824085742235184
10.361257553100586,0.032276179641485214,-1.0419626235961914,0.9439048171043396,0.7349147200584412,0.09334620833396912,0.053824085742235184
10.381355285644531,0.032235756516456604,-1.0425212383270264,0.9445216655731201,0.7351813316345215,0.0933900997042656,0.05347185954451561
10.401434421539307,0.032235756516456604,-1.0425212383270264,0.9445216655731201,0.7351813316345215,0.0933900997042656,0.05347185954451561
10.421544075012207,0.03219716250896454,-1.0430773496627808,0.9451334476470947,0.7354459762573242,0.09343338757753372,0.0531216561794281
10.441606283187866,0.032158929854631424,-1.043628215789795,0.9457414746284485,0.7357091307640076,0.09347394108772278,0.05277331545948982
10.46172833442688,0.032158929854631424,-1.043628215789795,0.9457414746284485,0.7357091307640076,0.09347394108772278,0.05277331545948982
10.481784343719482,0.03212057799100876,-1.044177532196045,0.9463430643081665,0.7359703779220581,0.09351269155740738,0.05242666229605675
10.501872539520264,0.03212057799100876,-1.044177532196045,0.9463430643081665,0.7359703779220581,0.09351269155740738,0.05242666229605675
10.521962881088257,0.0255428534001112,-1.0385534763336182,0.9485504627227783,0.7362399101257324,0.09271852672100067,0.05196916684508324
10.542021036148071,0.0255428534001112,-1.0385534763336182,0.9485504627227783,0.7362399101257324,0.09271852672100067,0.05196916684508324
10.562079668045044,0.019033588469028473,-1.0329763889312744,0.9507341980934143,0.7365073561668396,0.0919305831193924,0.05151419714093208
10.582124471664429,0.012598926201462746,-1.027462124824524,0.9528828263282776,0.7367731928825378,0.09115006774663925,0.05106089264154434
10.602283477783203,0.012598926201462746,-1.027462124824524,0.9528828263282776,0.7367731928825378,0.09115006774663925,0.05106089264154434
10.622302770614624,0.006246543023735285,-1.0220283269882202,0.954987108707428,0.7370384931564331,0.09037791192531586,0.05060902237892151
10.642399787902832,0.006246543023735285,-1.0220283269882202,0.954987108707428,0.7370384931564331,0.09037791192531586,0.05060902237892151
10.66246747970581,-1.3617333024740219e-05,-1.0166982412338257,0.9570369720458984,0.7373042702674866,0.08960913121700287,0.05015946179628372
10.682521343231201,-1.3617333024740219e-05,-1.0166982412338257,0.9570369720458984,0.7373042702674866,0.08960913121700287,0.05015946179628372
10.702739238739014,-0.006167788524180651,-1.0114898681640625,0.9590224027633667,0.7375722527503967,0.08884935826063156,0.0497124157845974
10.722723245620728,-0.012205937877297401,-1.006417155265808,0.960936963558197,0.7378444075584412,0.08809670060873032,0.049268290400505066
10.74283742904663,-0.012205937877297401,-1.006417155265808,0.960936963558197,0.7378444075584412,0.08809670060873032,0.049268290400505066
10.76289677619934,-0.01811835914850235,-1.0014867782592773,0.9627819061279297,0.7381216883659363,0.08734754472970963,0.048828788101673126
10.783008813858032,-0.01811835914850235,-1.0014867782592773,0.9627819061279297,0.7381216883659363,0.08734754472970963,0.048828788101673126
10.803067207336426,-0.02389850653707981,-0.9966999292373657,0.9645558595657349,0.7384054064750671,0.0866045206785202,0.048394378274679184
10.8231041431427,-0.029544856399297714,-0.9920464754104614,0.966262698173523,0.7386971116065979,0.0858708918094635,0.0479644276201725
10.843286275863647,-0.029544856399297714,-0.9920464754104614,0.966262698173523,0.7386971116065979,0.0858708918094635,0.0479644276201725
10.863296747207642,-0.03505612909793854,-0.9875217080116272,0.9679045677185059,0.7389976382255554,0.08514666557312012,0.047539122402668
10.883361339569092,-0.03505612909793854,-0.9875217080116272,0.9679045677185059,0.7389976382255554,0.08514666557312012,0.047539122402668
10.90343952178955,-0.04042708873748779,-0.9831303358078003,0.9694805145263672,0.7393062710762024,0.084430992603302,0.047119855880737305
10.923507690429688,-0.04042708873748779,-0.9831303358078003,0.9694805145263672,0.7393062710762024,0.084430992603302,0.047119855880737305
10.943609714508057,-0.04566136747598648,-0.9788738489151001,0.9709894061088562,0.7396233677864075,0.08372099697589874,0.04670661315321922
10.963647365570068,-0.050762999802827835,-0.9747478365898132,0.9724344611167908,0.7399486899375916,0.08301578462123871,0.04629982262849808
10.983813285827637,-0.050762999802827835,-0.9747478365898132,0.9724344611167908,0.7399486899375916,0.08301578462123871,0.04629982262849808
11.003936529159546,-0.05573586747050285,-0.9707502126693726,0.9738187193870544,0.7402815818786621,0.08231186121702194,0.04590003937482834
11.023955345153809,-0.05573586747050285,-0.9707502126693726,0.9738187193870544,0.7402815818786621,0.08231186121702194,0.04590003937482834
11.043998003005981,-0.0605754479765892,-0.9668769240379333,0.9751402735710144,0.7406218647956848,0.08161629736423492,0.04550741985440254
11.0640709400177,-0.0605754479765892,-0.9668769240379333,0.9751402735710144,0.7406218647956848,0.08161629736423492,0.04550741985440254
11.084131240844727,-0.0652863085269928,-0.9631234407424927,0.9764001369476318,0.7409700751304626,0.08093062788248062,0.04512104392051697
11.104279279708862,-0.06987397372722626,-0.9594805240631104,0.97760409116745,0.7413259148597717,0.08025627583265305,0.04474055767059326
11.124298572540283,-0.06987397372722626,-0.9594805240631104,0.97760409116745,0.7413259148597717,0.08025627583265305,0.04474055767059326
11.14436936378479,-0.07433933764696121,-0.9559429287910461,0.9787566661834717,0.7416890263557434,0.07959318906068802,0.044366221874952316
11.164448976516724,-0.07433933764696121,-0.9559429287910461,0.9787566661834717,0.7416890263557434,0.07959318906068802,0.044366221874952316
11.18448543548584,-0.07868064194917679,-0.9525126218795776,0.9798533320426941,0.7420588731765747,0.07894542813301086,0.04399845376610756
11.204552173614502,-0.07868064194917679,-0.9525126218795776,0.9798533320426941,0.7420588731765747,0.07894542813301086,0.04399845376610756
11.224672317504883,-0.08290964365005493,-0.9491914510726929,0.9808937907218933,0.7424353361129761,0.07830291986465454,0.04363587498664856
11.244669198989868,-0.08702483028173447,-0.9459682703018188,0.9818837642669678,0.7428179979324341,0.0776723250746727,0.043279122561216354
11.264754295349121,-0.08702483028173447,-0.9459682703018188,0.9818837642669678,0.7428179979324341,0.0776723250746727,0.043279122561216354
11.284825325012207,-0.0910220593214035,-0.9428412318229675,0.9828211665153503,0.7432066202163696,0.0770571231842041,0.04292817413806915
11.304979085922241,-0.0910220593214035,-0.9428412318229675,0.9828211665153503,0.7432066202163696,0.0770571231842041,0.04292817413806915
11.325038194656372,-0.09490755200386047,-0.9398118257522583,0.983708381652832,0.7436003088951111,0.07644921541213989,0.0425834059715271
11.345092058181763,-0.09490755200386047,-0.9398118257522583,0.983708381652832,0.7436003088951111,0.07644921541213989,0.0425834059715271
11.365183353424072,-0.09868227690458298,-0.9368817806243896,0.9845465421676636,0.7439984083175659,0.07584509998559952,0.04224509373307228
11.385219812393188,-0.10234938561916351,-0.9340372085571289,0.9853430390357971,0.7444005608558655,0.07525065541267395,0.04191363975405693
11.405317068099976,-0.10234938561916351,-0.9340372085571289,0.9853430390357971,0.7444005608558655,0.07525065541267395,0.04191363975405693
11.425398349761963,-0.10591430217027664,-0.9312868714332581,0.9860934019088745,0.7448062300682068,0.07465629279613495,0.0415881983935833
11.445479393005371,-0.10591430217027664,-0.9312868714332581,0.9860934019088745,0.7448062300682068,0.07465629279613495,0.0415881983935833
11.465582370758057,-0.10938107967376709,-0.9286242127418518,0.9867996573448181,0.7452154159545898,0.07406695187091827,0.04126822575926781
11.48561978340149,-0.11274965852499008,-0.9260470867156982,0.9874618053436279,0.7456284165382385,0.07348430901765823,0.0409531369805336
11.505698204040527,-0.11274965852499008,-0.9260470867156982,0.9874618053436279,0.7456284165382385,0.07348430901765823,0.0409531369805336
11.525774240493774,-0.11602422595024109,-0.9235415458679199,0.9880836009979248,0.7460459470748901,0.07291526347398758,0.04064180329442024
11.545840501785278,-0.11602422595024109,-0.9235415458679199,0.9880836009979248,0.7460459470748901,0.07291526347398758,0.04064180329442024
11.565916061401367,-0.11920767277479172,-0.9211107492446899,0.9886654615402222,0.746467649936676,0.07235580682754517,0.04033442214131355
11.58598017692566,-0.11920767277479172,-0.9211107492446899,0.9886654615402222,0.746467649936676,0.07235580682754517,0.04033442214131355
11.60605263710022,-0.12230284512042999,-0.9187489151954651,0.9892066121101379,0.7468934059143066,0.07181242853403091,0.04003053531050682
11.626100301742554,-0.12531214952468872,-0.9164507389068604,0.989715039730072,0.747322678565979,0.07127878069877625,0.039730604737997055
11.646183252334595,-0.12531214952468872,-0.9164507389068604,0.989715039730072,0.747322678565979,0.07127878069877625,0.039730604737997055
11.666265964508057,-0.12823237478733063,-0.9142141342163086,0.9901871085166931,0.7477549910545349,0.07076168060302734,0.03943481296300888
11.686329364776611,-0.12823237478733063,-0.9142141342163086,0.9901871085166931,0.7477549910545349,0.07076168060302734,0.03943481296300888
11.706454992294312,-0.13106593489646912,-0.9120489954948425,0.9906173348426819,0.7481892108917236,0.0702567920088768,0.039143454283475876
11.726490497589111,-0.13106593489646912,-0.9120489954948425,0.9906173348426819,0.7481892108917236,0.0702567920088768,0.039143454283475876
11.746562004089355,-0.13381418585777283,-0.9099560379981995,0.9910084009170532,0.7486246824264526,0.0697598084807396,0.03885704651474953
11.766605615615845,-0.136480450630188,-0.9079338312149048,0.9913632869720459,0.7490612268447876,0.0692664310336113,0.038575805723667145
11.786690473556519,-0.136480450630188,-0.9079338312149048,0.9913632869720459,0.7490612268447876,0.0692664310336113,0.038575805723667145
11.806760787963867,-0.139069065451622,-0.9059829711914062,0.9916795492172241,0.7494986057281494,0.06877788156270981,0.03829927369952202
11.826833009719849,-0.139069065451622,-0.9059829711914062,0.9916795492172241,0.7494986057281494,0.06877788156270981,0.03829927369952202
11.846900463104248,-0.14158469438552856,-0.904096782207489,0.9919607043266296,0.749937117099762,0.06829480826854706,0.03802673891186714
11.866966485977173,-0.14158469438552856,-0.904096782207489,0.9919607043266296,0.749937117099762,0.06829480826854706,0.03802673891186714
11.887031555175781,-0.1440301537513733,-0.9022655487060547,0.992213785648346,0.7503769993782043,0.06781842559576035,0.03775811195373535
11.907080888748169,-0.146406888961792,-0.9004840850830078,0.9924383163452148,0.7508186101913452,0.06735213845968246,0.03749244660139084
11.927164077758789,-0.146406888961792,-0.9004840850830078,0.9924383163452148,0.7508186101913452,0.06735213845968246,0.03749244660139084
11.947233438491821,-0.14871792495250702,-0.898748517036438,0.9926395416259766,0.7512615323066711,0.06689471751451492,0.03722988814115524
11.967302322387695,-0.14871792495250702,-0.898748517036438,0.9926395416259766,0.7512615323066711,0.06689471751451492,0.03722988814115524
11.987404108047485,-0.15096551179885864,-0.8970555663108826,0.9928171634674072,0.7517059445381165,0.0664471834897995,0.036970168352127075
12.007538557052612,-0.15096551179885864,-0.8970555663108826,0.9928171634674072,0.7517059445381165,0.0664471834897995,0.036970168352127075
12.027589082717896,-0.1531519591808319,-0.8954089879989624,0.9929723143577576,0.7521508932113647,0.06600520759820938,0.036713987588882446
12.047664403915405,-0.155278280377388,-0.8938122391700745,0.9931020140647888,0.7525957226753235,0.0655662789940834,0.036461323499679565
12.067736387252808,-0.155278280377388,-0.8938122391700745,0.9931020140647888,0.7525957226753235,0.0655662789940834,0.036461323499679565
12.087806463241577,-0.15734589099884033,-0.8922666311264038,0.9932063817977905,0.7530399560928345,0.06512857973575592,0.03621247038245201
12.10787582397461,-0.15734589099884033,-0.8922666311264038,0.9932063817977905,0.7530399560928345,0.06512857973575592,0.03621247038245201
12.12794303894043,-0.15935543179512024,-0.8907660245895386,0.9932852983474731,0.753483772277832,0.06469777226448059,0.03596680238842964
12.148027181625366,-0.16130362451076508,-0.8893151879310608,0.9933373332023621,0.7539267539978027,0.06427279114723206,0.035724952816963196
12.168173789978027,-0.16130362451076508,-0.8893151879310608,0.9933373332023621,0.7539267539978027,0.06427279114723206,0.035724952816963196
12.188258171081543,-0.1631915420293808,-0.8879144787788391,0.9933603405952454,0.7543687224388123,0.06385282427072525,0.03548646345734596
12.208312034606934,-0.1631915420293808,-0.8879144787788391,0.9933603405952454,0.7543687224388123,0.06385282427072525,0.03548646345734596
12.228385925292969,-0.16502009332180023,-0.8865635395050049,0.9933563470840454,0.7548097968101501,0.0634366124868393,0.035251423716545105
12.248491764068604,-0.16502009332180023,-0.8865635395050049,0.9933563470840454,0.7548097968101501,0.0634366124868393,0.035251423716545105
12.268565654754639,-0.16679024696350098,-0.8852632641792297,0.9933242201805115,0.7552499771118164,0.06302414834499359,0.035019971430301666
12.288639545440674,-0.16850215196609497,-0.8840075135231018,0.9932677745819092,0.7556894421577454,0.06261870265007019,0.034792132675647736
12.308730363845825,-0.16850215196609497,-0.8840075135231018,0.9932677745819092,0.7556894421577454,0.06261870265007019,0.034792132675647736
12.328825235366821,-0.17015980184078217,-0.8827915191650391,0.9931874871253967,0.7561282515525818,0.06222320720553398,0.034567203372716904
12.348965406417847,-0.17015980184078217,-0.8827915191650391,0.9931874871253967,0.7561282515525818,0.06222320720553398,0.034567203372716904
12.368971824645996,-0.17176589369773865,-0.8816056251525879,0.9930889010429382,0.7565670013427734,0.06184183061122894,0.03434448316693306
12.389048099517822,-0.17176589369773865,-0.8816056251525879,0.9930889010429382,0.7565670013427734,0.06184183061122894,0.03434448316693306
12.40911340713501,-0.17332257330417633,-0.880443274974823,0.9929735064506531,0.7570058703422546,0.0614783838391304,0.034122832119464874
12.42917537689209,-0.17482919991016388,-0.8793075084686279,0.9928401708602905,0.7574446797370911,0.061131469905376434,0.03390175849199295
12.449279308319092,-0.17482919991016388,-0.8793075084686279,0.9928401708602905,0.7574446797370911,0.061131469905376434,0.03390175849199295
12.469340801239014,-0.17628513276576996,-0.8782081007957458,0.992683470249176,0.7578831911087036,0.06079564988613129,0.03368144854903221
12.489413499832153,-0.17628513276576996,-0.8782081007957458,0.992683470249176,0.7578831911087036,0.06079564988613129,0.03368144854903221
12.50949740409851,-0.17769132554531097,-0.8771411776542664,0.9925075173377991,0.7583221197128296,0.060467083007097244,0.03346109017729759
12.5296630859375,-0.17905181646347046,-0.8761066198348999,0.992315411567688,0.7587620615959167,0.06014100834727287,0.033240873366594315
12.549799919128418,-0.17905181646347046,-0.8761066198348999,0.992315411567688,0.7587620615959167,0.06014100834727287,0.033240873366594315
12.569842338562012,-0.1803722083568573,-0.8750954866409302,0.9921144843101501,0.7592028379440308,0.05981744825839996,0.03302100673317909
12.589902877807617,-0.1803722083568573,-0.8750954866409302,0.9921144843101501,0.7592028379440308,0.05981744825839996,0.03302100673317909
12.609980583190918,-0.18166093528270721,-0.8740920424461365,0.9919162392616272,0.7596442103385925,0.05949917435646057,0.032801687717437744
12.630147695541382,-0.18166093528270721,-0.8740920424461365,0.9919162392616272,0.7596442103385925,0.05949917435646057,0.032801687717437744
12.650157690048218,-0.18292565643787384,-0.8730913400650024,0.9917243123054504,0.76008540391922,0.05918428674340248,0.032582636922597885
12.670209646224976,-0.1841678023338318,-0.8720963597297668,0.9915320873260498,0.7605254650115967,0.05887795239686966,0.03236446529626846
12.690340995788574,-0.1841678023338318,-0.8720963597297668,0.9915320873260498,0.7605254650115967,0.05887795239686966,0.03236446529626846
12.710386514663696,-0.18538127839565277,-0.8711124062538147,0.9913322329521179,0.7609632611274719,0.05858462676405907,0.032147426158189774
12.73046326637268,-0.18538127839565277,-0.8711124062538147,0.9913322329521179,0.7609632611274719,0.05858462676405907,0.032147426158189774
12.750532150268555,-0.18655729293823242,-0.8701484203338623,0.9911177754402161,0.761398196220398,0.05830610170960426,0.031932130455970764
12.770608186721802,-0.18655729293823242,-0.8701484203338623,0.9911177754402161,0.761398196220398,0.05830610170960426,0.031932130455970764
12.790769815444946,-0.1876935213804245,-0.8692092895507812,0.9908859133720398,0.7618305683135986,0.058037228882312775,0.031718380749225616
12.810760498046875,-0.18878833949565887,-0.8682941794395447,0.9906395077705383,0.7622606754302979,0.057776033878326416,0.03150675445795059
12.830893516540527,-0.18878833949565887,-0.8682941794395447,0.9906395077705383,0.7622606754302979,0.057776033878326416,0.03150675445795059
12.851049184799194,-0.18984635174274445,-0.8673998117446899,0.9903849363327026,0.7626886367797852,0.05751707777380943,0.03129738196730614
12.871076107025146,-0.18984635174274445,-0.8673998117446899,0.9903849363327026,0.7626886367797852,0.05751707777380943,0.03129738196730614
12.891137838363647,-0.19087445735931396,-0.8665256500244141,0.9901238083839417,0.763114333152771,0.05725692957639694,0.031090309843420982
12.91128921508789,-0.19087445735931396,-0.8665256500244141,0.9901238083839417,0.763114333152771,0.05725692957639694,0.031090309843420982
12.931374073028564,-0.19187912344932556,-0.8656665086746216,0.9898611307144165,0.7635377645492554,0.0569942481815815,0.03088550642132759
12.951478242874146,-0.19286128878593445,-0.8648213744163513,0.9895951151847839,0.7639588117599487,0.056732989847660065,0.03068302758038044
12.971547365188599,-0.19286128878593445,-0.8648213744163513,0.9895951151847839,0.7639588117599487,0.056732989847660065,0.03068302758038044
12.991688013076782,-0.19382181763648987,-0.8639905452728271,0.9893235564231873,0.7643773555755615,0.056475188583135605,0.03048255480825901
13.011724472045898,-0.19382181763648987,-0.8639905452728271,0.9893235564231873,0.7643773555755615,0.056475188583135605,0.03048255480825901
13.031779766082764,-0.19476015865802765,-0.863170862197876,0.9890480637550354,0.7647933959960938,0.05622309073805809,0.030283953994512558
13.05193543434143,-0.19567571580410004,-0.8623673915863037,0.9887655377388,0.7652067542076111,0.055974118411540985,0.030087284743785858
13.072060585021973,-0.19567571580410004,-0.8623673915863037,0.9887655377388,0.7652067542076111,0.055974118411540985,0.030087284743785858
13.092097520828247,-0.19656604528427124,-0.8615959882736206,0.9884637594223022,0.765617311000824,0.055724382400512695,0.029892928898334503
13.1121666431427,-0.19656604528427124,-0.8615959882736206,0.9884637594223022,0.765617311000824,0.055724382400512695,0.029892928898334503
13.132274150848389,-0.19742843508720398,-0.8608607053756714,0.9881380796432495,0.7660253643989563,0.05547612905502319,0.02970099449157715
13.152320623397827,-0.19742843508720398,-0.8608607053756714,0.9881380796432495,0.7660253643989563,0.05547612905502319,0.02970099449157715
13.1723952293396,-0.19825981557369232,-0.8601658940315247,0.9877864122390747,0.7664310932159424,0.055229656398296356,0.029512029141187668
13.192439317703247,-0.1990632265806198,-0.8595024347305298,0.9874172806739807,0.7668350338935852,0.05498407781124115,0.02932569570839405
13.212525129318237,-0.1990632265806198,-0.8595024347305298,0.9874172806739807,0.7668350338935852,0.05498407781124115,0.02932569570839405
13.232601165771484,-0.19984367489814758,-0.8588522672653198,0.9870417714118958,0.7672380208969116,0.05474523454904556,0.02914094366133213
13.252664566040039,-0.19984367489814758,-0.8588522672653198,0.9870417714118958,0.7672380208969116,0.05474523454904556,0.02914094366133213
13.272754192352295,-0.20060758292675018,-0.858197808265686,0.9866732358932495,0.7676403522491455,0.05451469123363495,0.028956949710845947
13.292810440063477,-0.20060758292675018,-0.858197808265686,0.9866732358932495,0.7676403522491455,0.05451469123363495,0.028956949710845947
13.312927007675171,-0.20136025547981262,-0.8575349450111389,0.9863169193267822,0.7680416107177734,0.054288316518068314,0.028773514553904533
13.332950592041016,-0.20210470259189606,-0.8568612933158875,0.9859715104103088,0.7684413194656372,0.05406804010272026,0.02858978882431984
13.35303020477295,-0.20210470259189606,-0.8568612933158875,0.9859715104103088,0.7684413194656372,0.05406804010272026,0.02858978882431984
13.373096704483032,-0.20283618569374084,-0.8561872839927673,0.9856271743774414,0.7688388228416443,0.05385594442486763,0.02840617299079895
13.393179178237915,-0.20283618569374084,-0.8561872839927673,0.9856271743774414,0.7688388228416443,0.05385594442486763,0.02840617299079895
13.413259744644165,-0.2035510241985321,-0.855522632598877,0.9852772951126099,0.7692335844039917,0.05365011841058731,0.028223104774951935
13.43330192565918,-0.2035510241985321,-0.855522632598877,0.9852772951126099,0.7692335844039917,0.05365011841058731,0.028223104774951935
13.453440189361572,-0.20424582064151764,-0.8548755645751953,0.9849175810813904,0.7696256041526794,0.05344737321138382,0.028040943667292595
13.473467350006104,-0.2049177587032318,-0.8542446494102478,0.9845486283302307,0.7700148820877075,0.05325032398104668,0.02785944938659668
13.493542432785034,-0.2049177587032318,-0.8542446494102478,0.9845486283302307,0.7700148820877075,0.05325032398104668,0.02785944938659668
13.513611793518066,-0.20556508004665375,-0.8536301255226135,0.9841700792312622,0.7704015374183655,0.05306084081530571,0.02767881751060486
13.53368067741394,-0.20556508004665375,-0.8536301255226135,0.9841700792312622,0.7704015374183655,0.05306084081530571,0.02767881751060486
13.553772211074829,-0.20618899166584015,-0.8530328869819641,0.9837843179702759,0.7707861661911011,0.05287284031510353,0.027498986572027206
13.57381558418274,-0.20618899166584015,-0.8530328869819641,0.9837843179702759,0.7707861661911011,0.05287284031510353,0.027498986572027206
13.593921422958374,-0.20678982138633728,-0.8524590730667114,0.9833885431289673,0.7711690068244934,0.05268128588795662,0.02732040174305439
13.614052057266235,-0.2073669284582138,-0.8519139885902405,0.9829766750335693,0.7715501189231873,0.05248698219656944,0.027143102139234543
13.634077310562134,-0.2073669284582138,-0.8519139885902405,0.9829766750335693,0.7715501189231873,0.05248698219656944,0.027143102139234543
13.654158592224121,-0.20792396366596222,-0.8513906598091125,0.9825521111488342,0.771930456161499,0.052292995154857635,0.026966707780957222
13.674225807189941,-0.20792396366596222,-0.8513906598091125,0.9825521111488342,0.771930456161499,0.052292995154857635,0.026966707780957222
13.694297313690186,-0.20846502482891083,-0.8508793115615845,0.9821226000785828,0.7723104953765869,0.05209988355636597,0.02679084613919258
13.714481353759766,-0.20898985862731934,-0.8503761291503906,0.9816890358924866,0.7726898193359375,0.05191288888454437,0.02661539614200592
13.734673976898193,-0.20898985862731934,-0.8503761291503906,0.9816890358924866,0.7726898193359375,0.05191288888454437,0.02661539614200592
13.754677534103394,-0.2094997763633728,-0.8498731255531311,0.9812570214271545,0.7730684876441956,0.05173489451408386,0.026439767330884933
13.774746894836426,-0.2094997763633728,-0.8498731255531311,0.9812570214271545,0.7730684876441956,0.05173489451408386,0.026439767330884933
13.794827461242676,-0.20999787747859955,-0.8493600487709045,0.9808343052864075,0.7734466195106506,0.051568228751420975,0.026263339444994926
13.814892530441284,-0.20999787747859955,-0.8493600487709045,0.9808343052864075,0.7734466195106506,0.051568228751420975,0.026263339444994926
13.834968328475952,-0.21048365533351898,-0.8488433361053467,0.9804179668426514,0.7738234400749207,0.05140836536884308,0.026086529716849327
13.855010986328125,-0.21095819771289825,-0.8483297228813171,0.9800042510032654,0.7741988301277161,0.05125059187412262,0.02590968646109104
13.875097274780273,-0.21095819771289825,-0.8483297228813171,0.9800042510032654,0.7741988301277161,0.05125059187412262,0.02590968646109104
13.895159482955933,-0.21142442524433136,-0.8478204011917114,0.9795903563499451,0.7745726108551025,0.05109501630067825,0.02573252283036709
13.915266036987305,-0.21142442524433136,-0.8478204011917114,0.9795903563499451,0.7745726108551025,0.05109501630067825,0.02573252283036709
13.935317754745483,-0.2118811011314392,-0.8473151326179504,0.979175865650177,0.7749447822570801,0.05094297602772713,0.025555431842803955
13.95538854598999,-0.2118811011314392,-0.8473151326179504,0.979175865650177,0.7749447822570801,0.05094297602772713,0.025555431842803955
13.975472211837769,-0.21232932806015015,-0.8468129634857178,0.9787606596946716,0.7753151655197144,0.050794538110494614,0.025378316640853882
13.995505094528198,-0.21276800334453583,-0.8463165163993835,0.9783424735069275,0.7756837606430054,0.050649866461753845,0.025201262906193733
14.015592813491821,-0.21276800334453583,-0.8463165163993835,0.9783424735069275,0.7756837606430054,0.050649866461753845,0.025201262906193733
14.03567099571228,-0.21319688856601715,-0.8458276987075806,0.9779216051101685,0.7760502696037292,0.0505075678229332,0.0250244103372097
14.055738925933838,-0.21319688856601715,-0.8458276987075806,0.9779216051101685,0.7760502696037292,0.0505075678229332,0.0250244103372097
14.075810194015503,-0.2136157602071762,-0.845344603061676,0.9775009155273438,0.7764149904251099,0.05036577954888344,0.02484804205596447
14.095898151397705,-0.2136157602071762,-0.845344603061676,0.9775009155273438,0.7764149904251099,0.05036577954888344,0.02484804205596447
14.11595368385315,-0.21402685344219208,-0.8448664546012878,0.977080225944519,0.7767777442932129,0.05022596940398216,0.024672096595168114
14.136019229888916,-0.21442900598049164,-0.8443939089775085,0.9766579270362854,0.7771386504173279,0.05008949339389801,0.024496758356690407
14.156093835830688,-0.21442900598049164,-0.8443939089775085,0.9766579270362854,0.7771386504173279,0.05008949339389801,0.024496758356690407
14.176164150238037,-0.2148199826478958,-0.8439263701438904,0.9762348532676697,0.7774977087974548,0.04995683580636978,0.024322206154465675
14.196229934692383,-0.2148199826478958,-0.8439263701438904,0.9762348532676697,0.7774977087974548,0.04995683580636978,0.024322206154465675
14.216300010681152,-0.2152004837989807,-0.8434606194496155,0.9758133888244629,0.7778546810150146,0.04983023926615715,0.024148404598236084
14.236371994018555,-0.2152004837989807,-0.8434606194496155,0.9758133888244629,0.7778546810150146,0.04983023926615715,0.024148404598236084
14.256431579589844,-0.21556991338729858,-0.8429978489875793,0.9753929376602173,0.7782095670700073,0.049708522856235504,0.023975176736712456
14.276511192321777,-0.2159261703491211,-0.8425417542457581,0.9749702215194702,0.7785623669624329,0.049591731280088425,0.02380235679447651
14.29657769203186,-0.2159261703491211,-0.8425417542457581,0.9749702215194702,0.7785623669624329,0.049591731280088425,0.02380235679447651
14.316655158996582,-0.2162700593471527,-0.842092752456665,0.9745471477508545,0.7789134979248047,0.049476951360702515,0.023629767820239067
14.336716651916504,-0.2162700593471527,-0.842092752456665,0.9745471477508545,0.7789134979248047,0.049476951360702515,0.023629767820239067
14.35678482055664,-0.21660293638706207,-0.8416498303413391,0.9741218090057373,0.7792630195617676,0.04936763271689415,0.023456983268260956
14.376861095428467,-0.21660293638706207,-0.8416498303413391,0.9741218090057373,0.7792630195617676,0.04936763271689415,0.023456983268260956
14.39694094657898,-0.21692511439323425,-0.8412120938301086,0.9736934900283813,0.7796115279197693,0.04926250874996185,0.023283720016479492
14.417054653167725,-0.21723753213882446,-0.8407793045043945,0.9732621908187866,0.7799588441848755,0.04916113615036011,0.02310996688902378
14.437127113342285,-0.21723753213882446,-0.8407793045043945,0.9732621908187866,0.7799588441848755,0.04916113615036011,0.02310996688902378
14.457198858261108,-0.21754170954227448,-0.8403525352478027,0.9728294014930725,0.7803048491477966,0.049060918390750885,0.022936366498470306
14.477339029312134,-0.21754170954227448,-0.8403525352478027,0.9728294014930725,0.7803048491477966,0.049060918390750885,0.022936366498470306
14.497367858886719,-0.21783849596977234,-0.8399298191070557,0.9723960161209106,0.7806493043899536,0.048962753266096115,0.02276318147778511
14.517422914505005,-0.21813082695007324,-0.8395097255706787,0.9719648361206055,0.7809920907020569,0.048863936215639114,0.02259056642651558
14.537507772445679,-0.21813082695007324,-0.8395097255706787,0.9719648361206055,0.7809920907020569,0.048863936215639114,0.02259056642651558
14.557597398757935,-0.21841707825660706,-0.8390921950340271,0.9715365171432495,0.7813331484794617,0.0487656444311142,0.022418776527047157
14.577656507492065,-0.21841707825660706,-0.8390921950340271,0.9715365171432495,0.7813331484794617,0.0487656444311142,0.022418776527047157
14.597730159759521,-0.21869701147079468,-0.8386818170547485,0.9711056351661682,0.7816721796989441,0.04866935312747955,0.022247688844799995
14.61780571937561,-0.21869701147079468,-0.8386818170547485,0.9711056351661682,0.7816721796989441,0.04866935312747955,0.022247688844799995
14.638115406036377,-0.21897050738334656,-0.8382726311683655,0.9706762433052063,0.7820096015930176,0.048575472086668015,0.02207680605351925
