liuyurong129/humanoid-gym/humanoid/data/target_q_20250522-041410.csv
timestamp,joint_1,joint_2,joint_3,joint_4,joint_5,joint_6
0.00028967857360839844,0.0,0.0,0.0,0.0,0.0,0.0
0.020444393157958984,0.0,0.0,0.0,0.0,0.0,0.0
0.040463924407958984,0.0,0.0,0.0,0.0,0.0,0.0
0.06054353713989258,0.0,0.0,0.0,0.0,0.0,0.0
0.08062887191772461,0.0,0.0,0.0,0.0,0.0,0.0
0.10068106651306152,0.2546008229255676,-0.27645814418792725,0.3006376028060913,0.6537894606590271,-0.0052677905187010765,0.2806355953216553
0.12077498435974121,0.25154876708984375,-0.27817195653915405,0.3038133680820465,0.6529780626296997,-0.003310306929051876,0.2814389765262604
0.14082908630371094,0.25004106760025024,-0.27893880009651184,0.3050079047679901,0.6524612903594971,-0.0024035831447690725,0.2818506956100464
0.1609179973602295,0.2470627725124359,-0.28033265471458435,0.30682188272476196,0.6513187289237976,-0.0006657500634901226,0.2826949656009674
0.18104243278503418,0.24411199986934662,-0.28156453371047974,0.3079977333545685,0.650111198425293,0.0010108035057783127,0.2835651934146881
0.20113468170166016,0.24265308678150177,-0.2821572721004486,0.3085641860961914,0.6495513319969177,0.001868376275524497,0.2839958965778351
0.2212831974029541,0.23977670073509216,-0.2833169996738434,0.3096734881401062,0.6484652161598206,0.00357668730430305,0.2848425805568695
0.24137449264526367,0.2383684664964676,-0.2838844358921051,0.3101794123649597,0.647907018661499,0.004409375134855509,0.2852608859539032
0.26149797439575195,0.23557034134864807,-0.28498825430870056,0.310985267162323,0.6467053890228271,0.00599033385515213,0.2860969603061676
0.28160738945007324,0.23275749385356903,-0.2860533595085144,0.31154873967170715,0.6454163193702698,0.007467359304428101,0.2869300842285156
0.301699161529541,0.23135501146316528,-0.28657621145248413,0.31179001927375793,0.6447685360908508,0.008187715895473957,0.28734153509140015
0.32176685333251953,0.2286318987607956,-0.2876206934452057,0.3123456835746765,0.6435224413871765,0.009642884135246277,0.28813955187797546
0.3425111770629883,0.22732755541801453,-0.2881447672843933,0.3126673400402069,0.6429229974746704,0.010381686501204967,0.2885250151157379
0.3627352714538574,0.22474589943885803,-0.2891789674758911,0.31335321068763733,0.6417463421821594,0.01185216847807169,0.2892740070819855
0.3836057186126709,0.22214549779891968,-0.2901846766471863,0.31403154134750366,0.6405770778656006,0.013288261368870735,0.2900003492832184
0.40370965003967285,0.22084826231002808,-0.290679007768631,0.3143462836742401,0.6399868130683899,0.013985620811581612,0.29035645723342896
0.42377376556396484,0.21831463277339935,-0.29166379570961,0.31495723128318787,0.638800323009491,0.015353411436080933,0.29105058312416077
0.44391751289367676,0.21708080172538757,-0.29215338826179504,0.31525319814682007,0.6382068991661072,0.016027351841330528,0.2913888692855835
0.46402502059936523,0.21465541422367096,-0.29311874508857727,0.3158566355705261,0.6370389461517334,0.017371267080307007,0.29204753041267395
0.4841163158416748,0.21345433592796326,-0.2935912609100342,0.3161383867263794,0.6364538669586182,0.018032792955636978,0.2923704981803894
0.504218578338623,0.2111060470342636,-0.2945232093334198,0.3166731595993042,0.6352768540382385,0.019338034093379974,0.2930017411708832
0.5245206356048584,0.20881856977939606,-0.29543837904930115,0.3171575367450714,0.6340845227241516,0.020612357184290886,0.29361388087272644
0.5446178913116455,0.2076949179172516,-0.29589182138442993,0.3174057602882385,0.6334890723228455,0.021243033930659294,0.2939103841781616
0.5646638870239258,0.2054777294397354,-0.29678982496261597,0.31790846586227417,0.6322973966598511,0.022483307868242264,0.2944837212562561
0.5847527980804443,0.2043745517730713,-0.29723602533340454,0.3181861340999603,0.6317117810249329,0.02309512533247471,0.29475799202919006
0.6048264503479004,0.20219534635543823,-0.2981223165988922,0.3187926113605499,0.6305683255195618,0.024310437962412834,0.2952824532985687
0.6249220371246338,0.20111359655857086,-0.2985597252845764,0.3191128373146057,0.6300070881843567,0.02491530403494835,0.2955341339111328
0.6449902057647705,0.19898083806037903,-0.29942429065704346,0.3197667598724365,0.6289008259773254,0.026115935295820236,0.2960180342197418
0.6650369167327881,0.19689077138900757,-0.3002746105194092,0.3204461336135864,0.6278226375579834,0.02731279656291008,0.29647552967071533
0.6851348876953125,0.1958482712507248,-0.30069300532341003,0.3207884430885315,0.6272932887077332,0.027903243899345398,0.296695351600647
0.7052102088928223,0.19377245008945465,-0.3015079200267792,0.32145464420318604,0.6262514591217041,0.029076367616653442,0.2971227467060089
0.7252969741821289,0.19274891912937164,-0.3019062578678131,0.32177963852882385,0.6257361769676208,0.02965681441128254,0.297330379486084
0.7453792095184326,0.19077208638191223,-0.3026914596557617,0.3224383294582367,0.6247196793556213,0.03081420622766018,0.29773131012916565
0.7654926776885986,0.18889325857162476,-0.3034641444683075,0.3230331540107727,0.6236788630485535,0.03194649890065193,0.2981193959712982
0.785646915435791,0.18797636032104492,-0.30384382605552673,0.3232903778553009,0.6231411099433899,0.032497528940439224,0.2983101010322571
0.8057351112365723,0.18616975843906403,-0.3045913577079773,0.32372498512268066,0.622039258480072,0.0335637703537941,0.2986847162246704
0.8257362842559814,0.1844257116317749,-0.30533280968666077,0.3241291046142578,0.6209359765052795,0.034603968262672424,0.29904255270957947
0.8458268642425537,0.1835729032754898,-0.30570295453071594,0.32434791326522827,0.6204045414924622,0.03512314334511757,0.29921287298202515
0.8658978939056396,0.18186503648757935,-0.3064301013946533,0.3247932195663452,0.6193773746490479,0.03616100922226906,0.29954126477241516
0.8860893249511719,0.18099625408649445,-0.30678513646125793,0.32504281401634216,0.618889570236206,0.03668278828263283,0.2996981143951416
0.9061930179595947,0.17926736176013947,-0.30748263001441956,0.32559987902641296,0.617939293384552,0.037730783224105835,0.2999964952468872
0.9263279438018799,0.17842642962932587,-0.3078291118144989,0.32591530680656433,0.6174749135971069,0.038258083164691925,0.3001362383365631
0.9463982582092285,0.17682339251041412,-0.3085183799266815,0.32657089829444885,0.6165487766265869,0.039311762899160385,0.3003998398780823
0.9666459560394287,0.17605479061603546,-0.3088606894016266,0.3269173502922058,0.6160928606987,0.039838749915361404,0.300523042678833
0.9868013858795166,0.17456692457199097,-0.30953437089920044,0.32758283615112305,0.615173876285553,0.040883228182792664,0.3007592260837555
1.0068600177764893,0.17309482395648956,-0.31018978357315063,0.32820752263069153,0.6142448782920837,0.0419037751853466,0.30098244547843933
1.02699613571167,0.17233818769454956,-0.310506671667099,0.32850176095962524,0.6137775778770447,0.042401764541864395,0.3010903000831604
1.0472493171691895,0.17080658674240112,-0.31112393736839294,0.32907310128211975,0.6128360629081726,0.04337131977081299,0.30129584670066833
1.0672833919525146,0.17005027830600739,-0.31143006682395935,0.32937151193618774,0.6123661398887634,0.043845564126968384,0.30139046907424927
1.087369441986084,0.16861216723918915,-0.312040239572525,0.32995009422302246,0.6114080548286438,0.04477633535861969,0.30156660079956055
1.1077311038970947,0.16720636188983917,-0.31263959407806396,0.33053532242774963,0.6104443669319153,0.04568108171224594,0.30172351002693176
1.127880334854126,0.16649940609931946,-0.3129296600818634,0.33080434799194336,0.6099554300308228,0.04612226411700249,0.30179834365844727
1.1480472087860107,0.16512149572372437,-0.31350404024124146,0.3313661217689514,0.6089968681335449,0.04700445756316185,0.3019319474697113
1.168163537979126,0.1644701510667801,-0.3137928545475006,0.33166393637657166,0.6085262298583984,0.047446731477975845,0.30198925733566284
1.1881003379821777,0.1632576584815979,-0.31437110900878906,0.33226558566093445,0.6075994372367859,0.048337671905756,0.30208873748779297
1.2084674835205078,0.1620977520942688,-0.3149401843547821,0.33288025856018066,0.6066904067993164,0.049224622547626495,0.3021697700023651
1.2285988330841064,0.16152164340019226,-0.3152181804180145,0.3331913352012634,0.6062451601028442,0.04966699331998825,0.3022046685218811
1.2487132549285889,0.16037102043628693,-0.3157620131969452,0.33383259177207947,0.6053782105445862,0.05055136978626251,0.302262544631958
1.2687575817108154,0.15979915857315063,-0.3160279095172882,0.3341529071331024,0.6049537658691406,0.05099256709218025,0.3022862374782562
1.2889142036437988,0.1586655229330063,-0.3165452778339386,0.3347873389720917,0.6041263341903687,0.051874469965696335,0.3023243546485901
1.308990240097046,0.15754003822803497,-0.3170454800128937,0.3353815972805023,0.6032934784889221,0.05273251235485077,0.302352637052536
1.3291301727294922,0.15698136389255524,-0.31728842854499817,0.3356548249721527,0.60286945104599,0.0531495176255703,0.302364319562912
1.3492112159729004,0.15587499737739563,-0.31775930523872375,0.3361567258834839,0.6020079851150513,0.053966931998729706,0.3023834824562073
1.369335412979126,0.15532313287258148,-0.31798484921455383,0.33638039231300354,0.6015740036964417,0.05436678230762482,0.3023916184902191
1.3894455432891846,0.15425482392311096,-0.31843066215515137,0.3368704617023468,0.6007348299026489,0.05517296493053436,0.30239519476890564
1.4095633029937744,0.15325547754764557,-0.3188806176185608,0.3374205231666565,0.5999153852462769,0.05597718805074692,0.302378386259079
1.4296386241912842,0.15278567373752594,-0.319107323884964,0.33772677183151245,0.5995170474052429,0.056383080780506134,0.30236148834228516
1.4497671127319336,0.15186457335948944,-0.31955230236053467,0.33837783336639404,0.5987287163734436,0.05719378590583801,0.3023150563240051
1.469862937927246,0.15140487253665924,-0.31976765394210815,0.33871227502822876,0.5983357429504395,0.05759609118103981,0.302286833524704
1.4899394512176514,0.15046176314353943,-0.3201764225959778,0.3393220603466034,0.5975239276885986,0.058372557163238525,0.30222734808921814
1.5100185871124268,0.14950989186763763,-0.3205670118331909,0.3399094045162201,0.5967150926589966,0.059127431362867355,0.3021557331085205
1.5301182270050049,0.14904674887657166,-0.32075878977775574,0.34018707275390625,0.5963067412376404,0.05949364975094795,0.30211544036865234
1.5501928329467773,0.1481749564409256,-0.32114434242248535,0.34079593420028687,0.5955170392990112,0.06022606045007706,0.302017480134964
1.5712170600891113,0.14738263189792633,-0.3215244710445404,0.3414321541786194,0.5947368741035461,0.06096358597278595,0.3019030690193176
1.5913941860198975,0.14699609577655792,-0.32171010971069336,0.3417767882347107,0.5943561792373657,0.06133822724223137,0.3018386960029602
1.6114413738250732,0.14621540904045105,-0.322060763835907,0.34242990612983704,0.5935803651809692,0.06209065020084381,0.30170533061027527
1.6315548419952393,0.14581751823425293,-0.32222703099250793,0.34272661805152893,0.5931838154792786,0.06246092915534973,0.3016365170478821
1.6516284942626953,0.14504122734069824,-0.3225537836551666,0.3433031737804413,0.592396080493927,0.06318925321102142,0.3014865517616272
1.6717166900634766,0.1446700394153595,-0.32271435856819153,0.34358611702919006,0.592013955116272,0.0635497123003006,0.30140578746795654
1.6917989253997803,0.14396969974040985,-0.3230271637439728,0.3440842628479004,0.5912453532218933,0.06424837559461594,0.3012404143810272
1.711850643157959,0.14330916106700897,-0.323322594165802,0.3445539176464081,0.5904828906059265,0.0649455338716507,0.30106931924819946
1.7319583892822266,0.1429898589849472,-0.32346516847610474,0.3447737693786621,0.590090274810791,0.0652877688407898,0.30098193883895874
1.7520241737365723,0.14237593114376068,-0.32374289631843567,0.3451888859272003,0.5892813205718994,0.06596125662326813,0.30080142617225647
1.7724308967590332,0.14208301901817322,-0.323879599571228,0.3453853726387024,0.5888693928718567,0.06629081815481186,0.3007074296474457
1.7926139831542969,0.14151126146316528,-0.32414764165878296,0.34573549032211304,0.5880435109138489,0.06692694872617722,0.30051344633102417
1.8127975463867188,0.14096426963806152,-0.32441022992134094,0.34610801935195923,0.5872611403465271,0.06756220757961273,0.30030664801597595
1.8328959941864014,0.1406743973493576,-0.32453471422195435,0.3462899923324585,0.5868808627128601,0.06787174195051193,0.3002009093761444
1.852961778640747,0.14007005095481873,-0.3247714638710022,0.34667912125587463,0.5861393213272095,0.0684833750128746,0.29998233914375305
1.8730697631835938,0.13976246118545532,-0.3248841166496277,0.3468687832355499,0.5857644081115723,0.06878185272216797,0.2998707592487335
1.8931512832641602,0.13916903734207153,-0.3251039981842041,0.34722375869750977,0.5850146412849426,0.06937029957771301,0.29964253306388855
1.9132485389709473,0.13889539241790771,-0.3252132833003998,0.34738996624946594,0.5846396088600159,0.06966213136911392,0.29952555894851685
1.9333646297454834,0.13841649889945984,-0.32543864846229553,0.3477835953235626,0.5839089155197144,0.0702538937330246,0.29927632212638855
1.9534835815429688,0.13819971680641174,-0.32555246353149414,0.3479953110218048,0.5835469961166382,0.07054723054170609,0.29914534091949463
1.9735665321350098,0.13780955970287323,-0.325777143239975,0.34840527176856995,0.5827953219413757,0.07112352550029755,0.2988744378089905
1.9936096668243408,0.13763047754764557,-0.32588696479797363,0.34860965609550476,0.5824158787727356,0.07141279429197311,0.2987331748008728
2.013701915740967,0.1372716873884201,-0.32609403133392334,0.3490578830242157,0.5816576480865479,0.07199622690677643,0.29843586683273315
2.033769369125366,0.13686591386795044,-0.3262731432914734,0.34952443838119507,0.5809110403060913,0.07257917523384094,0.2981245219707489
2.053903102874756,0.1366485208272934,-0.3263532221317291,0.34975260496139526,0.5805420875549316,0.07286324352025986,0.29796499013900757
2.0739643573760986,0.1362469643354416,-0.3265089690685272,0.3501690924167633,0.5798109173774719,0.07341903448104858,0.29764044284820557
2.094040632247925,0.1360737532377243,-0.32658687233924866,0.3503502607345581,0.5794427990913391,0.07368943095207214,0.29747605323791504
2.114168643951416,0.13579103350639343,-0.3267503082752228,0.3507344424724579,0.5787099003791809,0.07422670722007751,0.2971348762512207
2.1346395015716553,0.13555148243904114,-0.3269093632698059,0.35110098123550415,0.57794189453125,0.07475113123655319,0.2967824935913086
2.154736280441284,0.13543079793453217,-0.3269849717617035,0.351298063993454,0.5775505304336548,0.07500985264778137,0.296599805355072
2.1747984886169434,0.1351291537284851,-0.32711586356163025,0.3516813814640045,0.5767627358436584,0.07550974935293198,0.2962261140346527
2.194896936416626,0.13495658338069916,-0.32717469334602356,0.3518598973751068,0.576371431350708,0.0757463201880455,0.29603520035743713
2.2150139808654785,0.13463161885738373,-0.3272910714149475,0.35228461027145386,0.5756271481513977,0.07621731609106064,0.2956360876560211
2.2352185249328613,0.1345054656267166,-0.32735151052474976,0.35254377126693726,0.5752819180488586,0.0764634758234024,0.2954271733760834
2.2553725242614746,0.13429340720176697,-0.3274611234664917,0.353071928024292,0.574614942073822,0.07698002457618713,0.29500386118888855
2.2756567001342773,0.1341203898191452,-0.3275547921657562,0.35360583662986755,0.5739705562591553,0.07752443850040436,0.2945719361305237
2.2957496643066406,0.13404348492622375,-0.32759541273117065,0.3538336753845215,0.5736363530158997,0.07779175043106079,0.29435500502586365
2.3158605098724365,0.1339114010334015,-0.3276693820953369,0.35430988669395447,0.5729765295982361,0.07832355797290802,0.293908029794693
2.3359241485595703,0.1338469535112381,-0.32770001888275146,0.3545317053794861,0.5726311802864075,0.07857698202133179,0.293681263923645
2.3560292720794678,0.13370917737483978,-0.3277452290058136,0.35487619042396545,0.5719001889228821,0.079042449593544,0.29322975873947144
2.3761351108551025,0.13364143669605255,-0.327761173248291,0.35499197244644165,0.5715059041976929,0.07925164699554443,0.29300588369369507
2.3962066173553467,0.13352902233600616,-0.3277883529663086,0.3552379608154297,0.5707376003265381,0.0796743631362915,0.2925490140914917
2.4163267612457275,0.133478581905365,-0.3277999758720398,0.355379194021225,0.5703748464584351,0.0798947811126709,0.2923152446746826
2.436539649963379,0.13340039551258087,-0.3278215527534485,0.35566386580467224,0.5696788430213928,0.08035367727279663,0.291839599609375
2.456793785095215,0.1333552449941635,-0.32784172892570496,0.3559892475605011,0.5690363049507141,0.08083304017782211,0.2913498878479004
2.476949453353882,0.13334058225154877,-0.32784751057624817,0.3561631739139557,0.5687286257743835,0.08107857406139374,0.2911018431186676
2.4970059394836426,0.13329558074474335,-0.3278465270996094,0.3565501272678375,0.5681350231170654,0.08156581223011017,0.2905999422073364
2.517075538635254,0.13327556848526,-0.3278403580188751,0.35676392912864685,0.5678417086601257,0.08181346207857132,0.29034677147865295
2.537282943725586,0.1332533210515976,-0.32781824469566345,0.357144832611084,0.5672303438186646,0.08229856193065643,0.28984254598617554
2.5573513507843018,0.1332404911518097,-0.32780060172080994,0.35730984807014465,0.5669105648994446,0.08253147453069687,0.28959140181541443
2.577425003051758,0.13322558999061584,-0.3277588486671448,0.3576608896255493,0.5662738680839539,0.08299171179533005,0.2890816926956177
2.5979294776916504,0.13322286307811737,-0.32770779728889465,0.3580102026462555,0.5656405091285706,0.08344440907239914,0.2885657250881195
2.618016481399536,0.13323521614074707,-0.32768020033836365,0.3581894338130951,0.5653260946273804,0.08366952836513519,0.28830477595329285
2.6382014751434326,0.13327747583389282,-0.3276193141937256,0.358503520488739,0.5646783709526062,0.08409637957811356,0.28778186440467834
2.658298969268799,0.13328318297863007,-0.32758185267448425,0.3586113154888153,0.5643272399902344,0.0842849463224411,0.287522554397583
2.6783599853515625,0.13327163457870483,-0.3274984657764435,0.35884955525398254,0.5636029839515686,0.08463995903730392,0.28699517250061035
2.6984260082244873,0.13326452672481537,-0.32745665311813354,0.3589889109134674,0.563234806060791,0.08480346947908401,0.2867237329483032
2.718496084213257,0.13328102231025696,-0.3273733854293823,0.3592628538608551,0.5625158548355103,0.0851312205195427,0.2861706018447876
2.7385551929473877,0.13337846100330353,-0.32729312777519226,0.3595903813838959,0.5618373155593872,0.08548315614461899,0.28559860587120056
2.758665084838867,0.1334460824728012,-0.32724738121032715,0.3597347140312195,0.5615001916885376,0.08566883951425552,0.28531187772750854
2.778751850128174,0.13361932337284088,-0.32714569568634033,0.3600456118583679,0.5608338117599487,0.08605820685625076,0.28473058342933655
2.7988181114196777,0.13372275233268738,-0.327089786529541,0.3602152466773987,0.5605059862136841,0.08626148849725723,0.2844356298446655
2.818897247314453,0.13393189013004303,-0.3269682824611664,0.36045676469802856,0.5598204135894775,0.0866420716047287,0.2838476300239563
2.839045286178589,0.13409046828746796,-0.32682713866233826,0.3606467843055725,0.5591250061988831,0.08699251711368561,0.28325676918029785
2.859177350997925,0.13413986563682556,-0.3267481029033661,0.3607034385204315,0.5587775707244873,0.08715380728244781,0.28296318650245667
2.8793320655822754,0.13420455157756805,-0.32658129930496216,0.36081957817077637,0.5581097602844238,0.08746149390935898,0.2823721170425415
2.899445056915283,0.1342536211013794,-0.32649967074394226,0.3608838617801666,0.5577885508537292,0.0876152291893959,0.2820739150047302
2.919532537460327,0.1344023197889328,-0.32633987069129944,0.3609775900840759,0.5571427345275879,0.08792176097631454,0.28147685527801514
2.9396634101867676,0.1345054656267166,-0.326261043548584,0.361014723777771,0.5568169355392456,0.08807805180549622,0.2811771631240845
2.9597513675689697,0.13475263118743896,-0.32610151171684265,0.36114099621772766,0.5561859011650085,0.08841686695814133,0.2805684804916382
2.9799797534942627,0.13495796918869019,-0.3259272873401642,0.361234575510025,0.5555387735366821,0.08873793482780457,0.27995750308036804
3.000056743621826,0.1350422352552414,-0.3258359730243683,0.36125805974006653,0.5551934838294983,0.08887828886508942,0.2796511948108673
3.0201218128204346,0.1351841390132904,-0.3256515562534332,0.36119508743286133,0.5544591546058655,0.08909923583269119,0.27904176712036133
3.040208101272583,0.135369673371315,-0.3254740536212921,0.3610248565673828,0.55367511510849,0.08926130831241608,0.2784331738948822
3.06040096282959,0.13548697531223297,-0.32538726925849915,0.3609147369861603,0.5532820820808411,0.08933977782726288,0.2781292498111725
3.080437183380127,0.13573534786701202,-0.3252095878124237,0.3606643080711365,0.5524803400039673,0.08949633687734604,0.2775225043296814
3.1005141735076904,0.13584204018115997,-0.32511577010154724,0.36055415868759155,0.5520851612091064,0.08958166092634201,0.2772173583507538
3.1205854415893555,0.1360289454460144,-0.3249257802963257,0.360342413187027,0.5513057112693787,0.08974011242389679,0.2766004502773285
3.1406662464141846,0.13612444698810577,-0.3248326778411865,0.3602439761161804,0.5509212017059326,0.0898117870092392,0.27628740668296814
3.160738229751587,0.13636253774166107,-0.32465916872024536,0.3601358234882355,0.5501931309700012,0.0899457260966301,0.2756427526473999
3.180795192718506,0.13663999736309052,-0.3244870603084564,0.3600367307662964,0.5494683384895325,0.09006833285093307,0.2749902904033661
3.200899124145508,0.13677527010440826,-0.32439711689949036,0.3599948585033417,0.5491111874580383,0.09013107419013977,0.2746622562408447
3.220966339111328,0.13703353703022003,-0.32420745491981506,0.35982680320739746,0.548378050327301,0.09025341272354126,0.27401235699653625
3.241060733795166,0.13715891540050507,-0.3241097927093506,0.3596934974193573,0.5479989647865295,0.09030470997095108,0.27369004487991333
3.2612106800079346,0.13743449747562408,-0.3239201605319977,0.3593892455101013,0.5472214818000793,0.09038329124450684,0.273041695356369
3.281512498855591,0.13774147629737854,-0.3237418532371521,0.3590431809425354,0.5464249849319458,0.09042499959468842,0.27238747477531433
3.3016042709350586,0.13790681958198547,-0.3236561119556427,0.3588751554489136,0.5460302829742432,0.0904415175318718,0.2720572352409363
3.3216476440429688,0.13821907341480255,-0.3234776556491852,0.35852593183517456,0.5452706813812256,0.0904819518327713,0.2713988721370697
3.342132806777954,0.13837459683418274,-0.3233841359615326,0.3583468496799469,0.5448998808860779,0.09050963819026947,0.2710713744163513
3.3622279167175293,0.13867920637130737,-0.3231930136680603,0.35803481936454773,0.5441832542419434,0.09057124704122543,0.2704126238822937
3.382296323776245,0.1389794796705246,-0.32300207018852234,0.3577345311641693,0.5434520244598389,0.09061022102832794,0.2697490155696869
3.402379035949707,0.1391173005104065,-0.3229059875011444,0.357584148645401,0.5430746674537659,0.09061481803655624,0.2694147825241089
3.4224748611450195,0.13935159146785736,-0.3227088153362274,0.35721611976623535,0.5422976016998291,0.09059331566095352,0.2687488794326782
3.4426989555358887,0.13952982425689697,-0.3225027322769165,0.35676899552345276,0.5414947271347046,0.09053149074316025,0.2680870592594147
3.46279239654541,0.13960984349250793,-0.32240235805511475,0.35651057958602905,0.5410877466201782,0.09047861397266388,0.26775673031806946
3.482853412628174,0.13981379568576813,-0.3222167193889618,0.356010377407074,0.5402721166610718,0.0903477743268013,0.26708686351776123
3.5029335021972656,0.13995064795017242,-0.3221335709095001,0.35578611493110657,0.539874792098999,0.09027784317731857,0.26674506068229675
3.5230143070220947,0.14028772711753845,-0.32197585701942444,0.3553842008113861,0.5391074419021606,0.09015882015228271,0.26605224609375
3.543268918991089,0.14068268239498138,-0.3218161463737488,0.35503628849983215,0.5383757948875427,0.09007740020751953,0.26535096764564514
3.5633814334869385,0.14088036119937897,-0.32173213362693787,0.35483604669570923,0.5380058884620667,0.09003529697656631,0.2650023102760315
3.5834500789642334,0.14125122129917145,-0.32155266404151917,0.35443535447120667,0.5372558832168579,0.08994113653898239,0.2643037438392639
3.6035263538360596,0.1414136439561844,-0.32145774364471436,0.3542281985282898,0.5368698239326477,0.08987873792648315,0.26395368576049805
3.6236603260040283,0.14171069860458374,-0.32126691937446594,0.35371920466423035,0.5360270142555237,0.08969298005104065,0.2632545232772827
3.643887996673584,0.14184677600860596,-0.3211725652217865,0.3534208834171295,0.5355809330940247,0.08956893533468246,0.26290398836135864
3.6639957427978516,0.14209091663360596,-0.3209835886955261,0.3527996838092804,0.5346646308898926,0.08927503228187561,0.2621966600418091
3.6841113567352295,0.14228975772857666,-0.3207908868789673,0.35212916135787964,0.5337356925010681,0.0889325737953186,0.26148590445518494
3.7041983604431152,0.14239507913589478,-0.3206934928894043,0.3518235981464386,0.5332812070846558,0.0887676402926445,0.2611253559589386
3.7242701053619385,0.14268140494823456,-0.3205084800720215,0.3512583374977112,0.5323970913887024,0.08846527338027954,0.26039180159568787
3.744389057159424,0.14285847544670105,-0.32041803002357483,0.35099849104881287,0.5319705009460449,0.08833395689725876,0.26001930236816406
3.764477491378784,0.14325907826423645,-0.32023438811302185,0.3505997359752655,0.5311684608459473,0.08811388909816742,0.25925618410110474
3.784525156021118,0.14362582564353943,-0.3200295865535736,0.35020163655281067,0.5303698778152466,0.08789815753698349,0.2584867477416992
3.8046839237213135,0.14379827678203583,-0.3199194669723511,0.35001805424690247,0.5299788117408752,0.08779633045196533,0.2580980658531189
3.824714422225952,0.1440953016281128,-0.3196893334388733,0.3495383858680725,0.5291850566864014,0.08756154030561447,0.2573256194591522
3.844844341278076,0.1443602740764618,-0.3194575011730194,0.3489592969417572,0.5283863544464111,0.08728542923927307,0.25655385851860046
3.8650145530700684,0.14445772767066956,-0.319340318441391,0.3485865890979767,0.5279594659805298,0.08710585534572601,0.25617271661758423
3.8850934505462646,0.14463771879673004,-0.31910690665245056,0.34779322147369385,0.5270720720291138,0.08671452850103378,0.255409836769104
3.9051899909973145,0.1447186917066574,-0.3189915418624878,0.34734591841697693,0.52660071849823,0.08649123460054398,0.2550300359725952
3.9252331256866455,0.14490677416324615,-0.3187708854675293,0.3463590443134308,0.5256249904632568,0.08601519465446472,0.25427374243736267
3.945390224456787,0.14500980079174042,-0.3186666667461395,0.34582847356796265,0.5251275300979614,0.08575703203678131,0.25389599800109863
3.96541166305542,0.14523695409297943,-0.31847354769706726,0.34479978680610657,0.5241439938545227,0.08522400259971619,0.2531313896179199
3.985501289367676,0.14535124599933624,-0.3183821439743042,0.34430909156799316,0.5236604809761047,0.08495287597179413,0.25274431705474854
4.0057053565979,0.1455467790365219,-0.3182023763656616,0.34331440925598145,0.5226988792419434,0.08439160138368607,0.2519691586494446
4.025938510894775,0.14569316804409027,-0.31802037358283997,0.3423095643520355,0.5217363238334656,0.08381247520446777,0.25119325518608093
4.0460288524627686,0.14572742581367493,-0.31792375445365906,0.3417736887931824,0.5212394595146179,0.08350387215614319,0.2508084774017334
4.0661301612854,0.14575235545635223,-0.3177247643470764,0.3406960368156433,0.5202263593673706,0.08285718411207199,0.25003623962402344
4.0862603187561035,0.14574885368347168,-0.3176242411136627,0.34017089009284973,0.5197182297706604,0.08252072334289551,0.24964599311351776
4.106283664703369,0.14574818313121796,-0.3174338638782501,0.3390978276729584,0.5186883807182312,0.08182322978973389,0.2488592267036438
4.126415014266968,0.1457492709159851,-0.317344069480896,0.3385331332683563,0.5181480050086975,0.08145461976528168,0.24846284091472626
4.146580696105957,0.14576691389083862,-0.31717026233673096,0.33743104338645935,0.5170586109161377,0.08071132004261017,0.24765600264072418
4.166610240936279,0.14572347700595856,-0.31699907779693604,0.33620497584342957,0.515888512134552,0.0798865333199501,0.24684301018714905
4.186688423156738,0.14566317200660706,-0.3169102966785431,0.335562527179718,0.5152978897094727,0.07945617288351059,0.24643470346927643
4.206769704818726,0.1455034762620926,-0.3167438507080078,0.33415520191192627,0.5140817761421204,0.07854700833559036,0.2456173300743103
4.227273941040039,0.14540164172649384,-0.31666505336761475,0.3333880305290222,0.5134527683258057,0.07806700468063354,0.2452094405889511
4.247425079345703,0.14518345892429352,-0.3165266811847687,0.33182185888290405,0.5121690034866333,0.07705583423376083,0.2443832904100418
4.267865419387817,0.14494767785072327,-0.3164198100566864,0.33015960454940796,0.5108340978622437,0.07596455514431,0.24354760348796844
4.287958860397339,0.14485116302967072,-0.3163811266422272,0.32933223247528076,0.5101715326309204,0.07541236281394958,0.24312259256839752
4.308123350143433,0.14469562470912933,-0.3163246810436249,0.3276396691799164,0.5088546276092529,0.07430748641490936,0.24226637184619904
4.32827615737915,0.144627183675766,-0.31630295515060425,0.3267528712749481,0.5081881880760193,0.07374908030033112,0.24183830618858337
4.348417520523071,0.14444401860237122,-0.31626299023628235,0.3248670995235443,0.5068162679672241,0.07260000705718994,0.2409878969192505
4.3684704303741455,0.14420822262763977,-0.3162502646446228,0.3227711319923401,0.505351722240448,0.07136095315217972,0.24014396965503693
4.388556241989136,0.14406567811965942,-0.3162603974342346,0.32164058089256287,0.5045750141143799,0.0706898644566536,0.23972278833389282
4.408759117126465,0.14376495778560638,-0.31632116436958313,0.3192172944545746,0.5029110312461853,0.06924621760845184,0.2388775646686554
4.428781032562256,0.1435813307762146,-0.31636950373649597,0.31792151927948,0.5020259618759155,0.06846553832292557,0.23845386505126953
4.448955774307251,0.1432044804096222,-0.3165140450000763,0.31519949436187744,0.5001339316368103,0.06681659072637558,0.23759418725967407
4.469773530960083,0.14281383156776428,-0.3167209029197693,0.31240788102149963,0.4981440603733063,0.06509234011173248,0.23670431971549988
4.489936113357544,0.14264824986457825,-0.31685197353363037,0.31101301312446594,0.49712055921554565,0.06422100961208344,0.23624271154403687
4.509958505630493,0.14231163263320923,-0.31715643405914307,0.30826959013938904,0.4950392246246338,0.062456581741571426,0.2352801114320755
4.530045032501221,0.14219339191913605,-0.3173353970050812,0.3069462180137634,0.49399277567863464,0.06158202886581421,0.23477472364902496
4.550115585327148,0.14196570217609406,-0.31773218512535095,0.3043614625930786,0.4918851852416992,0.05980049446225166,0.2337181568145752
4.570176362991333,0.1418916881084442,-0.3179520070552826,0.3031015992164612,0.4908243715763092,0.05890548229217529,0.23316723108291626
4.59028959274292,0.14180505275726318,-0.3184296786785126,0.3006511628627777,0.48869380354881287,0.05708904564380646,0.23201923072338104
4.610395193099976,0.1418278068304062,-0.31895989179611206,0.2982475459575653,0.48652681708335876,0.055259350687265396,0.23081548511981964
4.630547523498535,0.1418997347354889,-0.31924620270729065,0.29704925417900085,0.4854254126548767,0.05434848740696907,0.23019428551197052
4.65065598487854,0.14208835363388062,-0.3198447525501251,0.29459989070892334,0.4831700026988983,0.05252188816666603,0.22892463207244873
4.670699834823608,0.14227493107318878,-0.32046470046043396,0.29206281900405884,0.48084625601768494,0.050678450614213943,0.22762517631053925
4.690849781036377,0.14233167469501495,-0.3207780420780182,0.2907795011997223,0.47968369722366333,0.049738701432943344,0.2269648313522339
4.710964679718018,0.14233621954917908,-0.3214013874530792,0.28821542859077454,0.47740137577056885,0.04782126471400261,0.22562994062900543
4.730983257293701,0.1423436403274536,-0.32172101736068726,0.2869545519351959,0.47629061341285706,0.04685542359948158,0.22495335340499878
4.751111268997192,0.1424015611410141,-0.3223760426044464,0.2845423221588135,0.474163681268692,0.044924553483724594,0.2235831469297409
4.771171569824219,0.14257214963436127,-0.32304292917251587,0.2823503613471985,0.47216153144836426,0.043052613735198975,0.22219276428222656
4.791252851486206,0.14266255497932434,-0.3233698904514313,0.2813354730606079,0.471205472946167,0.042139310389757156,0.22149431705474854
4.811445713043213,0.14284996688365936,-0.3240013122558594,0.27940067648887634,0.46932804584503174,0.04037347063422203,0.22009940445423126
4.832016706466675,0.1430233269929886,-0.32459232211112976,0.2775772213935852,0.4675275385379791,0.03870118409395218,0.21871255338191986
4.852124452590942,0.14310970902442932,-0.3248756229877472,0.27667686343193054,0.4666428864002228,0.03789258748292923,0.2180241495370865
4.872176170349121,0.14327268302440643,-0.32541322708129883,0.2749379873275757,0.4649454951286316,0.03634178638458252,0.2166588306427002
4.89230751991272,0.1433517038822174,-0.32567206025123596,0.2740744352340698,0.4641115665435791,0.0355880931019783,0.21598267555236816
4.912369251251221,0.14351798593997955,-0.3261665999889374,0.2724192440509796,0.4624991714954376,0.03415365144610405,0.2146402895450592
4.9325408935546875,0.1435936838388443,-0.3264051079750061,0.2716143727302551,0.4617161154747009,0.033454928547143936,0.21397408843040466
4.952545881271362,0.14373499155044556,-0.32686883211135864,0.2700411379337311,0.4601817727088928,0.03208082169294357,0.21265071630477905
4.972855806350708,0.14383924007415771,-0.3273157775402069,0.26844748854637146,0.4586653411388397,0.030710695311427116,0.2113470584154129
4.9929468631744385,0.14388343691825867,-0.3275335431098938,0.26763635873794556,0.45790883898735046,0.03003007546067238,0.210703507065773
5.013040781021118,0.14396387338638306,-0.3279568552970886,0.26601552963256836,0.4564266502857208,0.028698230162262917,0.20943324267864227
5.033121347427368,0.14400307834148407,-0.32816389203071594,0.2652292251586914,0.4557100534439087,0.028047870844602585,0.208804190158844
5.053197860717773,0.1440756767988205,-0.3285582959651947,0.2637575566768646,0.4543410539627075,0.026804853230714798,0.20755620300769806
5.073403596878052,0.14416538178920746,-0.32892996072769165,0.2624664008617401,0.4530651569366455,0.025634434074163437,0.20631201565265656
5.093500852584839,0.14422959089279175,-0.3291090726852417,0.26189401745796204,0.45246249437332153,0.025075195357203484,0.2056889683008194
5.1135783195495605,0.14438797533512115,-0.3294489085674286,0.2608369290828705,0.45131751894950867,0.02400779165327549,0.2044496387243271
5.133809328079224,0.1445465236902237,-0.3297601640224457,0.2597517967224121,0.4501897692680359,0.022990765050053596,0.2032376378774643
5.153896808624268,0.14462335407733917,-0.32990434765815735,0.2591676115989685,0.44961562752723694,0.022502997890114784,0.2026451975107193
5.173975467681885,0.14476118981838226,-0.3301834762096405,0.2579358220100403,0.4484506845474243,0.02153068222105503,0.20147836208343506
5.1940600872039795,0.1448235958814621,-0.33031952381134033,0.25729864835739136,0.44786450266838074,0.021044932305812836,0.20090261101722717
5.214141130447388,0.1449272632598877,-0.330585241317749,0.256024569272995,0.4467189610004425,0.020068833604454994,0.19976460933685303
5.234198808670044,0.14501796662807465,-0.33084094524383545,0.2547473609447479,0.4456033706665039,0.019104229286313057,0.19864854216575623
5.254289388656616,0.14505800604820251,-0.3309634327888489,0.25412222743034363,0.4450685381889343,0.018632765859365463,0.19809842109680176
5.274374485015869,0.1451229453086853,-0.3311917185783386,0.252924382686615,0.4440719187259674,0.01772814430296421,0.1970163732767105
5.294690132141113,0.14516489207744598,-0.33138933777809143,0.25182563066482544,0.443194717168808,0.016883376985788345,0.19596219062805176
5.314783573150635,0.14517608284950256,-0.3314763605594635,0.2512992322444916,0.44278815388679504,0.01648085191845894,0.19544793665409088
5.334836721420288,0.1451585292816162,-0.3316289186477661,0.2502565085887909,0.4419960677623749,0.015688935294747353,0.19444485008716583
5.355238437652588,0.1451295167207718,-0.3316941261291504,0.24975787103176117,0.44160905480384827,0.015305734239518642,0.19395314157009125
5.375380992889404,0.1450582891702652,-0.3318016231060028,0.24884943664073944,0.44087550044059753,0.014590097591280937,0.1929829716682434
5.395419120788574,0.14502674341201782,-0.33188992738723755,0.24803343415260315,0.44020673632621765,0.013952995650470257,0.19203068315982819
5.415510177612305,0.14504018425941467,-0.3319288492202759,0.2476443499326706,0.439893901348114,0.013669382780790329,0.1915622055530548
5.435539484024048,0.1450946033000946,-0.33200034499168396,0.24684306979179382,0.4392784833908081,0.01312916912138462,0.19064268469810486
5.4557414054870605,0.14514519274234772,-0.33206793665885925,0.24597863852977753,0.4386453330516815,0.012586242519319057,0.18974481523036957
5.475873231887817,0.14515651762485504,-0.3321015238761902,0.24550747871398926,0.43831852078437805,0.01229893323034048,0.18930472433567047
5.49592399597168,0.14516188204288483,-0.33217114210128784,0.2445107102394104,0.43765273690223694,0.011700484901666641,0.18844063580036163
5.516520023345947,0.14515967667102814,-0.3322059214115143,0.24401192367076874,0.4373287856578827,0.01139903999865055,0.1880148947238922
5.536684513092041,0.14515075087547302,-0.3322733938694,0.24305084347724915,0.43671929836273193,0.01080378144979477,0.18717467784881592
5.556710958480835,0.14516472816467285,-0.33232876658439636,0.242197185754776,0.4361756443977356,0.010262391529977322,0.18634721636772156
5.576848745346069,0.14518210291862488,-0.33234792947769165,0.2418297678232193,0.435936838388443,0.010021033696830273,0.1859365701675415
5.596959114074707,0.14524270594120026,-0.33236560225486755,0.24123094975948334,0.4355229139328003,0.00959990918636322,0.18511821329593658
5.617094993591309,0.14531511068344116,-0.33235812187194824,0.2406834214925766,0.4351365566253662,0.00922782439738512,0.18431273102760315
5.637198209762573,0.1453518569469452,-0.33234578371047974,0.24038773775100708,0.4349358081817627,0.009054115042090416,0.18391850590705872
5.657335996627808,0.14540481567382812,-0.33231616020202637,0.23968788981437683,0.43449389934539795,0.008692869916558266,0.183148592710495
5.677459239959717,0.1454179733991623,-0.3323005437850952,0.23929844796657562,0.43426236510276794,0.008499929681420326,0.1827712506055832
5.697584867477417,0.1454164832830429,-0.33227524161338806,0.23848089575767517,0.433799684047699,0.008077528327703476,0.18202759325504303
5.717640399932861,0.1453922688961029,-0.3322506248950958,0.23765654861927032,0.43336573243141174,0.007636884227395058,0.1813007891178131
5.737712621688843,0.1453789621591568,-0.3322364389896393,0.2372547835111618,0.4331648349761963,0.007422826252877712,0.18094411492347717
5.7577965259552,0.14535516500473022,-0.3322008550167084,0.2364940047264099,0.4328039288520813,0.007021252065896988,0.1802430897951126
5.777845621109009,0.14535218477249146,-0.3321780264377594,0.23613719642162323,0.43263790011405945,0.006839709356427193,0.17989861965179443
5.797941207885742,0.1453687995672226,-0.33212342858314514,0.2354767620563507,0.4323311150074005,0.006518112495541573,0.17921966314315796
5.818002462387085,0.1454092264175415,-0.33205345273017883,0.23489059507846832,0.43206411600112915,0.006254419684410095,0.17855340242385864
5.838175535202026,0.14543189108371735,-0.3320130705833435,0.23462505638599396,0.4319502115249634,0.006141605321317911,0.17822444438934326
5.85834527015686,0.14546866714954376,-0.33191975951194763,0.2341284155845642,0.43175774812698364,0.005941989365965128,0.17757666110992432
5.878576278686523,0.14548662304878235,-0.3318089246749878,0.23366005718708038,0.43160906434059143,0.005769416224211454,0.17694568634033203
5.8986756801605225,0.14548839628696442,-0.33174997568130493,0.23340857028961182,0.43153324723243713,0.005681748501956463,0.17663851380348206
5.918740510940552,0.14547675848007202,-0.3316356837749481,0.23284783959388733,0.431360125541687,0.005480926483869553,0.17603877186775208
5.938818454742432,0.14546604454517365,-0.33158496022224426,0.23252472281455994,0.4312504529953003,0.00535951741039753,0.1757456660270691
5.958918809890747,0.1454426348209381,-0.3314944803714752,0.23182301223278046,0.4310007691383362,0.005091792903840542,0.17517052590847015
5.9789698123931885,0.14541830122470856,-0.33141028881073,0.2311077117919922,0.43074822425842285,0.004811867605894804,0.17460717260837555
5.999047517776489,0.14540362358093262,-0.3313678503036499,0.23075756430625916,0.430632084608078,0.004672701936215162,0.1743299514055252
6.019137382507324,0.14537778496742249,-0.33128291368484497,0.23008687794208527,0.4304220378398895,0.004403421655297279,0.17378336191177368
6.039222478866577,0.1453549563884735,-0.3312012851238251,0.22944724559783936,0.4302349090576172,0.00413942476734519,0.17324642837047577
6.0593345165252686,0.14534425735473633,-0.3311631679534912,0.22913818061351776,0.43014711141586304,0.004004604183137417,0.1729809194803238
6.079418420791626,0.1453251987695694,-0.33108851313591003,0.22851620614528656,0.4299716651439667,0.003734519938006997,0.17245973646640778
6.099711656570435,0.14530515670776367,-0.3310120403766632,0.227908656001091,0.4298144280910492,0.0034720890689641237,0.1719512939453125
6.119822263717651,0.14529567956924438,-0.3309725821018219,0.22761696577072144,0.4297451972961426,0.003346075303852558,0.17170114815235138
6.139878511428833,0.14528079330921173,-0.3308899402618408,0.22707529366016388,0.42963123321533203,0.0031085838563740253,0.17120681703090668
6.160224676132202,0.14527668058872223,-0.3308461904525757,0.22682611644268036,0.42958569526672363,0.002998501528054476,0.17096254229545593
6.180352210998535,0.1452806442975998,-0.33075404167175293,0.22633874416351318,0.4294945001602173,0.002795377979055047,0.17048214375972748
6.200508117675781,0.1452861726284027,-0.33065688610076904,0.22588343918323517,0.42942380905151367,0.002606451977044344,0.17000974714756012
6.220674991607666,0.14528729021549225,-0.33060649037361145,0.22565697133541107,0.4293917417526245,0.0025140950456261635,0.1697775423526764
6.240691661834717,0.14528705179691315,-0.33050212264060974,0.22522105276584625,0.42934539914131165,0.0023395181633532047,0.16932064294815063
6.260787010192871,0.14528432488441467,-0.3304499089717865,0.2249862104654312,0.42931658029556274,0.0022505344823002815,0.16909758746623993
6.280867099761963,0.14527764916419983,-0.3303495943546295,0.22448991239070892,0.4292472004890442,0.00206651259213686,0.16866029798984528
6.3009960651397705,0.14526276290416718,-0.33025771379470825,0.22397096455097198,0.429167777299881,0.0018590270774438977,0.1682315617799759
6.321082830429077,0.1452566236257553,-0.3302130699157715,0.2237292379140854,0.42913690209388733,0.0017544319853186607,0.16801892220973969
6.34122633934021,0.1452552080154419,-0.33012014627456665,0.2232867181301117,0.42909395694732666,0.0015626841923221946,0.16759859025478363
6.361313819885254,0.14526154100894928,-0.3300701677799225,0.2230842262506485,0.4290810227394104,0.0014805687824264169,0.16739147901535034
6.381402492523193,0.14528155326843262,-0.32996487617492676,0.22268947958946228,0.4290598928928375,0.0013354397378861904,0.16698382794857025
6.401491403579712,0.1452861875295639,-0.3299117684364319,0.22248971462249756,0.4290521442890167,0.0012603418435901403,0.16678297519683838
6.42156457901001,0.1452830582857132,-0.32980868220329285,0.22206199169158936,0.42902982234954834,0.001093794358894229,0.16638952493667603
6.441626310348511,0.14527828991413116,-0.3297583758831024,0.221837118268013,0.42901596426963806,0.0010057830950245261,0.16619716584682465
6.4617533683776855,0.14527484774589539,-0.3296581208705902,0.22139284014701843,0.42899033427238464,0.0008367010159417987,0.16581907868385315
6.481833457946777,0.14529044926166534,-0.3295534551143646,0.22100606560707092,0.42898839712142944,0.0006996133597567677,0.1654454469680786
6.501906633377075,0.14530131220817566,-0.32949888706207275,0.2208404839038849,0.42900192737579346,0.000641540449578315,0.16525958478450775
6.522028684616089,0.1453278511762619,-0.3293865919113159,0.22052882611751556,0.42903658747673035,0.0005381972878240049,0.1648922860622406
6.542130947113037,0.14534993469715118,-0.3292740285396576,0.22020453214645386,0.42906454205513,0.00043312431080266833,0.1645321249961853
6.56222939491272,0.14535896480083466,-0.32921910285949707,0.22003279626369476,0.4290720820426941,0.0003756663645617664,0.16435430943965912
6.582324028015137,0.14537300169467926,-0.3291108310222626,0.21968792378902435,0.4290864169597626,0.0002545063616707921,0.16400246322155
6.602436065673828,0.14538107812404633,-0.3290565609931946,0.21951919794082642,0.4290952682495117,0.00019558185886126012,0.16382881999015808
6.62251353263855,0.14539705216884613,-0.3289457857608795,0.21920594573020935,0.4291306436061859,8.857916691340506e-05,0.16348564624786377
6.642889976501465,0.1454162299633026,-0.3288287818431854,0.2189260870218277,0.42919066548347473,6.9317502493504435e-06,0.16314911842346191
6.662999153137207,0.14542417228221893,-0.3287695348262787,0.21879003942012787,0.4292249083518982,-3.05345565720927e-05,0.16298291087150574
6.683087348937988,0.14542987942695618,-0.3286547064781189,0.21847175061702728,0.429272323846817,-0.00012164576764917001,0.16265763342380524
6.703159332275391,0.1454279124736786,-0.32860082387924194,0.21828214824199677,0.4292813837528229,-0.0001780254824552685,0.16249904036521912
6.723308801651001,0.14541850984096527,-0.32849812507629395,0.2178875356912613,0.42929375171661377,-0.00030263455118983984,0.16218730807304382
6.743453741073608,0.14541791379451752,-0.32839691638946533,0.21752791106700897,0.4293215274810791,-0.00041712430538609624,0.16187992691993713
6.76354455947876,0.14542388916015625,-0.32834458351135254,0.2173827886581421,0.4293519854545593,-0.0004618996463250369,0.16172631084918976
6.78361964225769,0.14544248580932617,-0.32823657989501953,0.2171231210231781,0.4294269382953644,-0.0005354871973395348,0.16142207384109497
6.803711414337158,0.14545516669750214,-0.32818153500556946,0.21700029075145721,0.4294664263725281,-0.0005655577988363802,0.1612718254327774
6.823798894882202,0.1454824060201645,-0.3280719220638275,0.2167355716228485,0.4295295476913452,-0.0006296968786045909,0.16097664833068848
6.843851327896118,0.1454983353614807,-0.3279646039009094,0.21641819179058075,0.4295687675476074,-0.0007135688792914152,0.16069108247756958
6.864033460617065,0.14550204575061798,-0.3279103934764862,0.21625830233097076,0.4295920133590698,-0.0007575710187666118,0.1605510264635086
6.884024143218994,0.14550593495368958,-0.3278012275695801,0.21595825254917145,0.42965593934059143,-0.0008402281091548502,0.16027455031871796
6.904218673706055,0.1455111801624298,-0.32774609327316284,0.21582697331905365,0.42969760298728943,-0.0008739777258597314,0.1601371318101883
6.924201965332031,0.14552947878837585,-0.3276374042034149,0.21558256447315216,0.4297846257686615,-0.0009342029225081205,0.1598641723394394
6.94430136680603,0.145538792014122,-0.32758450508117676,0.215457022190094,0.42982494831085205,-0.0009664028766565025,0.15972940623760223
6.964362621307373,0.14555607736110687,-0.3274803161621094,0.2152116894721985,0.4299088716506958,-0.0010327231138944626,0.1594633162021637
6.984608888626099,0.1455765962600708,-0.3273729085922241,0.21500244736671448,0.43001461029052734,-0.00108048296533525,0.15920135378837585
7.004798412322998,0.14559143781661987,-0.32731664180755615,0.21491588652133942,0.43007615208625793,-0.0010918002808466554,0.15907177329063416
7.0247979164123535,0.14562678337097168,-0.32720282673835754,0.21474964916706085,0.43019574880599976,-0.0011062975972890854,0.15881551802158356
7.044885158538818,0.14564280211925507,-0.3271469473838806,0.21465538442134857,0.43024706840515137,-0.0011187730124220252,0.15868933498859406
7.064978361129761,0.14566117525100708,-0.3270396590232849,0.2144368439912796,0.43033456802368164,-0.0011691022664308548,0.15844106674194336
7.085214376449585,0.14566998183727264,-0.32693594694137573,0.21418222784996033,0.43040576577186584,-0.0012384761357679963,0.1581999957561493
7.105306625366211,0.14567582309246063,-0.3268846571445465,0.21405437588691711,0.4304410517215729,-0.001271742512471974,0.15808159112930298
7.12536883354187,0.14569728076457977,-0.3267805278301239,0.21381495893001556,0.43051737546920776,-0.0013224767753854394,0.157848060131073
7.145457983016968,0.14570754766464233,-0.3267289400100708,0.21369682252407074,0.43055760860443115,-0.0013460119953379035,0.15773288905620575
7.165560722351074,0.14572227001190186,-0.3266271650791168,0.21346357464790344,0.43064311146736145,-0.0013963874662294984,0.1575055718421936
7.186219930648804,0.14573068916797638,-0.3265288472175598,0.2132214456796646,0.43072620034217834,-0.0014559710398316383,0.15728318691253662
7.206319808959961,0.14573752880096436,-0.32647910714149475,0.21310999989509583,0.43077200651168823,-0.0014813262969255447,0.15717332065105438
7.22636866569519,0.14576095342636108,-0.3263769745826721,0.21291232109069824,0.43087315559387207,-0.0015153002459555864,0.1569557785987854
7.246501922607422,0.14577616751194,-0.3263252079486847,0.21282383799552917,0.4309268891811371,-0.0015266402624547482,0.1568477600812912
7.2665321826934814,0.14580899477005005,-0.326222687959671,0.21265798807144165,0.43103688955307007,-0.001545737381093204,0.15663324296474457
7.286651134490967,0.14582373201847076,-0.3261728286743164,0.212572380900383,0.4310893416404724,-0.001559186028316617,0.15652696788311005
7.306771993637085,0.1458483189344406,-0.3260748088359833,0.21238967776298523,0.4311884641647339,-0.0015944039914757013,0.1563178300857544
7.326857089996338,0.1458573341369629,-0.32602596282958984,0.21229535341262817,0.4312385022640228,-0.001614546636119485,0.1562151163816452
7.3469085693359375,0.14587323367595673,-0.32593148946762085,0.212089404463768,0.43132835626602173,-0.0016627274453639984,0.15601374208927155
7.367116212844849,0.14588578045368195,-0.3258436322212219,0.21185271441936493,0.4314025640487671,-0.0017232828540727496,0.155818372964859
7.387164115905762,0.14589254558086395,-0.3258012533187866,0.21173228323459625,0.4314384460449219,-0.0017542073037475348,0.15572237968444824
7.407262325286865,0.14591053128242493,-0.32571515440940857,0.21151886880397797,0.431523859500885,-0.001805627136491239,0.15553201735019684
7.427312850952148,0.1459227353334427,-0.32567036151885986,0.21143828332424164,0.4315793216228485,-0.0018223605584353209,0.15543663501739502
7.447413921356201,0.1459599882364273,-0.32557666301727295,0.2113097459077835,0.4316997230052948,-0.0018336077919229865,0.1552468091249466
7.467516660690308,0.14597968757152557,-0.32552844285964966,0.2112516611814499,0.4317622482776642,-0.0018334336346015334,0.1551525741815567
7.48758339881897,0.1460150182247162,-0.32543155550956726,0.21112170815467834,0.4318794012069702,-0.0018337960354983807,0.15496641397476196
7.507714509963989,0.14602571725845337,-0.3253842294216156,0.21104872226715088,0.4319358170032501,-0.0018414101796224713,0.15487416088581085
7.527774810791016,0.1460384577512741,-0.3252924084663391,0.21089302003383636,0.4320448338985443,-0.0018710666336119175,0.15469197928905487
7.548307418823242,0.14605414867401123,-0.32520079612731934,0.21073928475379944,0.4321512281894684,-0.0019017958547919989,0.1545139104127884
7.568467140197754,0.14606401324272156,-0.3251538872718811,0.2106650471687317,0.4322051405906677,-0.0019137556664645672,0.15442663431167603
7.589179277420044,0.14608359336853027,-0.32505688071250916,0.21051928400993347,0.4323183298110962,-0.0019295496167615056,0.15425615012645721
7.6093621253967285,0.14608865976333618,-0.3250092566013336,0.21043837070465088,0.4323747754096985,-0.0019413079135119915,0.1541728675365448
7.629438877105713,0.14609496295452118,-0.32491910457611084,0.2102491557598114,0.4324766993522644,-0.001975039951503277,0.1540105938911438
7.649490594863892,0.1460970938205719,-0.3248767852783203,0.21014104783535004,0.4325224757194519,-0.001995173981413245,0.15393182635307312
7.669574499130249,0.1461084932088852,-0.32479557394981384,0.20994161069393158,0.43261927366256714,-0.0020281607285141945,0.15377502143383026
7.6897125244140625,0.14612434804439545,-0.324715256690979,0.20978833734989166,0.4327368438243866,-0.0020518845412880182,0.1536179780960083
7.709852457046509,0.1461353898048401,-0.324674129486084,0.20973210036754608,0.4328031539916992,-0.0020584319718182087,0.15353913605213165
7.7299370765686035,0.1461554765701294,-0.32459181547164917,0.2096199244260788,0.43293315172195435,-0.002074848162010312,0.15338334441184998
7.7500901222229,0.14616800844669342,-0.3245503306388855,0.20956027507781982,0.43299320340156555,-0.002081335289403796,0.153306782245636
7.770110607147217,0.14618854224681854,-0.3244702219963074,0.2094290852546692,0.4331055283546448,-0.0021033529192209244,0.15315495431423187
7.790506362915039,0.1462041139602661,-0.32439273595809937,0.20929266512393951,0.4332152009010315,-0.0021328877191990614,0.15300513803958893
7.810594081878662,0.1462092101573944,-0.32435429096221924,0.20922760665416718,0.43327274918556213,-0.002148662693798542,0.15293094515800476
7.830729246139526,0.1462182104587555,-0.32427605986595154,0.20911510288715363,0.4333968758583069,-0.0021735411137342453,0.15278360247612
7.851314306259155,0.14622455835342407,-0.32423609495162964,0.209067702293396,0.433461457490921,-0.002180781215429306,0.15271054208278656
7.871424913406372,0.14624178409576416,-0.3241565227508545,0.20897190272808075,0.4335809350013733,-0.0021927731577306986,0.15256530046463013
7.8916826248168945,0.14626607298851013,-0.324080228805542,0.20885585248470306,0.4336740970611572,-0.002209145575761795,0.1524212658405304
7.911774158477783,0.14627666771411896,-0.32404518127441406,0.20877432823181152,0.43370333313941956,-0.002226420445367694,0.15235014259815216
7.931848764419556,0.14629411697387695,-0.3239794373512268,0.20859378576278687,0.43375086784362793,-0.0022659876849502325,0.1522085815668106
7.951932668685913,0.14629462361335754,-0.3239474594593048,0.2085002213716507,0.4337744414806366,-0.002288525691255927,0.15213824808597565
7.972063064575195,0.1462916135787964,-0.3238837420940399,0.2083367109298706,0.43384119868278503,-0.002327736234292388,0.15199734270572662
7.992326259613037,0.14628514647483826,-0.3238168954849243,0.2082269936800003,0.4339444637298584,-0.0023533354979008436,0.15185576677322388
8.012443780899048,0.1462896764278412,-0.3237822353839874,0.20818720757961273,0.4340035319328308,-0.0023569983895868063,0.15178534388542175
8.032531023025513,0.14630953967571259,-0.32371094822883606,0.20811888575553894,0.4341224133968353,-0.0023506449069827795,0.15164601802825928
8.052592039108276,0.14632071554660797,-0.32367515563964844,0.20808108150959015,0.4341781437397003,-0.002346066990867257,0.15157738327980042
8.072667360305786,0.1463373303413391,-0.32360631227493286,0.20798854529857635,0.4342809021472931,-0.0023464250843971968,0.15144182741641998
8.092766761779785,0.14633789658546448,-0.32357358932495117,0.20793667435646057,0.4343331754207611,-0.002355265896767378,0.15137474238872528
8.112843990325928,0.14633503556251526,-0.323508620262146,0.20783257484436035,0.43444082140922546,-0.0023760509211570024,0.15124300122261047
8.132912635803223,0.14633437991142273,-0.3234764039516449,0.20778001844882965,0.4344935119152069,-0.002387094311416149,0.1511782854795456
8.153046369552612,0.1463441103696823,-0.32341212034225464,0.20767559111118317,0.43459033966064453,-0.002402741927653551,0.151050865650177
8.17331075668335,0.14635026454925537,-0.32338112592697144,0.20762185752391815,0.43463486433029175,-0.0024128674995154142,0.15098777413368225
8.193398475646973,0.14636005461215973,-0.3233196437358856,0.20751620829105377,0.43472564220428467,-0.002434804569929838,0.1508631557226181
8.213463068008423,0.14636604487895966,-0.3232562243938446,0.207419291138649,0.4348258078098297,-0.0024528552312403917,0.15074123442173004
8.233541011810303,0.14637130498886108,-0.3232232332229614,0.20737706124782562,0.43487927317619324,-0.0024562233593314886,0.15068107843399048
8.25363540649414,0.1463838666677475,-0.3231566548347473,0.20730191469192505,0.4349895417690277,-0.0024585421197116375,0.15056145191192627
8.273756504058838,0.1463896632194519,-0.3231241703033447,0.20726779103279114,0.43504565954208374,-0.002460748190060258,0.15050171315670013
8.29386043548584,0.1463952660560608,-0.32306158542633057,0.20718993246555328,0.43515545129776,-0.0024721978697925806,0.15038450062274933
8.313937664031982,0.14639541506767273,-0.32300251722335815,0.20707876980304718,0.43525031208992004,-0.002491771010681987,0.15027272701263428
8.33401870727539,0.14639736711978912,-0.32297420501708984,0.20701462030410767,0.4352911412715912,-0.0025019762106239796,0.15021835267543793
8.354092597961426,0.14639988541603088,-0.3229203224182129,0.20688503980636597,0.43536844849586487,-0.0025290362536907196,0.15011011064052582
8.374184131622314,0.1464027762413025,-0.32289400696754456,0.2068289965391159,0.4354087710380554,-0.002542442874982953,0.1500556766986847
8.39426040649414,0.1464119255542755,-0.3228417932987213,0.20673567056655884,0.43549641966819763,-0.002565042581409216,0.14994648098945618
8.414320230484009,0.14642615616321564,-0.3227890133857727,0.2066524773836136,0.43558621406555176,-0.0025795313995331526,0.1498391330242157
8.434409856796265,0.14643503725528717,-0.32276278734207153,0.20661278069019318,0.43562963604927063,-0.002584991045296192,0.14978596568107605
8.45449948310852,0.14644363522529602,-0.3227108120918274,0.20652945339679718,0.4357167184352875,-0.002603136468678713,0.14968125522136688
8.474573373794556,0.14644555747509003,-0.3226574957370758,0.20645523071289062,0.4358120858669281,-0.0026203521993011236,0.1495782732963562
8.494689464569092,0.1464439332485199,-0.3226308524608612,0.20642438530921936,0.43586465716362,-0.002629494294524193,0.14952702820301056
8.514737606048584,0.14644929766654968,-0.3225754201412201,0.20637480914592743,0.4359706938266754,-0.002634952776134014,0.14942553639411926
8.534851789474487,0.14645390212535858,-0.32254758477211,0.20635220408439636,0.43602219223976135,-0.0026356035377830267,0.14937514066696167
8.554905891418457,0.14646561443805695,-0.3224925696849823,0.20629730820655823,0.4361139237880707,-0.002637650351971388,0.14927524328231812
8.575108528137207,0.1464730054140091,-0.3224391043186188,0.20623256266117096,0.43620002269744873,-0.0026456338819116354,0.1491766721010208
8.595206260681152,0.1464751958847046,-0.3224128484725952,0.20619864761829376,0.43624347448349,-0.0026506821159273386,0.14912812411785126
8.615262031555176,0.14647850394248962,-0.3223600685596466,0.20613250136375427,0.43633338809013367,-0.0026585988234728575,0.14903278648853302
8.635367155075073,0.14648044109344482,-0.32233405113220215,0.20609967410564423,0.43637827038764954,-0.002662175800651312,0.14898571372032166
8.65558910369873,0.14649103581905365,-0.32228443026542664,0.20603084564208984,0.4364575445652008,-0.0026701672468334436,0.14889119565486908
8.67560863494873,0.1465013176202774,-0.3222622871398926,0.20599153637886047,0.4364865720272064,-0.00267835333943367,0.14884305000305176
8.69573450088501,0.14653265476226807,-0.3222220540046692,0.20590773224830627,0.4365285336971283,-0.0026969106402248144,0.14874501526355743
8.716147661209106,0.14656421542167664,-0.32218268513679504,0.2058263123035431,0.4365711808204651,-0.002713714959099889,0.14864586293697357
8.736253023147583,0.14657774567604065,-0.3221619725227356,0.2057899534702301,0.43659886717796326,-0.0027178595773875713,0.14859645068645477
8.756400346755981,0.1465945541858673,-0.32211989164352417,0.20571812987327576,0.4366641342639923,-0.002728062681853771,0.14849895238876343
8.776466608047485,0.14659863710403442,-0.3221006393432617,0.20566774904727936,0.4366917312145233,-0.0027392359916120768,0.14845193922519684
8.796531438827515,0.14659765362739563,-0.32206451892852783,0.2055479884147644,0.43674376606941223,-0.0027725163381546736,0.1483616828918457
8.8166663646698,0.1465952843427658,-0.32204750180244446,0.20548534393310547,0.43677037954330444,-0.0027912738732993603,0.1483178287744522
8.83673620223999,0.14659221470355988,-0.3220137059688568,0.20537856221199036,0.4368332624435425,-0.0028248049784451723,0.14823029935359955
8.856823921203613,0.1465945541858673,-0.3219953775405884,0.20534786581993103,0.4368751645088196,-0.0028330679051578045,0.14818578958511353
8.87693738937378,0.14660561084747314,-0.3219572603702545,0.2053067982196808,0.43696457147598267,-0.0028402048628777266,0.1480969339609146
8.897035121917725,0.14661386609077454,-0.3219374716281891,0.20529107749462128,0.43700942397117615,-0.002840038388967514,0.14805307984352112
8.91711139678955,0.14663155376911163,-0.3218995928764343,0.2052510380744934,0.43709030747413635,-0.0028435999993234873,0.1479668766260147
8.93845534324646,0.14664225280284882,-0.3218642771244049,0.20519378781318665,0.4371630847454071,-0.002858959138393402,0.14788275957107544
8.958556413650513,0.14664646983146667,-0.32184723019599915,0.2051624357700348,0.43719741702079773,-0.0028696018271148205,0.14784123003482819
8.978657960891724,0.14665569365024567,-0.32181310653686523,0.20509842038154602,0.43726351857185364,-0.0028917212039232254,0.14775946736335754
8.99871301651001,0.1466611921787262,-0.3217955529689789,0.20506778359413147,0.43729743361473083,-0.0029002565424889326,0.14771930873394012
9.018784761428833,0.1466674953699112,-0.3217587172985077,0.20501068234443665,0.43737348914146423,-0.0029144720174372196,0.1476406306028366
9.038841962814331,0.14666292071342468,-0.321720153093338,0.20495876669883728,0.43746164441108704,-0.002929521957412362,0.14756372570991516
9.058932304382324,0.14665938913822174,-0.3217007517814636,0.20493321120738983,0.43750622868537903,-0.0029380677733570337,0.14752595126628876
9.079025745391846,0.14665290713310242,-0.3216620683670044,0.20488306879997253,0.43759456276893616,-0.0029550031758844852,0.14745160937309265
9.099087715148926,0.14665274322032928,-0.32164254784584045,0.20485901832580566,0.43763747811317444,-0.0029603447765111923,0.1474151313304901
9.119422435760498,0.14665581285953522,-0.3216051459312439,0.20480884611606598,0.43771788477897644,-0.002971112262457609,0.1473425328731537
9.139666557312012,0.14666281640529633,-0.3215676546096802,0.20476152002811432,0.43779706954956055,-0.0029774061404168606,0.14727100729942322
9.159793615341187,0.14666537940502167,-0.32154884934425354,0.2047433853149414,0.43784046173095703,-0.0029797893948853016,0.1472354382276535
9.179931640625,0.14667508006095886,-0.32150790095329285,0.2047284096479416,0.4379376769065857,-0.0029718298465013504,0.1471654176712036
9.20004153251648,0.14668063819408417,-0.3214861750602722,0.20472748577594757,0.437989741563797,-0.0029631424695253372,0.14713086187839508
9.220075130462646,0.14669398963451385,-0.3214426636695862,0.20472171902656555,0.4380868077278137,-0.00294358073733747,0.14706237614154816
9.240193843841553,0.1466989815235138,-0.32142144441604614,0.20471207797527313,0.4381313920021057,-0.0029360856860876083,0.14702868461608887
9.260291576385498,0.14670103788375854,-0.32138070464134216,0.2046825885772705,0.4382189214229584,-0.0029296146240085363,0.14696264266967773
9.28034257888794,0.14670147001743317,-0.3213423788547516,0.20464789867401123,0.43830299377441406,-0.0029293301049619913,0.14689843356609344
9.300461530685425,0.14670222997665405,-0.321323961019516,0.2046298086643219,0.4383436143398285,-0.0029302199836820364,0.1468668282032013
9.32057237625122,0.14670833945274353,-0.3212898373603821,0.20458997786045074,0.4384162724018097,-0.002934550866484642,0.14680418372154236
9.340897560119629,0.14671051502227783,-0.32125625014305115,0.2045467495918274,0.4384879171848297,-0.0029416317120194435,0.14674316346645355
9.361010074615479,0.14670917391777039,-0.3212401568889618,0.20451606810092926,0.4385194480419159,-0.0029482757672667503,0.1467139571905136
9.381130695343018,0.1467028111219406,-0.3212102949619293,0.2044251263141632,0.4385680556297302,-0.0029681844171136618,0.1466592401266098
9.401453256607056,0.146698996424675,-0.3211967647075653,0.20437216758728027,0.4385879337787628,-0.002980754477903247,0.1466328352689743
9.421557188034058,0.14669139683246613,-0.32117199897766113,0.20427264273166656,0.4386298656463623,-0.0030078396666795015,0.146579772233963
9.44164752960205,0.14669044315814972,-0.32114601135253906,0.20420873165130615,0.43868720531463623,-0.003023714991286397,0.14652523398399353
9.461703538894653,0.14669114351272583,-0.32113319635391235,0.20418299734592438,0.43871819972991943,-0.003030181862413883,0.14649778604507446
9.481773376464844,0.14669457077980042,-0.3211069405078888,0.2041367143392563,0.43878236413002014,-0.0030386890284717083,0.14644372463226318
9.501843690872192,0.14669346809387207,-0.321094274520874,0.20411382615566254,0.4388163089752197,-0.0030449191108345985,0.14641688764095306
9.521959781646729,0.14668601751327515,-0.32106950879096985,0.20406757295131683,0.43888625502586365,-0.0030616584699600935,0.14636340737342834
9.542358875274658,0.14667823910713196,-0.32104501128196716,0.20402215421199799,0.43895596265792847,-0.0030783135443925858,0.14631050825119019
9.56247878074646,0.14667506515979767,-0.32103294134140015,0.2039995789527893,0.43898987770080566,-0.003086357144638896,0.14628425240516663
9.582555532455444,0.14667348563671112,-0.32100942730903625,0.20395433902740479,0.43905335664749146,-0.003100331872701645,0.14623227715492249
9.602789163589478,0.14667586982250214,-0.3209872841835022,0.20390823483467102,0.43911212682724,-0.003113814862444997,0.14618080854415894
9.622881412506104,0.14667770266532898,-0.3209765553474426,0.20388485491275787,0.4391404688358307,-0.0031207611318677664,0.14615531265735626
9.642932891845703,0.14668051898479462,-0.3209550380706787,0.20383970439434052,0.43919938802719116,-0.0031333263032138348,0.14610512554645538
9.663022518157959,0.14668120443820953,-0.32094448804855347,0.20381706953048706,0.4392290413379669,-0.0031402551103383303,0.1460803598165512
9.683108568191528,0.14668500423431396,-0.32092443108558655,0.20377033948898315,0.4392840266227722,-0.00315514812245965,0.14603132009506226
9.703674077987671,0.14668966829776764,-0.32090651988983154,0.2037200927734375,0.43933260440826416,-0.0031751294154673815,0.14598262310028076
9.723768472671509,0.14669178426265717,-0.3208971321582794,0.2036963552236557,0.4393573999404907,-0.0031842291355133057,0.1459585279226303
9.743848323822021,0.14669369161128998,-0.32087770104408264,0.20365221798419952,0.439410001039505,-0.003201264888048172,0.14591076970100403
9.763936758041382,0.14669518172740936,-0.3208671510219574,0.20363226532936096,0.43943676352500916,-0.0032076649367809296,0.1458871066570282
9.784133195877075,0.14669553935527802,-0.32084646821022034,0.2035977840423584,0.4394936263561249,-0.0032219691202044487,0.14583925902843475
9.804129838943481,0.14669476449489594,-0.3208248019218445,0.20357468724250793,0.43955734372138977,-0.0032334611751139164,0.14579123258590698
9.824226140975952,0.14669354259967804,-0.32081338763237,0.20356859266757965,0.4395930767059326,-0.0032373706344515085,0.1457671821117401
9.844300270080566,0.14669126272201538,-0.3207891583442688,0.20355810225009918,0.4396660327911377,-0.0032407480757683516,0.14571988582611084
9.864467859268188,0.146688774228096,-0.32077711820602417,0.20354999601840973,0.439700722694397,-0.00324403983540833,0.14569644629955292
9.884606122970581,0.14668406546115875,-0.32075414061546326,0.20352591574192047,0.4397633671760559,-0.0032531991600990295,0.1456497311592102
9.904638290405273,0.14668749272823334,-0.32073280215263367,0.20349352061748505,0.4398108720779419,-0.003263915190473199,0.14560294151306152
9.924712657928467,0.14669401943683624,-0.3207228481769562,0.20347614586353302,0.43982911109924316,-0.003268131986260414,0.1455792784690857
9.944798707962036,0.1467127799987793,-0.3207036852836609,0.2034422606229782,0.4398614466190338,-0.0032728915102779865,0.14553169906139374
9.965175151824951,0.1467369943857193,-0.3206876516342163,0.2034061849117279,0.43988579511642456,-0.0032784559298306704,0.14548277854919434
9.985337257385254,0.1467510163784027,-0.32067999243736267,0.20338810980319977,0.4398959279060364,-0.003280346281826496,0.1454579383134842
10.005395650863647,0.14677828550338745,-0.32066524028778076,0.20335082709789276,0.439914345741272,-0.0032863719388842583,0.14540724456310272
10.025627374649048,0.14678946137428284,-0.32065773010253906,0.20333293080329895,0.4399259686470032,-0.003289964282885194,0.1453816294670105
10.04564905166626,0.1468040943145752,-0.3206425905227661,0.20329877734184265,0.4399568736553192,-0.0033001620322465897,0.1453305184841156
10.065702438354492,0.14681126177310944,-0.32062703371047974,0.20326876640319824,0.4399966597557068,-0.0033108724746853113,0.14527994394302368
10.08579397201538,0.14681319892406464,-0.3206188380718231,0.20325548946857452,0.44001874327659607,-0.003315725363790989,0.14525499939918518
10.105877876281738,0.1468169242143631,-0.3206017017364502,0.20323112607002258,0.4400630295276642,-0.0033242967911064625,0.1452057957649231
10.125940322875977,0.14681974053382874,-0.32059258222579956,0.2032202035188675,0.4400850236415863,-0.0033269491977989674,0.14518164098262787
10.146039485931396,0.1468285173177719,-0.3205735683441162,0.20320023596286774,0.4401280879974365,-0.003328464226797223,0.14513428509235382
10.1661376953125,0.1468384563922882,-0.3205529451370239,0.20318451523780823,0.4401744604110718,-0.0033233389258384705,0.14508801698684692
10.186229944229126,0.14684352278709412,-0.3205420970916748,0.20317800343036652,0.44019901752471924,-0.0033187156077474356,0.1450652778148651
10.206326007843018,0.14685259759426117,-0.3205210268497467,0.2031640261411667,0.44024747610092163,-0.0033107923809438944,0.1450200378894806
10.226864576339722,0.1468612253665924,-0.32050198316574097,0.2031460553407669,0.44029173254966736,-0.003308728104457259,0.14497539401054382
10.2469482421875,0.14686520397663116,-0.3204938471317291,0.20313476026058197,0.44031140208244324,-0.0033108191564679146,0.14495299756526947
10.266998052597046,0.14685788750648499,-0.32047611474990845,0.20310884714126587,0.44035062193870544,-0.0033199284225702286,0.14490912854671478
10.287090063095093,0.14683960378170013,-0.3204648792743683,0.20309336483478546,0.4403690993785858,-0.0033264714293181896,0.14488810300827026
10.307233572006226,0.1467917412519455,-0.32044070959091187,0.20305997133255005,0.44040465354919434,-0.003341402392834425,0.1448473185300827
10.327364683151245,0.14674580097198486,-0.32041704654693604,0.20302826166152954,0.44044482707977295,-0.0033558218274265528,0.14480769634246826
10.347460985183716,0.14673177897930145,-0.320406973361969,0.20301517844200134,0.4404694736003876,-0.0033618644811213017,0.14478802680969238
10.367505550384521,0.14670689404010773,-0.3203890323638916,0.20299032330513,0.4405243992805481,-0.0033767479471862316,0.14474916458129883
10.387600898742676,0.14669595658779144,-0.3203805685043335,0.20297777652740479,0.4405512809753418,-0.00338404206559062,0.1447300910949707
10.407667875289917,0.14668120443820953,-0.3203655779361725,0.20295096933841705,0.44059833884239197,-0.0033978798892349005,0.14469170570373535
10.428403615951538,0.14667631685733795,-0.32034921646118164,0.20292659103870392,0.44064050912857056,-0.0034030978567898273,0.14465400576591492
10.448512554168701,0.14667470753192902,-0.3203412592411041,0.20291438698768616,0.4406612515449524,-0.0034055490978062153,0.144635409116745
10.468608617782593,0.1466677039861679,-0.3203260004520416,0.2028891146183014,0.440704882144928,-0.003413356374949217,0.14459890127182007
10.488728523254395,0.14666152000427246,-0.3203197717666626,0.20287226140499115,0.4407258927822113,-0.0034206497948616743,0.1445811241865158
10.508768320083618,0.14664432406425476,-0.32030975818634033,0.20282207429409027,0.44075995683670044,-0.003442838555201888,0.1445472091436386
10.529101371765137,0.1466258317232132,-0.3203005790710449,0.20275728404521942,0.44078749418258667,-0.003465128131210804,0.1445162296295166
10.54924464225769,0.14661647379398346,-0.32029563188552856,0.20273065567016602,0.4408051371574402,-0.003474228782579303,0.14450080692768097
10.569302082061768,0.14659953117370605,-0.3202834725379944,0.2027064710855484,0.44085702300071716,-0.003483245614916086,0.14446894824504852
10.589452505111694,0.14659419655799866,-0.3202756345272064,0.2027125507593155,0.4408911168575287,-0.003481075633317232,0.1444522887468338
10.6095712184906,0.14658790826797485,-0.3202578127384186,0.2027326375246048,0.4409596025943756,-0.00347030907869339,0.14441949129104614
10.629593849182129,0.14658544957637787,-0.320239782333374,0.2027452439069748,0.44101831316947937,-0.0034589155111461878,0.1443878710269928
10.649770021438599,0.14658233523368835,-0.3202317953109741,0.20274418592453003,0.4410437345504761,-0.0034572905860841274,0.1443723738193512
10.6697518825531,0.14657171070575714,-0.3202168345451355,0.20273663103580475,0.4410928189754486,-0.003459978150203824,0.14434166252613068
10.689807415008545,0.14656522870063782,-0.32020971179008484,0.2027316689491272,0.44111692905426025,-0.0034630263689905405,0.14432643353939056
10.709930658340454,0.1465545892715454,-0.32019492983818054,0.20272237062454224,0.4411637485027313,-0.0034668692387640476,0.14429661631584167
10.730003833770752,0.14654769003391266,-0.32018065452575684,0.20271237194538116,0.4412063658237457,-0.003469684161245823,0.14426735043525696
10.75013279914856,0.14654585719108582,-0.3201735019683838,0.2027074098587036,0.4412263035774231,-0.0034702285192906857,0.1442529708147049
10.770273208618164,0.14654500782489777,-0.32015976309776306,0.20269696414470673,0.4412645697593689,-0.003469631774351001,0.14422474801540375
10.79040002822876,0.1465456634759903,-0.32014694809913635,0.20268511772155762,0.4413021504878998,-0.003468560753390193,0.14419716596603394
10.810590267181396,0.14654424786567688,-0.3201408088207245,0.20267876982688904,0.44132259488105774,-0.0034689370077103376,0.14418359100818634
10.830652952194214,0.14653567969799042,-0.32012900710105896,0.2026638686656952,0.4413650929927826,-0.003475347999483347,0.1441565454006195
10.850760221481323,0.14653193950653076,-0.3201238811016083,0.2026558369398117,0.4413869082927704,-0.0034806111361831427,0.14414295554161072
10.870823621749878,0.1465608924627304,-0.3201195299625397,0.20264513790607452,0.4414307475090027,-0.0034859562292695045,0.14411427080631256
10.890932559967041,0.14661002159118652,-0.32012203335762024,0.20264604687690735,0.4414527416229248,-0.003481171326711774,0.14409849047660828
10.91099238395691,0.14675357937812805,-0.3201308250427246,0.20265856385231018,0.4414953589439392,-0.0034566381946206093,0.14406508207321167
10.931219816207886,0.14689648151397705,-0.32013174891471863,0.2026810199022293,0.44153743982315063,-0.0034125058446079493,0.1440323293209076
10.951331615447998,0.14694231748580933,-0.32012733817100525,0.20268993079662323,0.4415583312511444,-0.003392054932191968,0.14401684701442719
10.971421241760254,0.14699846506118774,-0.3201139569282532,0.20270314812660217,0.44160196185112,-0.003358076559379697,0.1439865082502365
10.991500854492188,0.14701636135578156,-0.3201082944869995,0.20270563662052155,0.4416234493255615,-0.0033494168892502785,0.1439710408449173
11.01161527633667,0.14704519510269165,-0.320100337266922,0.20270362496376038,0.44166192412376404,-0.0033450538758188486,0.14393985271453857
11.03164529800415,0.1470762938261032,-0.32009202241897583,0.20270170271396637,0.4416976869106293,-0.0033399339299649,0.14391012489795685
11.05174469947815,0.14709334075450897,-0.3200872540473938,0.20270130038261414,0.44171473383903503,-0.003335315501317382,0.14389581978321075
11.07183027267456,0.1471225768327713,-0.3200748562812805,0.20270276069641113,0.4417524039745331,-0.0033214143477380276,0.14386826753616333
11.091879844665527,0.14713315665721893,-0.3200612962245941,0.2026989758014679,0.4417884945869446,-0.003313107881695032,0.14384126663208008
11.11206841468811,0.1471266746520996,-0.32005369663238525,0.2026943564414978,0.4418059289455414,-0.0033125756308436394,0.14382821321487427
11.132172584533691,0.1470973789691925,-0.32003819942474365,0.20267875492572784,0.4418364465236664,-0.0033201496116816998,0.1438031792640686
11.152361869812012,0.14708130061626434,-0.3200306296348572,0.20267052948474884,0.44185224175453186,-0.0033254793379455805,0.14379112422466278
11.172492504119873,0.14705993235111237,-0.32001790404319763,0.20265468955039978,0.44188377261161804,-0.0033367187716066837,0.14376743137836456
11.192526817321777,0.14706027507781982,-0.3200080096721649,0.20264402031898499,0.4419170320034027,-0.0033406519796699286,0.14374378323554993
11.212604522705078,0.14706535637378693,-0.32000333070755005,0.20264017581939697,0.44193342328071594,-0.003339452901855111,0.14373189210891724
11.232686758041382,0.14708051085472107,-0.31999465823173523,0.20263192057609558,0.4419615566730499,-0.003335595829412341,0.1437077522277832
11.252763271331787,0.14708857238292694,-0.3199911415576935,0.2026260495185852,0.44197288155555725,-0.0033358167856931686,0.1436954289674759
11.272852420806885,0.14710193872451782,-0.31998488306999207,0.20261245965957642,0.4419949948787689,-0.0033405523281544447,0.14367084205150604
11.29291844367981,0.1471077799797058,-0.31997811794281006,0.20260003209114075,0.44202372431755066,-0.003348409663885832,0.14364683628082275
11.313002347946167,0.1471102088689804,-0.3199739456176758,0.20259566605091095,0.44204044342041016,-0.00335024599917233,0.14363524317741394
11.333216428756714,0.14711104333400726,-0.3199651539325714,0.2025860697031021,0.4420730173587799,-0.0033541363663971424,0.1436128169298172
11.35339903831482,0.14708182215690613,-0.31995195150375366,0.20256862044334412,0.4420985281467438,-0.003364037722349167,0.14359267055988312
11.373496532440186,0.14704760909080505,-0.3199428617954254,0.2025565207004547,0.4421117901802063,-0.0033731802832335234,0.14358380436897278
11.393638610839844,0.14696601033210754,-0.31992417573928833,0.20252889394760132,0.44213926792144775,-0.003396691521629691,0.14356720447540283
11.413980484008789,0.14689983427524567,-0.319911926984787,0.20249904692173004,0.4421667456626892,-0.0034275082871317863,0.14355024695396423
11.434089422225952,0.1468820422887802,-0.31990864872932434,0.20248530805110931,0.4421788454055786,-0.0034416685812175274,0.14354132115840912
11.454127073287964,0.14685867726802826,-0.31990206241607666,0.20246119797229767,0.44220244884490967,-0.003464136039838195,0.14352387189865112
11.47421669960022,0.1468534767627716,-0.31989768147468567,0.2024524211883545,0.4422142505645752,-0.0034685961436480284,0.14351534843444824
11.494293451309204,0.14685030281543732,-0.31988725066185,0.2024393379688263,0.4422376751899719,-0.0034669912420213223,0.14349809288978577
11.514352798461914,0.1468491405248642,-0.31987839937210083,0.20242469012737274,0.44225671887397766,-0.003465377725660801,0.14347980916500092
11.534485340118408,0.14684562385082245,-0.31987521052360535,0.2024150937795639,0.44226497411727905,-0.003468547947704792,0.14347027242183685
11.55452847480774,0.14683696627616882,-0.31987088918685913,0.20239144563674927,0.44227737188339233,-0.003482014872133732,0.14345118403434753
11.575522184371948,0.14682888984680176,-0.31986674666404724,0.20236684381961823,0.44228866696357727,-0.0034966717939823866,0.14343281090259552
11.595612525939941,0.14682486653327942,-0.3198637068271637,0.20235641300678253,0.4422967731952667,-0.003501453436911106,0.1434241086244583
11.615722417831421,0.14681395888328552,-0.31985703110694885,0.2023378312587738,0.44231829047203064,-0.0035105817951261997,0.14340682327747345
11.635802030563354,0.14680680632591248,-0.3198537528514862,0.20232877135276794,0.4423304498195648,-0.0035158598329871893,0.14339812099933624
11.656004905700684,0.14678646624088287,-0.31984975934028625,0.20230664312839508,0.44235506653785706,-0.003536198055371642,0.14337989687919617
11.676585912704468,0.1467578262090683,-0.31984618306159973,0.2022833675146103,0.4423840641975403,-0.003561923513188958,0.14336185157299042
11.696690559387207,0.1467418223619461,-0.3198443353176117,0.20227164030075073,0.44239962100982666,-0.003575646784156561,0.14335298538208008
11.716767311096191,0.1467173993587494,-0.3198378384113312,0.20225313305854797,0.44243040680885315,-0.00359234563075006,0.1433364301919937
11.736799716949463,0.14670933783054352,-0.3198339641094208,0.20224522054195404,0.4424441456794739,-0.003596703987568617,0.14332856237888336
11.756901502609253,0.14669917523860931,-0.3198242485523224,0.2022339403629303,0.4424721300601959,-0.0035964478738605976,0.14331363141536713
11.776976108551025,0.14669153094291687,-0.319815456867218,0.2022225260734558,0.4424976706504822,-0.0035960408858954906,0.14329810440540314
11.797093152999878,0.1466875523328781,-0.31981149315834045,0.20221656560897827,0.4425102472305298,-0.0035968052688986063,0.14329010248184204
11.81714153289795,0.1466788798570633,-0.31980395317077637,0.20220458507537842,0.44253459572792053,-0.0036004099529236555,0.14327362179756165
11.837331056594849,0.14667585492134094,-0.31979691982269287,0.20219194889068604,0.4425531327724457,-0.0036034202203154564,0.1432570517063141
11.857475757598877,0.146676167845726,-0.31979331374168396,0.2021859735250473,0.4425608515739441,-0.00360392895527184,0.1432487666606903
11.877524852752686,0.14667920768260956,-0.31978657841682434,0.20217473804950714,0.4425751268863678,-0.003604441648349166,0.14323200285434723
11.89792275428772,0.1466810405254364,-0.3197833299636841,0.2021697461605072,0.44258204102516174,-0.0036045685410499573,0.1432236284017563
11.918017625808716,0.1466832160949707,-0.31977760791778564,0.202159583568573,0.44259604811668396,-0.0036072812508791685,0.14320668578147888
11.938094139099121,0.14668682217597961,-0.31977206468582153,0.2021506279706955,0.44260984659194946,-0.003609374165534973,0.14318984746932983
11.958162546157837,0.14668670296669006,-0.3197680711746216,0.2021491825580597,0.44262173771858215,-0.003607669845223427,0.14318186044692993
11.978249073028564,0.14668995141983032,-0.31975847482681274,0.20214934647083282,0.4426460862159729,-0.0035984483547508717,0.14316663146018982
11.99841594696045,0.14669178426265717,-0.31975317001342773,0.20215001702308655,0.44265854358673096,-0.003592976601794362,0.14315924048423767
12.018613815307617,0.14669643342494965,-0.3197456896305084,0.2021457850933075,0.4426758587360382,-0.003589040832594037,0.14314350485801697
12.03863000869751,0.14669989049434662,-0.31974300742149353,0.20213527977466583,0.4426887333393097,-0.0035956446081399918,0.14312632381916046
12.058780670166016,0.14670659601688385,-0.3197431266307831,0.2021307349205017,0.44269561767578125,-0.0035989517346024513,0.14311711490154266
12.078869342803955,0.1467781811952591,-0.31975263357162476,0.20213185250759125,0.4427117109298706,-0.0035961694084107876,0.14309550821781158
12.099289894104004,0.14684315025806427,-0.3197615146636963,0.2021384984254837,0.4427213966846466,-0.003588992403820157,0.1430830955505371
12.11940312385559,0.1470009833574295,-0.3197813332080841,0.2021591067314148,0.44273948669433594,-0.0035637628752738237,0.14305706322193146
12.13948941230774,0.14712530374526978,-0.3197917342185974,0.20217877626419067,0.44275423884391785,-0.0035325472708791494,0.1430327445268631
12.159562826156616,0.14716660976409912,-0.31979256868362427,0.202185720205307,0.44275927543640137,-0.0035173646174371243,0.14302152395248413
12.179662704467773,0.14722254872322083,-0.31979092955589294,0.2021956443786621,0.4427712857723236,-0.003492990741506219,0.1429995596408844
12.199838161468506,0.14726214110851288,-0.3197895586490631,0.20220215618610382,0.442787766456604,-0.003479397390037775,0.14297793805599213
12.219918727874756,0.1472768783569336,-0.31978899240493774,0.20220515131950378,0.4427991509437561,-0.0034759710542857647,0.1429673582315445
12.240002393722534,0.1473003625869751,-0.31978756189346313,0.20221048593521118,0.44282346963882446,-0.0034716487862169743,0.14294688403606415
12.260108709335327,0.14730939269065857,-0.319785475730896,0.20221304893493652,0.4428338408470154,-0.0034671875182539225,0.14293719828128815
12.280181407928467,0.14731672406196594,-0.3197780251502991,0.20221592485904694,0.4428494870662689,-0.003455953672528267,0.14291882514953613
12.300245761871338,0.1473044455051422,-0.3197683095932007,0.20221179723739624,0.4428575932979584,-0.003449042094871402,0.14290137588977814
12.320327758789062,0.14729425311088562,-0.3197648227214813,0.20220661163330078,0.44286084175109863,-0.00345123209990561,0.14289258420467377
12.340473175048828,0.14727264642715454,-0.31976044178009033,0.20219267904758453,0.4428669214248657,-0.0034632820170372725,0.14287538826465607
12.360528945922852,0.14726892113685608,-0.31975892186164856,0.20218047499656677,0.4428724944591522,-0.0034745188895612955,0.14285887777805328
12.380615711212158,0.14727169275283813,-0.31975793838500977,0.20217633247375488,0.44287627935409546,-0.003477303544059396,0.14285103976726532
12.400763273239136,0.14728757739067078,-0.3197549283504486,0.2021738439798355,0.44288742542266846,-0.0034733149223029613,0.14283554255962372
12.420758247375488,0.14730370044708252,-0.3197515904903412,0.20217417180538177,0.4429028630256653,-0.0034654594492167234,0.14281977713108063
12.440946340560913,0.1473074108362198,-0.3197498917579651,0.20217370986938477,0.4429113268852234,-0.003462658729404211,0.14281204342842102
12.46103310585022,0.14728057384490967,-0.31974270939826965,0.20216505229473114,0.4429253935813904,-0.003466349095106125,0.14279873669147491
12.481922388076782,0.1472029983997345,-0.31972846388816833,0.20214730501174927,0.4429400861263275,-0.003481701947748661,0.14278918504714966
12.501999616622925,0.14716051518917084,-0.3197213113307953,0.20213668048381805,0.4429466426372528,-0.0034914398565888405,0.14278490841388702
12.522071123123169,0.1470973640680313,-0.31971290707588196,0.20211610198020935,0.4429594874382019,-0.0035121424589306116,0.1427748203277588
12.542153596878052,0.147083580493927,-0.31971216201782227,0.2021077573299408,0.442965030670166,-0.003520222380757332,0.14276868104934692
12.562247514724731,0.14706498384475708,-0.319711834192276,0.20209383964538574,0.4429776072502136,-0.003532489063218236,0.14275577664375305
12.582292795181274,0.14704933762550354,-0.31971073150634766,0.20208331942558289,0.4429932236671448,-0.0035397717729210854,0.14274273812770844
12.602370738983154,0.14704051613807678,-0.31971025466918945,0.20207780599594116,0.44300147891044617,-0.003544365521520376,0.14273618161678314
12.622468709945679,0.14702261984348297,-0.31970930099487305,0.2020667940378189,0.4430181682109833,-0.0035538312513381243,0.1427232027053833
12.642528295516968,0.14701364934444427,-0.31970927119255066,0.2020602524280548,0.44302529096603394,-0.0035602347925305367,0.14271676540374756
12.662764072418213,0.14699672162532806,-0.31970933079719543,0.2020477056503296,0.44303950667381287,-0.0035722139291465282,0.14270418882369995
12.682875394821167,0.14698979258537292,-0.3197096586227417,0.20204074680805206,0.4430447518825531,-0.003578255185857415,0.14269797503948212
12.702955722808838,0.14940573275089264,-0.32218438386917114,0.2049073725938797,0.43961694836616516,-0.0026330878026783466,0.1392151564359665
12.723015069961548,0.1541958898305893,-0.32708126306533813,0.21059808135032654,0.43286076188087463,-0.0007489013369195163,0.13234642148017883
12.743119239807129,0.15656448900699615,-0.3295036256313324,0.21341416239738464,0.42953717708587646,0.00018320907838642597,0.12895351648330688
12.763192653656006,0.1612466424703598,-0.33429819345474243,0.21897082030773163,0.42299219965934753,0.0020219217985868454,0.12224964052438736
12.783588171005249,0.1658054143190384,-0.33901792764663696,0.22439749538898468,0.4165610671043396,0.0038056382909417152,0.11565370112657547
12.803690671920776,0.16801324486732483,-0.34133946895599365,0.2270529419183731,0.4133901000022888,0.00465827900916338,0.11239919066429138
12.823767185211182,0.17228224873542786,-0.34589841961860657,0.23223015666007996,0.4071454703807831,0.006265868898481131,0.10598174482584
12.844023704528809,0.1743476390838623,-0.3481304943561554,0.23479637503623962,0.4040921926498413,0.007031979970633984,0.10281813889741898
12.863976955413818,0.17835350334644318,-0.3524913489818573,0.23991818726062775,0.39814862608909607,0.00849731545895338,0.09658480435609818
12.88432765007019,0.18028566241264343,-0.35461336374282837,0.24250271916389465,0.395265132188797,0.009203423745930195,0.09351526200771332
12.904441833496094,0.18404307961463928,-0.35874855518341064,0.24776053428649902,0.3896957039833069,0.010598048567771912,0.08746146410703659
12.924458265304565,0.1877005398273468,-0.36276674270629883,0.25303125381469727,0.38431715965270996,0.011972098611295223,0.08152101188898087
12.94455075263977,0.189498171210289,-0.3647419214248657,0.25562000274658203,0.3816707730293274,0.012642326764762402,0.07859485596418381
12.964635848999023,0.19298940896987915,-0.3686233162879944,0.26054632663726807,0.37639281153678894,0.01386802364140749,0.07284706085920334
12.984724283218384,0.1946849673986435,-0.3705351948738098,0.2628548741340637,0.3737597167491913,0.014407957904040813,0.07002641260623932
13.004811525344849,0.1979639232158661,-0.37429600954055786,0.2672123908996582,0.36853718757629395,0.015328515321016312,0.06448906660079956
13.024867057800293,0.2011927366256714,-0.37799912691116333,0.27144908905029297,0.3634665012359619,0.016148641705513,0.05905965715646744
13.044962644577026,0.20277857780456543,-0.37982067465782166,0.27356305718421936,0.36099863052368164,0.01653009094297886,0.056384552270174026
13.065129280090332,0.20584723353385925,-0.38338330388069153,0.27782464027404785,0.356178879737854,0.017262322828173637,0.05111824721097946
13.085248470306396,0.20874908566474915,-0.3868178725242615,0.2821658253669739,0.3515044152736664,0.017984095960855484,0.04596099257469177
13.105388402938843,0.21015138924121857,-0.3884924054145813,0.28434666991233826,0.3492159843444824,0.01834610290825367,0.0434223935008049
13.125544786453247,0.21299217641353607,-0.39180541038513184,0.2886345386505127,0.34474435448646545,0.01906345784664154,0.038412339985370636
13.145629644393921,0.21439461410045624,-0.39343592524528503,0.2906680107116699,0.34254178404808044,0.019369831308722496,0.03595215827226639
13.165762662887573,0.21713711321353912,-0.3966483175754547,0.2944561541080475,0.3381839692592621,0.019841458648443222,0.03112603724002838
13.185858488082886,0.21974866092205048,-0.39977729320526123,0.2979840934276581,0.33391886949539185,0.020148955285549164,0.026425262913107872
13.20596957206726,0.22101691365242004,-0.4013105034828186,0.29972296953201294,0.3318389654159546,0.0202720295637846,0.024116069078445435
13.22602128982544,0.22349615395069122,-0.4043143689632416,0.3032306432723999,0.327801376581192,0.020492058247327805,0.019574111327528954
13.246240139007568,0.2246939092874527,-0.40578195452690125,0.305004358291626,0.3258323073387146,0.02059148997068405,0.017341358587145805
13.266278505325317,0.2270500361919403,-0.4086582064628601,0.3086247742176056,0.32201167941093445,0.020789965987205505,0.012941747903823853
13.286694765090942,0.22938598692417145,-0.41146475076675415,0.31227511167526245,0.3183278441429138,0.02099432609975338,0.008630138821899891
13.306807279586792,0.2305411845445633,-0.41283851861953735,0.31408143043518066,0.31652992963790894,0.02109614387154579,0.0065099336206912994
13.326934814453125,0.23279723525047302,-0.41553401947021484,0.31746140122413635,0.31295332312583923,0.021241215988993645,0.002354005351662636
13.347059488296509,0.2338886559009552,-0.4168590009212494,0.31901201605796814,0.3111630976200104,0.02126329205930233,0.0003195398021489382
13.367157936096191,0.23600563406944275,-0.4194687306880951,0.3218926787376404,0.3076210916042328,0.021186010912060738,-0.00366985728032887
13.38719129562378,0.23701629042625427,-0.42075490951538086,0.32323476672172546,0.3058711290359497,0.021065643057227135,-0.005625419318675995
13.407273054122925,0.23895779252052307,-0.4232916533946991,0.3258213698863983,0.3024475872516632,0.020710401237010956,-0.009467747062444687
13.427364587783813,0.23989322781562805,-0.42454269528388977,0.3270920217037201,0.30078065395355225,0.020485928282141685,-0.011356618255376816
13.447544574737549,0.24175925552845,-0.4270040690898895,0.32974115014076233,0.29755839705467224,0.020082633942365646,-0.015080549754202366
13.467576503753662,0.2436251938343048,-0.42939016222953796,0.3325468897819519,0.2944810390472412,0.01979399286210537,-0.018726225942373276
13.487671613693237,0.24454812705516815,-0.43055009841918945,0.33397650718688965,0.29298633337020874,0.01968570239841938,-0.020516639575362206
13.50774073600769,0.24633336067199707,-0.43281131982803345,0.33678245544433594,0.29004597663879395,0.019465072080492973,-0.02403050661087036
13.527853965759277,0.24718299508094788,-0.4339141547679901,0.33812451362609863,0.2885982394218445,0.019322695210576057,-0.025752980262041092
13.54799199104309,0.24883361160755157,-0.436084508895874,0.3405877649784088,0.2857154905796051,0.018934551626443863,-0.02912628836929798
13.568002939224243,0.25041475892066956,-0.4382120668888092,0.3427872359752655,0.2828684449195862,0.018410062417387962,-0.0324057973921299
13.588181495666504,0.25117892026901245,-0.4392636716365814,0.34382498264312744,0.2814677655696869,0.01810353808104992,-0.03401527553796768
13.608191728591919,0.25266942381858826,-0.44134026765823364,0.34594592452049255,0.2787741422653198,0.01747974008321762,-0.03719199821352959
13.628466606140137,0.25416791439056396,-0.44337785243988037,0.3482799828052521,0.276265412569046,0.016931327059864998,-0.040325261652469635
13.648539304733276,0.2549211084842682,-0.4443708658218384,0.3495275378227234,0.27507176995277405,0.016706140711903572,-0.0418718047440052
13.668621301651001,0.256430447101593,-0.44630151987075806,0.35206112265586853,0.2727450132369995,0.016331125050783157,-0.04491082578897476
13.688691854476929,0.257168173789978,-0.4472389221191406,0.35328108072280884,0.2715870141983032,0.016157401725649834,-0.04639854654669762
13.708761930465698,0.25857704877853394,-0.4490720331668854,0.35543304681777954,0.2692475914955139,0.01569957286119461,-0.049300696700811386
13.729127883911133,0.25990304350852966,-0.4508853256702423,0.3571389317512512,0.2668851613998413,0.015019915997982025,-0.05211289972066879
13.749297142028809,0.26052606105804443,-0.4517875909805298,0.3578566014766693,0.2657087743282318,0.014592657797038555,-0.0534888356924057
13.769352912902832,0.26171979308128357,-0.45358335971832275,0.3592039942741394,0.2634042799472809,0.01365520991384983,-0.05619419738650322
13.789457321166992,0.2622867524623871,-0.4544645845890045,0.35991907119750977,0.26229268312454224,0.013190831989049911,-0.05752731114625931
13.80963134765625,0.26342281699180603,-0.45618268847465515,0.3616308569908142,0.26019909977912903,0.012396871112287045,-0.060168907046318054
13.830159187316895,0.2646152079105377,-0.4578382968902588,0.3636949956417084,0.2582818567752838,0.011811180040240288,-0.06277522444725037
13.85023546218872,0.2652236521244049,-0.45864155888557434,0.3647897243499756,0.25736576318740845,0.011581466533243656,-0.06405989080667496
13.870304584503174,0.2664485275745392,-0.4602045714855194,0.3668838143348694,0.2555563449859619,0.011153673753142357,-0.06657955795526505
13.890424728393555,0.2670380473136902,-0.4609648287296295,0.36782220005989075,0.25464892387390137,0.01091463677585125,-0.06781046837568283
13.910529851913452,0.26816681027412415,-0.46245935559272766,0.3694154918193817,0.2528189420700073,0.010310505516827106,-0.07021375000476837
13.930600881576538,0.2692006230354309,-0.46392056345939636,0.37070637941360474,0.2509884536266327,0.00952853262424469,-0.07254043221473694
13.950687170028687,0.2696915864944458,-0.46463826298713684,0.3713007867336273,0.2500813901424408,0.009104481898248196,-0.07367830723524094
13.970766544342041,0.2706579267978668,-0.46605491638183594,0.3725690543651581,0.24834507703781128,0.008271207101643085,-0.07592117041349411
13.991408824920654,0.27114343643188477,-0.4667535424232483,0.3732856512069702,0.24752937257289886,0.007882366888225079,-0.07703139632940292
14.011530876159668,0.2721148133277893,-0.4681275188922882,0.37488165497779846,0.2460155040025711,0.007169135846197605,-0.07923158258199692
14.031563997268677,0.273093581199646,-0.4694681465625763,0.37654322385787964,0.24456395208835602,0.006542430724948645,-0.08139253407716751
14.051663160324097,0.27357614040374756,-0.470124214887619,0.3773387372493744,0.24383074045181274,0.006254452280700207,-0.08245320618152618
14.07173776626587,0.2745102345943451,-0.4714060425758362,0.3787643313407898,0.24234232306480408,0.0056584798730909824,-0.0845295712351799
14.091862916946411,0.27493640780448914,-0.472027063369751,0.3793913424015045,0.24159744381904602,0.00532622542232275,-0.08554388582706451
14.111997127532959,0.2757452726364136,-0.47324398159980774,0.3805173635482788,0.24015001952648163,0.004566607065498829,-0.08753105252981186
14.131998777389526,0.2765280604362488,-0.4744316041469574,0.38157495856285095,0.23876819014549255,0.0037400308065116405,-0.08946721255779266
14.152069091796875,0.27692723274230957,-0.4750171899795532,0.3821212649345398,0.23810677230358124,0.003338559065014124,-0.09041931480169296
14.17215871810913,0.2777191996574402,-0.4761640131473541,0.38330116868019104,0.23684632778167725,0.0025883635971695185,-0.09229566901922226
14.192285537719727,0.2785128355026245,-0.4772912561893463,0.3845703899860382,0.23566284775733948,0.0019081096397712827,-0.09414144605398178
14.212377309799194,0.27891257405281067,-0.47784367203712463,0.3852330148220062,0.23510079085826874,0.0015909618232399225,-0.09505277127027512
14.232439517974854,0.27967995405197144,-0.47891727089881897,0.38651734590530396,0.2339906394481659,0.0009617473697289824,-0.09684135764837265
14.252530574798584,0.28003156185150146,-0.47943300008773804,0.38713252544403076,0.23343941569328308,0.0006488255457952619,-0.0977167934179306
14.272645950317383,0.28067710995674133,-0.4804331660270691,0.38824963569641113,0.23233000934123993,-2.366970875300467e-05,-0.09942899644374847
14.292694568634033,0.2813035845756531,-0.4814198613166809,0.38920092582702637,0.23122289776802063,-0.0007598120719194412,-0.10109815746545792
14.312774658203125,0.28163328766822815,-0.4819157123565674,0.3896191716194153,0.2306794822216034,-0.0011506220325827599,-0.1019187942147255
14.332850217819214,0.2823110520839691,-0.48290109634399414,0.39040473103523254,0.22962556779384613,-0.001942293718457222,-0.10353265702724457
14.352969646453857,0.2826468050479889,-0.4833838641643524,0.39079582691192627,0.2291136533021927,-0.002326473593711853,-0.10432524979114532
14.373042106628418,0.28330498933792114,-0.484325110912323,0.39159727096557617,0.2281019240617752,-0.003042725846171379,-0.10588308423757553
14.393118143081665,0.2839595079421997,-0.4852389991283417,0.39247360825538635,0.22713792324066162,-0.0036832874175161123,-0.10741312801837921
14.41325044631958,0.2842966318130493,-0.4856920838356018,0.3929499089717865,0.22669024765491486,-0.003985400311648846,-0.10817163437604904
14.43328046798706,0.28497204184532166,-0.4865816831588745,0.3939913809299469,0.2258809357881546,-0.004581375513225794,-0.10967560112476349
14.453725337982178,0.285292387008667,-0.48701149225234985,0.39453718066215515,0.22550302743911743,-0.004877328872680664,-0.11041705310344696
14.473855018615723,0.2858869433403015,-0.48782774806022644,0.3955962061882019,0.2247646600008011,-0.005462258122861385,-0.11186660826206207
