liuyurong129/humanoid-gym/humanoid/data/target_q_20250521-035116.csv
timestamp,joint_1,joint_2,joint_3,joint_4,joint_5,joint_6
4.7206878662109375e-05,0.0,0.0,0.0,0.0,0.0,0.0
0.020157814025878906,0.0,0.0,0.0,0.0,0.0,0.0
0.04023313522338867,0.0,0.0,0.0,0.0,0.0,0.0
0.060300350189208984,0.0,0.0,0.0,0.0,0.0,0.0
0.08039069175720215,0.0,0.0,0.0,0.0,0.0,0.0
0.10070085525512695,-0.6880568861961365,-0.7224395871162415,0.6050638556480408,-0.023700304329395294,0.22603976726531982,-0.40994569659233093
0.12076902389526367,-0.7045547366142273,-0.6955130696296692,0.6301856637001038,0.004561745561659336,0.20629070699214935,-0.42168980836868286
0.14085030555725098,-0.7073623538017273,-0.6938384175300598,0.641541600227356,0.01049181167036295,0.20265904068946838,-0.42090949416160583
0.1610240936279297,-0.7086222171783447,-0.7085195779800415,0.6369244456291199,0.011218556202948093,0.20607808232307434,-0.4202086627483368
0.18119502067565918,-0.704267680644989,-0.7284621000289917,0.6256463527679443,0.0033750394359230995,0.22094875574111938,-0.41860195994377136
0.20121550559997559,-0.6950719356536865,-0.6956969499588013,0.630199134349823,0.0014910558238625526,0.23219028115272522,-0.4222070276737213
0.22125768661499023,-0.7029945254325867,-0.7090311646461487,0.6282699704170227,0.003351026214659214,0.22130268812179565,-0.4225660264492035
0.2413487434387207,-0.6962870955467224,-0.7165821194648743,0.6235246062278748,-0.0003758510574698448,0.23489654064178467,-0.4216800630092621
0.26142191886901855,-0.701328694820404,-0.7197498083114624,0.6258671879768372,0.0006916755810379982,0.22572478652000427,-0.42227888107299805
0.2814760208129883,-0.7109007239341736,-0.7224770188331604,0.6311143636703491,0.0012736925855278969,0.22004863619804382,-0.4223267734050751
0.3015613555908203,-0.7010161280632019,-0.6969411373138428,0.634497344493866,0.004982837475836277,0.22902905941009521,-0.42359018325805664
0.32164788246154785,-0.7091196775436401,-0.7084940075874329,0.6359480023384094,0.009365902282297611,0.21275484561920166,-0.42318832874298096
0.3416922092437744,-0.6998142600059509,-0.6963328123092651,0.6307585835456848,0.006131642498075962,0.22332942485809326,-0.42260316014289856
0.36181020736694336,-0.7031400799751282,-0.7229282259941101,0.6283475160598755,0.0019177505746483803,0.22440537810325623,-0.4229380786418915
0.3818986415863037,-0.7050186991691589,-0.7282084226608276,0.6214185357093811,-0.00020855572074651718,0.22977137565612793,-0.42393404245376587
0.4019639492034912,-0.7026548981666565,-0.7187070846557617,0.6284846663475037,-0.0032586371526122093,0.23238545656204224,-0.42621830105781555
0.42205357551574707,-0.6955770254135132,-0.6821923851966858,0.6389432549476624,0.002023504115641117,0.23600518703460693,-0.4283170998096466
0.44211721420288086,-0.6975763440132141,-0.6843323707580566,0.6370130777359009,-0.0032914793118834496,0.23902347683906555,-0.4287026822566986
0.4621882438659668,-0.7023496627807617,-0.7095754742622375,0.6293057799339294,-0.0024407943710684776,0.23962485790252686,-0.4268472492694855
0.4822685718536377,-0.7054449915885925,-0.7171309590339661,0.6299701929092407,0.0024222517386078835,0.22598987817764282,-0.4269965589046478
0.5023946762084961,-0.7026533484458923,-0.7160341143608093,0.628445565700531,-0.0005394434556365013,0.23677396774291992,-0.4265792667865753
0.5224630832672119,-0.7044841051101685,-0.7157559990882874,0.6244875192642212,-0.001461355946958065,0.23673593997955322,-0.4281017482280731
0.5434091091156006,-0.6939712166786194,-0.6999562978744507,0.6279642581939697,-0.003942280076444149,0.24710726737976074,-0.4307290017604828
0.5635192394256592,-0.700419008731842,-0.7128349542617798,0.6276443600654602,-0.0077487146481871605,0.24717476963996887,-0.42982783913612366
0.5835831165313721,-0.6992312669754028,-0.7184103727340698,0.6275761723518372,-0.006908363662660122,0.2481333613395691,-0.42950311303138733
0.6036429405212402,-0.7033492922782898,-0.713830828666687,0.6337712407112122,-0.004855207167565823,0.24117565155029297,-0.429777592420578
0.6237473487854004,-0.7054657340049744,-0.7207145094871521,0.6304821968078613,0.0009260484948754311,0.2356439232826233,-0.42949342727661133
0.6438257694244385,-0.7102460265159607,-0.7256414294242859,0.6354255080223083,0.0038999104872345924,0.2321295440196991,-0.42898157238960266
0.6638870239257812,-0.698809802532196,-0.7112048268318176,0.6298428773880005,-0.0003099283203482628,0.24605441093444824,-0.43063589930534363
0.6839749813079834,-0.7005345821380615,-0.7170371413230896,0.6304478645324707,-0.00208160188049078,0.24703678488731384,-0.43074700236320496
0.704059362411499,-0.7062737941741943,-0.7273929715156555,0.6273924708366394,-0.001485510729253292,0.24163702130317688,-0.43025392293930054
0.7241671085357666,-0.6985687017440796,-0.7207471132278442,0.6326717734336853,-0.005232146941125393,0.250408411026001,-0.4310244619846344
0.7442750930786133,-0.7003740072250366,-0.6947321891784668,0.6366919279098511,-0.00035859551280736923,0.2444869875907898,-0.4329160153865814
0.7644460201263428,-0.7029271125793457,-0.7148230671882629,0.632036030292511,-0.002122259698808193,0.2436557412147522,-0.43275320529937744
0.784527063369751,-0.6982082724571228,-0.7206147313117981,0.6245751976966858,-0.007108098827302456,0.2533711791038513,-0.4330874979496002
0.8047819137573242,-0.7075310349464417,-0.7229555249214172,0.6353375315666199,-0.0004241308197379112,0.2418702244758606,-0.432965487241745
0.8248786926269531,-0.6990246772766113,-0.6963375210762024,0.6395338177680969,0.00046480540186166763,0.24892079830169678,-0.4343681037425995
0.8449640274047852,-0.6925958395004272,-0.7014764547348022,0.6344125866889954,-0.004264242015779018,0.26248282194137573,-0.4347943663597107
0.8651931285858154,-0.695184051990509,-0.7126991748809814,0.6286230683326721,-0.008690095506608486,0.26418614387512207,-0.43484216928482056
0.885286808013916,-0.6985275149345398,-0.7155887484550476,0.6310527920722961,-0.00786768551915884,0.2601923942565918,-0.43592819571495056
0.9053852558135986,-0.6969918608665466,-0.7073017358779907,0.6317161917686462,-0.009509569965302944,0.2624311149120331,-0.43695399165153503
0.9256348609924316,-0.7046855688095093,-0.6971340179443359,0.6419758200645447,0.0018445337191224098,0.2482873797416687,-0.4371879994869232
0.9457311630249023,-0.7100512385368347,-0.7281681299209595,0.6390066742897034,0.0022634798660874367,0.2437787652015686,-0.4346977770328522
0.9658126831054688,-0.7074080109596252,-0.7262284159660339,0.6402457356452942,0.0015226462855935097,0.24861228466033936,-0.4349142909049988
0.9859771728515625,-0.6944743990898132,-0.7204380035400391,0.6295881867408752,-0.008479728363454342,0.27073347568511963,-0.4367208778858185
1.0060687065124512,-0.7002115845680237,-0.7123052477836609,0.6379075050354004,0.00033091846853494644,0.2568937838077545,-0.4386627972126007
1.026134729385376,-0.6924062967300415,-0.6960130929946899,0.636375367641449,-0.010033681057393551,0.2673484683036804,-0.4411753714084625
1.046203851699829,-0.693445086479187,-0.6901297569274902,0.6370227336883545,-0.008520304225385189,0.2729087471961975,-0.43996453285217285
1.0662920475006104,-0.7013283371925354,-0.7100013494491577,0.63466477394104,-0.006936891935765743,0.2618122100830078,-0.43911245465278625
1.086367130279541,-0.6981003880500793,-0.7216607928276062,0.6321468353271484,-0.010654575191438198,0.2693023085594177,-0.439210444688797
1.1064319610595703,-0.7063410878181458,-0.7143023610115051,0.6428623795509338,-0.00473084207624197,0.2584243714809418,-0.4394363462924957
1.1265153884887695,-0.694790780544281,-0.7045804262161255,0.6380221843719482,-0.006053886376321316,0.2709336280822754,-0.43971315026283264
1.1465816497802734,-0.6944469213485718,-0.7070695757865906,0.6337806582450867,-0.008541337214410305,0.27584752440452576,-0.4411265552043915
1.1666927337646484,-0.6914039254188538,-0.7071118354797363,0.6278613209724426,-0.009721255861222744,0.28536731004714966,-0.4416275918483734
1.1867892742156982,-0.6875539422035217,-0.7238872647285461,0.6211298704147339,-0.013284279964864254,0.2917775511741638,-0.4411030113697052
1.2068440914154053,-0.6916345953941345,-0.7098577618598938,0.6326671838760376,-0.014401986263692379,0.2834579646587372,-0.444408118724823
1.2269036769866943,-0.6999194622039795,-0.7214637398719788,0.6384004354476929,-0.005921646021306515,0.2714313566684723,-0.44241657853126526
1.2469959259033203,-0.7049174308776855,-0.7047917246818542,0.6452973484992981,0.0006141671910881996,0.26184678077697754,-0.4432655870914459
1.2670741081237793,-0.6878777742385864,-0.689905047416687,0.636869490146637,-0.010537727735936642,0.289337694644928,-0.4447314441204071
1.2871317863464355,-0.6831597089767456,-0.6727367639541626,0.6418245434761047,-0.01261173840612173,0.29523324966430664,-0.44625481963157654
1.3072195053100586,-0.690246045589447,-0.71675044298172,0.6271891593933105,-0.018519900739192963,0.29083529114723206,-0.4446863830089569
1.3272762298583984,-0.6935549974441528,-0.7109751105308533,0.635779082775116,-0.009130208753049374,0.2853361964225769,-0.4457809031009674
1.3473422527313232,-0.6948564648628235,-0.6993329524993896,0.6400105357170105,-0.012288114987313747,0.28741782903671265,-0.4478289484977722
1.3674302101135254,-0.6929808259010315,-0.7015604376792908,0.6406479477882385,-0.012894785962998867,0.29173511266708374,-0.44775232672691345
1.3875370025634766,-0.7014185190200806,-0.7086280584335327,0.6443036198616028,-0.005999757908284664,0.280050128698349,-0.4478699862957001
1.407557725906372,-0.7004489898681641,-0.7090181708335876,0.6412951350212097,-0.006115890108048916,0.28189951181411743,-0.4479208290576935
1.4276504516601562,-0.6847527623176575,-0.7116566300392151,0.6329054832458496,-0.016911767423152924,0.309951514005661,-0.44687774777412415
1.4477338790893555,-0.6904500722885132,-0.7142797112464905,0.6367234587669373,-0.014758958481252193,0.30211541056632996,-0.44820740818977356
1.4677908420562744,-0.68715900182724,-0.6966876983642578,0.6408392190933228,-0.015404715202748775,0.30181175470352173,-0.45012935996055603
1.4878737926483154,-0.6904667019844055,-0.718672513961792,0.6322287321090698,-0.017361946403980255,0.2988405227661133,-0.4493210017681122
1.5079410076141357,-0.697261393070221,-0.7066318988800049,0.6443899869918823,-0.01322826649993658,0.29445135593414307,-0.4503391683101654
1.5280778408050537,-0.6927128434181213,-0.6993629932403564,0.6485662460327148,-0.011966547928750515,0.2912108600139618,-0.45269808173179626
1.548142671585083,-0.6837974786758423,-0.7038039565086365,0.6395352482795715,-0.017535768449306488,0.31634849309921265,-0.4510837495326996
1.5682015419006348,-0.6794076561927795,-0.6966802477836609,0.6352160573005676,-0.017343372106552124,0.32084739208221436,-0.45215752720832825
1.588285207748413,-0.6889541745185852,-0.703960657119751,0.6379141211509705,-0.011455557309091091,0.30985376238822937,-0.4525040090084076
1.6084017753601074,-0.6983901858329773,-0.6984715461730957,0.6427916884422302,-0.009875736199319363,0.29321515560150146,-0.4533601701259613
1.6284754276275635,-0.7009317874908447,-0.7012977004051208,0.6537547707557678,-0.0019310256466269493,0.28550833463668823,-0.45250391960144043
1.6485371589660645,-0.6889762282371521,-0.6877936720848083,0.6460002660751343,-0.012180767022073269,0.30839312076568604,-0.45338308811187744
1.6686458587646484,-0.6934098601341248,-0.7165327072143555,0.6403071284294128,-0.012542582117021084,0.3055405020713806,-0.4529840052127838
1.688701868057251,-0.6855012774467468,-0.7096543312072754,0.6367896199226379,-0.02008891850709915,0.3197377324104309,-0.454895943403244
1.7087807655334473,-0.6877298951148987,-0.710578203201294,0.6386391520500183,-0.020674526691436768,0.320386677980423,-0.4551120102405548
1.7288398742675781,-0.6853870153427124,-0.6688467264175415,0.6467301249504089,-0.01727762073278427,0.3140430748462677,-0.45845872163772583
1.748927116394043,-0.6982962489128113,-0.7018601894378662,0.6460355520248413,-0.011379166506230831,0.3028440475463867,-0.45687344670295715
1.768979787826538,-0.6844942569732666,-0.6807763576507568,0.6461039185523987,-0.019747167825698853,0.32350605726242065,-0.4583503305912018
1.7890658378601074,-0.6940633058547974,-0.7084577083587646,0.6423042416572571,-0.017986349761486053,0.3148292899131775,-0.45683759450912476
1.8091633319854736,-0.6864531636238098,-0.7168432474136353,0.6343309283256531,-0.021974988281726837,0.3298332691192627,-0.4576876759529114
1.8292078971862793,-0.6838658452033997,-0.7119593620300293,0.6354847550392151,-0.02063760906457901,0.3311793804168701,-0.4587324559688568
1.849344253540039,-0.6887406706809998,-0.6951454877853394,0.6451283097267151,-0.019527800381183624,0.32318922877311707,-0.4610362946987152
1.8694024085998535,-0.6887533664703369,-0.687279224395752,0.6506587862968445,-0.01958901435136795,0.3244399428367615,-0.4604402780532837
1.8894720077514648,-0.6773061156272888,-0.6748867034912109,0.650577962398529,-0.018829599022865295,0.33455953001976013,-0.4615074694156647
1.9096548557281494,-0.6944980025291443,-0.7089946866035461,0.6492556929588318,-0.01817014068365097,0.3183775544166565,-0.4610125720500946
1.9296417236328125,-0.6911817193031311,-0.6969105005264282,0.6478915810585022,-0.022016815841197968,0.3233271837234497,-0.4626125693321228
1.9497034549713135,-0.6940333843231201,-0.7193472385406494,0.6400317549705505,-0.020675964653491974,0.3246195912361145,-0.46181660890579224
1.969783067703247,-0.6773389577865601,-0.6720797419548035,0.6487157940864563,-0.019477874040603638,0.3405974209308624,-0.463688462972641
1.9898478984832764,-0.6883876919746399,-0.6790942549705505,0.6554180383682251,-0.015406928025186062,0.3268647789955139,-0.4640366733074188
2.0099263191223145,-0.6863872408866882,-0.6917409300804138,0.6468536257743835,-0.019292958080768585,0.33569884300231934,-0.4642415940761566
2.0301594734191895,-0.6889613270759583,-0.6788098216056824,0.6510419249534607,-0.017436020076274872,0.3299347758293152,-0.4665827453136444
2.050272226333618,-0.6847418546676636,-0.7168018221855164,0.6417922973632812,-0.025131352245807648,0.34464195370674133,-0.46319881081581116
2.0703048706054688,-0.6808388829231262,-0.7015885710716248,0.6440959572792053,-0.025769434869289398,0.34510886669158936,-0.46532776951789856
2.0905961990356445,-0.6777787804603577,-0.7081353068351746,0.6382700800895691,-0.028620004653930664,0.3546893000602722,-0.46476396918296814
2.1107375621795654,-0.6878450512886047,-0.6945427656173706,0.6438429951667786,-0.020775780081748962,0.3359353542327881,-0.467100590467453
2.1308341026306152,-0.6819869875907898,-0.7043260335922241,0.6396453976631165,-0.02823055535554886,0.34877821803092957,-0.4673807919025421
2.151076555252075,-0.6861952543258667,-0.7077430486679077,0.6458730101585388,-0.027169518172740936,0.35049930214881897,-0.4686734080314636
2.1711418628692627,-0.6725257039070129,-0.6574738025665283,0.6498177647590637,-0.030630677938461304,0.36656010150909424,-0.47085127234458923
2.191250801086426,-0.6878507733345032,-0.6717866659164429,0.6590489149093628,-0.01863880455493927,0.34804579615592957,-0.4708693325519562
2.2115485668182373,-0.6822230219841003,-0.686004638671875,0.6536815762519836,-0.023536317050457,0.35350602865219116,-0.47016793489456177
2.23166823387146,-0.672290027141571,-0.7129024863243103,0.6369301676750183,-0.031639955937862396,0.3724411725997925,-0.46821704506874084
2.2517685890197754,-0.672333300113678,-0.7141076922416687,0.6428799033164978,-0.03329592943191528,0.3752802312374115,-0.46888676285743713
2.271792411804199,-0.6848841309547424,-0.7103871703147888,0.6472339034080505,-0.025953851640224457,0.3618224561214447,-0.4701915681362152
2.2919020652770996,-0.6844421029090881,-0.6847434043884277,0.6480864882469177,-0.023873604834079742,0.3599089980125427,-0.47139933705329895
2.311965227127075,-0.6748303771018982,-0.676049530506134,0.6532912850379944,-0.02542123943567276,0.3659391403198242,-0.47286245226860046
2.3320181369781494,-0.6698693633079529,-0.6748919486999512,0.6507095098495483,-0.028677113354206085,0.3787824511528015,-0.4734816253185272
2.352114200592041,-0.6830552220344543,-0.6975909471511841,0.6608342528343201,-0.019661493599414825,0.3445122241973877,-0.4761539399623871
2.372202157974243,-0.6865686178207397,-0.6909488439559937,0.6516013741493225,-0.027210839092731476,0.3613685369491577,-0.47439393401145935
2.392259120941162,-0.6820847392082214,-0.6994571685791016,0.6521309614181519,-0.025515608489513397,0.36897599697113037,-0.4752253592014313
2.412353754043579,-0.6764145493507385,-0.6701470613479614,0.6557063460350037,-0.030303291976451874,0.378046452999115,-0.47681719064712524
2.4324729442596436,-0.6763415336608887,-0.668847918510437,0.658584475517273,-0.030892744660377502,0.3790940046310425,-0.4775526523590088
2.4525539875030518,-0.6779752373695374,-0.6850188970565796,0.6528633236885071,-0.027055390179157257,0.3762417435646057,-0.478299081325531
2.4727110862731934,-0.6781028509140015,-0.7148236632347107,0.6455653309822083,-0.033668361604213715,0.38644295930862427,-0.47600844502449036
2.492746591567993,-0.6764819025993347,-0.6957266330718994,0.6447778344154358,-0.03576875478029251,0.3846074342727661,-0.47729137539863586
2.512827157974243,-0.668271541595459,-0.6793816089630127,0.6400770545005798,-0.036452122032642365,0.3871724605560303,-0.47866857051849365
2.532909631729126,-0.6699972748756409,-0.7049115896224976,0.6393586993217468,-0.03917526453733444,0.39721977710723877,-0.47806376218795776
2.5529837608337402,-0.6760551929473877,-0.7045069932937622,0.6509665846824646,-0.039086438715457916,0.39514756202697754,-0.4806874096393585
2.573016405105591,-0.6853231191635132,-0.7165044546127319,0.6604856848716736,-0.028293348848819733,0.38236621022224426,-0.48008766770362854
2.5932376384735107,-0.676882803440094,-0.7118586301803589,0.6554989814758301,-0.034796975553035736,0.3971779942512512,-0.4793829321861267
2.6133267879486084,-0.6721537709236145,-0.6722737550735474,0.6641054749488831,-0.026824183762073517,0.3782457411289215,-0.4844914376735687
2.6333742141723633,-0.6765888333320618,-0.6800374984741211,0.6573693752288818,-0.030233122408390045,0.38605713844299316,-0.48423856496810913
2.65344500541687,-0.6675923466682434,-0.7230094075202942,0.6451830863952637,-0.036684490740299225,0.4078799784183502,-0.4807911813259125
2.673600673675537,-0.6651158928871155,-0.7108491063117981,0.649555504322052,-0.0414792075753212,0.4092393219470978,-0.48275014758110046
2.693612813949585,-0.6652318835258484,-0.7183671593666077,0.640879213809967,-0.040695272386074066,0.4161992073059082,-0.48259466886520386
2.7136969566345215,-0.6568226218223572,-0.6932500600814819,0.6422572731971741,-0.0462896004319191,0.42814236879348755,-0.4847021698951721
2.733762264251709,-0.6804607510566711,-0.7121948599815369,0.6497527360916138,-0.03377940505743027,0.39738380908966064,-0.48702070116996765
2.7538325786590576,-0.684356689453125,-0.71016925573349,0.652899444103241,-0.03165305405855179,0.39776334166526794,-0.48797157406806946
2.773892402648926,-0.6766595244407654,-0.7139111161231995,0.6461721658706665,-0.03815469890832901,0.4069066643714905,-0.4884251058101654
2.793987989425659,-0.6558263897895813,-0.6453359723091125,0.6548630595207214,-0.04708348959684372,0.4393627643585205,-0.49091148376464844
2.8140578269958496,-0.6577628254890442,-0.6672984957695007,0.6512193083763123,-0.04688958823680878,0.43921804428100586,-0.490590363740921
2.834150552749634,-0.6631332635879517,-0.6682734489440918,0.658351719379425,-0.039382681250572205,0.42802318930625916,-0.49142852425575256
2.854525327682495,-0.6659689545631409,-0.6609652042388916,0.6634321808815002,-0.03533677011728287,0.42118000984191895,-0.49337899684906006
2.8747236728668213,-0.6716253161430359,-0.7170699238777161,0.6508898138999939,-0.042443595826625824,0.42441391944885254,-0.4901011884212494
2.894712209701538,-0.6714774966239929,-0.7152416110038757,0.6488515138626099,-0.04280856251716614,0.42968928813934326,-0.4907377362251282
2.914982795715332,-0.6673659682273865,-0.7160483598709106,0.6466947793960571,-0.04386972635984421,0.4336651861667633,-0.49002134799957275
2.9350764751434326,-0.6808390617370605,-0.6639407873153687,0.6696203947067261,-0.02825639396905899,0.40319105982780457,-0.49633222818374634
2.955136775970459,-0.6705806851387024,-0.6563166379928589,0.6655231714248657,-0.033787794411182404,0.4126347601413727,-0.49821996688842773
2.975243091583252,-0.6760470867156982,-0.685782790184021,0.6615098714828491,-0.03572457283735275,0.4212033152580261,-0.49793410301208496
2.9953408241271973,-0.6514736413955688,-0.6758315563201904,0.6460238099098206,-0.04774610698223114,0.45626646280288696,-0.49453577399253845
3.0155298709869385,-0.6651692390441895,-0.677515983581543,0.6627489924430847,-0.041103631258010864,0.4457843601703644,-0.49739423394203186
3.035621166229248,-0.6544158458709717,-0.677320122718811,0.6524131298065186,-0.049703486263751984,0.45874083042144775,-0.49779683351516724
3.0557165145874023,-0.6745681166648865,-0.7020441293716431,0.6594412326812744,-0.04051557928323746,0.43137848377227783,-0.49922800064086914
3.0758473873138428,-0.6749514937400818,-0.6928671002388,0.6651751399040222,-0.04359131306409836,0.43238428235054016,-0.5008226037025452
3.095889091491699,-0.6702108979225159,-0.7091489434242249,0.6614070534706116,-0.04188031703233719,0.4394594430923462,-0.4996701776981354
3.1159629821777344,-0.6676931977272034,-0.6744974255561829,0.6672225594520569,-0.03447275608778,0.4333858788013458,-0.5011926889419556
3.1360385417938232,-0.670253574848175,-0.6661890149116516,0.6731281280517578,-0.03439272195100784,0.4324338734149933,-0.5040808916091919
3.156085968017578,-0.6706070899963379,-0.6564292907714844,0.6699820756912231,-0.03827177733182907,0.43886852264404297,-0.5053381323814392
3.176182985305786,-0.6645417809486389,-0.7258960604667664,0.6584379076957703,-0.047947973012924194,0.463034451007843,-0.4996873736381531
3.1962530612945557,-0.6433939337730408,-0.7165911793708801,0.6404926180839539,-0.06130538135766983,0.48794567584991455,-0.4992184638977051
3.216320037841797,-0.6426966786384583,-0.7146719098091125,0.6428013443946838,-0.06354109197854996,0.4910205006599426,-0.5032634735107422
3.236406087875366,-0.6671612858772278,-0.6590032577514648,0.6716011166572571,-0.036736033856868744,0.4375397861003876,-0.5108802318572998
3.2564914226531982,-0.6658245325088501,-0.6328372955322266,0.6713888049125671,-0.03977759927511215,0.44256651401519775,-0.5118285417556763
3.2765448093414307,-0.6646169424057007,-0.6448949575424194,0.6666207313537598,-0.04566461592912674,0.4639015197753906,-0.5119407176971436
3.2966408729553223,-0.6390603184700012,-0.7067493796348572,0.6413646340370178,-0.06893981248140335,0.5147762298583984,-0.5044980049133301
3.316737413406372,-0.6439297199249268,-0.7135478258132935,0.6520131230354309,-0.05962645262479782,0.5097673535346985,-0.506361186504364
3.336773633956909,-0.6417754888534546,-0.6873764395713806,0.651303231716156,-0.0669957771897316,0.5111078023910522,-0.5093710422515869
3.356865167617798,-0.6714286208152771,-0.6829110383987427,0.6642909049987793,-0.04366979002952576,0.470497190952301,-0.5125494599342346
3.3769562244415283,-0.6629802584648132,-0.6755932569503784,0.66112220287323,-0.04868102818727493,0.4739497900009155,-0.5146520733833313
3.396996021270752,-0.6699655652046204,-0.6856421828269958,0.6716493368148804,-0.03583333641290665,0.4649427533149719,-0.5136147737503052
3.4171054363250732,-0.6450711488723755,-0.67494136095047,0.6643097996711731,-0.054106615483760834,0.5010214447975159,-0.5127514004707336
3.437178373336792,-0.6475128531455994,-0.6773021221160889,0.6730275750160217,-0.054667599499225616,0.5114218592643738,-0.513185977935791
3.457235097885132,-0.6397270560264587,-0.6658495664596558,0.6631278991699219,-0.05927193909883499,0.513096272945404,-0.5145959854125977
3.4773266315460205,-0.6727593541145325,-0.7142409682273865,0.6679876446723938,-0.046679139137268066,0.48244714736938477,-0.515074610710144
3.4973952770233154,-0.6668707728385925,-0.7210059762001038,0.670100748538971,-0.04501000791788101,0.47223663330078125,-0.5178900957107544
3.5174496173858643,-0.6692282557487488,-0.7024466395378113,0.6760160326957703,-0.04460073262453079,0.4805838465690613,-0.5190597772598267
3.5376336574554443,-0.6488186717033386,-0.6800428628921509,0.6686943769454956,-0.05367361754179001,0.5155872106552124,-0.5169830918312073
3.557725191116333,-0.6534217596054077,-0.7279922366142273,0.6576058864593506,-0.057594627141952515,0.5221311450004578,-0.5144189596176147
3.577796459197998,-0.6508339643478394,-0.7332575917243958,0.6570159792900085,-0.05099910497665405,0.5199898481369019,-0.5142348408699036
3.598297357559204,-0.6381912231445312,-0.7291039228439331,0.647617757320404,-0.0622258186340332,0.5377796292304993,-0.5147992968559265
3.6184520721435547,-0.6573184132575989,-0.6637793779373169,0.6669815182685852,-0.047021813690662384,0.4999995231628418,-0.5229902863502502
3.6384732723236084,-0.6594056487083435,-0.6622951030731201,0.6769262552261353,-0.04627641290426254,0.4979064464569092,-0.5257788896560669
3.65854549407959,-0.656581461429596,-0.6665699481964111,0.6691951751708984,-0.05454447120428085,0.5108880400657654,-0.5267310738563538
3.6786322593688965,-0.6393201947212219,-0.7086465954780579,0.650208055973053,-0.07063225656747818,0.5476918816566467,-0.5212411880493164
3.69872784614563,-0.6370970010757446,-0.6897428035736084,0.6600470542907715,-0.07229401916265488,0.5505710244178772,-0.5234927535057068
3.7187774181365967,-0.6299578547477722,-0.6657323837280273,0.6597163677215576,-0.07797081023454666,0.5663051605224609,-0.5253061056137085
3.738870620727539,-0.6640141606330872,-0.6887272596359253,0.6702942848205566,-0.05307116359472275,0.5149876475334167,-0.5285863876342773
3.7589786052703857,-0.6638496518135071,-0.725983202457428,0.6607643365859985,-0.05149916559457779,0.521172821521759,-0.5250749588012695
3.7790398597717285,-0.6617202758789062,-0.7215731739997864,0.6640809774398804,-0.056564003229141235,0.522096574306488,-0.5282526016235352
3.7991220951080322,-0.6262552738189697,-0.6500232219696045,0.6599364876747131,-0.07284819334745407,0.560571551322937,-0.5293919444084167
3.819209575653076,-0.6384986042976379,-0.6548882126808167,0.6762783527374268,-0.06225333362817764,0.5486363768577576,-0.5312602519989014
3.8392555713653564,-0.6317673921585083,-0.6537808179855347,0.675138533115387,-0.0677497461438179,0.5633522868156433,-0.5322448015213013
3.8593509197235107,-0.661494255065918,-0.680304765701294,0.6803998947143555,-0.05798930674791336,0.5293638110160828,-0.5343231558799744
3.8794174194335938,-0.6636559367179871,-0.6797506213188171,0.6808217167854309,-0.05290072411298752,0.524591326713562,-0.5355772972106934
3.8995065689086914,-0.6640390157699585,-0.6845896244049072,0.6874063014984131,-0.04927721619606018,0.521998405456543,-0.5346313714981079
3.9195830821990967,-0.6466085314750671,-0.718338131904602,0.6784238219261169,-0.059135936200618744,0.5595852732658386,-0.5311601161956787
3.9396872520446777,-0.6375430822372437,-0.7269124984741211,0.6650657057762146,-0.0674576684832573,0.5710200667381287,-0.5309396982192993
3.9597582817077637,-0.6375542283058167,-0.7367453575134277,0.6567637920379639,-0.06650456041097641,0.5683867335319519,-0.5310226678848267
3.979820489883423,-0.6546614766120911,-0.6760531067848206,0.6844344735145569,-0.04864880442619324,0.5350278615951538,-0.5385560393333435
3.9999125003814697,-0.6520746350288391,-0.6618367433547974,0.6787518858909607,-0.055103838443756104,0.5360309481620789,-0.5399512648582458
4.019973039627075,-0.658007025718689,-0.6752881407737732,0.6809617877006531,-0.05291413515806198,0.5372827053070068,-0.5405904650688171
4.040083408355713,-0.6483170390129089,-0.7048105597496033,0.6850255131721497,-0.05689147114753723,0.5683573484420776,-0.5373010039329529
4.060143709182739,-0.6373672485351562,-0.6825782060623169,0.6829631924629211,-0.06073444336652756,0.5800955295562744,-0.5377472639083862
4.0802154541015625,-0.6339499950408936,-0.7050555944442749,0.6771000623703003,-0.06368184834718704,0.5866141319274902,-0.5369324088096619
4.100666046142578,-0.6637805700302124,-0.7083234786987305,0.6882041692733765,-0.04704239219427109,0.5422362685203552,-0.541252851486206
4.12076473236084,-0.6556262373924255,-0.7027169466018677,0.6875964999198914,-0.05118957906961441,0.5535721182823181,-0.5417705774307251
4.140839576721191,-0.6543723940849304,-0.7051905989646912,0.6823064684867859,-0.05391544848680496,0.5483313202857971,-0.5428751111030579
4.160904407501221,-0.6281628012657166,-0.6825305223464966,0.6781955361366272,-0.07225555926561356,0.5905553698539734,-0.54193115234375
4.180990695953369,-0.6325752139091492,-0.6820708513259888,0.6784102916717529,-0.06905988603830338,0.5930117964744568,-0.5428876280784607
4.201046943664551,-0.6446324586868286,-0.7161516547203064,0.6794675588607788,-0.06430753320455551,0.5840519070625305,-0.5423254370689392
4.22132420539856,-0.6434372067451477,-0.6990426182746887,0.6899793148040771,-0.06551796942949295,0.5869907736778259,-0.5444015264511108
4.2414281368255615,-0.6513171792030334,-0.6931847333908081,0.6891327500343323,-0.053611479699611664,0.5550195574760437,-0.5469400882720947
4.2614905834198,-0.650626540184021,-0.6949324011802673,0.6844380497932434,-0.05644310265779495,0.5617509484291077,-0.5475428700447083
4.281542062759399,-0.6481825709342957,-0.6781752705574036,0.6874562501907349,-0.05525732785463333,0.5645241141319275,-0.5493403673171997
4.301653623580933,-0.6431450247764587,-0.7192054390907288,0.6883942484855652,-0.06363093852996826,0.5927985310554504,-0.5462232828140259
4.321725368499756,-0.6340517401695251,-0.7267561554908752,0.6728157997131348,-0.0729973092675209,0.6065675616264343,-0.5449895858764648
4.341794729232788,-0.6322322487831116,-0.735779881477356,0.67128986120224,-0.07197364419698715,0.6150208115577698,-0.5444898009300232
4.361863851547241,-0.6522281765937805,-0.6745049953460693,0.6957178711891174,-0.0477592870593071,0.5681068301200867,-0.5518823862075806
4.381926536560059,-0.6491852402687073,-0.6753876209259033,0.6923791766166687,-0.0541578009724617,0.5738113522529602,-0.5522748231887817
4.401980638504028,-0.6544925570487976,-0.679945170879364,0.6967217326164246,-0.05542903393507004,0.5762962698936462,-0.5528109073638916
4.422070503234863,-0.6386252641677856,-0.7275546193122864,0.6883551478385925,-0.06645622104406357,0.6074503064155579,-0.5485751628875732
4.4421422481536865,-0.6406781077384949,-0.7226303815841675,0.6947996616363525,-0.06445851176977158,0.607578456401825,-0.550643265247345
4.462215900421143,-0.6414244174957275,-0.7103306651115417,0.6931650042533875,-0.0652337595820427,0.6048528552055359,-0.5518182516098022
4.48249363899231,-0.6453617215156555,-0.690643846988678,0.7043597102165222,-0.05642586201429367,0.5952040553092957,-0.5540127754211426
4.502581596374512,-0.6587391495704651,-0.731569766998291,0.6994678378105164,-0.052534498274326324,0.5834242701530457,-0.55246901512146
4.522641181945801,-0.6558333039283752,-0.7484129667282104,0.6999813914299011,-0.047431714832782745,0.5782409310340881,-0.5528375506401062
4.542702674865723,-0.6575472950935364,-0.7329573035240173,0.6981202960014343,-0.05491047352552414,0.5907807946205139,-0.5543525218963623
4.56278920173645,-0.6354798674583435,-0.6913501620292664,0.6914451122283936,-0.06651876121759415,0.6132012009620667,-0.5547325611114502
4.582906246185303,-0.6481874585151672,-0.7410380840301514,0.6953139901161194,-0.055551476776599884,0.5921675562858582,-0.5545558929443359
4.602949380874634,-0.6359897255897522,-0.7364380359649658,0.6830471158027649,-0.06570126861333847,0.6144881844520569,-0.553321123123169
4.623029470443726,-0.64744633436203,-0.7014905214309692,0.6982390880584717,-0.05195596069097519,0.5921931266784668,-0.5576028823852539
4.64312744140625,-0.6471900939941406,-0.6920837163925171,0.7034656405448914,-0.05809585005044937,0.589243471622467,-0.5617022514343262
4.6631669998168945,-0.6514193415641785,-0.6941004395484924,0.7076193690299988,-0.04935500770807266,0.5827692151069641,-0.561956524848938
4.683252334594727,-0.6322904825210571,-0.7418110966682434,0.6971628069877625,-0.06613438576459885,0.6306885480880737,-0.5569711327552795
4.703313589096069,-0.6251696944236755,-0.7364550232887268,0.6882993578910828,-0.07359176129102707,0.6380437016487122,-0.5575479865074158
4.72338604927063,-0.6237536072731018,-0.7130327224731445,0.6943418383598328,-0.07434787601232529,0.6355454921722412,-0.5601366758346558
4.743476390838623,-0.654542863368988,-0.7210321426391602,0.7068721055984497,-0.05403149873018265,0.607094407081604,-0.5625572800636292
4.7635462284088135,-0.6532130837440491,-0.7419508099555969,0.6983196139335632,-0.055144183337688446,0.6119354963302612,-0.5606816411018372
4.783625841140747,-0.6451939344406128,-0.7264131903648376,0.6958822011947632,-0.05533311516046524,0.6172543168067932,-0.5609332323074341
4.8037145137786865,-0.6396322846412659,-0.6948603391647339,0.7019179463386536,-0.05616443604230881,0.6172018647193909,-0.5638130903244019
4.823802471160889,-0.6387856602668762,-0.7152177095413208,0.7084395289421082,-0.060780517756938934,0.6149805784225464,-0.5651735663414001
4.843878269195557,-0.6398711800575256,-0.730050802230835,0.7102280259132385,-0.058604128658771515,0.6257093548774719,-0.5638306736946106
4.863938331604004,-0.6585180163383484,-0.7424221634864807,0.7210552096366882,-0.044837258756160736,0.6104586124420166,-0.5646588802337646
4.884066820144653,-0.6480837464332581,-0.7077073454856873,0.7136355042457581,-0.051374100148677826,0.6174837946891785,-0.5647650957107544
4.904127597808838,-0.6480792760848999,-0.7156980633735657,0.7148577570915222,-0.04956168681383133,0.622643768787384,-0.5654222965240479
4.92418646812439,-0.648973822593689,-0.7362864017486572,0.7160773873329163,-0.04885954409837723,0.6190155148506165,-0.5657883286476135
4.9442830085754395,-0.6338270306587219,-0.7391641139984131,0.6975257396697998,-0.06293686479330063,0.6455528736114502,-0.562852144241333
4.964397192001343,-0.6339693665504456,-0.7587780356407166,0.6967595219612122,-0.06087435036897659,0.6454539895057678,-0.5626899600028992
4.9844324588775635,-0.6363834738731384,-0.7481021881103516,0.6954777240753174,-0.062498025596141815,0.6413335204124451,-0.5652766227722168
5.0045552253723145,-0.6441147327423096,-0.7072917222976685,0.7079088091850281,-0.057549186050891876,0.6286390423774719,-0.5692283511161804
5.024630546569824,-0.6474869847297668,-0.7185755968093872,0.7080284953117371,-0.054938025772571564,0.6267038583755493,-0.5698268413543701
5.044682502746582,-0.6455920934677124,-0.7099587321281433,0.7169274687767029,-0.055135928094387054,0.6180407404899597,-0.5738568902015686
5.0647759437561035,-0.6320902109146118,-0.7373973727226257,0.7199202179908752,-0.060677193105220795,0.6466156244277954,-0.5704492926597595
5.084855556488037,-0.6569201946258545,-0.7380709052085876,0.7257974743843079,-0.04926469177007675,0.6257243752479553,-0.5711058378219604
5.104904413223267,-0.6587854027748108,-0.7506452798843384,0.7279857993125916,-0.04458426684141159,0.617381751537323,-0.5704267024993896
5.125017404556274,-0.6512752175331116,-0.7235099673271179,0.7261887788772583,-0.047609321773052216,0.6276683807373047,-0.5707885026931763
5.145173788070679,-0.6470586061477661,-0.7370464205741882,0.7217932343482971,-0.048457928001880646,0.628933846950531,-0.5717745423316956
5.16518497467041,-0.6393247842788696,-0.7515831589698792,0.7085195183753967,-0.05199573189020157,0.6407564878463745,-0.5707898736000061
5.185441970825195,-0.6396947503089905,-0.7289941310882568,0.7090806365013123,-0.05639428645372391,0.6370375156402588,-0.5735281705856323
5.205524682998657,-0.6371601223945618,-0.7285568714141846,0.7173125147819519,-0.05740807205438614,0.6451982259750366,-0.574508547782898
5.225598573684692,-0.6369051337242126,-0.7285953164100647,0.7208052277565002,-0.05794709175825119,0.6497496962547302,-0.5753573179244995
5.245758295059204,-0.6412816047668457,-0.7308196425437927,0.724219024181366,-0.056996263563632965,0.6484655737876892,-0.5754141807556152
5.265848875045776,-0.6526211500167847,-0.7346245646476746,0.728813111782074,-0.050983987748622894,0.6397432684898376,-0.5762848258018494
5.285953760147095,-0.6525088548660278,-0.7475669980049133,0.7327837347984314,-0.04149060696363449,0.6292343139648438,-0.5768774747848511
5.30600643157959,-0.6462453007698059,-0.754248321056366,0.7231466770172119,-0.04793275147676468,0.6466830372810364,-0.5749475955963135
5.326074123382568,-0.6324400901794434,-0.7565143704414368,0.7112911343574524,-0.05942588299512863,0.6657066941261292,-0.5735402703285217
5.346150875091553,-0.6393416523933411,-0.7591810822486877,0.7161601781845093,-0.057813264429569244,0.6549145579338074,-0.5757508873939514
5.36621356010437,-0.6395432353019714,-0.7620981335639954,0.7108847498893738,-0.05300652235746384,0.6557459235191345,-0.574510931968689
5.386303424835205,-0.6441716551780701,-0.742564857006073,0.7172471284866333,-0.0515584722161293,0.64719158411026,-0.5769923329353333
5.406376123428345,-0.6482747197151184,-0.7531534433364868,0.726666271686554,-0.05010359734296799,0.6432554125785828,-0.5788665413856506
5.426440238952637,-0.6413304805755615,-0.7530826926231384,0.7238113284111023,-0.05407740920782089,0.6574479341506958,-0.5789176225662231
5.446695804595947,-0.6420194506645203,-0.7642712593078613,0.719843327999115,-0.05209388583898544,0.6589782238006592,-0.5783959627151489
5.46680760383606,-0.6354345083236694,-0.7386992573738098,0.7185675501823425,-0.05573784559965134,0.6668673157691956,-0.5794490575790405
5.486860990524292,-0.6447734236717224,-0.7339756488800049,0.7267476916313171,-0.055352531373500824,0.6513226628303528,-0.5822643041610718
5.506908893585205,-0.655448853969574,-0.7356316447257996,0.734923779964447,-0.0507190003991127,0.6490654349327087,-0.5826548337936401
5.527007579803467,-0.6341690421104431,-0.7152830958366394,0.7263398766517639,-0.061254315078258514,0.6687594056129456,-0.5818196535110474
5.547074317932129,-0.6395155787467957,-0.7356025576591492,0.7337601780891418,-0.05372299998998642,0.6685205101966858,-0.5815320014953613
5.567163944244385,-0.6298084259033203,-0.7308875918388367,0.7275628447532654,-0.05883853882551193,0.6766374707221985,-0.5822080373764038
5.5872414112091064,-0.646323561668396,-0.7545554041862488,0.7386652231216431,-0.04578282684087753,0.6479611992835999,-0.5842216610908508
5.607367753982544,-0.645687997341156,-0.7699726223945618,0.7256504893302917,-0.049493007361888885,0.6611567139625549,-0.5815373659133911
5.627570867538452,-0.6426241993904114,-0.769597589969635,0.7227445840835571,-0.050858549773693085,0.6602591872215271,-0.5839002132415771
5.647662401199341,-0.6383960247039795,-0.7698935866355896,0.7301090359687805,-0.0497794970870018,0.6755397319793701,-0.5830569267272949
5.667720794677734,-0.6279367208480835,-0.7470001578330994,0.7248017191886902,-0.05659516900777817,0.6798372864723206,-0.5840723514556885
5.6877830028533936,-0.6177138686180115,-0.7223937511444092,0.7195728421211243,-0.06952933222055435,0.6967567801475525,-0.5850397944450378
5.707996368408203,-0.6411294341087341,-0.7371252775192261,0.727885901927948,-0.05793721228837967,0.6593493819236755,-0.5892758369445801
5.728012800216675,-0.649595320224762,-0.7254776954650879,0.7472270131111145,-0.046963103115558624,0.6535976529121399,-0.5912282466888428
5.74808406829834,-0.6447672247886658,-0.7108619213104248,0.7452824711799622,-0.049436695873737335,0.6690860986709595,-0.5903568863868713
5.768162488937378,-0.6474758982658386,-0.7517144680023193,0.7468381524085999,-0.049399130046367645,0.6747828125953674,-0.5879137516021729
5.788235902786255,-0.6428013443946838,-0.7529199719429016,0.7408906817436218,-0.04853079468011856,0.6664923429489136,-0.5885825157165527
5.808285236358643,-0.6403487920761108,-0.7517478466033936,0.7409815192222595,-0.04925871640443802,0.6684815287590027,-0.5893169641494751
5.828458070755005,-0.6378589272499084,-0.769031822681427,0.7390786409378052,-0.053177155554294586,0.6823225617408752,-0.588005781173706
5.848620414733887,-0.6325756311416626,-0.774592936038971,0.7355884313583374,-0.05143790692090988,0.6879347562789917,-0.5873448848724365
5.86876106262207,-0.6221830248832703,-0.7850924730300903,0.7279571294784546,-0.057157181203365326,0.694014310836792,-0.5877453088760376
5.888859748840332,-0.6392343640327454,-0.7804983854293823,0.7346888184547424,-0.04538746923208237,0.667456328868866,-0.5903843641281128
5.909069776535034,-0.6436045169830322,-0.7633463740348816,0.7359256148338318,-0.05334102362394333,0.6749257445335388,-0.5921098589897156
5.929013252258301,-0.642760157585144,-0.7437732219696045,0.7443031668663025,-0.053005434572696686,0.6826542019844055,-0.5931247472763062
5.9491047859191895,-0.6432813405990601,-0.7485242486000061,0.7432147860527039,-0.0533866360783577,0.6862391829490662,-0.5922682881355286
5.969228029251099,-0.6392916440963745,-0.748418927192688,0.7406200170516968,-0.057179175317287445,0.6900768876075745,-0.591866135597229
5.989258527755737,-0.6340836882591248,-0.7516189217567444,0.7416139245033264,-0.057924456894397736,0.6984872221946716,-0.5926470160484314
6.009341478347778,-0.6469612717628479,-0.7526578307151794,0.748956024646759,-0.0482557937502861,0.6822423338890076,-0.594210684299469
6.029429912567139,-0.6436147093772888,-0.7609041333198547,0.7469748854637146,-0.04729556292295456,0.6792495250701904,-0.59409499168396
6.049509048461914,-0.6400123834609985,-0.7564778327941895,0.7363219857215881,-0.050209082663059235,0.6844130754470825,-0.5936691761016846
6.069606304168701,-0.6467247605323792,-0.7594340443611145,0.745033323764801,-0.046300508081912994,0.6822373270988464,-0.594219446182251
6.089674949645996,-0.6430063843727112,-0.7757179141044617,0.7475907206535339,-0.04943840950727463,0.6866393685340881,-0.5938945412635803
6.10973858833313,-0.6330848336219788,-0.7847132086753845,0.7404205203056335,-0.04925210028886795,0.6947183012962341,-0.5928305387496948
6.129832029342651,-0.6262703537940979,-0.7921885251998901,0.729690670967102,-0.0484989657998085,0.6973334550857544,-0.5914276838302612
6.149926424026489,-0.6452316045761108,-0.7510882616043091,0.7471756339073181,-0.04498880356550217,0.6826240420341492,-0.5962616205215454
6.170012950897217,-0.6397441625595093,-0.7684647440910339,0.7435064911842346,-0.04739191383123398,0.6743882298469543,-0.5981745719909668
6.190126180648804,-0.6379664540290833,-0.7801961302757263,0.7367894649505615,-0.05392675846815109,0.6931400895118713,-0.5971460938453674
6.210186243057251,-0.6426525712013245,-0.741856575012207,0.7494078278541565,-0.046566613018512726,0.6950960755348206,-0.598190426826477
6.230257511138916,-0.64761883020401,-0.738409698009491,0.7571806311607361,-0.04670686274766922,0.688076376914978,-0.5997210741043091
6.250345945358276,-0.6460235714912415,-0.7495530843734741,0.7580357193946838,-0.050957851111888885,0.68992680311203,-0.6000556945800781
6.270493268966675,-0.6451155543327332,-0.7430359721183777,0.7582716345787048,-0.05168227106332779,0.6912215352058411,-0.6000379323959351
6.290527820587158,-0.6417383551597595,-0.7871807217597961,0.7584859132766724,-0.04032798856496811,0.6881178617477417,-0.5983483195304871
6.310579538345337,-0.6343141198158264,-0.7803635597229004,0.7506648898124695,-0.04881506413221359,0.6909111738204956,-0.598518967628479
6.331778526306152,-0.6327906250953674,-0.7787261605262756,0.7464679479598999,-0.05318158119916916,0.7095479369163513,-0.5988160371780396
6.351870775222778,-0.6376937031745911,-0.7761743664741516,0.750281035900116,-0.04911283403635025,0.6969156861305237,-0.6002627611160278
6.371944189071655,-0.6405344605445862,-0.7698869109153748,0.7555302381515503,-0.0459849014878273,0.6920586228370667,-0.6011254787445068
6.391995668411255,-0.6412299275398254,-0.7851364612579346,0.7500671744346619,-0.04328645020723343,0.6912857890129089,-0.6003603339195251
6.4120824337005615,-0.63066565990448,-0.7742467522621155,0.7531933188438416,-0.047625310719013214,0.7127736210823059,-0.599781334400177
6.43215799331665,-0.632957935333252,-0.7797656059265137,0.7491769790649414,-0.05619306117296219,0.7156858444213867,-0.6010043025016785
6.4522223472595215,-0.6299797296524048,-0.7829671502113342,0.7463200688362122,-0.05686498433351517,0.7182689309120178,-0.600746214389801
6.472329616546631,-0.6422889232635498,-0.7787317633628845,0.757107675075531,-0.04306790977716446,0.6957316398620605,-0.6032503843307495
6.492401361465454,-0.6412492394447327,-0.7633689641952515,0.7530228495597839,-0.04840721935033798,0.7032976746559143,-0.603878378868103
6.512473821640015,-0.6414782404899597,-0.7345744967460632,0.7582544088363647,-0.05098273605108261,0.7000312209129333,-0.6069490313529968
6.532559633255005,-0.62871915102005,-0.7722808122634888,0.7545626163482666,-0.06047021597623825,0.7263103127479553,-0.6039190888404846
6.552645206451416,-0.64048832654953,-0.756749153137207,0.7558473944664001,-0.053350187838077545,0.7081546187400818,-0.6064101457595825
6.572716236114502,-0.6394159197807312,-0.7706162333488464,0.753108024597168,-0.05257337540388107,0.7107698321342468,-0.6043246984481812
6.593365669250488,-0.6420741081237793,-0.7698143720626831,0.759478747844696,-0.046989984810352325,0.7093569040298462,-0.6042943000793457
6.6134843826293945,-0.6402699947357178,-0.7825421094894409,0.75551837682724,-0.048428066074848175,0.7079400420188904,-0.6034239530563354
6.633545160293579,-0.6397536993026733,-0.7956428527832031,0.7572870850563049,-0.04489319771528244,0.7083181142807007,-0.603395938873291
6.65361213684082,-0.6362528204917908,-0.7902191281318665,0.7549002766609192,-0.04589756578207016,0.7062748074531555,-0.603994607925415
6.673706293106079,-0.6318764686584473,-0.7791910767555237,0.7603965997695923,-0.0492621585726738,0.71453458070755,-0.6059169769287109
6.693777561187744,-0.634999692440033,-0.7932571768760681,0.7572450041770935,-0.04618214815855026,0.7164028286933899,-0.604982852935791
6.713843584060669,-0.6264689564704895,-0.7872998118400574,0.754560649394989,-0.05644641071557999,0.7287595868110657,-0.6063939332962036
6.7339324951171875,-0.6407718062400818,-0.793267011642456,0.761644184589386,-0.04460900276899338,0.7088026404380798,-0.6075097322463989
6.754008769989014,-0.6370304226875305,-0.7957559823989868,0.7545857429504395,-0.04800838977098465,0.7181779742240906,-0.6069958209991455
6.775343418121338,-0.6386900544166565,-0.7697351574897766,0.7561314702033997,-0.049334995448589325,0.7175074815750122,-0.6088324785232544
6.7954301834106445,-0.6363141536712646,-0.7909760475158691,0.7553598284721375,-0.04846856743097305,0.7231038212776184,-0.6073030233383179
6.815511703491211,-0.637386679649353,-0.7721735239028931,0.7635836601257324,-0.05281733721494675,0.7223432660102844,-0.6098754405975342
6.835568428039551,-0.6328286528587341,-0.7591103315353394,0.7687103152275085,-0.05445066839456558,0.7247183322906494,-0.6115754842758179
6.855663776397705,-0.6345335841178894,-0.7566642165184021,0.7669503092765808,-0.050104089081287384,0.714974045753479,-0.611583948135376
6.875744581222534,-0.6385034918785095,-0.799203097820282,0.7724104523658752,-0.04372412711381912,0.7218083739280701,-0.6101697683334351
6.895799398422241,-0.6253756284713745,-0.7904268503189087,0.7630273699760437,-0.05414149910211563,0.7314598560333252,-0.6102461814880371
6.9158899784088135,-0.6337491869926453,-0.7833904027938843,0.7625442743301392,-0.04803472012281418,0.7148968577384949,-0.6115860939025879
6.935959577560425,-0.6394011378288269,-0.7941084504127502,0.7577317357063293,-0.04563424736261368,0.7214905619621277,-0.6105562448501587
6.956008672714233,-0.6351098418235779,-0.8034831881523132,0.7588830590248108,-0.04382000118494034,0.7087429761886597,-0.612281084060669
6.9761106967926025,-0.6272695660591125,-0.7854667901992798,0.7682697176933289,-0.04892238229513168,0.7295144200325012,-0.6124318838119507
6.996175765991211,-0.6337637305259705,-0.7984449863433838,0.7586432695388794,-0.047858767211437225,0.72560054063797,-0.6114202737808228
7.016238451004028,-0.6236598491668701,-0.7864891290664673,0.7550981640815735,-0.055433519184589386,0.7394593358039856,-0.6113083362579346
7.0363359451293945,-0.6335086226463318,-0.7876667976379395,0.7607850432395935,-0.04678311198949814,0.7299912571907043,-0.6125751733779907
7.056401252746582,-0.6374778151512146,-0.7753530740737915,0.7708373665809631,-0.04792236536741257,0.7302759885787964,-0.6155670881271362
7.0764734745025635,-0.6350818276405334,-0.7817232608795166,0.7679118514060974,-0.047973521053791046,0.7310865521430969,-0.6148659586906433
7.096554756164551,-0.6286095380783081,-0.7974564433097839,0.7635537981987,-0.04929373413324356,0.7403107285499573,-0.6136177778244019
7.116649389266968,-0.6355382800102234,-0.790992259979248,0.770512044429779,-0.04902607947587967,0.7366385459899902,-0.6156913042068481
7.1367011070251465,-0.6350890398025513,-0.7928715944290161,0.7686215043067932,-0.04766742140054703,0.7308306097984314,-0.6157615780830383
7.156779050827026,-0.6342613697052002,-0.7941765785217285,0.7698994278907776,-0.04636571556329727,0.7359183430671692,-0.6152852773666382
7.176895618438721,-0.6272453665733337,-0.7933382987976074,0.7623985409736633,-0.05039039999246597,0.7396175265312195,-0.615548312664032
7.196973562240601,-0.6398394703865051,-0.7939346432685852,0.7747893333435059,-0.04141364246606827,0.7317911982536316,-0.6157864928245544
7.217016220092773,-0.6376045346260071,-0.808816134929657,0.7684400677680969,-0.042770929634571075,0.7325038909912109,-0.6147823333740234
7.237118244171143,-0.6370245218276978,-0.8066059350967407,0.7741554379463196,-0.03779836744070053,0.7223600149154663,-0.6161900758743286
7.2571423053741455,-0.6357002258300781,-0.8069131374359131,0.7733995318412781,-0.04190031439065933,0.7351623773574829,-0.6164686679840088
7.277219533920288,-0.6356692910194397,-0.8071346282958984,0.7714834809303284,-0.0432203933596611,0.7262993454933167,-0.6178712844848633
7.297307252883911,-0.6202191710472107,-0.781261146068573,0.770684540271759,-0.04977310448884964,0.7513421773910522,-0.6175557374954224
7.317365407943726,-0.6325671672821045,-0.7754976153373718,0.7801133990287781,-0.04871242493391037,0.7414949536323547,-0.620449960231781
7.337669849395752,-0.6380777955055237,-0.7999661564826965,0.7760358452796936,-0.04284394532442093,0.7382636070251465,-0.6193095445632935
7.357782363891602,-0.6356266736984253,-0.7990549802780151,0.7772639393806458,-0.04524257034063339,0.7418851852416992,-0.6191021800041199
7.377857208251953,-0.6274896264076233,-0.7884640693664551,0.77256178855896,-0.052061282098293304,0.745951235294342,-0.6205410957336426
7.39806604385376,-0.6356845498085022,-0.791517972946167,0.7765629887580872,-0.047956161201000214,0.7369792461395264,-0.6208349466323853
7.418148994445801,-0.640052080154419,-0.807271420955658,0.778725266456604,-0.042656101286411285,0.736690878868103,-0.6203002333641052
7.438255548477173,-0.6320034861564636,-0.7993666529655457,0.776986300945282,-0.04448408633470535,0.7335651516914368,-0.6206055283546448
7.458340644836426,-0.6209337711334229,-0.7865485548973083,0.7677354216575623,-0.05384723097085953,0.7508003115653992,-0.6207475662231445
7.4784324169158936,-0.6318501830101013,-0.7957053780555725,0.77604740858078,-0.04791467636823654,0.7413323521614075,-0.6230611801147461
7.4985339641571045,-0.6324939131736755,-0.796578049659729,0.7836210131645203,-0.04236253350973129,0.7294769287109375,-0.6240729093551636
7.518578052520752,-0.6343622207641602,-0.7976005673408508,0.774465024471283,-0.044904716312885284,0.7471017241477966,-0.6223678588867188
7.538667440414429,-0.6298717856407166,-0.8109027743339539,0.7755962014198303,-0.04487235099077225,0.75082927942276,-0.6218187808990479
7.558742046356201,-0.6396158337593079,-0.8061586618423462,0.7867991328239441,-0.042461611330509186,0.7464796900749207,-0.6242049932479858
7.578794240951538,-0.635475754737854,-0.8045012354850769,0.782835066318512,-0.04347784072160721,0.7490094304084778,-0.6243202090263367
7.59888482093811,-0.6303735971450806,-0.7842252254486084,0.7808802723884583,-0.04806194454431534,0.7557242512702942,-0.6244564056396484
7.6190431118011475,-0.6256309151649475,-0.7783318161964417,0.7819756269454956,-0.05246085673570633,0.7591071724891663,-0.6254405975341797
7.639103412628174,-0.6276386380195618,-0.803088366985321,0.7831568121910095,-0.04468686133623123,0.757200300693512,-0.62446528673172
7.659256458282471,-0.6359418034553528,-0.8160108327865601,0.7844493389129639,-0.04257100075483322,0.7489246726036072,-0.6252117156982422
7.679340839385986,-0.6377723813056946,-0.8091764450073242,0.7887752652168274,-0.040270768105983734,0.7457649111747742,-0.6254482269287109
7.6994147300720215,-0.6315400004386902,-0.8063136339187622,0.7837799191474915,-0.04456134885549545,0.7498648166656494,-0.6259435415267944
7.719609022140503,-0.6247895359992981,-0.8021318316459656,0.7831127047538757,-0.04867706447839737,0.7495512366294861,-0.6270295977592468
7.739704608917236,-0.6298113465309143,-0.8184612393379211,0.7852697968482971,-0.04424705356359482,0.7543540596961975,-0.6264892220497131
7.759763479232788,-0.6288830637931824,-0.8083456158638,0.7820057272911072,-0.0482855960726738,0.7578433156013489,-0.6271756887435913
7.779855728149414,-0.6339552998542786,-0.7995592951774597,0.7916052937507629,-0.04340333491563797,0.7524682879447937,-0.6280660033226013
7.799935579299927,-0.6226159930229187,-0.7930441498756409,0.7810057997703552,-0.05411294847726822,0.7677174210548401,-0.6274323463439941
7.820021390914917,-0.6197624802589417,-0.788975715637207,0.7835322618484497,-0.05165538936853409,0.771482527256012,-0.6278005242347717
7.840096712112427,-0.6186897158622742,-0.7933424115180969,0.7832608819007874,-0.05275484174489975,0.7732139825820923,-0.6285178065299988
7.860586881637573,-0.6273138523101807,-0.7928593158721924,0.790625274181366,-0.04544084519147873,0.7549626231193542,-0.6303969621658325
7.880676984786987,-0.6329509019851685,-0.8086076378822327,0.7856833338737488,-0.045458219945430756,0.7567200064659119,-0.6290713548660278
7.900753498077393,-0.6371161341667175,-0.8102375268936157,0.8006250262260437,-0.03886484354734421,0.7540413737297058,-0.6305583119392395
7.920837640762329,-0.636715292930603,-0.816071629524231,0.8002033233642578,-0.037861041724681854,0.7541296482086182,-0.6298575401306152
7.940907716751099,-0.6287854313850403,-0.7985330820083618,0.7977235913276672,-0.04005356878042221,0.7542872428894043,-0.630496621131897
7.961086988449097,-0.6275340914726257,-0.8068767189979553,0.7961581349372864,-0.04454758018255234,0.7632749676704407,-0.6301865577697754
7.981133937835693,-0.6334006190299988,-0.8248250484466553,0.7989130616188049,-0.03774534910917282,0.7494879364967346,-0.6306394338607788
8.001210927963257,-0.6285949349403381,-0.8089216947555542,0.7931802868843079,-0.04181661456823349,0.7552476525306702,-0.6302454471588135
8.02128267288208,-0.6219781637191772,-0.8082208633422852,0.7876003384590149,-0.047558508813381195,0.7731425166130066,-0.6297995448112488
8.041337251663208,-0.6179313063621521,-0.808357298374176,0.7850039005279541,-0.05296102911233902,0.7804845571517944,-0.6306691765785217
8.061821460723877,-0.6197043657302856,-0.8177825808525085,0.7873135805130005,-0.048022784292697906,0.7791827917098999,-0.630003809928894
8.08193063735962,-0.6292617917060852,-0.80740886926651,0.7870907187461853,-0.045094750821590424,0.7686037421226501,-0.6323180198669434
8.10200810432434,-0.628111720085144,-0.8043119311332703,0.7908808588981628,-0.0485120490193367,0.7734937071800232,-0.6334599852561951
8.122051477432251,-0.6284494400024414,-0.8089497089385986,0.7921188473701477,-0.04480866342782974,0.7717843055725098,-0.6327525973320007
8.142141819000244,-0.6261324882507324,-0.8228777050971985,0.7931361198425293,-0.04603008180856705,0.7751715779304504,-0.6327911615371704
8.16225290298462,-0.6324401497840881,-0.8210324048995972,0.7970078587532043,-0.04122484475374222,0.7639791369438171,-0.6329731941223145
8.182304859161377,-0.6319065690040588,-0.8286760449409485,0.7969158291816711,-0.03827808052301407,0.7598933577537537,-0.6328673362731934
8.20260214805603,-0.6335514187812805,-0.81980961561203,0.8033647537231445,-0.035224251449108124,0.7632714509963989,-0.6338154077529907
8.222710132598877,-0.6321789622306824,-0.8200066685676575,0.8032073378562927,-0.03813274949789047,0.755879819393158,-0.6355149745941162
8.242767572402954,-0.6322184205055237,-0.8235452175140381,0.8050025105476379,-0.036753006279468536,0.75766521692276,-0.6358677744865417
8.262998819351196,-0.630217969417572,-0.8231399655342102,0.7968981266021729,-0.035011209547519684,0.7628465294837952,-0.6349592208862305
8.283148050308228,-0.6218706965446472,-0.8280817270278931,0.7931410670280457,-0.0454210564494133,0.7782191038131714,-0.6343719959259033
8.30318570137024,-0.6266883015632629,-0.8275792002677917,0.7946495413780212,-0.04369217902421951,0.775951087474823,-0.6356207132339478
8.32323431968689,-0.6251252293586731,-0.8193457722663879,0.795425534248352,-0.04830015450716019,0.7774704098701477,-0.6372073888778687
8.343318462371826,-0.6321408748626709,-0.8239489197731018,0.7998442053794861,-0.04166438430547714,0.7735362648963928,-0.637410581111908
8.363386392593384,-0.6345569491386414,-0.8326979875564575,0.8043085336685181,-0.03678033500909805,0.7705094218254089,-0.6373884677886963
8.383500576019287,-0.6234797835350037,-0.8317951560020447,0.8010439276695251,-0.04281862825155258,0.7751128077507019,-0.637822687625885
8.403806686401367,-0.6229586601257324,-0.8188061118125916,0.8017936944961548,-0.04155740886926651,0.7759587168693542,-0.6383070349693298
8.423908233642578,-0.6327267289161682,-0.816214919090271,0.8047547340393066,-0.038719989359378815,0.7719126343727112,-0.6381869316101074
8.443985939025879,-0.6340770721435547,-0.8424022793769836,0.8097253441810608,-0.031369395554065704,0.7654044032096863,-0.6373879909515381
8.464140176773071,-0.6303045749664307,-0.8401445746421814,0.8000674843788147,-0.03588258475065231,0.7732968926429749,-0.6369857788085938
8.484265089035034,-0.6258633136749268,-0.8158209323883057,0.8031416535377502,-0.03921959549188614,0.7754362225532532,-0.638837456703186
8.504314422607422,-0.6242039799690247,-0.8248052597045898,0.8043648600578308,-0.039025597274303436,0.7697413563728333,-0.6395497918128967
8.524369478225708,-0.6293099522590637,-0.819096565246582,0.812035858631134,-0.035011984407901764,0.7658766508102417,-0.6404472589492798
8.544461965560913,-0.6280935406684875,-0.8371312022209167,0.8053613305091858,-0.03761584311723709,0.7761102318763733,-0.6389102935791016
8.564560890197754,-0.6223667860031128,-0.8149583339691162,0.8031659126281738,-0.0484781339764595,0.7889408469200134,-0.6405613422393799
8.584658861160278,-0.6181437373161316,-0.8220003247261047,0.8019571304321289,-0.04736214131116867,0.7925015091896057,-0.6404343843460083
8.604756116867065,-0.6271069049835205,-0.8309836387634277,0.7992914319038391,-0.04196009784936905,0.7773606181144714,-0.6410150527954102
8.624838590621948,-0.6277371048927307,-0.8217160105705261,0.8003566861152649,-0.0420197919011116,0.7803468704223633,-0.641664981842041
8.644891500473022,-0.6289277672767639,-0.8175368905067444,0.8039886951446533,-0.042609624564647675,0.7830570340156555,-0.643178403377533
8.6649911403656,-0.6196443438529968,-0.8320654034614563,0.8032252192497253,-0.046998001635074615,0.796474277973175,-0.6417766809463501
8.685053825378418,-0.6301680207252502,-0.8327874541282654,0.8071044683456421,-0.041716597974300385,0.7823784351348877,-0.6425678730010986
8.705115795135498,-0.6317320466041565,-0.8277232646942139,0.8108670711517334,-0.03403780609369278,0.7788283228874207,-0.6427521705627441
8.725421667098999,-0.631694495677948,-0.8447759747505188,0.8115276098251343,-0.035099320113658905,0.776695191860199,-0.6426348090171814
8.745513439178467,-0.6275545954704285,-0.8407297730445862,0.812013566493988,-0.03785654157400131,0.7810240983963013,-0.6430894732475281
8.765583992004395,-0.6297821402549744,-0.8474953770637512,0.8102083802223206,-0.03586658090353012,0.7826209664344788,-0.6427623629570007
8.785833835601807,-0.6194837689399719,-0.8380985260009766,0.8099538683891296,-0.04214666038751602,0.7890860438346863,-0.6440321207046509
8.805921077728271,-0.6256313920021057,-0.8271880745887756,0.8112289309501648,-0.039157651364803314,0.7812521457672119,-0.6455597877502441
8.825974225997925,-0.6246838569641113,-0.8155410885810852,0.8116484880447388,-0.04162739962339401,0.7896721959114075,-0.6459262371063232
8.84603762626648,-0.6235702633857727,-0.8322723507881165,0.8111682534217834,-0.04108908027410507,0.7930635809898376,-0.6452144384384155
8.866148233413696,-0.6242524981498718,-0.8222125172615051,0.8159968256950378,-0.04056716710329056,0.7899596095085144,-0.647322416305542
8.88628625869751,-0.6260221600532532,-0.8219491243362427,0.814287006855011,-0.04067734628915787,0.7912762761116028,-0.6473418474197388
8.90633773803711,-0.6289066672325134,-0.8305893540382385,0.8195756077766418,-0.03566237539052963,0.7874917984008789,-0.6477969884872437
8.926448822021484,-0.6289179921150208,-0.8398048281669617,0.8150148987770081,-0.037694819271564484,0.7873156070709229,-0.6467893123626709
8.946521759033203,-0.6216689348220825,-0.8356682658195496,0.8122028112411499,-0.04300210624933243,0.7899354100227356,-0.647763729095459
8.966580629348755,-0.6225268244743347,-0.8371647000312805,0.8079696297645569,-0.04472623020410538,0.7945574522018433,-0.6473538875579834
8.986664295196533,-0.6258198022842407,-0.8404631018638611,0.8123831152915955,-0.03902200609445572,0.787913978099823,-0.6482734680175781
9.006747245788574,-0.6290543079376221,-0.838257908821106,0.8164656758308411,-0.03412730246782303,0.7860972285270691,-0.6474809646606445
9.026796817779541,-0.6276069283485413,-0.8459749817848206,0.819591760635376,-0.0347684845328331,0.7835904955863953,-0.6484594345092773
9.04690146446228,-0.6279271841049194,-0.8328145742416382,0.8181781768798828,-0.036873213946819305,0.7915019392967224,-0.6488124132156372
9.066967010498047,-0.6243763566017151,-0.8466230034828186,0.8142043948173523,-0.04008819907903671,0.7942247986793518,-0.6487677097320557
9.087026596069336,-0.6261346340179443,-0.8486754894256592,0.8185995221138,-0.03714946657419205,0.7909273505210876,-0.6503147482872009
9.107128620147705,-0.615993857383728,-0.8215039372444153,0.8196396231651306,-0.04782485216856003,0.8090271353721619,-0.6512904763221741
9.12719440460205,-0.6163401007652283,-0.8403735756874084,0.8165275454521179,-0.04447134584188461,0.813362181186676,-0.649788498878479
9.147268533706665,-0.6206091046333313,-0.8255981206893921,0.8206202387809753,-0.04241616278886795,0.806906521320343,-0.6514540314674377
9.16753101348877,-0.6290084719657898,-0.843705952167511,0.8226103186607361,-0.03961814194917679,0.8001375794410706,-0.6516356468200684
9.187638998031616,-0.6282214522361755,-0.8349296450614929,0.8211604356765747,-0.037498943507671356,0.7993597984313965,-0.6514852046966553
9.207706928253174,-0.6191343069076538,-0.8390806913375854,0.8135964274406433,-0.043281011283397675,0.7978895902633667,-0.6516754627227783
9.227973699569702,-0.6228632926940918,-0.8349615335464478,0.8180309534072876,-0.03929934650659561,0.8009961247444153,-0.651732325553894
9.248061895370483,-0.619543731212616,-0.8514633178710938,0.8141898512840271,-0.04106282442808151,0.7932122349739075,-0.6518334746360779
9.268128633499146,-0.6261351704597473,-0.8598862886428833,0.8154832720756531,-0.0321352556347847,0.7939296364784241,-0.651313304901123
9.288182973861694,-0.6287509799003601,-0.8532957434654236,0.8274504542350769,-0.03408601135015488,0.7938960790634155,-0.6533336043357849
9.308302164077759,-0.6254362463951111,-0.8438615798950195,0.8194161057472229,-0.038090698421001434,0.7985081076622009,-0.6528910994529724
9.328346252441406,-0.6256223917007446,-0.8429409265518188,0.820622444152832,-0.03590662032365799,0.8010098934173584,-0.6532144546508789
9.348417282104492,-0.6234051585197449,-0.8344874978065491,0.8289362192153931,-0.040377356112003326,0.8046111464500427,-0.6551724672317505
9.368518114089966,-0.6255492568016052,-0.8562287092208862,0.8285341858863831,-0.03292212635278702,0.7898733019828796,-0.6549419164657593
9.388644456863403,-0.6146820783615112,-0.8384860754013062,0.8249325156211853,-0.04185502976179123,0.806326687335968,-0.6553604602813721
9.408644437789917,-0.6129583120346069,-0.8469733595848083,0.8174430727958679,-0.042721040546894073,0.8148291707038879,-0.6539692878723145
9.428731918334961,-0.6267758011817932,-0.8632595539093018,0.8273034691810608,-0.03293084353208542,0.805458128452301,-0.6555327773094177
9.448809146881104,-0.62720787525177,-0.8717775940895081,0.8285450339317322,-0.0314847007393837,0.794504702091217,-0.6564062833786011
9.468862771987915,-0.6246678233146667,-0.863052487373352,0.8238471150398254,-0.03597710281610489,0.8046267628669739,-0.6562697291374207
9.48895525932312,-0.6251325011253357,-0.8622226715087891,0.8287039399147034,-0.033922888338565826,0.8085113167762756,-0.6563917398452759
9.508982419967651,-0.6203848719596863,-0.8616704344749451,0.8284243941307068,-0.03425183147192001,0.8047382831573486,-0.6567338705062866
9.52936601638794,-0.6195725798606873,-0.8642540574073792,0.8227120041847229,-0.03977882117033005,0.8148189187049866,-0.6564675569534302
9.549445152282715,-0.6262694001197815,-0.8434755802154541,0.8278765082359314,-0.03514363616704941,0.8076378107070923,-0.6579631567001343
9.56952691078186,-0.6253183484077454,-0.8470575213432312,0.8298736214637756,-0.035550765693187714,0.8051257133483887,-0.6583478450775146
9.58970046043396,-0.6289554834365845,-0.8576319217681885,0.832124650478363,-0.031091652810573578,0.8056535720825195,-0.6575123071670532
9.609716415405273,-0.6300228238105774,-0.8529966473579407,0.8408578634262085,-0.02852136641740799,0.7986159920692444,-0.6592051386833191
9.629807472229004,-0.6310624480247498,-0.8588704466819763,0.8427453637123108,-0.027658171951770782,0.8045509457588196,-0.65874183177948
9.649898290634155,-0.6252226233482361,-0.8637805581092834,0.8303229212760925,-0.03295125812292099,0.8089889287948608,-0.6574910283088684
9.669972658157349,-0.6218429207801819,-0.8506152629852295,0.8404256701469421,-0.034478746354579926,0.8059715032577515,-0.6605282425880432
9.6901216506958,-0.6123009324073792,-0.8422995209693909,0.8303142786026001,-0.04462943226099014,0.8225427865982056,-0.6601547598838806
9.710216045379639,-0.6265162825584412,-0.8632095456123352,0.838771641254425,-0.03158020228147507,0.8096148371696472,-0.6607595682144165
9.730270147323608,-0.6237139105796814,-0.8746537566184998,0.8377615809440613,-0.02861330658197403,0.8033903241157532,-0.6606476902961731
9.750656604766846,-0.6108800768852234,-0.8473199009895325,0.8289195895195007,-0.041771747171878815,0.8267549276351929,-0.6597435474395752
9.770767450332642,-0.6191810965538025,-0.8588812947273254,0.8305703997612,-0.03575492650270462,0.8192206025123596,-0.6604591608047485
9.79079008102417,-0.6232426166534424,-0.8770408034324646,0.8254144787788391,-0.03165604919195175,0.8122109770774841,-0.6597671508789062
9.810873746871948,-0.6214900612831116,-0.8506065011024475,0.8308517336845398,-0.03327711671590805,0.8128631711006165,-0.6615065336227417
9.830944776535034,-0.6151440739631653,-0.8675739169120789,0.8340553045272827,-0.03657754510641098,0.8160650134086609,-0.6628642082214355
9.8510103225708,-0.6177327036857605,-0.8757885098457336,0.8353676795959473,-0.032925404608249664,0.8179606795310974,-0.6621655821800232
9.871100902557373,-0.6231369376182556,-0.8674739003181458,0.8390354514122009,-0.027282409369945526,0.8055883049964905,-0.6630663275718689
9.891180038452148,-0.6255412697792053,-0.8625892400741577,0.8410972952842712,-0.02442193776369095,0.8080911040306091,-0.6636593341827393
9.911423683166504,-0.6257816553115845,-0.8651596903800964,0.8457173705101013,-0.02681265026330948,0.8071587681770325,-0.6642521619796753
9.931529998779297,-0.6271982789039612,-0.8708537817001343,0.8509032130241394,-0.023615263402462006,0.8051170706748962,-0.6643296480178833
9.951592922210693,-0.6211221814155579,-0.8668901920318604,0.8408766388893127,-0.02834499627351761,0.8184536695480347,-0.663590669631958
9.971704244613647,-0.6204259991645813,-0.8578080534934998,0.8408541083335876,-0.03390749543905258,0.8203609585762024,-0.6650898456573486
9.991783380508423,-0.6200199723243713,-0.8472304344177246,0.8392273783683777,-0.036251284182071686,0.8159535527229309,-0.6664145588874817
10.01186728477478,-0.6246671676635742,-0.8398928046226501,0.8469800353050232,-0.03670541197061539,0.8264076113700867,-0.6671432852745056
10.031954526901245,-0.6240450739860535,-0.8474652171134949,0.8484212756156921,-0.0340193435549736,0.8220074772834778,-0.6674357652664185
10.052059173583984,-0.6219555139541626,-0.8650551438331604,0.8450832962989807,-0.03279779106378555,0.8243833184242249,-0.6666598320007324
10.072115421295166,-0.6120215058326721,-0.8559767603874207,0.84092116355896,-0.04286175221204758,0.8359909653663635,-0.6669228672981262
10.092235803604126,-0.6219396591186523,-0.8784264922142029,0.8392431139945984,-0.03561439365148544,0.8218317627906799,-0.6665285229682922
10.112390518188477,-0.6193843483924866,-0.8796513676643372,0.8356597423553467,-0.03306785970926285,0.8163091540336609,-0.6663092970848083
10.132733821868896,-0.6227821707725525,-0.885686457157135,0.8412508368492126,-0.03131886571645737,0.822726309299469,-0.666469931602478
10.152835845947266,-0.6160728931427002,-0.8751406669616699,0.8426186442375183,-0.035001240670681,0.8267881274223328,-0.6674329042434692
10.172903299331665,-0.6151053309440613,-0.875124454498291,0.839364230632782,-0.03261246532201767,0.8274614214897156,-0.6670971512794495
10.192999362945557,-0.6223859190940857,-0.8779605627059937,0.8433030247688293,-0.029305242002010345,0.8230208158493042,-0.668022871017456
10.213069438934326,-0.6252596378326416,-0.8769779801368713,0.8517346382141113,-0.027716703712940216,0.8220223784446716,-0.6694954633712769
10.23313593864441,-0.6241493821144104,-0.8722553849220276,0.8535552620887756,-0.025764547288417816,0.8125762343406677,-0.6697384119033813
10.25322413444519,-0.6226791739463806,-0.8739575743675232,0.8525273203849792,-0.026610054075717926,0.8194779753684998,-0.6691077351570129
10.273300886154175,-0.6250888705253601,-0.8737629055976868,0.8605223298072815,-0.02520168572664261,0.8162986636161804,-0.6707944869995117
10.293356657028198,-0.6158156991004944,-0.8643252849578857,0.8485822081565857,-0.030454151332378387,0.8293847441673279,-0.6698157787322998
10.313449621200562,-0.617301344871521,-0.8678286671638489,0.8535123467445374,-0.028370864689350128,0.8250890970230103,-0.6709219217300415
10.333512783050537,-0.6229698657989502,-0.8826665878295898,0.8586218953132629,-0.025727488100528717,0.82151198387146,-0.6720056533813477
10.354707717895508,-0.6227221488952637,-0.8846210241317749,0.8529731631278992,-0.027826063334941864,0.8275966048240662,-0.6707158088684082
10.374855279922485,-0.6150737404823303,-0.8435146808624268,0.8488143086433411,-0.036925263702869415,0.8340322375297546,-0.6726418137550354
10.394852876663208,-0.6178251504898071,-0.8943980932235718,0.8441962599754333,-0.03145406395196915,0.8317645788192749,-0.671316385269165
10.41562819480896,-0.6176720857620239,-0.8905479311943054,0.8425118327140808,-0.03304897993803024,0.8267189860343933,-0.6722021102905273
10.435714960098267,-0.6097807884216309,-0.8728724122047424,0.8446002006530762,-0.0394463911652565,0.8409615159034729,-0.6725221872329712
10.455795288085938,-0.6187442541122437,-0.8860617280006409,0.8515116572380066,-0.026062317192554474,0.8345668315887451,-0.672531008720398
10.475857257843018,-0.6235338449478149,-0.888122022151947,0.8604788184165955,-0.025883890688419342,0.8324123620986938,-0.674036979675293
10.495948076248169,-0.6157618165016174,-0.8793436288833618,0.852043867111206,-0.03127814084291458,0.8370895981788635,-0.6739571690559387
10.516016006469727,-0.6192008256912231,-0.8878486752510071,0.8638498187065125,-0.028227128088474274,0.836105227470398,-0.6756179332733154
10.536075592041016,-0.6199005246162415,-0.8760925531387329,0.8606393933296204,-0.031216435134410858,0.8318606019020081,-0.6759727597236633
10.55617070198059,-0.6230513453483582,-0.871466338634491,0.8601834774017334,-0.027457542717456818,0.8351465463638306,-0.6757662296295166
10.576248168945312,-0.6240083575248718,-0.8814101815223694,0.8671116232872009,-0.025449492037296295,0.8306005001068115,-0.6761132478713989
10.596769332885742,-0.6219453811645508,-0.8696888089179993,0.8632069826126099,-0.026020638644695282,0.829406201839447,-0.6760362982749939
10.616886854171753,-0.6228200197219849,-0.886592447757721,0.8645603656768799,-0.026005439460277557,0.8317562937736511,-0.6756219267845154
10.6369309425354,-0.620151698589325,-0.8705339431762695,0.8624292016029358,-0.027995578944683075,0.8342148065567017,-0.6767740249633789
10.657023668289185,-0.6191577911376953,-0.8870673775672913,0.862747073173523,-0.026299990713596344,0.8308601975440979,-0.6766153573989868
10.677096605300903,-0.6107710003852844,-0.8740532398223877,0.8567531704902649,-0.03234183043241501,0.8378073573112488,-0.6768320202827454
10.697160959243774,-0.619194507598877,-0.8969818353652954,0.8573983907699585,-0.02981352061033249,0.8401999473571777,-0.6769413948059082
10.717234373092651,-0.6203388571739197,-0.8784335851669312,0.8594532608985901,-0.027891479432582855,0.8378986716270447,-0.6779582500457764
10.737312078475952,-0.6188632845878601,-0.8805537223815918,0.8602560758590698,-0.030083544552326202,0.8397898077964783,-0.6781689524650574
10.757446050643921,-0.6160796284675598,-0.9012364149093628,0.8658698797225952,-0.024875633418560028,0.8377416133880615,-0.6775813102722168
10.77754807472229,-0.6191791296005249,-0.895626425743103,0.8692942261695862,-0.01982470601797104,0.8360975384712219,-0.6778690218925476
10.797592401504517,-0.6175275444984436,-0.8863384127616882,0.8656609654426575,-0.028635196387767792,0.8381388187408447,-0.6795373558998108
10.818107604980469,-0.6185001730918884,-0.8930127024650574,0.8628697395324707,-0.030596964061260223,0.845936119556427,-0.6798280477523804
10.838199138641357,-0.6209267973899841,-0.8956749439239502,0.8705653548240662,-0.025230564177036285,0.8434359431266785,-0.6806647777557373
10.858263731002808,-0.6189426779747009,-0.8985148072242737,0.8660174012184143,-0.02631639689207077,0.839473307132721,-0.6801766157150269
10.878392219543457,-0.6158214807510376,-0.8728291988372803,0.8687855005264282,-0.02966012805700302,0.8420878052711487,-0.6815180778503418
10.898486375808716,-0.6187679171562195,-0.8971734642982483,0.8670269846916199,-0.024302460253238678,0.8414126038551331,-0.6811213493347168
10.918559074401855,-0.617149293422699,-0.8831513524055481,0.8697198629379272,-0.02734927088022232,0.8398500084877014,-0.6829102635383606
10.938722133636475,-0.6205355525016785,-0.8989532589912415,0.8705326914787292,-0.026362724602222443,0.8416917324066162,-0.6818262934684753
10.958728551864624,-0.6206406354904175,-0.8924374580383301,0.8694836497306824,-0.02053680270910263,0.8405094146728516,-0.6812511086463928
10.978837966918945,-0.6184685826301575,-0.889836311340332,0.8694002032279968,-0.02523062378168106,0.840085506439209,-0.6827530860900879
10.998888492584229,-0.6204400658607483,-0.8883620500564575,0.8758703470230103,-0.02373073250055313,0.8402653932571411,-0.6836450695991516
11.018962144851685,-0.6157980561256409,-0.8987137079238892,0.8686444163322449,-0.027815677225589752,0.8466444611549377,-0.6826625466346741
11.0390305519104,-0.6173301339149475,-0.908488929271698,0.8751411437988281,-0.02384694665670395,0.8385611772537231,-0.6841070652008057
11.059092283248901,-0.6119887232780457,-0.9070130586624146,0.8752762079238892,-0.026619024574756622,0.8493275046348572,-0.6834691762924194
11.079174041748047,-0.6157638430595398,-0.9061326384544373,0.8741195797920227,-0.025736354291439056,0.8368675112724304,-0.6846017837524414
11.099228382110596,-0.618413507938385,-0.9033637642860413,0.8718345761299133,-0.023049481213092804,0.8467176556587219,-0.6835068464279175
11.11931562423706,-0.6166330575942993,-0.9026803374290466,0.8707818984985352,-0.023381568491458893,0.8467634320259094,-0.6839053630828857
11.139386177062988,-0.6144490838050842,-0.9139494895935059,0.8737014532089233,-0.022603414952754974,0.846141517162323,-0.6847128868103027
11.159892320632935,-0.6120709180831909,-0.9068928360939026,0.8771016001701355,-0.02550821751356125,0.8506254553794861,-0.6856389045715332
11.180037021636963,-0.6144819259643555,-0.9083055257797241,0.8716652989387512,-0.027168668806552887,0.8491004109382629,-0.685571551322937
11.2000572681427,-0.6148746609687805,-0.8953157067298889,0.8675678968429565,-0.028147347271442413,0.8525421619415283,-0.6856880187988281
11.220280170440674,-0.6159369349479675,-0.9065279960632324,0.8779669404029846,-0.026495836675167084,0.8524748682975769,-0.6869182586669922
11.240371227264404,-0.6141753792762756,-0.875740110874176,0.8739932775497437,-0.029678650200366974,0.8511887788772583,-0.6880843639373779
11.260520219802856,-0.6174839735031128,-0.8838198184967041,0.8821455836296082,-0.025979436933994293,0.8523027300834656,-0.688308835029602
11.280622959136963,-0.6097420454025269,-0.8918529152870178,0.8774661421775818,-0.027867324650287628,0.8607836365699768,-0.687361478805542
11.300695419311523,-0.6156371235847473,-0.8963840007781982,0.8766384720802307,-0.02428077906370163,0.8510269522666931,-0.6881526708602905
11.320778131484985,-0.6139054298400879,-0.9039334654808044,0.8791970610618591,-0.023677818477153778,0.8491858839988708,-0.6888726949691772
11.34086561203003,-0.616548478603363,-0.8945608139038086,0.8835019469261169,-0.023117072880268097,0.8535709977149963,-0.6893502473831177
11.361036539077759,-0.6144003868103027,-0.9179416298866272,0.8675034642219543,-0.027662627398967743,0.8534429669380188,-0.6872490644454956
11.381031036376953,-0.6137290000915527,-0.9128890037536621,0.8679418563842773,-0.024248920381069183,0.8526718020439148,-0.6874480843544006
11.401062488555908,-0.6180092096328735,-0.900001049041748,0.8881871104240417,-0.02347385138273239,0.8534217476844788,-0.6904637217521667
11.42115068435669,-0.6162410974502563,-0.8884708881378174,0.8817296624183655,-0.026712797582149506,0.8551939129829407,-0.6906797289848328
11.441221952438354,-0.616239607334137,-0.9157612323760986,0.8893886804580688,-0.02032562345266342,0.8558425903320312,-0.6901966333389282
11.461288452148438,-0.6117873787879944,-0.9068560004234314,0.8827354907989502,-0.024693824350833893,0.8523600101470947,-0.6909052729606628
11.481383562088013,-0.6098121404647827,-0.9207339286804199,0.8886469602584839,-0.020636998116970062,0.8550149202346802,-0.6911373138427734
11.501453638076782,-0.6134352087974548,-0.9067533612251282,0.8841114044189453,-0.022824861109256744,0.8592620491981506,-0.6910049915313721
11.521528482437134,-0.6165070533752441,-0.9009502530097961,0.8896278738975525,-0.023713521659374237,0.8599141836166382,-0.6925070285797119
11.541762590408325,-0.6172685027122498,-0.904221773147583,0.8943697810173035,-0.022961892187595367,0.8592867255210876,-0.6928101778030396
11.561851739883423,-0.612876296043396,-0.9168412685394287,0.885007917881012,-0.019259445369243622,0.850228488445282,-0.6922113299369812
11.581941604614258,-0.6030120253562927,-0.9020809531211853,0.8828932046890259,-0.03347737342119217,0.8686947226524353,-0.6929653882980347
11.6024751663208,-0.6043829321861267,-0.9059805870056152,0.8793087601661682,-0.03035401552915573,0.8712870478630066,-0.6922578811645508
11.622557878494263,-0.6143774390220642,-0.9128918647766113,0.8822268843650818,-0.02423039823770523,0.8632112741470337,-0.6934738755226135
11.642631530761719,-0.6158021092414856,-0.9096166491508484,0.8901788592338562,-0.02199099212884903,0.8610365986824036,-0.6935791969299316
11.662689924240112,-0.6149789690971375,-0.9001917243003845,0.8913713097572327,-0.021949417889118195,0.8608326315879822,-0.6944701075553894
11.682782649993896,-0.6131524443626404,-0.922121524810791,0.8843083381652832,-0.024485953152179718,0.8636589646339417,-0.693200409412384
11.702858924865723,-0.6124905943870544,-0.9052121043205261,0.8907561898231506,-0.02820941060781479,0.8664386868476868,-0.6949398517608643
11.722920656204224,-0.6067845821380615,-0.9142537713050842,0.8886361718177795,-0.02459210902452469,0.8693929314613342,-0.6941304206848145
11.743020296096802,-0.6120137572288513,-0.9261205196380615,0.8842794299125671,-0.023217640817165375,0.8618252873420715,-0.6939796209335327
11.763109683990479,-0.6141207218170166,-0.9263214468955994,0.8951860070228577,-0.018114708364009857,0.8596082329750061,-0.6950976848602295
11.783156871795654,-0.613551914691925,-0.915452241897583,0.8906553983688354,-0.020581312477588654,0.8614323735237122,-0.6951630711555481
11.803239583969116,-0.6138728857040405,-0.9180768728256226,0.8894386887550354,-0.02063051611185074,0.8628565669059753,-0.6953916549682617
11.823315143585205,-0.6150120496749878,-0.9280759692192078,0.8977945446968079,-0.015725336968898773,0.8615855574607849,-0.6954125165939331
11.843364715576172,-0.6143909096717834,-0.913019061088562,0.897377610206604,-0.01791221648454666,0.8602184057235718,-0.6968553066253662
11.863456964492798,-0.613891065120697,-0.9275988340377808,0.8993654847145081,-0.020101793110370636,0.8623765707015991,-0.6967825889587402
11.883524894714355,-0.6135644316673279,-0.9262042045593262,0.9005773663520813,-0.016192324459552765,0.8604203462600708,-0.6966829895973206
11.903620958328247,-0.6117949485778809,-0.9402890801429749,0.9010142087936401,-0.013863838277757168,0.8524644374847412,-0.6978986263275146
11.923701047897339,-0.6011276841163635,-0.9108376502990723,0.8944985866546631,-0.028407298028469086,0.8771893382072449,-0.6979540586471558
11.943855047225952,-0.6078391671180725,-0.9307811856269836,0.897102415561676,-0.018362216651439667,0.8667247891426086,-0.6975330114364624
11.96384072303772,-0.60964435338974,-0.93290776014328,0.8943812847137451,-0.016594789922237396,0.8636788129806519,-0.6980997920036316
11.983936071395874,-0.5985636115074158,-0.9252201318740845,0.8801460862159729,-0.02858031541109085,0.8684361577033997,-0.6976196765899658
12.004003286361694,-0.5976423621177673,-0.9150503873825073,0.8832771182060242,-0.034021370112895966,0.8842772245407104,-0.6991894245147705
12.02406358718872,-0.607925534248352,-0.9240604043006897,0.8942365646362305,-0.02551504224538803,0.8775480389595032,-0.6999634504318237
12.0441312789917,-0.6129435896873474,-0.9406346082687378,0.8967679142951965,-0.016815759241580963,0.8720874786376953,-0.6995394825935364
12.064220666885376,-0.6112038493156433,-0.9374328851699829,0.9010846614837646,-0.015321752987802029,0.872731626033783,-0.6998661756515503
12.084296464920044,-0.7181004881858826,-0.976743757724762,0.8005422949790955,-0.23633700609207153,0.9318152070045471,-0.8269944190979004
12.104491472244263,-0.7641716599464417,-0.9130255579948425,0.8277138471603394,-0.25811660289764404,0.9476528763771057,-0.8580665588378906
12.124604225158691,-0.7583976984024048,-0.9311094284057617,0.8302622437477112,-0.25830787420272827,0.9557658433914185,-0.857955276966095
12.144670486450195,-0.7527708411216736,-0.9271271228790283,0.8267782330513,-0.2592477798461914,0.9591240286827087,-0.8577812910079956
12.164729595184326,-0.7522779107093811,-0.9238711595535278,0.8312385678291321,-0.2611643671989441,0.96128249168396,-0.8589089512825012
12.184815645217896,-0.7658173441886902,-0.9350987076759338,0.8312036991119385,-0.2512335777282715,0.9508200287818909,-0.8587958216667175
12.204897403717041,-0.7666783332824707,-0.9411377310752869,0.8280499577522278,-0.24944214522838593,0.9503200650215149,-0.8586490154266357
12.224963665008545,-0.7634284496307373,-0.9272777438163757,0.8206468820571899,-0.25398582220077515,0.9497929811477661,-0.8599712252616882
12.245019674301147,-0.7495506405830383,-0.932977020740509,0.8218087553977966,-0.2599436044692993,0.9663799405097961,-0.8589630722999573
12.265220880508423,-0.753971517086029,-0.926189124584198,0.8269290328025818,-0.26351189613342285,0.9679796099662781,-0.8599942326545715
12.28521180152893,-0.7552945017814636,-0.9433832764625549,0.8236870169639587,-0.2567024528980255,0.9657444357872009,-0.8590121269226074
12.30530834197998,-0.7650838494300842,-0.9461345076560974,0.8297502398490906,-0.24610765278339386,0.9529654383659363,-0.8597133159637451
12.32543396949768,-0.7650557160377502,-0.9364382028579712,0.8291457295417786,-0.24920593202114105,0.9561648368835449,-0.8595072031021118
12.345441341400146,-0.7589488625526428,-0.9341092705726624,0.8271940350532532,-0.25903990864753723,0.9595640301704407,-0.8614929914474487
12.365527391433716,-0.7641840577125549,-0.9311901926994324,0.8304482698440552,-0.2545269727706909,0.9504732489585876,-0.8621861338615417
12.385592937469482,-0.763286292552948,-0.9430414438247681,0.8330268263816833,-0.25078916549682617,0.9487757086753845,-0.8617635369300842
12.405667066574097,-0.7628361582756042,-0.9354514479637146,0.8309187889099121,-0.24716584384441376,0.9575442671775818,-0.8616005778312683
12.425796270370483,-0.7480616569519043,-0.9323446154594421,0.8261940479278564,-0.26004618406295776,0.9725226759910583,-0.8617294430732727
12.445883512496948,-0.7504901885986328,-0.9323011040687561,0.8307011127471924,-0.2615874707698822,0.9730786681175232,-0.8628839254379272
12.465963363647461,-0.7608181834220886,-0.9455768465995789,0.8325524926185608,-0.24763695895671844,0.9599749445915222,-0.8624895811080933
12.486115217208862,-0.7628647685050964,-0.9348627328872681,0.833358645439148,-0.24979586899280548,0.962666928768158,-0.8631478548049927
12.506221532821655,-0.7608957886695862,-0.929332435131073,0.8317682147026062,-0.25975823402404785,0.9693800806999207,-0.863365113735199
12.526334524154663,-0.7622745633125305,-0.9374974370002747,0.828519880771637,-0.2538822293281555,0.9658170342445374,-0.8636690378189087
12.546397924423218,-0.7564861178398132,-0.9192604422569275,0.8287696242332458,-0.2622467577457428,0.9728009104728699,-0.8646632432937622
12.566462516784668,-0.7644348740577698,-0.9394707679748535,0.8303835988044739,-0.2562856078147888,0.9676514267921448,-0.8646719455718994
12.58652949333191,-0.7613713145256042,-0.9343217015266418,0.8302772641181946,-0.258928120136261,0.9720198512077332,-0.8647205829620361
12.606618165969849,-0.7641303539276123,-0.92947918176651,0.8337335586547852,-0.25720229744911194,0.9674572348594666,-0.8651398420333862
12.626694679260254,-0.7605845332145691,-0.9366533756256104,0.8281602263450623,-0.2605987787246704,0.9690772891044617,-0.8651227951049805
12.64675498008728,-0.7599110007286072,-0.9431596398353577,0.8315141797065735,-0.24976958334445953,0.9654502272605896,-0.8649001121520996
12.667213439941406,-0.7546820044517517,-0.9340423941612244,0.8319711685180664,-0.2594906687736511,0.9771317839622498,-0.8659991025924683
12.687313795089722,-0.7587334513664246,-0.9432598352432251,0.8310224413871765,-0.2573305368423462,0.9753950238227844,-0.865635335445404
12.707394123077393,-0.7619796991348267,-0.9318687319755554,0.8337876200675964,-0.25327572226524353,0.9668448567390442,-0.8662514686584473
12.727619409561157,-0.7636551260948181,-0.9342522621154785,0.8372082114219666,-0.25778117775917053,0.9700440764427185,-0.8664774894714355
12.747719764709473,-0.7562599778175354,-0.9241524934768677,0.8354515433311462,-0.26464980840682983,0.9789790511131287,-0.867418646812439
12.767797946929932,-0.7544758319854736,-0.9469974040985107,0.8360759615898132,-0.2553257346153259,0.9793345332145691,-0.8659929037094116
12.787849426269531,-0.759299635887146,-0.9224349856376648,0.8365792632102966,-0.2588372826576233,0.9700517058372498,-0.8680635690689087
12.807979583740234,-0.7581126689910889,-0.9346185326576233,0.8347381949424744,-0.26130595803260803,0.9771255850791931,-0.8674449920654297
12.828028202056885,-0.7528494000434875,-0.9409395456314087,0.8260723948478699,-0.2635102868080139,0.9846934676170349,-0.8672193288803101
12.848098278045654,-0.748437225818634,-0.9459208250045776,0.8252642750740051,-0.2666546106338501,0.9893971085548401,-0.8670111298561096
12.868234157562256,-0.7605241537094116,-0.9498197436332703,0.8313912749290466,-0.2566863000392914,0.9720093607902527,-0.8688386678695679
12.888294458389282,-0.7603742480278015,-0.9349469542503357,0.8330755829811096,-0.263143926858902,0.9782995581626892,-0.8700357675552368
12.908492088317871,-0.7644172310829163,-0.9345813393592834,0.8415288329124451,-0.2577168345451355,0.9762458205223083,-0.8702688813209534
12.928587436676025,-0.7625458836555481,-0.9220966696739197,0.8401362895965576,-0.25859612226486206,0.9792055487632751,-0.8704484701156616
12.9486563205719,-0.7642382979393005,-0.9474238753318787,0.8391956686973572,-0.24421696364879608,0.969376266002655,-0.869407594203949
12.968708515167236,-0.7591933012008667,-0.9378370642662048,0.8383367657661438,-0.25634604692459106,0.9790686964988708,-0.8698161840438843
12.988807678222656,-0.7538517117500305,-0.9288479685783386,0.8359686732292175,-0.2656583786010742,0.9884267449378967,-0.870511531829834
13.008870840072632,-0.7544630765914917,-0.950116753578186,0.8339216113090515,-0.261239230632782,0.9822072386741638,-0.8696180582046509
13.028940677642822,-0.7464838027954102,-0.9468197226524353,0.8308307528495789,-0.2651258707046509,0.9947535395622253,-0.8697850704193115
13.049073934555054,-0.7592197060585022,-0.9213131070137024,0.8344420790672302,-0.26322072744369507,0.9784912467002869,-0.8727982640266418
13.06912112236023,-0.7614760398864746,-0.9195190668106079,0.8395121693611145,-0.2642045319080353,0.9862479567527771,-0.8730345368385315
13.089176177978516,-0.7615489363670349,-0.9361515045166016,0.8352740406990051,-0.2614554166793823,0.9859002232551575,-0.8724895715713501
13.10927939414978,-0.756034791469574,-0.9316530227661133,0.8344355225563049,-0.26146697998046875,0.9919748902320862,-0.8724122047424316
13.129387617111206,-0.7632128000259399,-0.9409562349319458,0.8407946228981018,-0.2602314054965973,0.9852015376091003,-0.8723406791687012
13.149476766586304,-0.7635928392410278,-0.929035484790802,0.8410869240760803,-0.2646638751029968,0.9864388108253479,-0.87258380651474
13.169555902481079,-0.7579363584518433,-0.9372252225875854,0.8384100794792175,-0.2632097601890564,0.9887644648551941,-0.8726874589920044
13.189609289169312,-0.751180112361908,-0.925686240196228,0.8345662951469421,-0.2677710950374603,0.9944897294044495,-0.8733940124511719
13.209686994552612,-0.7543546557426453,-0.9448105692863464,0.8376147150993347,-0.2603062093257904,0.9874994158744812,-0.8730303049087524
13.229928016662598,-0.7533155679702759,-0.9439265727996826,0.8369532227516174,-0.26448777318000793,0.9975100159645081,-0.8731201887130737
13.25014042854309,-0.7593518495559692,-0.9284828305244446,0.834865152835846,-0.26562532782554626,0.989346444606781,-0.874037504196167
13.270128965377808,-0.7607895731925964,-0.9440377354621887,0.8384630084037781,-0.26136094331741333,0.9893819689750671,-0.8741884827613831
13.290202856063843,-0.7591914534568787,-0.9328827261924744,0.8385810256004333,-0.2653576135635376,0.9914698004722595,-0.8748712539672852
13.31028413772583,-0.7589573264122009,-0.9428016543388367,0.8405959606170654,-0.26263025403022766,0.9913389086723328,-0.8747550249099731
13.330367803573608,-0.756877601146698,-0.9463168382644653,0.8361697793006897,-0.25952914357185364,0.9926912188529968,-0.874351441860199
13.35042142868042,-0.7592385411262512,-0.9400721788406372,0.8374834656715393,-0.2638893723487854,0.9924084544181824,-0.8748697638511658
13.370503902435303,-0.7594290375709534,-0.9294845461845398,0.8371954560279846,-0.26516401767730713,0.993139922618866,-0.87591153383255
13.390568017959595,-0.7525144219398499,-0.9490379691123962,0.8343284726142883,-0.2637384533882141,0.997694194316864,-0.8745726346969604
13.410627126693726,-0.7446412444114685,-0.9431526064872742,0.8364778161048889,-0.2740899324417114,1.0089213848114014,-0.8762481808662415
13.430703401565552,-0.761931300163269,-0.9409723877906799,0.8391179442405701,-0.2638057768344879,0.9886038899421692,-0.8776335120201111
13.450780391693115,-0.7599576115608215,-0.9418408870697021,0.8402553200721741,-0.26397401094436646,0.9934813380241394,-0.8774725198745728
13.470831394195557,-0.7609485983848572,-0.9460654854774475,0.8403517603874207,-0.2635538876056671,0.9993351101875305,-0.8780405521392822
13.490932941436768,-0.7602290511131287,-0.9507675170898438,0.8433683514595032,-0.2585899531841278,0.9975985884666443,-0.8775217533111572
13.510986804962158,-0.7590751051902771,-0.944408655166626,0.8443627953529358,-0.2564002275466919,0.9945705533027649,-0.8770170211791992
13.531054973602295,-0.7597510814666748,-0.947033703327179,0.8416727185249329,-0.2636897563934326,0.9923388361930847,-0.8781555891036987
13.551143169403076,-0.7545976042747498,-0.9365774393081665,0.8371955752372742,-0.2680111229419708,0.9947360157966614,-0.8785982728004456
13.571221351623535,-0.7617751955986023,-0.9534134268760681,0.844796895980835,-0.2605646848678589,0.9977647662162781,-0.8784052729606628
13.591303586959839,-0.7638385891914368,-0.9476019144058228,0.8443321585655212,-0.2577122151851654,0.995002806186676,-0.8783175945281982
13.611365556716919,-0.7617337703704834,-0.9324506521224976,0.8435685038566589,-0.2617943584918976,0.9974591135978699,-0.8790404200553894
13.631467342376709,-0.7603633999824524,-0.9404879808425903,0.846039354801178,-0.2653271555900574,1.0013611316680908,-0.8797277212142944
13.651520729064941,-0.7602638602256775,-0.953327476978302,0.8430128693580627,-0.25801724195480347,0.9990387558937073,-0.8790541887283325
13.671700954437256,-0.7612369656562805,-0.9455327391624451,0.8424205183982849,-0.2601299583911896,0.9975544810295105,-0.8801242113113403
13.691790342330933,-0.7460209131240845,-0.9433310627937317,0.8377522826194763,-0.27569878101348877,1.019134521484375,-0.879155158996582
13.711871147155762,-0.750189483165741,-0.9442343711853027,0.8372005820274353,-0.27168211340904236,1.0161163806915283,-0.8797610402107239
13.731919288635254,-0.7478048801422119,-0.9408926367759705,0.8407995104789734,-0.2747003138065338,1.0147606134414673,-0.8810595273971558
13.752029657363892,-0.7620773315429688,-0.9393726587295532,0.8467581272125244,-0.26410630345344543,0.9998611807823181,-0.8823943734169006
13.772100687026978,-0.7577399611473083,-0.9469651579856873,0.8431096076965332,-0.26527726650238037,1.0088825225830078,-0.8819350004196167
13.792176961898804,-0.7632139921188354,-0.9519832134246826,0.8484483957290649,-0.25054627656936646,1.00002121925354,-0.8812350034713745
13.812286853790283,-0.7642330527305603,-0.9515768885612488,0.8519788980484009,-0.25583767890930176,0.9990419745445251,-0.8813963532447815
13.832337856292725,-0.7594128251075745,-0.941148579120636,0.8442057371139526,-0.2669544816017151,1.0066454410552979,-0.882184624671936
13.852393627166748,-0.75311678647995,-0.9449447393417358,0.8434087038040161,-0.2704436182975769,1.0142779350280762,-0.8822827339172363
13.872468709945679,-0.7587850093841553,-0.94886314868927,0.8433526158332825,-0.2658398747444153,1.0068634748458862,-0.8818946480751038
13.892564058303833,-0.7621692419052124,-0.950962483882904,0.8452566862106323,-0.2632925808429718,1.003859519958496,-0.8831033110618591
13.912640810012817,-0.7538032531738281,-0.9531764388084412,0.84401935338974,-0.2631228566169739,1.0071057081222534,-0.8837848901748657
13.93287467956543,-0.7612193822860718,-0.9480176568031311,0.8498030304908752,-0.26400434970855713,1.0025640726089478,-0.885201096534729
13.952996969223022,-0.757940948009491,-0.9406169056892395,0.8472296595573425,-0.26898258924484253,1.0134196281433105,-0.8847494721412659
13.973071575164795,-0.758438229560852,-0.9478919506072998,0.8448564410209656,-0.26730239391326904,1.015553593635559,-0.8835837841033936
13.99351167678833,-0.7567345499992371,-0.9455422759056091,0.8423803448677063,-0.2682390809059143,1.015038013458252,-0.8845244646072388
14.013672351837158,-0.754292905330658,-0.9345384836196899,0.8433077931404114,-0.27353113889694214,1.016884207725525,-0.88580322265625
14.033706903457642,-0.7613955140113831,-0.9386194944381714,0.8534688949584961,-0.2667471170425415,1.010000467300415,-0.8864722847938538
14.0537588596344,-0.7639980316162109,-0.9551945924758911,0.8526677489280701,-0.25905439257621765,1.0086867809295654,-0.8847751617431641
14.073853254318237,-0.7572237849235535,-0.9513401389122009,0.8470575213432312,-0.26061496138572693,1.0123779773712158,-0.8842850923538208
14.093918085098267,-0.7569167613983154,-0.9594486355781555,0.8471028208732605,-0.2580258548259735,1.004396677017212,-0.8849884867668152
14.11397385597229,-0.7599772810935974,-0.9517777562141418,0.8474000096321106,-0.26816460490226746,1.0145325660705566,-0.8867452144622803
14.134063959121704,-0.7454689145088196,-0.948586642742157,0.8434643745422363,-0.2800214886665344,1.0341541767120361,-0.8861382007598877
14.154146432876587,-0.7452095150947571,-0.9533563852310181,0.8437315225601196,-0.2721126079559326,1.0336178541183472,-0.8864026069641113
14.174222230911255,-0.7466802000999451,-0.9528776407241821,0.8474542498588562,-0.2742214798927307,1.0324430465698242,-0.8871209025382996
14.194365739822388,-0.7558372616767883,-0.9438103437423706,0.8453169465065002,-0.2731863856315613,1.0255783796310425,-0.8876509666442871
14.214396476745605,-0.7573449611663818,-0.9505952596664429,0.8477494120597839,-0.26786428689956665,1.0212372541427612,-0.8876169323921204
14.23447299003601,-0.7584828734397888,-0.9432745575904846,0.845219612121582,-0.2645733952522278,1.013854742050171,-0.8879160284996033
14.25455927848816,-0.7606358528137207,-0.9510475993156433,0.8503848910331726,-0.26488977670669556,1.0156974792480469,-0.8881373405456543
14.274637222290039,-0.7571976780891418,-0.9440235495567322,0.8470816016197205,-0.2719019651412964,1.0220030546188354,-0.888396680355072
14.294989347457886,-0.7563269734382629,-0.9415420293807983,0.8532820343971252,-0.26998138427734375,1.018495798110962,-0.8900305032730103
14.315070629119873,-0.7597600817680359,-0.956000030040741,0.8543129563331604,-0.2642003297805786,1.0170636177062988,-0.8895130753517151
14.33514666557312,-0.7588505148887634,-0.9586678147315979,0.8474164605140686,-0.26138877868652344,1.0151498317718506,-0.88950514793396
14.355287313461304,-0.7574917674064636,-0.9607332348823547,0.8481374382972717,-0.26636654138565063,1.0139257907867432,-0.8891614675521851
14.375384330749512,-0.7443364858627319,-0.9552778601646423,0.8440776467323303,-0.2732419967651367,1.0317567586898804,-0.8888041973114014
14.395466804504395,-0.7582903504371643,-0.9544275403022766,0.8522587418556213,-0.2691638469696045,1.024122714996338,-0.890659511089325
14.415533065795898,-0.7584700584411621,-0.9552314877510071,0.8472478985786438,-0.2668863534927368,1.0252212285995483,-0.8900701999664307
14.435616970062256,-0.7564616203308105,-0.9507308006286621,0.8501413464546204,-0.26369985938072205,1.0260908603668213,-0.8903431296348572
14.45569109916687,-0.7526347041130066,-0.9413629174232483,0.8494818806648254,-0.27507826685905457,1.0328556299209595,-0.8916182518005371
14.475775957107544,-0.7601268291473389,-0.9606757760047913,0.855092465877533,-0.26725494861602783,1.0252423286437988,-0.8912203907966614
14.495954275131226,-0.7597643733024597,-0.9575300216674805,0.8553741574287415,-0.26645389199256897,1.025174856185913,-0.8908219933509827
14.516044855117798,-0.7581510543823242,-0.9567121267318726,0.853252112865448,-0.26780906319618225,1.02419114112854,-0.8904487490653992
14.536117315292358,-0.7607845664024353,-0.948657214641571,0.8557290434837341,-0.27100855112075806,1.0235176086425781,-0.892799973487854
14.556335210800171,-0.7507617473602295,-0.938398003578186,0.8503664135932922,-0.2811770439147949,1.0386803150177002,-0.8927264213562012
14.576426029205322,-0.7486870884895325,-0.9433271288871765,0.8465723395347595,-0.2762983441352844,1.0387763977050781,-0.8926170468330383
