liuyurong129/humanoid-gym/humanoid/data/target_q_20250522-040315.csv
timestamp,joint_1,joint_2,joint_3,joint_4,joint_5,joint_6
5.340576171875e-05,0.0,0.0,0.0,0.0,0.0,0.0
0.020233154296875,0.0,0.0,0.0,0.0,0.0,0.0
0.0402529239654541,0.0,0.0,0.0,0.0,0.0,0.0
0.06032538414001465,0.0,0.0,0.0,0.0,0.0,0.0
0.08039116859436035,0.0,0.0,0.0,0.0,0.0,0.0
0.10048198699951172,0.15246924757957458,-0.8048590421676636,0.7880430221557617,0.5075491070747375,-0.19861553609371185,-0.1413627713918686
0.12060713768005371,0.13352972269058228,-0.8452870845794678,0.8045270442962646,0.5219529271125793,-0.20051613450050354,-0.1414436399936676
0.14069294929504395,0.12227529287338257,-0.8660206198692322,0.8092769980430603,0.528705358505249,-0.20101235806941986,-0.14167816936969757
0.16081714630126953,0.10005374252796173,-0.9036011099815369,0.8272613286972046,0.5427203178405762,-0.200237438082695,-0.14227865636348724
0.1808791160583496,0.07935657352209091,-0.9385820627212524,0.8518926501274109,0.5564539432525635,-0.19786639511585236,-0.14283886551856995
0.20094823837280273,0.07104697823524475,-0.9538977146148682,0.8680951595306396,0.5636079907417297,-0.19510313868522644,-0.14304983615875244
0.22103071212768555,0.04849359393119812,-0.9906034469604492,0.8851457238197327,0.5758816599845886,-0.19220522046089172,-0.1436142474412918
0.2413320541381836,0.02650570496916771,-1.0260494947433472,0.9027110934257507,0.5863366723060608,-0.18751183152198792,-0.14431236684322357
0.2614405155181885,0.01290556788444519,-1.0468107461929321,0.9029958248138428,0.5891130566596985,-0.18660397827625275,-0.14493945240974426
0.28159093856811523,-0.010787098668515682,-1.0843515396118164,0.9066278338432312,0.5941086411476135,-0.1826673299074173,-0.14534811675548553
0.30167722702026367,-0.018772322684526443,-1.0989612340927124,0.9240838289260864,0.598322868347168,-0.17763552069664001,-0.1454123854637146
0.32172179222106934,-0.03311895206570625,-1.1285479068756104,0.9386371374130249,0.5980589985847473,-0.17010784149169922,-0.14572301506996155
0.3417682647705078,-0.0440395325422287,-1.1509493589401245,0.9594851732254028,0.5994704961776733,-0.16163553297519684,-0.1461619734764099
0.3618810176849365,-0.05002491921186447,-1.1621003150939941,0.9577789306640625,0.5977758765220642,-0.15968216955661774,-0.14637796580791473
0.38204264640808105,-0.0530567541718483,-1.176543116569519,0.9784587025642395,0.5954661965370178,-0.15366020798683167,-0.1466258019208908
0.4022939205169678,-0.05713336542248726,-1.1875300407409668,0.9941867589950562,0.5941357612609863,-0.1500631719827652,-0.1471252590417862
0.42248058319091797,-0.05464334785938263,-1.1874452829360962,1.0185879468917847,0.5958706736564636,-0.14555685222148895,-0.14736230671405792
0.4424781799316406,-0.05414672568440437,-1.1959764957427979,1.0371705293655396,0.5950021147727966,-0.14292383193969727,-0.14781087636947632
0.46257853507995605,-0.058121856302022934,-1.2019644975662231,1.0296590328216553,0.5931379795074463,-0.14495612680912018,-0.14820317924022675
0.4826498031616211,-0.05732835456728935,-1.208890438079834,1.0372737646102905,0.5892851948738098,-0.14556023478507996,-0.14862318336963654
0.502769947052002,-0.057047173380851746,-1.2132914066314697,1.0399011373519897,0.5862020254135132,-0.14555208384990692,-0.1492384821176529
0.5228254795074463,-0.05382350832223892,-1.2134507894515991,1.0593807697296143,0.5872772932052612,-0.14427919685840607,-0.14937211573123932
0.5429096221923828,-0.05409133434295654,-1.214709997177124,1.0685126781463623,0.5866228938102722,-0.1456364244222641,-0.15013930201530457
0.5629997253417969,-0.052431195974349976,-1.215798258781433,1.0588760375976562,0.5824406147003174,-0.14649522304534912,-0.15034407377243042
0.5831868648529053,-0.04915999248623848,-1.2150495052337646,1.0630347728729248,0.5818358659744263,-0.14719849824905396,-0.15110887587070465
0.6032216548919678,-0.04842820018529892,-1.2129099369049072,1.0697839260101318,0.580769956111908,-0.15110233426094055,-0.1523595154285431
0.6233081817626953,-0.042725905776023865,-1.2074300050735474,1.0932613611221313,0.5837422013282776,-0.14954397082328796,-0.15233872830867767
0.6433672904968262,-0.037911757826805115,-1.2044637203216553,1.108728051185608,0.5832788348197937,-0.1540249139070511,-0.15298442542552948
0.6634628772735596,-0.031022697687149048,-1.1985150575637817,1.118037223815918,0.5807830691337585,-0.1549631655216217,-0.15383033454418182
0.6835615634918213,-0.030467359349131584,-1.1996500492095947,1.1059901714324951,0.577170729637146,-0.15975728631019592,-0.15438364446163177
0.703679084777832,-0.02737247571349144,-1.1978089809417725,1.107710599899292,0.5780586004257202,-0.1669788658618927,-0.15528514981269836
0.7241458892822266,-0.023447316139936447,-1.193982481956482,1.1160073280334473,0.5786964893341064,-0.1719161719083786,-0.15611007809638977
0.7442529201507568,-0.022023240104317665,-1.191258430480957,1.132957100868225,0.583648681640625,-0.17521171271800995,-0.15596114099025726
0.7642965316772461,-0.02134643867611885,-1.1887118816375732,1.130271315574646,0.58265221118927,-0.181387796998024,-0.15736684203147888
0.7844605445861816,-0.02573496475815773,-1.1903660297393799,1.112144947052002,0.5787179470062256,-0.18693751096725464,-0.15856438875198364
0.8045163154602051,-0.028440341353416443,-1.1901962757110596,1.0986099243164062,0.5753716230392456,-0.1934877187013626,-0.16057845950126648
0.82454514503479,-0.02866354212164879,-1.1866010427474976,1.0965019464492798,0.5740331411361694,-0.19783355295658112,-0.16242294013500214
0.8446388244628906,-0.02406238578259945,-1.1802105903625488,1.1196495294570923,0.5792381167411804,-0.19768328964710236,-0.1621677577495575
0.864835262298584,-0.026343515142798424,-1.174385666847229,1.1197305917739868,0.5793440341949463,-0.2022184133529663,-0.16411732137203217
0.8848392963409424,-0.031445231288671494,-1.1756280660629272,1.099785327911377,0.5746189951896667,-0.20594742894172668,-0.16660164296627045
0.9049084186553955,-0.031841982156038284,-1.171710729598999,1.1060047149658203,0.5775120258331299,-0.21165718138217926,-0.16823194921016693
0.9249899387359619,-0.03028738498687744,-1.1689804792404175,1.1059997081756592,0.5773196816444397,-0.21569912135601044,-0.17050372064113617
0.9450705051422119,-0.02622893452644348,-1.1652542352676392,1.118056058883667,0.5809105634689331,-0.2160225212574005,-0.170791357755661
0.9651825428009033,-0.02866542711853981,-1.1642944812774658,1.1154757738113403,0.582292914390564,-0.2238008826971054,-0.1728532463312149
0.9851980209350586,-0.03456289321184158,-1.1625407934188843,1.104615330696106,0.5840414762496948,-0.22996097803115845,-0.17516446113586426
1.0052955150604248,-0.03937924653291702,-1.163045883178711,1.088738203048706,0.5808032155036926,-0.23260828852653503,-0.17762956023216248
1.0253775119781494,-0.03744249418377876,-1.158787488937378,1.0903428792953491,0.5824419260025024,-0.2346598356962204,-0.18055406212806702
1.0455055236816406,-0.03546686843037605,-1.153489112854004,1.0958584547042847,0.5850597620010376,-0.24026232957839966,-0.18270376324653625
1.0655624866485596,-0.025382809340953827,-1.1474130153656006,1.116539716720581,0.587261438369751,-0.23988963663578033,-0.1832808554172516
1.085618257522583,-0.01958358846604824,-1.1416054964065552,1.1250226497650146,0.5886890292167664,-0.24516353011131287,-0.18509525060653687
1.1058244705200195,-0.016729149967432022,-1.1386936902999878,1.1194231510162354,0.5848977565765381,-0.24550631642341614,-0.18754464387893677
1.1259117126464844,-0.002350395545363426,-1.1279407739639282,1.1444964408874512,0.5868138074874878,-0.2488863617181778,-0.18882593512535095
1.1459813117980957,0.007793332915753126,-1.1169118881225586,1.1611396074295044,0.5878092646598816,-0.2550467550754547,-0.1902976781129837
1.166078805923462,0.012240428477525711,-1.1131532192230225,1.1673222780227661,0.5880347490310669,-0.2597384750843048,-0.1908959150314331
1.1861457824707031,0.020934592932462692,-1.1032534837722778,1.1807106733322144,0.5885146856307983,-0.2688876986503601,-0.19179978966712952
1.2063627243041992,0.025411488488316536,-1.0936698913574219,1.180009365081787,0.5862393379211426,-0.2760202884674072,-0.19391636550426483
1.2265405654907227,0.026875756680965424,-1.0897377729415894,1.1854389905929565,0.5880318284034729,-0.28423750400543213,-0.19389815628528595
1.2465486526489258,0.025984594598412514,-1.0821038484573364,1.1831079721450806,0.5895654559135437,-0.29851430654525757,-0.19475573301315308
1.2667393684387207,0.023732179775834084,-1.078184962272644,1.177565097808838,0.5891663432121277,-0.30529308319091797,-0.19589175283908844
1.2868609428405762,0.014953890815377235,-1.0723158121109009,1.1573883295059204,0.5878213047981262,-0.31911465525627136,-0.19883298873901367
1.3070757389068604,0.006088482216000557,-1.0688782930374146,1.131715178489685,0.5845156311988831,-0.3296664357185364,-0.20351861417293549
1.3271634578704834,0.0025021936744451523,-1.0663493871688843,1.1213706731796265,0.5822248458862305,-0.3329920470714569,-0.2061416059732437
1.347217082977295,-0.0047131311148405075,-1.0629374980926514,1.0930306911468506,0.5718972682952881,-0.3366263508796692,-0.21484974026679993
1.367323875427246,-0.007455429062247276,-1.06191086769104,1.081034779548645,0.5676671266555786,-0.3385496735572815,-0.21930615603923798
1.3874180316925049,-0.012676199898123741,-1.0609840154647827,1.0552688837051392,0.5568927526473999,-0.33878499269485474,-0.2296716868877411
1.4075088500976562,-0.016402456909418106,-1.0614241361618042,1.0406169891357422,0.5482358932495117,-0.33781224489212036,-0.2362711876630783
1.4275600910186768,-0.023008152842521667,-1.0614557266235352,1.006246566772461,0.5274606943130493,-0.3281365633010864,-0.2507607042789459
1.4476425647735596,-0.030324554070830345,-1.0596048831939697,0.9698262810707092,0.5055360198020935,-0.31622743606567383,-0.26450663805007935
1.4677464962005615,-0.03273949399590492,-1.0575093030929565,0.9533199071884155,0.4968166947364807,-0.30889397859573364,-0.27039387822151184
1.4878222942352295,-0.028673730790615082,-1.0502761602401733,0.9338504076004028,0.4815351665019989,-0.2889961004257202,-0.28078505396842957
1.5079023838043213,-0.025776173919439316,-1.0468170642852783,0.9274773597717285,0.47646698355674744,-0.27937090396881104,-0.2850961685180664
1.5279695987701416,-0.014330192469060421,-1.0400384664535522,0.9287588000297546,0.4674004018306732,-0.2586595118045807,-0.2930843234062195
1.5482676029205322,0.005143837537616491,-1.0349915027618408,0.9521046280860901,0.46591421961784363,-0.23708941042423248,-0.2988339960575104
1.5684430599212646,0.01585511490702629,-1.0322787761688232,0.9657610654830933,0.4655495584011078,-0.22609402239322662,-0.30117878317832947
1.5885329246520996,0.04005173593759537,-1.0215578079223633,1.0010123252868652,0.46393948793411255,-0.20295630395412445,-0.30312883853912354
1.6085388660430908,0.05196892470121384,-1.015103816986084,1.0184690952301025,0.4624883830547333,-0.1913680136203766,-0.3035697638988495
1.62862229347229,0.06747466325759888,-0.9946798086166382,1.0444245338439941,0.4475739002227783,-0.16595885157585144,-0.304542601108551
1.64872407913208,0.06721676886081696,-0.9828107953071594,1.0407452583312988,0.430267870426178,-0.15299920737743378,-0.30629557371139526
1.6688034534454346,0.06678460538387299,-0.9588605761528015,1.031411051750183,0.3947766125202179,-0.12976790964603424,-0.31195253133773804
1.688873291015625,0.05606596916913986,-0.9510127902030945,1.0140914916992188,0.38347283005714417,-0.12683512270450592,-0.31544262170791626
1.7089686393737793,0.030717216432094574,-0.9443338513374329,0.9735329151153564,0.37211549282073975,-0.13005274534225464,-0.32032689452171326
1.7291157245635986,0.009328259155154228,-0.9384534358978271,0.9294896721839905,0.3670714199542999,-0.12897516787052155,-0.3257637917995453
1.7491981983184814,-0.0002728458493947983,-0.9360131025314331,0.9068459868431091,0.36868807673454285,-0.1278059184551239,-0.3289489150047302
1.7693414688110352,-0.01657310128211975,-0.9303423166275024,0.8619938492774963,0.37666335701942444,-0.12416235357522964,-0.33724480867385864
1.7898375988006592,-0.015050416812300682,-0.9211379885673523,0.8250522613525391,0.3872985243797302,-0.09707136452198029,-0.3505108952522278
1.8099455833435059,-0.006413430441170931,-0.9192026257514954,0.8232235312461853,0.39708346128463745,-0.0840611606836319,-0.35627132654190063
1.8300447463989258,0.019696911796927452,-0.9125352501869202,0.8302463293075562,0.4083254635334015,-0.04966861009597778,-0.36503905057907104
1.8502819538116455,0.03448750823736191,-0.9095743298530579,0.8430518507957458,0.4115856885910034,-0.034931838512420654,-0.36742401123046875
1.8703608512878418,0.06185280159115791,-0.9054386615753174,0.8788349032402039,0.4212629497051239,-0.016469227150082588,-0.37077972292900085
1.8904337882995605,0.08481913805007935,-0.9051768183708191,0.9177938103675842,0.4385228157043457,-0.008077893406152725,-0.37449321150779724
1.9105372428894043,0.0936422273516655,-0.9076446294784546,0.9370555281639099,0.45131513476371765,-0.008113651536405087,-0.3770238161087036
1.93062424659729,0.10984645783901215,-0.9131470918655396,0.9717577695846558,0.4815140962600708,-0.006777017377316952,-0.3846833407878876
1.9507341384887695,0.10966186225414276,-0.9263917803764343,0.9821503758430481,0.5194222927093506,-0.01674230955541134,-0.39450204372406006
1.9709110260009766,0.10316886752843857,-0.9338991045951843,0.9799661636352539,0.5353796482086182,-0.02643793821334839,-0.39910072088241577
1.9910438060760498,0.08337806910276413,-0.9508880972862244,0.9731018543243408,0.5630072355270386,-0.05454368144273758,-0.40715160965919495
2.0110678672790527,0.060200124979019165,-0.9637150764465332,0.9619275331497192,0.5814679265022278,-0.08012852817773819,-0.4150424599647522
2.0311591625213623,0.04422273859381676,-0.9693167209625244,0.9530608057975769,0.5861635804176331,-0.09509073197841644,-0.4187585413455963
2.0512940883636475,0.01908443123102188,-0.9781240820884705,0.931620717048645,0.5958439111709595,-0.11784778535366058,-0.4280449151992798
2.071363925933838,0.012035731226205826,-0.9811818599700928,0.9252190589904785,0.5985624194145203,-0.125844806432724,-0.4333733320236206
2.0915849208831787,0.014434698969125748,-0.9823195338249207,0.9247152209281921,0.6066960096359253,-0.12602107226848602,-0.4421578049659729
2.111649751663208,0.02205878682434559,-0.98116534948349,0.9229834079742432,0.6166927814483643,-0.11724250018596649,-0.450178325176239
2.1317310333251953,0.031652092933654785,-0.9775786399841309,0.9299794435501099,0.6205937266349792,-0.10427114367485046,-0.4551510810852051
2.1518166065216064,0.05658937245607376,-0.9697414040565491,0.9576495289802551,0.6334201097488403,-0.07589888572692871,-0.46403059363365173
2.172302722930908,0.06379485130310059,-0.9652488827705383,0.9610113501548767,0.6385871767997742,-0.06124284490942955,-0.4688681662082672
2.1923933029174805,0.07124505192041397,-0.9554958343505859,0.9572548270225525,0.6453392505645752,-0.032681673765182495,-0.4792885184288025
2.2125232219696045,0.0627463236451149,-0.9513916373252869,0.9376993179321289,0.652363121509552,-0.01893560402095318,-0.48986944556236267
2.2327187061309814,0.052535731345415115,-0.9521639347076416,0.9225567579269409,0.6572444438934326,-0.019128678366541862,-0.49461886286735535
2.2527565956115723,0.02213367074728012,-0.9558210968971252,0.8864970803260803,0.6643897294998169,-0.030140327289700508,-0.5026194453239441
2.272801399230957,0.0017069359309971333,-0.95989590883255,0.8661004304885864,0.6743115782737732,-0.04116632789373398,-0.5093365907669067
2.292917013168335,-0.001771674258634448,-0.9611892700195312,0.865420937538147,0.6805710196495056,-0.04325014352798462,-0.5118799209594727
2.3129947185516357,0.012769265100359917,-0.9613467454910278,0.8806885480880737,0.6977424621582031,-0.029515018686652184,-0.5161700248718262
2.333268165588379,0.02915050834417343,-0.9575037956237793,0.899564266204834,0.7115578651428223,-0.0038719000294804573,-0.5227323770523071
2.353372812271118,0.03974856436252594,-0.9552076458930969,0.9154531359672546,0.7193127870559692,0.009663118049502373,-0.5261408090591431
2.3734333515167236,0.0492129884660244,-0.9511541724205017,0.9279695749282837,0.7314622402191162,0.032895080745220184,-0.5328623652458191
2.393730640411377,0.052507318556308746,-0.9491544365882874,0.9282259941101074,0.7375726699829102,0.04518434405326843,-0.5358882546424866
2.4138741493225098,0.04731908440589905,-0.9482201337814331,0.9128506183624268,0.747925877571106,0.06130450218915939,-0.541814923286438
2.4339258670806885,0.026392117142677307,-0.9528404474258423,0.8867433071136475,0.7552177309989929,0.05862058326601982,-0.5476529598236084
2.454029083251953,0.01440556813031435,-0.9555104970932007,0.873462438583374,0.7575556039810181,0.054804906249046326,-0.5505400896072388
2.4740889072418213,-0.0031642760150134563,-0.9617732167243958,0.8611083030700684,0.7638263702392578,0.045328281819820404,-0.5554971694946289
2.495056629180908,-0.00994760449975729,-0.9680562019348145,0.8654226064682007,0.7734543085098267,0.037716660648584366,-0.5579233169555664
2.5151405334472656,-0.010725675150752068,-0.9708878993988037,0.8690778017044067,0.7791897654533386,0.03637007996439934,-0.5589539408683777
2.535214900970459,0.00481004361063242,-0.970902681350708,0.8883143663406372,0.7943631410598755,0.05571863800287247,-0.5612640976905823
2.555298328399658,0.01648523658514023,-0.9690643548965454,0.9024488925933838,0.8024311065673828,0.07052561640739441,-0.562353789806366
2.5753860473632812,0.02462034858763218,-0.9673742651939392,0.9139735102653503,0.8127187490463257,0.08998167514801025,-0.5663352012634277
2.5954749584198,0.026749661192297935,-0.9643906354904175,0.9121531248092651,0.8200131058692932,0.10988321155309677,-0.5711007118225098
2.615560531616211,0.02521316148340702,-0.964526891708374,0.9064871072769165,0.8239853382110596,0.11718281358480453,-0.573165237903595
2.63563871383667,0.012251816689968109,-0.967160165309906,0.8898546695709229,0.8295193314552307,0.12167436629533768,-0.5777673721313477
2.655958414077759,0.0016957176849246025,-0.9703230857849121,0.8807815313339233,0.8316319584846497,0.11758603155612946,-0.5798937082290649
2.676029920578003,-0.016502128913998604,-0.9770007133483887,0.8672822117805481,0.8364288806915283,0.1083284243941307,-0.5833336710929871
2.6960957050323486,-0.03181027993559837,-0.9841203689575195,0.861970841884613,0.840846598148346,0.09658335149288177,-0.5854552984237671
2.7161788940429688,-0.031279005110263824,-0.9867164492607117,0.8624756932258606,0.8466082811355591,0.09714508801698685,-0.5855621695518494
2.736248016357422,-0.02487240359187126,-0.9895999431610107,0.8726394176483154,0.8585491180419922,0.10558231174945831,-0.5857721567153931
2.756585121154785,-0.01134982705116272,-0.9873243570327759,0.8838564157485962,0.8685075044631958,0.12781751155853271,-0.5873470902442932
2.7766764163970947,-0.005655658431351185,-0.9865374565124512,0.889946460723877,0.873120129108429,0.13778463006019592,-0.5884478688240051
2.7967565059661865,0.0006558669847436249,-0.9853847622871399,0.8924278020858765,0.8805114030838013,0.1561363935470581,-0.5909022092819214
2.816803455352783,-0.0028472631238400936,-0.9878742694854736,0.8866639137268066,0.8855875730514526,0.1635250598192215,-0.5935843586921692
2.83695125579834,-0.0075123487040400505,-0.9896078705787659,0.8832945823669434,0.8867313861846924,0.16405943036079407,-0.5950884819030762
2.85699462890625,-0.024063657969236374,-0.9960993528366089,0.8725036382675171,0.8893159031867981,0.15531618893146515,-0.5972315669059753
2.8770859241485596,-0.03082108125090599,-1.0000510215759277,0.8711227178573608,0.892090916633606,0.14947885274887085,-0.597511351108551
2.897174835205078,-0.042193859815597534,-1.0080536603927612,0.873274564743042,0.898064136505127,0.13642629981040955,-0.5968500971794128
2.9172325134277344,-0.04161303490400314,-1.0125410556793213,0.881739616394043,0.9069695472717285,0.13572867214679718,-0.5955593585968018
2.937520980834961,-0.03757660835981369,-1.0126159191131592,0.8843494653701782,0.9111467599868774,0.1422029286623001,-0.5952280759811401
2.957451581954956,-0.022650334984064102,-1.0095419883728027,0.8973172307014465,0.9203439950942993,0.16385537385940552,-0.5951583385467529
2.9776906967163086,-0.016673658043146133,-1.0080223083496094,0.90288907289505,0.9240525960922241,0.17392970621585846,-0.5956102013587952
2.997871160507202,-0.0145102608948946,-1.0064185857772827,0.9005590677261353,0.9274725914001465,0.18927524983882904,-0.597644567489624
3.0178749561309814,-0.01671341434121132,-1.00672447681427,0.8964637517929077,0.9285775423049927,0.19388911128044128,-0.5987948775291443
3.0379793643951416,-0.025132376700639725,-1.0082311630249023,0.8880449533462524,0.9292503595352173,0.19803956151008606,-0.6010782718658447
3.058119773864746,-0.039813973009586334,-1.0144052505493164,0.8801730871200562,0.9298198223114014,0.1894596517086029,-0.6020005345344543
3.0782618522644043,-0.047174856066703796,-1.017671823501587,0.8772467374801636,0.930579423904419,0.18397477269172668,-0.6020063757896423
3.0983169078826904,-0.05635666102170944,-1.023208498954773,0.8782020211219788,0.9348007440567017,0.17598819732666016,-0.600954532623291
3.118408441543579,-0.05865311995148659,-1.0257017612457275,0.8784856200218201,0.9376298189163208,0.17373999953269958,-0.6000857353210449
3.1385338306427,-0.05380834639072418,-1.0274195671081543,0.8842757344245911,0.9447149038314819,0.17991718649864197,-0.598483681678772
3.158595323562622,-0.03992995247244835,-1.0244238376617432,0.8919129371643066,0.953091025352478,0.2004023939371109,-0.5973695516586304
3.1787052154541016,-0.03364593908190727,-1.0229908227920532,0.8973013162612915,0.9563119411468506,0.20974120497703552,-0.5973995327949524
3.198755979537964,-0.023653164505958557,-1.0205851793289185,0.9041152000427246,0.960048496723175,0.22752004861831665,-0.5984408855438232
3.218956708908081,-0.02721896767616272,-1.0211443901062012,0.8985101580619812,0.9609699845314026,0.2351018339395523,-0.6001235246658325
3.2390365600585938,-0.03007037565112114,-1.02168607711792,0.8951883316040039,0.96134352684021,0.23768922686576843,-0.6008597016334534
3.259108543395996,-0.04034904018044472,-1.0251471996307373,0.8894558548927307,0.960981547832489,0.23484908044338226,-0.6022213697433472
3.279282569885254,-0.04710903391242027,-1.027983546257019,0.8867064714431763,0.9609231352806091,0.2301180213689804,-0.6023993492126465
3.2993834018707275,-0.05954601243138313,-1.034385085105896,0.8836038112640381,0.9612067937850952,0.21832920610904694,-0.6018362641334534
3.3194594383239746,-0.06547552347183228,-1.038655161857605,0.8855932354927063,0.9643539190292358,0.2116509974002838,-0.6003099679946899
3.3395259380340576,-0.06273704022169113,-1.0394837856292725,0.8882026672363281,0.9679608345031738,0.21378785371780396,-0.599259614944458
3.3596391677856445,-0.05212731659412384,-1.0389753580093384,0.8977065682411194,0.9750962853431702,0.22418156266212463,-0.597489058971405
3.37967586517334,-0.04019087925553322,-1.0349794626235962,0.9054117202758789,0.9807694554328918,0.24152866005897522,-0.596726655960083
3.3997862339019775,-0.034910839051008224,-1.0329029560089111,0.9078218936920166,0.9825775027275085,0.2507472038269043,-0.5968955755233765
3.4198875427246094,-0.032320357859134674,-1.0318509340286255,0.9058760404586792,0.985336422920227,0.2620983123779297,-0.5975663661956787
3.440570831298828,-0.040062066167593,-1.034708857536316,0.9039683938026428,0.9839065670967102,0.25888925790786743,-0.5989397764205933
3.4606680870056152,-0.04374256357550621,-1.0356502532958984,0.9014720916748047,0.9838039875030518,0.25834617018699646,-0.5992974042892456
3.4807631969451904,-0.0561671257019043,-1.0409725904464722,0.8945505023002625,0.9826259613037109,0.2484167516231537,-0.5993513464927673
3.5012197494506836,-0.06441234052181244,-1.0465831756591797,0.894347071647644,0.9841495752334595,0.23758989572525024,-0.5978036522865295
3.521355628967285,-0.06614162027835846,-1.0485146045684814,0.8961194753646851,0.9856336712837219,0.23410992324352264,-0.596804141998291
3.5414316654205322,-0.06140909716486931,-1.0493887662887573,0.9011288285255432,0.989721953868866,0.2370908409357071,-0.5949309468269348
3.561610221862793,-0.055714868009090424,-1.0480766296386719,0.9040734171867371,0.9923919439315796,0.24390944838523865,-0.5941706299781799
3.5816173553466797,-0.04232228174805641,-1.0444161891937256,0.9121428728103638,0.9989564418792725,0.26048803329467773,-0.5928964614868164
3.6018292903900146,-0.031767163425683975,-1.0400563478469849,0.9182158708572388,1.0024470090866089,0.2772828936576843,-0.5931265950202942
3.621901750564575,-0.03190105780959129,-1.0401579141616821,0.9186431765556335,1.002936840057373,0.27961665391921997,-0.5935767292976379
3.6420273780822754,-0.04050774499773979,-1.041749119758606,0.9137493968009949,1.0007764101028442,0.27710601687431335,-0.5949621796607971
3.6621549129486084,-0.04700058698654175,-1.0433175563812256,0.9087241888046265,0.9991963505744934,0.27365967631340027,-0.5955690145492554
3.6822011470794678,-0.06444521248340607,-1.050480604171753,0.8995047807693481,0.9955658316612244,0.2563701272010803,-0.595452070236206
3.702564001083374,-0.07450952380895615,-1.0551915168762207,0.895133912563324,0.9947395920753479,0.24504457414150238,-0.5938546657562256
3.7227375507354736,-0.07590827345848083,-1.0559780597686768,0.8941196799278259,0.9949246644973755,0.24374504387378693,-0.5930952429771423
3.742757558822632,-0.06811679899692535,-1.0552184581756592,0.8973281383514404,0.9997844696044922,0.2513280510902405,-0.5911350250244141
3.762845516204834,-0.06141539663076401,-1.0541720390319824,0.9025804400444031,1.0027379989624023,0.25719553232192993,-0.5901646614074707
3.7829201221466064,-0.04517696797847748,-1.0490983724594116,0.9122202396392822,1.0076872110366821,0.27656400203704834,-0.5891972780227661
3.803133249282837,-0.03402157127857208,-1.0459833145141602,0.9215809106826782,1.0112078189849854,0.29015588760375977,-0.5893116593360901
3.823246479034424,-0.03311797231435776,-1.0461779832839966,0.9244244694709778,1.0123083591461182,0.2915387749671936,-0.5893884897232056
3.843353271484375,-0.043583229184150696,-1.0481679439544678,0.9197624325752258,1.0083357095718384,0.28545746207237244,-0.5907865166664124
3.863429307937622,-0.056306611746549606,-1.0509551763534546,0.9101175665855408,1.0044231414794922,0.2775278091430664,-0.5916092395782471
3.883516788482666,-0.06422727555036545,-1.0542868375778198,0.904897928237915,1.0032519102096558,0.26943275332450867,-0.5912439227104187
3.903597116470337,-0.08209925144910812,-1.0605888366699219,0.8982487916946411,0.9996778964996338,0.24949193000793457,-0.5898668169975281
3.923677682876587,-0.08478520810604095,-1.061801552772522,0.8958916068077087,0.9993021488189697,0.2461448460817337,-0.5891063213348389
3.943751096725464,-0.07790904492139816,-1.0607054233551025,0.8890858292579651,1.003122091293335,0.2554808259010315,-0.5870133638381958
3.9638004302978516,-0.06377002596855164,-1.057753086090088,0.8975465297698975,1.0076918601989746,0.2690713107585907,-0.5854625105857849
3.983957052230835,-0.05517687276005745,-1.0547846555709839,0.9039000868797302,1.0098283290863037,0.278618723154068,-0.5850166082382202
4.004018068313599,-0.03901927173137665,-1.0492000579833984,0.9147579073905945,1.0144003629684448,0.2982734441757202,-0.5845442414283752
4.024067640304565,-0.03468874841928482,-1.0475760698318481,0.9234127998352051,1.0147680044174194,0.30403995513916016,-0.5854480266571045
4.044158935546875,-0.03751888871192932,-1.0483920574188232,0.9252182841300964,1.0134718418121338,0.3014362156391144,-0.5861239433288574
4.064236640930176,-0.05015873536467552,-1.0505237579345703,0.9159935712814331,1.0088807344436646,0.2941288650035858,-0.5877324342727661
4.084517955780029,-0.06706827878952026,-1.0571305751800537,0.905861496925354,1.006125569343567,0.2767851650714874,-0.5875880718231201
4.104597091674805,-0.07623641192913055,-1.0612670183181763,0.8998456001281738,1.004616141319275,0.2659362256526947,-0.5868117809295654
4.124661684036255,-0.08742145448923111,-1.0659661293029785,0.894149661064148,1.0019042491912842,0.25171196460723877,-0.5853943228721619
4.1447529792785645,-0.08596845716238022,-1.0663461685180664,0.891261637210846,1.0027384757995605,0.2525269389152527,-0.5843434929847717
4.164817810058594,-0.07467354089021683,-1.0648163557052612,0.8937644958496094,1.007826566696167,0.26241105794906616,-0.5820314288139343
4.184872388839722,-0.05924166738986969,-1.0596168041229248,0.9026100635528564,1.0119049549102783,0.2794238030910492,-0.5807161927223206
4.204972982406616,-0.051890112459659576,-1.056550145149231,0.9071481227874756,1.0133717060089111,0.2886296808719635,-0.5806655883789062
4.225062847137451,-0.03746515139937401,-1.0508790016174316,0.9160807132720947,1.0174070596694946,0.3073788285255432,-0.5805662274360657
4.245114326477051,-0.03938872739672661,-1.051406979560852,0.9226005673408508,1.0158584117889404,0.3051437735557556,-0.5818045139312744
4.265206336975098,-0.04613160341978073,-1.0536601543426514,0.9208344221115112,1.0139696598052979,0.29829975962638855,-0.5824356079101562
4.285305500030518,-0.0591956302523613,-1.0581903457641602,0.912677526473999,1.0100810527801514,0.28562045097351074,-0.5831434726715088
4.305701732635498,-0.0769246518611908,-1.066554069519043,0.9023681879043579,1.0072932243347168,0.2634194493293762,-0.5815015435218811
4.3257997035980225,-0.08358729630708694,-1.069441795349121,0.8982460498809814,1.0056705474853516,0.25484827160835266,-0.5806819200515747
4.345853567123413,-0.08354361355304718,-1.0698275566101074,0.8925753831863403,1.0055031776428223,0.25457990169525146,-0.5790600776672363
4.3659350872039795,-0.07776658982038498,-1.0682734251022339,0.8937315344810486,1.0080400705337524,0.26046687364578247,-0.5778675675392151
4.386008262634277,-0.06720438599586487,-1.0655885934829712,0.9012082815170288,1.0106672048568726,0.26985591650009155,-0.5764341354370117
4.406064510345459,-0.048851530998945236,-1.058138370513916,0.9126313924789429,1.014794111251831,0.2913872301578522,-0.5756149291992188
4.426156520843506,-0.0394163653254509,-1.0549912452697754,0.9168490171432495,1.0181152820587158,0.30316361784935,-0.5752321481704712
4.446224212646484,-0.03202126920223236,-1.051332950592041,0.9277592301368713,1.0198791027069092,0.31249451637268066,-0.5762255191802979
4.466358184814453,-0.03465667739510536,-1.0517973899841309,0.9297191500663757,1.0185798406600952,0.3101002275943756,-0.5771611332893372
4.4863927364349365,-0.044397227466106415,-1.0534387826919556,0.9275017380714417,1.0147736072540283,0.3021818995475769,-0.5791811347007751
4.506457805633545,-0.059808164834976196,-1.0581449270248413,0.9181481599807739,1.0111852884292603,0.2876708507537842,-0.5800385475158691
4.526541233062744,-0.06856825947761536,-1.061615228652954,0.9125533699989319,1.0095490217208862,0.2777840495109558,-0.5798318386077881
4.546618223190308,-0.0810747742652893,-1.0667036771774292,0.9031253457069397,1.0060741901397705,0.2628086805343628,-0.5788449048995972
4.56705904006958,-0.07889898121356964,-1.066149353981018,0.8975663781166077,1.0066930055618286,0.2658712863922119,-0.5778413414955139
4.5871922969818115,-0.07473820447921753,-1.065233826637268,0.8972556591033936,1.0080316066741943,0.2702650725841522,-0.5773360133171082
4.607234954833984,-0.06102404743432999,-1.0611915588378906,0.9057353734970093,1.0114363431930542,0.2835721969604492,-0.5765119194984436
4.627435684204102,-0.05109621211886406,-1.0568715333938599,0.9101583361625671,1.013556718826294,0.2961670160293579,-0.5763171315193176
4.647457122802734,-0.03473534435033798,-1.0525587797164917,0.9197587370872498,1.0194661617279053,0.31424644589424133,-0.5759416818618774
4.66750955581665,-0.037049803882837296,-1.0530610084533691,0.9280998110771179,1.017402172088623,0.30993393063545227,-0.5776530504226685
4.687607526779175,-0.04007801041007042,-1.0540684461593628,0.929030179977417,1.0166174173355103,0.30635103583335876,-0.578122079372406
4.7077038288116455,-0.05407556891441345,-1.0576667785644531,0.9205718040466309,1.0118730068206787,0.29385116696357727,-0.5796356797218323
4.727850914001465,-0.07128346711397171,-1.0640575885772705,0.9089320302009583,1.008314609527588,0.2750800848007202,-0.5791963338851929
4.748002529144287,-0.07876068353652954,-1.066582441329956,0.9065626859664917,1.0060298442840576,0.26580482721328735,-0.5787351131439209
4.768062591552734,-0.08362686634063721,-1.0682260990142822,0.8985399007797241,1.0045405626296997,0.26018351316452026,-0.5774239897727966
4.788218259811401,-0.08149434626102448,-1.0675827264785767,0.8950093388557434,1.0051963329315186,0.2631708085536957,-0.5768306255340576
4.80832576751709,-0.07099590450525284,-1.0654704570770264,0.8990316987037659,1.0090711116790771,0.2720542848110199,-0.5753756761550903
4.828369617462158,-0.051410507410764694,-1.058917760848999,0.9112992286682129,1.0138330459594727,0.29236432909965515,-0.5743889808654785
4.848471403121948,-0.04199739918112755,-1.0558254718780518,0.9165967702865601,1.0160986185073853,0.3031938076019287,-0.5742267966270447
4.868542432785034,-0.03365010395646095,-1.0533491373062134,0.9274930953979492,1.019195318222046,0.31125545501708984,-0.5747190713882446
4.889341831207275,-0.04122226685285568,-1.0553637742996216,0.9296956062316895,1.015947699546814,0.3025515377521515,-0.5764009356498718
4.909574031829834,-0.04626927524805069,-1.0565176010131836,0.9267212152481079,1.0137882232666016,0.2982577085494995,-0.5772863626480103
4.929685354232788,-0.06347493082284927,-1.0632493495941162,0.9148520231246948,1.0104399919509888,0.279615581035614,-0.5773149728775024
4.9497151374816895,-0.07220101356506348,-1.0675053596496582,0.9118654727935791,1.0087851285934448,0.2671606242656708,-0.5765417814254761
4.969857215881348,-0.08354875445365906,-1.0718371868133545,0.9067991971969604,1.0049076080322266,0.2513907849788666,-0.5752281546592712
4.989881753921509,-0.07599981129169464,-1.0695769786834717,0.9022996425628662,1.0082818269729614,0.2599060833454132,-0.5734706521034241
5.010339260101318,-0.07284004241228104,-1.0685518980026245,0.903241753578186,1.0095040798187256,0.26279860734939575,-0.5728480815887451
5.030506610870361,-0.05948914587497711,-1.0638525485992432,0.9102174043655396,1.012974739074707,0.276948481798172,-0.5720344185829163
5.050725698471069,-0.04251595214009285,-1.056131362915039,0.9169628024101257,1.0166425704956055,0.2997013032436371,-0.5719426870346069
5.070773124694824,-0.03728822246193886,-1.0542960166931152,0.9188547730445862,1.0179133415222168,0.30709537863731384,-0.5723953247070312
5.0908591747283936,-0.039941854774951935,-1.054733157157898,0.9231811165809631,1.015688419342041,0.3048788011074066,-0.5742910504341125
5.111105918884277,-0.04434361308813095,-1.0557520389556885,0.92307448387146,1.0135332345962524,0.30067020654678345,-0.5752928853034973
5.131191968917847,-0.0571766123175621,-1.0596591234207153,0.9148498177528381,1.0091811418533325,0.28895387053489685,-0.5766801834106445
5.1512556076049805,-0.07440349459648132,-1.0660665035247803,0.9054163098335266,1.0047247409820557,0.2694246470928192,-0.5765506625175476
5.171413898468018,-0.08210346102714539,-1.0685038566589355,0.903335690498352,1.0027737617492676,0.2598981559276581,-0.576115608215332
5.191473007202148,-0.08383781462907791,-1.0699347257614136,0.8960063457489014,1.0035585165023804,0.2568072974681854,-0.5744827389717102
5.211866140365601,-0.0766163170337677,-1.068794846534729,0.8948194980621338,1.0069133043289185,0.2632325291633606,-0.5727428197860718
5.232016563415527,-0.07189735770225525,-1.067492961883545,0.8982350826263428,1.0078883171081543,0.2672480642795563,-0.5722368955612183
5.252116680145264,-0.05689586326479912,-1.062935471534729,0.9087702035903931,1.011702299118042,0.2817281484603882,-0.5715882778167725
5.2723228931427,-0.047409333288669586,-1.0586731433868408,0.9132118225097656,1.0135726928710938,0.29403531551361084,-0.5714617967605591
5.292445659637451,-0.03316441923379898,-1.0540876388549805,0.9234416484832764,1.018187165260315,0.3106078505516052,-0.5714467763900757
5.312505483627319,-0.038319919258356094,-1.0553003549575806,0.9305211305618286,1.0150525569915771,0.30339208245277405,-0.5733624696731567
5.332707405090332,-0.0433855839073658,-1.0564519166946411,0.9282859563827515,1.0136924982070923,0.299129456281662,-0.5741310715675354
5.352705717086792,-0.058066174387931824,-1.0605992078781128,0.9156177639961243,1.009739637374878,0.2869623899459839,-0.5753272771835327
5.372767448425293,-0.07920358330011368,-1.0680599212646484,0.9036823511123657,1.0039905309677124,0.2631983757019043,-0.5750243663787842
5.392867565155029,-0.08602841943502426,-1.070631504058838,0.8982559442520142,1.0019688606262207,0.2549950182437897,-0.5745493173599243
5.412952423095703,-0.0834021270275116,-1.0703656673431396,0.8917486667633057,1.0031956434249878,0.2574799656867981,-0.5731983184814453
5.433037996292114,-0.07415701448917389,-1.0689575672149658,0.8963304758071899,1.0064024925231934,0.2640492618083954,-0.5718020796775818
5.4532387256622314,-0.06700482964515686,-1.067299723625183,0.9021918177604675,1.0091289281845093,0.2695862352848053,-0.571135938167572
5.4732489585876465,-0.04847485572099686,-1.0597777366638184,0.9141296744346619,1.0134962797164917,0.2903212606906891,-0.5706737041473389
5.4933881759643555,-0.03934124857187271,-1.0553733110427856,0.9192172884941101,1.016139030456543,0.30245542526245117,-0.5707143545150757
5.5135109424591064,-0.035371433943510056,-1.0539989471435547,0.9273335337638855,1.0172597169876099,0.3066646158695221,-0.5719034671783447
5.533568382263184,-0.0449017658829689,-1.0563740730285645,0.9252782464027405,1.012851357460022,0.29788538813591003,-0.5740194320678711
5.553682088851929,-0.05229538679122925,-1.0583760738372803,0.9191901683807373,1.0104498863220215,0.2919725775718689,-0.5747995972633362
5.573787212371826,-0.07040835916996002,-1.0654240846633911,0.9071633815765381,1.006169319152832,0.2722877860069275,-0.5749472379684448
5.593867778778076,-0.08066882193088531,-1.0689860582351685,0.90265953540802,1.002975583076477,0.2602778971195221,-0.5746016502380371
5.614054918289185,-0.08315209299325943,-1.0701189041137695,0.8963085412979126,1.002272605895996,0.25697749853134155,-0.573567807674408
5.6342010498046875,-0.07242225855588913,-1.067753553390503,0.8989226818084717,1.0070264339447021,0.2666347622871399,-0.5718820691108704
5.654292583465576,-0.0648692324757576,-1.06601881980896,0.9042773246765137,1.0100083351135254,0.272891640663147,-0.5710981488227844
5.674351215362549,-0.045340463519096375,-1.0587623119354248,0.9193968772888184,1.0147279500961304,0.29314059019088745,-0.5704408884048462
5.69443416595459,-0.035849109292030334,-1.0550709962844849,0.9254750609397888,1.0172317028045654,0.3043314218521118,-0.5703237056732178
5.714527130126953,-0.029391374439001083,-1.0522266626358032,0.9352712631225586,1.018736481666565,0.3113970160484314,-0.5714933276176453
5.734630823135376,-0.03514581546187401,-1.053621530532837,0.9366410970687866,1.016089916229248,0.30580413341522217,-0.5732772946357727
5.754772901535034,-0.041393835097551346,-1.055242657661438,0.9332888722419739,1.0137724876403809,0.3003506064414978,-0.5742034316062927
5.77480411529541,-0.061431266367435455,-1.0608025789260864,0.9218229651451111,1.0078868865966797,0.28099679946899414,-0.5753980875015259
5.794882535934448,-0.07004853338003159,-1.0641032457351685,0.9157610535621643,1.00630521774292,0.2711697220802307,-0.5750784873962402
5.814971923828125,-0.08409269899129868,-1.069197416305542,0.9090895652770996,1.0028595924377441,0.2532789707183838,-0.5739198923110962
5.83505654335022,-0.07942500710487366,-1.0684045553207397,0.9004920721054077,1.0052872896194458,0.25878652930259705,-0.5722475647926331
5.855133771896362,-0.07470185309648514,-1.0673444271087646,0.9007726907730103,1.0071274042129517,0.2634034752845764,-0.5715980529785156
5.87522554397583,-0.06195435672998428,-1.0635968446731567,0.9079760909080505,1.010567545890808,0.275897741317749,-0.5707359910011292
5.895313501358032,-0.04246712848544121,-1.0555634498596191,0.917966365814209,1.0144331455230713,0.2998681366443634,-0.5705933570861816
5.915377616882324,-0.03318443149328232,-1.053131341934204,0.9213582873344421,1.0173892974853516,0.3111365735530853,-0.5705091953277588
5.9354565143585205,-0.030575919896364212,-1.0516539812088013,0.931592583656311,1.0172315835952759,0.31347721815109253,-0.5722752213478088
5.955590009689331,-0.040067315101623535,-1.0537214279174805,0.9326327443122864,1.013023018836975,0.30371516942977905,-0.5745041966438293
5.975699424743652,-0.0458608940243721,-1.0552300214767456,0.9296910762786865,1.01128089427948,0.29837357997894287,-0.5752570629119873
5.995749473571777,-0.060752928256988525,-1.0600581169128418,0.9201352596282959,1.008042335510254,0.2832767069339752,-0.5758320093154907
6.01605224609375,-0.070450060069561,-1.0636781454086304,0.9145265817642212,1.006227970123291,0.2719705104827881,-0.5754225254058838
6.036144256591797,-0.08390156924724579,-1.068530559539795,0.9081652760505676,1.0025088787078857,0.2544691860675812,-0.5745435357093811
6.056201219558716,-0.08019807189702988,-1.069069266319275,0.8999245762825012,1.0059826374053955,0.2569713294506073,-0.5724453926086426
6.076290130615234,-0.07492443174123764,-1.0677138566970825,0.8987831473350525,1.008039951324463,0.2629038393497467,-0.5717033743858337
6.096378564834595,-0.06265605241060257,-1.063672423362732,0.9062631130218506,1.010491132736206,0.2750757932662964,-0.571110725402832
6.116575479507446,-0.04399172589182854,-1.0554026365280151,0.9153861403465271,1.0140833854675293,0.2988668978214264,-0.5711869597434998
6.136680364608765,-0.0346507653594017,-1.052762746810913,0.9191878437995911,1.0170691013336182,0.31025201082229614,-0.5711288452148438
6.156813144683838,-0.029907923191785812,-1.0503681898117065,0.9301325082778931,1.0174156427383423,0.31544893980026245,-0.5728442072868347
6.177017450332642,-0.036344610154628754,-1.05193030834198,0.9338082671165466,1.0141637325286865,0.30833008885383606,-0.5749890804290771
6.197156667709351,-0.04379122331738472,-1.0542982816696167,0.9309224486351013,1.011963129043579,0.30061858892440796,-0.5758644938468933
6.217221736907959,-0.06138741225004196,-1.0595810413360596,0.9208669066429138,1.0071055889129639,0.28280699253082275,-0.5767536163330078
6.2373268604278564,-0.07023940980434418,-1.062867522239685,0.9168784022331238,1.0056406259536743,0.2719351649284363,-0.5763956904411316
6.257369041442871,-0.08600646257400513,-1.0678333044052124,0.9053096175193787,1.0013258457183838,0.2541467547416687,-0.5756062269210815
6.277570009231567,-0.08322116732597351,-1.068203091621399,0.8934186697006226,1.0041637420654297,0.2573776841163635,-0.5738873481750488
6.297694206237793,-0.07850076258182526,-1.067394733428955,0.8928544521331787,1.0058070421218872,0.2618020176887512,-0.5731899738311768
6.317752838134766,-0.07098834216594696,-1.0657378435134888,0.8976196050643921,1.0064198970794678,0.2679692506790161,-0.5728671550750732
6.337872743606567,-0.061867523938417435,-1.0627262592315674,0.9018281102180481,1.0082825422286987,0.2779523730278015,-0.5725933313369751
6.357971668243408,-0.04380909726023674,-1.0566396713256836,0.9132657051086426,1.0133492946624756,0.2979825735092163,-0.5725706219673157
6.378027439117432,-0.03568483144044876,-1.0543649196624756,0.9237483739852905,1.0158953666687012,0.30562135577201843,-0.5733304619789124
6.398156404495239,-0.03677670657634735,-1.0545707941055298,0.9276914000511169,1.0149325132369995,0.30373862385749817,-0.5741353034973145
6.418263912200928,-0.04725441336631775,-1.057370662689209,0.9253467917442322,1.0106505155563354,0.2933717966079712,-0.5759080052375793
6.438268661499023,-0.06581801176071167,-1.064336895942688,0.9155481457710266,1.0068738460540771,0.27269354462623596,-0.5759662389755249
6.4584197998046875,-0.07691653072834015,-1.0685466527938843,0.9090551733970642,1.0041191577911377,0.2595745325088501,-0.5754364132881165
6.478448867797852,-0.09132786095142365,-1.0722993612289429,0.8990097045898438,0.9995050430297852,0.24373647570610046,-0.5745885372161865
6.499080181121826,-0.08548860251903534,-1.0703518390655518,0.8898098468780518,1.0020174980163574,0.25206029415130615,-0.5730757713317871
6.519175291061401,-0.07967661321163177,-1.068869709968567,0.8892598152160645,1.0040788650512695,0.2584418058395386,-0.5722883939743042
6.539264917373657,-0.064180888235569,-1.0644832849502563,0.8994808197021484,1.007541298866272,0.2733802795410156,-0.5714557766914368
6.559398651123047,-0.05531763285398483,-1.0616873502731323,0.9061473608016968,1.0095635652542114,0.2824224829673767,-0.5711627006530762
6.579497337341309,-0.03784513100981712,-1.0539659261703491,0.9158285856246948,1.013789176940918,0.3054739236831665,-0.5713913440704346
6.599577188491821,-0.036725785583257675,-1.0535460710525513,0.9263477921485901,1.0138602256774902,0.3051755130290985,-0.5728235840797424
6.619649410247803,-0.03943683207035065,-1.0541601181030273,0.9276785850524902,1.0127322673797607,0.30248135328292847,-0.5736618638038635
6.639763832092285,-0.051906585693359375,-1.0578135251998901,0.9198037981987,1.0088386535644531,0.29170310497283936,-0.5753524303436279
6.659907102584839,-0.07258504629135132,-1.0660573244094849,0.9079123735427856,1.0046230554580688,0.2679990231990814,-0.5751113295555115
6.680003643035889,-0.08242080360651016,-1.0695185661315918,0.9036877155303955,1.001699447631836,0.25602737069129944,-0.5746681690216064
6.700167179107666,-0.08671750873327255,-1.0704727172851562,0.8928976058959961,1.0000228881835938,0.252550333738327,-0.573743999004364
6.720358610153198,-0.0769098699092865,-1.0687239170074463,0.8940709829330444,1.0050917863845825,0.26092177629470825,-0.5720994472503662
6.740522623062134,-0.06957031786441803,-1.0666447877883911,0.8990129232406616,1.007449746131897,0.2674853205680847,-0.5715221166610718
6.760560035705566,-0.05126886069774628,-1.0599164962768555,0.9111131429672241,1.011749029159546,0.2872322201728821,-0.5709784626960754
6.780638217926025,-0.04139498993754387,-1.0566046237945557,0.9171746373176575,1.0141910314559937,0.2983696460723877,-0.5708712339401245
6.800727367401123,-0.03070973791182041,-1.0517555475234985,0.924897313117981,1.0171542167663574,0.312986820936203,-0.5717492699623108
6.820812463760376,-0.0394015833735466,-1.0541025400161743,0.9277347922325134,1.0133873224258423,0.30339133739471436,-0.5741210579872131
6.840914964675903,-0.04562301188707352,-1.055643916130066,0.9245486259460449,1.0112390518188477,0.2979993224143982,-0.5752159357070923
6.861136436462402,-0.060753270983695984,-1.0609629154205322,0.9143955707550049,1.0071784257888794,0.2828601896762848,-0.5762748122215271
6.881239175796509,-0.0765051543712616,-1.0675510168075562,0.9058319926261902,1.0037082433700562,0.26326197385787964,-0.5753945112228394
6.901340484619141,-0.08245405554771423,-1.0702308416366577,0.9021528959274292,1.0020968914031982,0.25506365299224854,-0.5747155547142029
6.921411752700806,-0.08161819726228714,-1.0701203346252441,0.8983374834060669,1.0036377906799316,0.2548868656158447,-0.5732702612876892
6.9415295124053955,-0.0679975152015686,-1.0668941736221313,0.9019886255264282,1.008603572845459,0.26782265305519104,-0.5715452432632446
6.961575269699097,-0.06010659411549568,-1.0640674829483032,0.9070202112197876,1.0104358196258545,0.27621933817863464,-0.5711415410041809
6.9816648960113525,-0.041026193648576736,-1.0578538179397583,0.9214659929275513,1.0154025554656982,0.29566019773483276,-0.5706447958946228
7.00219464302063,-0.028322605416178703,-1.0515881776809692,0.9322813749313354,1.0187917947769165,0.31206128001213074,-0.5711718797683716
7.02229642868042,-0.028197133913636208,-1.051450252532959,0.9353116750717163,1.0187439918518066,0.312378853559494,-0.5719378590583801
7.0424582958221436,-0.0378713421523571,-1.0532402992248535,0.9344592094421387,1.0140689611434937,0.30378061532974243,-0.5743798613548279
7.0625152587890625,-0.044991642236709595,-1.054878830909729,0.9303182363510132,1.011553406715393,0.29776450991630554,-0.5753401517868042
7.082591772079468,-0.0622713603079319,-1.060684084892273,0.9189779162406921,1.007462978363037,0.2802973687648773,-0.5759005546569824
7.102810382843018,-0.07692211866378784,-1.066450834274292,0.9097140431404114,1.0040576457977295,0.2625819444656372,-0.5752348899841309
7.12280797958374,-0.08017788082361221,-1.068003535270691,0.9075236916542053,1.0034433603286743,0.2574985921382904,-0.5747160911560059
7.142891883850098,-0.07639877498149872,-1.0675837993621826,0.9028976559638977,1.006113886833191,0.26089242100715637,-0.573244035243988
7.1629743576049805,-0.06494715809822083,-1.0642114877700806,0.9079785346984863,1.009507179260254,0.27208030223846436,-0.5721908807754517
7.183105945587158,-0.057010211050510406,-1.0610135793685913,0.9121975898742676,1.0111310482025146,0.2812618315219879,-0.5719894170761108
7.203220367431641,-0.040177252143621445,-1.0536404848098755,0.9185233116149902,1.0146214962005615,0.304095596075058,-0.5722134113311768
7.223874568939209,-0.0357208326458931,-1.0523327589035034,0.923694372177124,1.0162723064422607,0.31022945046424866,-0.573451578617096
7.2439680099487305,-0.03862496465444565,-1.0532461404800415,0.9264914989471436,1.0139703750610352,0.3063805401325226,-0.5747088193893433
7.264043569564819,-0.04771147295832634,-1.0557286739349365,0.9227524995803833,1.0098768472671509,0.2983240485191345,-0.5764508843421936
7.28413462638855,-0.05341874435544014,-1.0580329895019531,0.9184310436248779,1.0087631940841675,0.29269084334373474,-0.576718807220459
7.304211378097534,-0.07111810147762299,-1.0654288530349731,0.9098302721977234,1.0050605535507202,0.27130696177482605,-0.5761929154396057
7.324284076690674,-0.07818453758955002,-1.0689048767089844,0.9059206247329712,1.0043706893920898,0.26045864820480347,-0.5749265551567078
7.344373464584351,-0.07652311772108078,-1.0683979988098145,0.9045424461364746,1.0050203800201416,0.26203224062919617,-0.5744050741195679
7.364562273025513,-0.06725611537694931,-1.0661225318908691,0.9078587293624878,1.0090320110321045,0.2700767517089844,-0.5730171799659729
7.38525390625,-0.05346371605992317,-1.0610090494155884,0.9152517318725586,1.0128976106643677,0.28508707880973816,-0.5722150802612305
7.405407667160034,-0.04556132107973099,-1.0580811500549316,0.920688807964325,1.0152970552444458,0.29379189014434814,-0.5720372200012207
7.425426959991455,-0.03208324313163757,-1.0519917011260986,0.9265305399894714,1.018660545349121,0.31270453333854675,-0.5723864436149597
7.445531129837036,-0.032180462032556534,-1.0510458946228027,0.9296866655349731,1.0174729824066162,0.31355589628219604,-0.5735579133033752
7.465557336807251,-0.03890074044466019,-1.0528942346572876,0.9298981428146362,1.0148500204086304,0.3072052001953125,-0.5754658579826355
7.485610723495483,-0.05309420824050903,-1.0569442510604858,0.9213137030601501,1.0103026628494263,0.29445746541023254,-0.5770218968391418
7.505759954452515,-0.061776064336299896,-1.059920072555542,0.9153812527656555,1.0080822706222534,0.2855363190174103,-0.5772955417633057
7.525848627090454,-0.08012273907661438,-1.0666353702545166,0.907172441482544,1.0037883520126343,0.26332807540893555,-0.5766520500183105
7.545867919921875,-0.08442030847072601,-1.0700418949127197,0.8990676403045654,1.0041245222091675,0.25530800223350525,-0.5748018026351929
7.5660364627838135,-0.08152832835912704,-1.0693572759628296,0.8959903717041016,1.005244255065918,0.25866150856018066,-0.5741006731987
7.586054563522339,-0.07055393606424332,-1.0662579536437988,0.8990272283554077,1.00770103931427,0.2695944607257843,-0.572885274887085
7.60611891746521,-0.062421806156635284,-1.0643380880355835,0.9044854640960693,1.0102641582489014,0.2767559885978699,-0.5722172260284424
7.626214504241943,-0.04362830892205238,-1.0575029850006104,0.9152233600616455,1.0141148567199707,0.29841098189353943,-0.5719480514526367
7.646273374557495,-0.030207157135009766,-1.0515573024749756,0.9269341826438904,1.0179500579833984,0.3150794804096222,-0.5723617076873779
7.666358470916748,-0.03092825412750244,-1.052237868309021,0.9322380423545837,1.0175459384918213,0.31247663497924805,-0.5731728076934814
7.686460494995117,-0.03843074291944504,-1.054266333580017,0.9339672923088074,1.015157699584961,0.3043118119239807,-0.5748619437217712
7.706517457962036,-0.05525131896138191,-1.058599591255188,0.9217273592948914,1.0102818012237549,0.2898832857608795,-0.5761638879776001
7.72660493850708,-0.0661003589630127,-1.0629786252975464,0.9149043560028076,1.007771611213684,0.2773705720901489,-0.5759890675544739
7.746680736541748,-0.08622508496046066,-1.0704013109207153,0.9074462652206421,1.0022739171981812,0.2516375780105591,-0.5747517347335815
7.76702094078064,-0.08379019796848297,-1.0703465938568115,0.8970382213592529,1.0038405656814575,0.25442594289779663,-0.5730957984924316
7.787189245223999,-0.07990917563438416,-1.0695631504058838,0.8962162137031555,1.0054196119308472,0.2580198347568512,-0.5722945332527161
7.807196855545044,-0.06732496619224548,-1.0666358470916748,0.9032266139984131,1.0095821619033813,0.2688025236129761,-0.5710366368293762
7.827262878417969,-0.057543255388736725,-1.0631968975067139,0.9092205762863159,1.0118491649627686,0.2792932987213135,-0.5706318616867065
7.847367525100708,-0.04127871245145798,-1.0555388927459717,0.91676265001297,1.014944076538086,0.3014433979988098,-0.5710123181343079
7.867434501647949,-0.035857271403074265,-1.0539240837097168,0.9265305995941162,1.0172412395477295,0.30664923787117004,-0.5719709396362305
7.887585878372192,-0.037395406514406204,-1.0542689561843872,0.9301519393920898,1.01572847366333,0.30424535274505615,-0.5729938745498657
7.907679557800293,-0.04806492477655411,-1.0567537546157837,0.9239478707313538,1.0110163688659668,0.29591429233551025,-0.5749406814575195
7.9279279708862305,-0.0665612742304802,-1.064056634902954,0.9113678932189941,1.0074758529663086,0.2761124074459076,-0.575011134147644
7.948009490966797,-0.07520270347595215,-1.0677207708358765,0.9076716899871826,1.0053601264953613,0.2649340033531189,-0.5745344161987305
7.968112230300903,-0.08165200799703598,-1.0698025226593018,0.9021227955818176,1.0034606456756592,0.25705686211586,-0.573729395866394
7.988210439682007,-0.07776296138763428,-1.0682926177978516,0.8993459343910217,1.004839301109314,0.26240628957748413,-0.5731362700462341
8.008283615112305,-0.0686388686299324,-1.0662447214126587,0.9044579863548279,1.0090620517730713,0.26971641182899475,-0.5718359351158142
8.028371095657349,-0.052042216062545776,-1.0602424144744873,0.9166183471679688,1.0139100551605225,0.28638315200805664,-0.5710718035697937
8.04852557182312,-0.04300116375088692,-1.0568232536315918,0.9228519797325134,1.0164930820465088,0.2963450253009796,-0.5709233283996582
8.068782806396484,-0.033312343060970306,-1.052476167678833,0.9288375377655029,1.019302248954773,0.30949661135673523,-0.571743905544281
8.088954448699951,-0.034797120839357376,-1.0531773567199707,0.9300177097320557,1.0185060501098633,0.3078858256340027,-0.5726808905601501
8.108961820602417,-0.048844270408153534,-1.056761622428894,0.9231472611427307,1.0118522644042969,0.29550907015800476,-0.5751603841781616
8.129135131835938,-0.06089509651064873,-1.0604726076126099,0.9150903820991516,1.0079286098480225,0.28394901752471924,-0.575819730758667
8.149226665496826,-0.07777733355760574,-1.0674254894256592,0.9037680625915527,1.0034687519073486,0.2639217972755432,-0.5752552151679993
8.169334888458252,-0.08394453674554825,-1.0698695182800293,0.8987475037574768,1.0016422271728516,0.2565009891986847,-0.5747017860412598
8.18950605392456,-0.08041392266750336,-1.0680712461471558,0.8950955867767334,1.0021859407424927,0.26126590371131897,-0.5736952424049377
8.209595918655396,-0.07037685066461563,-1.0660183429718018,0.8994424939155579,1.0065981149673462,0.26962554454803467,-0.5722111463546753
8.229715585708618,-0.06108889356255531,-1.0634403228759766,0.9060231447219849,1.0097031593322754,0.27804872393608093,-0.5714974403381348
8.249791622161865,-0.04219609871506691,-1.0556676387786865,0.9184838533401489,1.014520525932312,0.2999456524848938,-0.5713753700256348
8.270030736923218,-0.032244257628917694,-1.0518825054168701,0.9274410605430603,1.0175201892852783,0.31182438135147095,-0.5721420049667358
8.290110111236572,-0.03439215198159218,-1.0529329776763916,0.9287630319595337,1.0166783332824707,0.30934491753578186,-0.5730475783348083
8.31022834777832,-0.04549410566687584,-1.0558035373687744,0.924210786819458,1.0116136074066162,0.2996657192707062,-0.5753076672554016
8.331608772277832,-0.060277923941612244,-1.06094491481781,0.91497802734375,1.00737464427948,0.2846944332122803,-0.5762543678283691
8.351705312728882,-0.07041778415441513,-1.0645672082901,0.909087061882019,1.004956841468811,0.2733883559703827,-0.5759792327880859
8.371809482574463,-0.08256456255912781,-1.0698997974395752,0.9020380973815918,1.002813458442688,0.25700560212135315,-0.5745946764945984
8.391892671585083,-0.0835862010717392,-1.0702948570251465,0.9006722569465637,1.0024638175964355,0.2549798786640167,-0.5740487575531006
8.41196870803833,-0.07760809361934662,-1.0692650079727173,0.899654746055603,1.0053746700286865,0.25955668091773987,-0.5724937915802002
8.432045221328735,-0.06346829980611801,-1.0651522874832153,0.9073479771614075,1.0100243091583252,0.2727433443069458,-0.5710878372192383
8.452131509780884,-0.05335395783185959,-1.0620585680007935,0.9147733449935913,1.0129270553588867,0.2823967933654785,-0.5705269575119019
8.472301721572876,-0.036847490817308426,-1.0545735359191895,0.9233704209327698,1.0162097215652466,0.3038330674171448,-0.5704869031906128
8.49233341217041,-0.033105749636888504,-1.0529520511627197,0.9308308362960815,1.0169743299484253,0.3084881901741028,-0.5718260407447815
8.512518882751465,-0.03632451593875885,-1.0535074472427368,0.9324958324432373,1.0148972272872925,0.30508631467819214,-0.573060154914856
8.532499551773071,-0.050558704882860184,-1.056748867034912,0.9239838719367981,1.0096272230148315,0.29354751110076904,-0.5749931335449219
8.552664279937744,-0.06047844886779785,-1.0597156286239624,0.9160837531089783,1.0069037675857544,0.2846236526966095,-0.5754043459892273
8.572748899459839,-0.08422470837831497,-1.067089557647705,0.9002288579940796,1.0006380081176758,0.26023778319358826,-0.5751462578773499
8.593455076217651,-0.09200248122215271,-1.0706418752670288,0.8887227773666382,0.9988966584205627,0.250670850276947,-0.5738407373428345
8.613601207733154,-0.09023842960596085,-1.0704636573791504,0.8845697641372681,0.9999186992645264,0.25271978974342346,-0.5730480551719666
8.633671283721924,-0.07810087502002716,-1.067922592163086,0.8863644003868103,1.0036638975143433,0.2642333209514618,-0.5714744329452515
8.653751134872437,-0.06975089013576508,-1.0659658908843994,0.8918466567993164,1.0058138370513916,0.2717573046684265,-0.5709437131881714
8.673816919326782,-0.04744480922818184,-1.0594511032104492,0.9103749990463257,1.0120222568511963,0.2927328944206238,-0.570116400718689
8.693894624710083,-0.029234029352664948,-1.052888035774231,0.9269368052482605,1.017647624015808,0.31180477142333984,-0.57012540102005
8.713985681533813,-0.02679036743938923,-1.0520581007003784,0.9329065084457397,1.018999457359314,0.31366226077079773,-0.5706321001052856
8.73405647277832,-0.03372972458600998,-1.053435206413269,0.9367064237594604,1.0162720680236816,0.30606013536453247,-0.5727878212928772
8.754120588302612,-0.04716166853904724,-1.0561350584030151,0.9300905466079712,1.0114346742630005,0.2945217192173004,-0.5747795104980469
8.774208784103394,-0.057992927730083466,-1.0589267015457153,0.9215514659881592,1.008575677871704,0.28516992926597595,-0.5752898454666138
8.794342756271362,-0.08026082813739777,-1.0679264068603516,0.9110099673271179,1.003272533416748,0.2573702931404114,-0.5742104649543762
8.814393520355225,-0.08597041666507721,-1.0708065032958984,0.9018290638923645,1.0021029710769653,0.2489696741104126,-0.572564423084259
8.834464073181152,-0.08371251821517944,-1.0703057050704956,0.8976044058799744,1.0034416913986206,0.25178423523902893,-0.5717588663101196
8.854572057723999,-0.07064951211214066,-1.06686532497406,0.9024202823638916,1.0082168579101562,0.2639276683330536,-0.5702723264694214
8.87472152709961,-0.05994550511240959,-1.0633642673492432,0.9092649221420288,1.0108641386032104,0.2747509777545929,-0.5697488784790039
8.894792795181274,-0.041899293661117554,-1.0545837879180908,0.9183754920959473,1.0144730806350708,0.2987728714942932,-0.5699958801269531
8.914836645126343,-0.031184829771518707,-1.0506213903427124,0.9258143305778503,1.0178542137145996,0.3126976788043976,-0.570928156375885
8.934929609298706,-0.032256416976451874,-1.0510808229446411,0.9301998019218445,1.0167934894561768,0.3105901777744293,-0.5720388293266296
8.955016374588013,-0.042933978140354156,-1.054157018661499,0.9278098344802856,1.0116735696792603,0.30037519335746765,-0.5744724273681641
8.97519588470459,-0.05853141099214554,-1.0593441724777222,0.9169967174530029,1.0068931579589844,0.28544530272483826,-0.5757433176040649
8.995315074920654,-0.06711526215076447,-1.0633586645126343,0.9131022691726685,1.005345344543457,0.2742675840854645,-0.5754090547561646
9.015401363372803,-0.07953588664531708,-1.0688462257385254,0.9046626091003418,1.003200888633728,0.25782525539398193,-0.5740351676940918
9.035540580749512,-0.08185252547264099,-1.0696074962615967,0.9024671316146851,1.0025650262832642,0.25461384654045105,-0.573555588722229
9.055641412734985,-0.07476720958948135,-1.067876935005188,0.9000712037086487,1.0059559345245361,0.26172906160354614,-0.5720446705818176
9.075746774673462,-0.0626402273774147,-1.0651297569274902,0.9078675508499146,1.0105117559432983,0.2716918885707855,-0.5707733631134033
9.095803260803223,-0.05297856032848358,-1.0619205236434937,0.913794755935669,1.013083815574646,0.2817791998386383,-0.5703191757202148
9.11586856842041,-0.039796870201826096,-1.0552904605865479,0.9187332391738892,1.015263557434082,0.30086785554885864,-0.5707933902740479
9.135929584503174,-0.037011027336120605,-1.0535401105880737,0.9238207340240479,1.0151784420013428,0.30583736300468445,-0.5723229050636292
9.156044721603394,-0.03978867828845978,-1.0546159744262695,0.9250829219818115,1.0134166479110718,0.30254146456718445,-0.5733891129493713
9.176185369491577,-0.05252721533179283,-1.058313012123108,0.9173621535301208,1.0084898471832275,0.29142436385154724,-0.5752969980239868
9.196863889694214,-0.07224687933921814,-1.0657424926757812,0.9048893451690674,1.0039482116699219,0.269775927066803,-0.575218915939331
9.21694278717041,-0.07971381396055222,-1.0689737796783447,0.9030818343162537,1.0022954940795898,0.2593032121658325,-0.5746635794639587
9.237076759338379,-0.08503701537847519,-1.072061538696289,0.8991273641586304,1.0015581846237183,0.24987831711769104,-0.5730330348014832
9.25713324546814,-0.08111850172281265,-1.070880651473999,0.8961412310600281,1.0033035278320312,0.25471925735473633,-0.5721699595451355
9.277188301086426,-0.06961648166179657,-1.0683225393295288,0.9008622169494629,1.008466362953186,0.2646733522415161,-0.5703506469726562
9.297532558441162,-0.05231809616088867,-1.0618559122085571,0.9138966202735901,1.012742519378662,0.2824729382991791,-0.5696191787719727
9.317612409591675,-0.045690618455410004,-1.0584743022918701,0.9166241884231567,1.0135585069656372,0.29197537899017334,-0.5699533224105835
9.337705850601196,-0.03386186063289642,-1.052993893623352,0.9239747524261475,1.016729712486267,0.3084625005722046,-0.5705491900444031
9.35786747932434,-0.03592578321695328,-1.0538276433944702,0.9271542429924011,1.0156842470169067,0.3055647313594818,-0.571462094783783
9.378047227859497,-0.046346891671419144,-1.0561895370483398,0.9236195087432861,1.011085033416748,0.29679858684539795,-0.5736184120178223
9.398113250732422,-0.061443060636520386,-1.0611340999603271,0.9119740128517151,1.0064761638641357,0.2828863263130188,-0.5746847987174988
9.418164491653442,-0.07022815197706223,-1.0651590824127197,0.9089357852935791,1.0046687126159668,0.2712680995464325,-0.5743563175201416
9.43834638595581,-0.08230593800544739,-1.0696383714675903,0.9011325836181641,1.001346230506897,0.2566227912902832,-0.5734610557556152
9.458349466323853,-0.08016064018011093,-1.068649172782898,0.8969236016273499,1.0024774074554443,0.25926870107650757,-0.5723134875297546
9.478463172912598,-0.07499543577432632,-1.0672848224639893,0.8981841802597046,1.0046026706695557,0.2642808258533478,-0.5716099739074707
9.498531579971313,-0.06037260591983795,-1.0630757808685303,0.9082925319671631,1.0092240571975708,0.2778624892234802,-0.5706592798233032
9.518609523773193,-0.041639603674411774,-1.0564671754837036,0.9213650226593018,1.0144590139389038,0.2979336977005005,-0.570214569568634
9.5387122631073,-0.03468001261353493,-1.053562879562378,0.924749493598938,1.0166277885437012,0.30728673934936523,-0.5703411102294922
9.558811902999878,-0.032637324184179306,-1.0522935390472412,0.9314180016517639,1.0170300006866455,0.3100251257419586,-0.5718892216682434
9.579381465911865,-0.03756643831729889,-1.0536757707595825,0.9312563538551331,1.015220284461975,0.3049495816230774,-0.5729308724403381
9.599464654922485,-0.05195128172636032,-1.0572426319122314,0.922216534614563,1.0095864534378052,0.292600154876709,-0.5750141143798828
9.619558334350586,-0.06895394623279572,-1.063805103302002,0.911824643611908,1.0053000450134277,0.2734247148036957,-0.5752082467079163
9.639621496200562,-0.07633065432310104,-1.0672709941864014,0.9077783226966858,1.0041069984436035,0.26329904794692993,-0.5744519829750061
9.659715175628662,-0.0813741534948349,-1.0688010454177856,0.902016282081604,1.0018620491027832,0.25714266300201416,-0.5738512277603149
9.679895162582397,-0.07163090258836746,-1.0669052600860596,0.9030233025550842,1.006025791168213,0.26558300852775574,-0.5723346471786499
9.699980735778809,-0.06581370532512665,-1.065277099609375,0.9063074588775635,1.0077705383300781,0.2709910273551941,-0.5719177722930908
9.720069885253906,-0.05032036453485489,-1.0588674545288086,0.9153187870979309,1.011447548866272,0.28898000717163086,-0.5716490745544434
9.740554332733154,-0.03676539659500122,-1.0533678531646729,0.9206022024154663,1.0149540901184082,0.30731961131095886,-0.5719053149223328
9.760693788528442,-0.03540390729904175,-1.0529028177261353,0.9232332706451416,1.0153878927230835,0.30924102663993835,-0.5725312232971191
9.780788660049438,-0.042919643223285675,-1.0558135509490967,0.9261477589607239,1.0120186805725098,0.29965120553970337,-0.5743720531463623
9.800923347473145,-0.05468006059527397,-1.059965968132019,0.9195939302444458,1.0082902908325195,0.28761693835258484,-0.5755294561386108
9.821098566055298,-0.06251290440559387,-1.0634104013442993,0.915666937828064,1.0073318481445312,0.2779918611049652,-0.5752300024032593
9.841120958328247,-0.07724547386169434,-1.0693837404251099,0.9080009460449219,1.0038434267044067,0.2593080401420593,-0.5742937326431274
9.861301183700562,-0.07929486036300659,-1.070017695426941,0.9061074256896973,1.0036354064941406,0.25632405281066895,-0.5737163424491882
9.881341934204102,-0.0751488208770752,-1.0687962770462036,0.904638409614563,1.0057177543640137,0.2598043382167816,-0.5725122690200806
9.901696681976318,-0.06520402431488037,-1.066098928451538,0.9085614681243896,1.0093884468078613,0.2690334618091583,-0.5714320540428162
9.921813488006592,-0.0573301836848259,-1.0631331205368042,0.913108229637146,1.0114021301269531,0.27753397822380066,-0.5712198615074158
9.942236423492432,-0.03991716355085373,-1.056251049041748,0.921423614025116,1.01614511013031,0.2990064024925232,-0.5711141228675842
9.962378740310669,-0.035124897956848145,-1.0542582273483276,0.9240217208862305,1.0170806646347046,0.3057067394256592,-0.5715566873550415
9.982562780380249,-0.03684644773602486,-1.0539987087249756,0.9285411238670349,1.0150728225708008,0.3047027885913849,-0.573452353477478
10.002643585205078,-0.042314592748880386,-1.055430293083191,0.9272173047065735,1.0128591060638428,0.2995395064353943,-0.5744176506996155
10.022907257080078,-0.05915705859661102,-1.0610460042953491,0.9185047745704651,1.0081592798233032,0.28204047679901123,-0.5754114985466003
10.04292631149292,-0.06798762828111649,-1.064517617225647,0.9136538505554199,1.0059980154037476,0.2715774476528168,-0.5752625465393066
10.063132047653198,-0.07928366959095001,-1.0694321393966675,0.9062526822090149,1.0038219690322876,0.2565527856349945,-0.5742097496986389
10.083227634429932,-0.07779458165168762,-1.0695945024490356,0.902765691280365,1.0048069953918457,0.2566251754760742,-0.5729905366897583
10.103344202041626,-0.0724508985877037,-1.0683850049972534,0.9047398567199707,1.0071849822998047,0.2610147297382355,-0.5721161365509033
10.123329877853394,-0.0539444275200367,-1.061838150024414,0.9145601391792297,1.012298345565796,0.2807143032550812,-0.5707926154136658
10.143457889556885,-0.04296837002038956,-1.0579228401184082,0.9215500354766846,1.015272617340088,0.29286107420921326,-0.570387601852417
10.163520097732544,-0.02301516942679882,-1.0505080223083496,0.9368566274642944,1.0214436054229736,0.31534257531166077,-0.5700802803039551
10.183571338653564,-0.02160000242292881,-1.0493603944778442,0.945429801940918,1.021120309829712,0.31692755222320557,-0.5718844532966614
10.20368480682373,-0.025953933596611023,-1.0497217178344727,0.9478781819343567,1.0183563232421875,0.31239262223243713,-0.5732851028442383
10.223762273788452,-0.03886597231030464,-1.0515551567077637,0.9444464445114136,1.014131784439087,0.3011600971221924,-0.5752625465393066
10.244133949279785,-0.05750130116939545,-1.0544803142547607,0.9323974847793579,1.0074564218521118,0.2860255241394043,-0.5769744515419006
10.264222145080566,-0.06895413249731064,-1.0578409433364868,0.9238114953041077,1.004575252532959,0.27477943897247314,-0.5771465301513672
10.284325122833252,-0.08795390278100967,-1.0628480911254883,0.9034274220466614,0.9991391897201538,0.25765588879585266,-0.576770544052124
10.304389476776123,-0.09282292425632477,-1.0640432834625244,0.8931652903556824,0.9974128007888794,0.2543160319328308,-0.5765366554260254
10.32444429397583,-0.08516723662614822,-1.0639550685882568,0.8862376809120178,1.000635027885437,0.2609627842903137,-0.5748297572135925
10.344563007354736,-0.06962183117866516,-1.061522126197815,0.893868625164032,1.0053470134735107,0.2741212546825409,-0.5734134912490845
10.364636898040771,-0.05871925130486488,-1.058218240737915,0.8998765349388123,1.0075703859329224,0.28587281703948975,-0.5730184316635132
10.384700059890747,-0.03221410512924194,-1.0500891208648682,0.9183701276779175,1.0148260593414307,0.31447693705558777,-0.5721738338470459
10.404768466949463,-0.02127659320831299,-1.0440993309020996,0.9367898106575012,1.017189860343933,0.3258019685745239,-0.5736479163169861
10.424857139587402,-0.021156731992959976,-1.0448181629180908,0.940299928188324,1.0180784463882446,0.3249971568584442,-0.574445366859436
10.444936990737915,-0.03101607784628868,-1.0462682247161865,0.9421612620353699,1.0145206451416016,0.31489098072052,-0.5770387649536133
10.464991569519043,-0.04064048081636429,-1.048567771911621,0.938560426235199,1.0123335123062134,0.3056136667728424,-0.5779144167900085
10.485084533691406,-0.06930200010538101,-1.05659818649292,0.9201093912124634,1.0042122602462769,0.277408629655838,-0.5791354179382324
10.50515866279602,-0.09265585243701935,-1.0631816387176514,0.8972161412239075,0.9974786639213562,0.25482913851737976,-0.5786617994308472
10.525240421295166,-0.09658759832382202,-1.0648155212402344,0.8880025148391724,0.9967586994171143,0.25087639689445496,-0.578070878982544
10.545321226119995,-0.08424361795186996,-1.063884973526001,0.8847474455833435,1.0030186176300049,0.2608480751514435,-0.5756083726882935
10.565423488616943,-0.07352198660373688,-1.0641831159591675,0.8932448029518127,1.0071078538894653,0.26563119888305664,-0.5738776922225952
10.585506677627563,-0.06476280838251114,-1.0618367195129395,0.8994956016540527,1.009039044380188,0.2738741934299469,-0.5735788941383362
10.605567693710327,-0.038920048624277115,-1.0522491931915283,0.9167891144752502,1.0151984691619873,0.3027570843696594,-0.5730217695236206
10.62576699256897,-0.0261234100908041,-1.0478706359863281,0.9274888634681702,1.0188724994659424,0.31597617268562317,-0.5727667808532715
10.645862579345703,-0.019609607756137848,-1.0447129011154175,0.9403403997421265,1.0199493169784546,0.3227763772010803,-0.5743938684463501
10.665929555892944,-0.02491583302617073,-1.0453113317489624,0.9448334574699402,1.0164176225662231,0.317533403635025,-0.5768943428993225
10.686025381088257,-0.03394152224063873,-1.0475740432739258,0.942123293876648,1.013497233390808,0.30875957012176514,-0.5779991149902344
10.70612359046936,-0.05717480927705765,-1.052939772605896,0.9282070994377136,1.006338119506836,0.28770092129707336,-0.5797566771507263
10.726184129714966,-0.08159568905830383,-1.0599603652954102,0.9098340272903442,1.000485897064209,0.2632172107696533,-0.5797986388206482
10.746269702911377,-0.08636162430047989,-1.0623615980148315,0.9011210203170776,1.0004440546035767,0.25754714012145996,-0.5789484977722168
10.766363143920898,-0.09117858856916428,-1.0649980306625366,0.8848057985305786,1.0001124143600464,0.2531002461910248,-0.577571451663971
10.786448955535889,-0.0797961950302124,-1.0644948482513428,0.888275682926178,1.0049209594726562,0.26060688495635986,-0.5756308436393738
10.806523084640503,-0.07191339135169983,-1.0630881786346436,0.893079400062561,1.006896734237671,0.26715999841690063,-0.5749921202659607
10.826590061187744,-0.04778966307640076,-1.0544319152832031,0.9083386659622192,1.0126752853393555,0.2938295006752014,-0.5741801261901855
10.846702814102173,-0.03560234606266022,-1.0503796339035034,0.9167454242706299,1.015746831893921,0.3073246479034424,-0.5741767287254333
10.866842031478882,-0.02316761203110218,-1.0460916757583618,0.9332342743873596,1.0194311141967773,0.3190416097640991,-0.575110912322998
10.886889934539795,-0.026178674772381783,-1.0471562147140503,0.9407584071159363,1.0177149772644043,0.31439563632011414,-0.5770837068557739
10.907022714614868,-0.03141990303993225,-1.0488239526748657,0.9409762620925903,1.0157830715179443,0.30846598744392395,-0.5779669880867004
10.927101135253906,-0.0525861531496048,-1.0533920526504517,0.9318012595176697,1.0082671642303467,0.288665771484375,-0.5798625349998474
10.947141647338867,-0.07344470918178558,-1.059709072113037,0.9193639159202576,1.0039074420928955,0.2666019797325134,-0.5794129371643066
10.967225074768066,-0.08132646232843399,-1.0627946853637695,0.9120043516159058,1.002316951751709,0.257404625415802,-0.5787628889083862
10.987341165542603,-0.0916430875658989,-1.0659632682800293,0.8958796262741089,1.0001317262649536,0.2475709468126297,-0.577427327632904
11.007481098175049,-0.08208419382572174,-1.0654489994049072,0.8916752338409424,1.0052942037582397,0.2551993727684021,-0.5750534534454346
11.027568578720093,-0.07569550722837448,-1.064706802368164,0.8952297568321228,1.0076770782470703,0.25983232259750366,-0.5741963982582092
11.047752141952515,-0.05998876318335533,-1.0597114562988281,0.903118371963501,1.0108706951141357,0.27688145637512207,-0.5736390352249146
11.067816972732544,-0.04853222891688347,-1.0542243719100952,0.9081419706344604,1.0131402015686035,0.29240334033966064,-0.5736069679260254
11.087899446487427,-0.028676506131887436,-1.048166036605835,0.9210203289985657,1.0184670686721802,0.3152170777320862,-0.5737066864967346
11.107983350753784,-0.02685493789613247,-1.0464357137680054,0.9312779903411865,1.017175555229187,0.3175619840621948,-0.5759536027908325
11.128053188323975,-0.030087899416685104,-1.0472012758255005,0.9344431161880493,1.0153412818908691,0.3136718273162842,-0.5771960020065308
11.148178815841675,-0.04443424940109253,-1.0510339736938477,0.9300348162651062,1.0098165273666382,0.2996689975261688,-0.5792614817619324
11.168293952941895,-0.053155217319726944,-1.0531678199768066,0.9248197674751282,1.0071784257888794,0.29182159900665283,-0.579929769039154
11.18842077255249,-0.07627172768115997,-1.0607926845550537,0.9125611782073975,1.0025540590286255,0.2665441334247589,-0.5794993042945862
11.208445072174072,-0.08396992087364197,-1.063581109046936,0.905494213104248,1.0007866621017456,0.2578194737434387,-0.5789706110954285
11.228535175323486,-0.09295070171356201,-1.06747305393219,0.8929153680801392,0.9991952776908875,0.24659396708011627,-0.5774641036987305
11.248892784118652,-0.08344437927007675,-1.066504955291748,0.889074444770813,1.0045602321624756,0.25469470024108887,-0.575274646282196
11.269012451171875,-0.07689564675092697,-1.0655241012573242,0.890465497970581,1.0065206289291382,0.2604675590991974,-0.5746586322784424
11.289116382598877,-0.05873306840658188,-1.0597331523895264,0.9015762805938721,1.009676218032837,0.27943769097328186,-0.5742377042770386
11.309356689453125,-0.04636165872216225,-1.055274486541748,0.9094317555427551,1.0128118991851807,0.29324835538864136,-0.573969304561615
11.329476594924927,-0.03041175939142704,-1.050048828125,0.9236159324645996,1.0173711776733398,0.3102569580078125,-0.5743421912193298
11.349595069885254,-0.02975872904062271,-1.0500444173812866,0.9340057373046875,1.016453742980957,0.308869332075119,-0.5761100053787231
11.369678020477295,-0.03551744669675827,-1.0516480207443237,0.935029149055481,1.0144370794296265,0.3023008108139038,-0.577075719833374
11.389828205108643,-0.05319925397634506,-1.0555307865142822,0.9256739020347595,1.008754014968872,0.2867707312107086,-0.5787694454193115
11.409984350204468,-0.07471625506877899,-1.062325119972229,0.910141110420227,1.004120111465454,0.2649831473827362,-0.578542947769165
11.430240631103516,-0.08221566677093506,-1.0654001235961914,0.9042481780052185,1.0022286176681519,0.25583526492118835,-0.5779426097869873
11.450244665145874,-0.0895044133067131,-1.068092703819275,0.8923307657241821,1.0004220008850098,0.24800314009189606,-0.5765435695648193
11.47028660774231,-0.08179521560668945,-1.0677506923675537,0.890101432800293,1.004779577255249,0.2535982131958008,-0.5743566751480103
11.490381240844727,-0.07324018329381943,-1.0655031204223633,0.8928342461585999,1.0074554681777954,0.26241251826286316,-0.573462724685669
11.510483264923096,-0.055362921208143234,-1.0609197616577148,0.9080429673194885,1.0121139287948608,0.2781590521335602,-0.5725968480110168
11.531327724456787,-0.036293454468250275,-1.0522180795669556,0.9203163981437683,1.0160973072052002,0.30214184522628784,-0.5728713274002075
11.551429271697998,-0.0302132461220026,-1.0504953861236572,0.9254230856895447,1.0185878276824951,0.3089227080345154,-0.5730463266372681
11.571502208709717,-0.03406842425465584,-1.0516424179077148,0.9329349994659424,1.016103982925415,0.3034670054912567,-0.5749337673187256
11.591645956039429,-0.04028882831335068,-1.0527479648590088,0.9301400184631348,1.0131909847259521,0.29875144362449646,-0.5761443972587585
11.611740827560425,-0.05543949082493782,-1.0568583011627197,0.9203765392303467,1.0086215734481812,0.28548428416252136,-0.5775760412216187
11.631839990615845,-0.07430306077003479,-1.0645382404327393,0.9095032215118408,1.0045936107635498,0.26326054334640503,-0.5768724679946899
11.651992797851562,-0.08018288761377335,-1.067226529121399,0.9050329923629761,1.003147840499878,0.2555312216281891,-0.5762447714805603
11.67202377319336,-0.08281143009662628,-1.0679839849472046,0.8978660702705383,1.0019643306732178,0.2531038224697113,-0.575291633605957
11.69210171699524,-0.07373971492052078,-1.0666162967681885,0.8995517492294312,1.0066893100738525,0.2604134678840637,-0.5733803510665894
11.712226152420044,-0.06627257913351059,-1.064060926437378,0.9034785628318787,1.0084646940231323,0.2683243751525879,-0.5728673934936523
11.73231291770935,-0.04628803953528404,-1.0558345317840576,0.9158987998962402,1.0133697986602783,0.2918056547641754,-0.5723479986190796
11.752538442611694,-0.03782183304429054,-1.0522286891937256,0.9214856624603271,1.0147483348846436,0.3022213578224182,-0.5726889371871948
11.772643089294434,-0.03247640281915665,-1.0497422218322754,0.9279597997665405,1.0163207054138184,0.31009700894355774,-0.573850691318512
11.792717933654785,-0.04040524363517761,-1.052278995513916,0.9275126457214355,1.0119831562042236,0.3024306893348694,-0.5762410759925842
11.81286883354187,-0.046973489224910736,-1.053760290145874,0.92339688539505,1.0096969604492188,0.29732948541641235,-0.5772206783294678
11.8329598903656,-0.06359201669692993,-1.060206651687622,0.9142191410064697,1.00551176071167,0.2794461250305176,-0.5777825713157654
11.853300333023071,-0.08336889743804932,-1.0663994550704956,0.9022092819213867,1.0002204179763794,0.2583484351634979,-0.5772256255149841
11.873379468917847,-0.08851649612188339,-1.0684787034988403,0.8987380862236023,0.9991459846496582,0.2514899969100952,-0.5764968395233154
11.893433332443237,-0.08263509720563889,-1.0677852630615234,0.8921413421630859,1.0027111768722534,0.25744861364364624,-0.5744785666465759
11.913594961166382,-0.08030637353658676,-1.0679407119750977,0.8915396928787231,1.004227638244629,0.2587636411190033,-0.5735986232757568
11.933691501617432,-0.06772760301828384,-1.0650427341461182,0.9008493423461914,1.0077580213546753,0.2687892019748688,-0.5724354386329651
11.95391845703125,-0.04750056937336922,-1.058451533317566,0.9150969982147217,1.0131617784500122,0.2891879975795746,-0.5715386867523193
11.974009275436401,-0.037474945187568665,-1.054845929145813,0.9201723337173462,1.016106128692627,0.30135318636894226,-0.5713696479797363
11.994084358215332,-0.03039972484111786,-1.0529109239578247,0.9319139719009399,1.0187782049179077,0.30748143792152405,-0.5721205472946167
12.014145135879517,-0.03474285081028938,-1.0536812543869019,0.9320310950279236,1.0161871910095215,0.3038535714149475,-0.5733340382575989
12.034236669540405,-0.047697167843580246,-1.0560495853424072,0.9253057241439819,1.0110938549041748,0.29387474060058594,-0.57550448179245
12.054341316223145,-0.06540674716234207,-1.0623397827148438,0.9138409495353699,1.0073378086090088,0.27563732862472534,-0.5758578181266785
12.074461460113525,-0.07304932177066803,-1.065737247467041,0.9090286493301392,1.0057731866836548,0.2659938931465149,-0.5753670930862427
12.094489574432373,-0.08187557756900787,-1.0698696374893188,0.9045813679695129,1.003429651260376,0.25292521715164185,-0.5742553472518921
12.114549160003662,-0.07697641104459763,-1.0678508281707764,0.9000200033187866,1.0052659511566162,0.2594575583934784,-0.5731366276741028
12.134641170501709,-0.07179198414087296,-1.0669125318527222,0.9029131531715393,1.007812261581421,0.26327604055404663,-0.5722873210906982
12.15472149848938,-0.057212356477975845,-1.0622471570968628,0.9116695523262024,1.011746883392334,0.2779443562030792,-0.571506917476654
12.174797773361206,-0.04152510687708855,-1.055945634841919,0.9191889762878418,1.015133261680603,0.29763132333755493,-0.5716511607170105
12.194926738739014,-0.035407885909080505,-1.053337812423706,0.9211955070495605,1.0166823863983154,0.3065793812274933,-0.5719515085220337
12.214985609054565,-0.03650713711977005,-1.0533041954040527,0.9269607067108154,1.0149531364440918,0.3055786192417145,-0.5739351511001587
12.235093832015991,-0.04144451022148132,-1.0546270608901978,0.926173210144043,1.0126466751098633,0.3008792996406555,-0.5750547647476196
12.255157709121704,-0.05731311812996864,-1.0592939853668213,0.9158505797386169,1.0074571371078491,0.2863188087940216,-0.5765953063964844
12.275207042694092,-0.07374236732721329,-1.0656077861785889,0.9046218395233154,1.0038355588912964,0.26797863841056824,-0.5763005614280701
12.29529595375061,-0.08003571629524231,-1.067706823348999,0.9031614065170288,1.0021939277648926,0.2598741054534912,-0.5759215950965881
12.31538200378418,-0.08011743426322937,-1.0682992935180664,0.900367259979248,1.002752661705017,0.25802263617515564,-0.5746978521347046
12.335588216781616,-0.07169390469789505,-1.06620192527771,0.9007588624954224,1.0066568851470947,0.2664202153682709,-0.5731638669967651
12.355696439743042,-0.06460772454738617,-1.0643959045410156,0.9060491323471069,1.0092501640319824,0.27238181233406067,-0.5725059509277344
12.375760793685913,-0.05094078183174133,-1.0592646598815918,0.9145076274871826,1.012291431427002,0.2877419888973236,-0.5723001956939697
12.396132707595825,-0.04374253377318382,-1.055761694908142,0.9171252250671387,1.0140513181686401,0.29803213477134705,-0.5724276900291443
12.41628646850586,-0.03659600019454956,-1.0536518096923828,0.9234147071838379,1.0165873765945435,0.3064863979816437,-0.5732865333557129
12.436312913894653,-0.04397143796086311,-1.0558854341506958,0.9226059317588806,1.013105869293213,0.29950112104415894,-0.5751829147338867
12.456410884857178,-0.050197284668684006,-1.0579283237457275,0.919673502445221,1.0108228921890259,0.29335176944732666,-0.5759869813919067
12.476485013961792,-0.0696067065000534,-1.0655854940414429,0.909417986869812,1.006089210510254,0.27099674940109253,-0.5759624242782593
12.496568202972412,-0.07480151951313019,-1.0674443244934082,0.9076220989227295,1.0048613548278809,0.26418158411979675,-0.57565838098526
12.516638040542603,-0.08079683035612106,-1.0702924728393555,0.9036301374435425,1.0037550926208496,0.2547460198402405,-0.5744332075119019
12.53669023513794,-0.07225324958562851,-1.068249225616455,0.9037336111068726,1.00752592086792,0.26256731152534485,-0.5728962421417236
12.556783676147461,-0.06755506247282028,-1.0671086311340332,0.9068710207939148,1.009354829788208,0.2662353515625,-0.5722417235374451
12.576933860778809,-0.047037020325660706,-1.059827208518982,0.9203823804855347,1.0154480934143066,0.28749728202819824,-0.5708087682723999
12.596941232681274,-0.030382785946130753,-1.0532997846603394,0.9329614639282227,1.019765853881836,0.3065420091152191,-0.5705754160881042
12.617102861404419,-0.02702038176357746,-1.0508900880813599,0.9353468418121338,1.0199410915374756,0.312488317489624,-0.5713404417037964
12.63723635673523,-0.030160363763570786,-1.0512652397155762,0.9381119012832642,1.0181560516357422,0.310543417930603,-0.5733388662338257
12.657446384429932,-0.044413480907678604,-1.053884506225586,0.9311981797218323,1.0124379396438599,0.29916587471961975,-0.5756802558898926
12.677566289901733,-0.0522819422185421,-1.0559451580047607,0.9248287677764893,1.0100209712982178,0.29267582297325134,-0.5763622522354126
12.697658061981201,-0.06937071681022644,-1.0617070198059082,0.9125344753265381,1.005944848060608,0.275272399187088,-0.576657772064209
12.718974590301514,-0.08561258018016815,-1.067179799079895,0.9033464193344116,1.001428484916687,0.25641757249832153,-0.5760018825531006
12.739119529724121,-0.09046831727027893,-1.0693670511245728,0.8977065086364746,1.0002583265304565,0.2501058280467987,-0.5752830505371094
12.75916576385498,-0.08166436105966568,-1.0677045583724976,0.8930132389068604,1.0034306049346924,0.258877694606781,-0.5734670758247375
12.779927253723145,-0.0679127499461174,-1.0648670196533203,0.900754988193512,1.0066274404525757,0.27056100964546204,-0.5721912384033203
12.800036191940308,-0.05798977240920067,-1.0617890357971191,0.9076618552207947,1.008550763130188,0.28039631247520447,-0.5716812014579773
12.82011866569519,-0.03493800386786461,-1.0541975498199463,0.9210584759712219,1.0152568817138672,0.30661821365356445,-0.570985734462738
12.840240955352783,-0.02902909182012081,-1.0522762537002563,0.9278388023376465,1.0181037187576294,0.3127976059913635,-0.5710104703903198
12.860280275344849,-0.03370242565870285,-1.0526589155197144,0.9348160624504089,1.0154564380645752,0.30736204981803894,-0.5731672048568726
12.880373477935791,-0.04641152545809746,-1.0555205345153809,0.9287526607513428,1.0114797353744507,0.29644009470939636,-0.5751650929450989
12.90045714378357,-0.05491948127746582,-1.0576735734939575,0.9226986169815063,1.0094225406646729,0.2890510559082031,-0.5757277011871338
12.920519351959229,-0.08068908751010895,-1.065995693206787,0.9041875600814819,1.0024076700210571,0.2626575529575348,-0.5755336284637451
12.940580606460571,-0.09660950303077698,-1.0704225301742554,0.8877213597297668,0.9974276423454285,0.2467951625585556,-0.5749178528785706
12.96067762374878,-0.09784417599439621,-1.0714353322982788,0.8794127106666565,0.9976720809936523,0.24571511149406433,-0.5740983486175537
12.980786323547363,-0.08335291594266891,-1.0688644647598267,0.8791382908821106,1.0025086402893066,0.2595456838607788,-0.5723260045051575
13.00115180015564,-0.0674138218164444,-1.0675214529037476,0.8914121389389038,1.0074251890182495,0.2703927159309387,-0.5707812905311584
13.021275758743286,-0.055850353091955185,-1.063988208770752,0.9003354907035828,1.009540319442749,0.28185558319091797,-0.5702466368675232
13.041434049606323,-0.030507896095514297,-1.0542501211166382,0.9229933023452759,1.0156030654907227,0.30880406498908997,-0.5695343017578125
13.061742305755615,-0.021655412390828133,-1.0507779121398926,0.9342859983444214,1.0191586017608643,0.31715571880340576,-0.5694805383682251
13.081828117370605,-0.023586591705679893,-1.0499701499938965,0.9449670314788818,1.0182543992996216,0.31426653265953064,-0.5712760090827942
13.10189962387085,-0.036864545196294785,-1.0516784191131592,0.9437083601951599,1.012927770614624,0.3023330569267273,-0.5737159252166748
13.122008085250854,-0.04655223712325096,-1.0535138845443726,0.9381677508354187,1.0102391242980957,0.2941726744174957,-0.5745484828948975
13.14210295677185,-0.06846912205219269,-1.0584723949432373,0.9223900437355042,1.004923701286316,0.27494579553604126,-0.5754228830337524
13.162231683731079,-0.09529620409011841,-1.0665582418441772,0.8999131321907043,0.9974624514579773,0.24807502329349518,-0.5744963884353638
13.182324647903442,-0.10014320909976959,-1.0676405429840088,0.886945366859436,0.9965472221374512,0.24542565643787384,-0.5738422274589539
13.202414751052856,-0.09025280177593231,-1.0658360719680786,0.8789973258972168,1.000167727470398,0.25693297386169434,-0.5722635984420776
13.222699403762817,-0.07395781576633453,-1.0636488199234009,0.8838913440704346,1.0055456161499023,0.272018700838089,-0.5708526968955994
13.242925882339478,-0.06409239023923874,-1.0624594688415527,0.8908672332763672,1.0077073574066162,0.2799343168735504,-0.5703334808349609
13.262924194335938,-0.04303409159183502,-1.053995132446289,0.9066270589828491,1.0117212533950806,0.30487871170043945,-0.5704761147499084
13.283013105392456,-0.029791265726089478,-1.0497157573699951,0.9164659380912781,1.0159106254577637,0.319352924823761,-0.5703297853469849
13.303162336349487,-0.022568583488464355,-1.0476202964782715,0.9360712170600891,1.0177024602890015,0.3226991891860962,-0.5720579624176025
13.323367357254028,-0.032476264983415604,-1.0497119426727295,0.9377610087394714,1.0139193534851074,0.31307896971702576,-0.5744805932044983
13.343488693237305,-0.04113735631108284,-1.0521029233932495,0.934985876083374,1.010123372077942,0.3042706847190857,-0.5758334994316101
13.363559007644653,-0.06537537276744843,-1.0581895112991333,0.9200719594955444,1.0034234523773193,0.2819327712059021,-0.5770457983016968
13.383715391159058,-0.07920092344284058,-1.0627002716064453,0.9078108668327332,1.0009403228759766,0.26801392436027527,-0.5764409303665161
13.403835773468018,-0.0963464081287384,-1.0690683126449585,0.8921543955802917,0.996385395526886,0.2481679916381836,-0.5752320885658264
13.423906803131104,-0.09543951600790024,-1.0701990127563477,0.8801314830780029,0.9985368251800537,0.248563751578331,-0.5733829736709595
13.444002389907837,-0.08946090191602707,-1.0690470933914185,0.8800222277641296,1.0013682842254639,0.254145085811615,-0.5724351406097412
13.464096784591675,-0.06781039386987686,-1.0655746459960938,0.8920201063156128,1.008443832397461,0.2718445360660553,-0.5705488920211792
13.484148502349854,-0.04651938006281853,-1.0579774379730225,0.9117566347122192,1.011739730834961,0.29282087087631226,-0.5701793432235718
13.504238605499268,-0.034744832664728165,-1.05318284034729,0.9212226867675781,1.0141375064849854,0.30602747201919556,-0.5701489448547363
13.524316549301147,-0.025870267301797867,-1.049633502960205,0.934023380279541,1.0171258449554443,0.3159286379814148,-0.5711513161659241
13.544381380081177,-0.03165341168642044,-1.0505927801132202,0.9376761317253113,1.0149441957473755,0.31018614768981934,-0.573370099067688
13.56449294090271,-0.03801754117012024,-1.0517091751098633,0.9360193610191345,1.0122686624526978,0.30458778142929077,-0.5746812224388123
13.584560632705688,-0.053682345896959305,-1.0552330017089844,0.925597608089447,1.0076974630355835,0.2915140986442566,-0.5764493942260742
13.604849338531494,-0.06485170125961304,-1.0595674514770508,0.9179929494857788,1.00612211227417,0.2792397141456604,-0.5762534737586975
13.62495732307434,-0.0836392417550087,-1.0662734508514404,0.9021133184432983,1.001878023147583,0.25910353660583496,-0.5755065083503723
13.645047664642334,-0.0918029248714447,-1.0697145462036133,0.8913577795028687,1.0005971193313599,0.2492114007472992,-0.5742607712745667
13.665125608444214,-0.08641631156206131,-1.0686763525009155,0.8900171518325806,1.0031236410140991,0.25424954295158386,-0.5730655193328857
13.685191631317139,-0.07319077104330063,-1.0663669109344482,0.8949477672576904,1.0072072744369507,0.2656775712966919,-0.5715333223342896
13.705788850784302,-0.05429278686642647,-1.060132622718811,0.9073091149330139,1.0108020305633545,0.28531938791275024,-0.5709753036499023
13.725914478302002,-0.04015754908323288,-1.054833173751831,0.9184910655021667,1.0140668153762817,0.30038854479789734,-0.5705805420875549
13.745967626571655,-0.02050813101232052,-1.0470820665359497,0.9364508390426636,1.0198928117752075,0.3221253752708435,-0.5706199407577515
13.766101121902466,-0.01735743135213852,-1.0454908609390259,0.9416200518608093,1.020283818244934,0.3259725272655487,-0.5716240406036377
13.786245584487915,-0.025311488658189774,-1.0467478036880493,0.945526123046875,1.015894889831543,0.31819653511047363,-0.5744320154190063
13.806227922439575,-0.04401712864637375,-1.0513522624969482,0.9365152716636658,1.0103212594985962,0.30129650235176086,-0.5766047239303589
13.82631254196167,-0.05533226951956749,-1.054274082183838,0.9302705526351929,1.0069260597229004,0.2903500497341156,-0.5774872303009033
13.846391201019287,-0.07803002744913101,-1.062079668045044,0.9146426320075989,1.0027753114700317,0.26558876037597656,-0.5768946409225464
13.866613864898682,-0.09042137861251831,-1.0661704540252686,0.8998392224311829,0.9999056458473206,0.25245171785354614,-0.5758876800537109
13.886732816696167,-0.0919199287891388,-1.067118763923645,0.8926896452903748,1.0001654624938965,0.25093603134155273,-0.5750978589057922
13.906881332397461,-0.08119254559278488,-1.0655605792999268,0.8894891738891602,1.004501461982727,0.2609383463859558,-0.5732482671737671
13.927037715911865,-0.06642372906208038,-1.062111258506775,0.8972070217132568,1.0068013668060303,0.2750192880630493,-0.5725711584091187
13.947246551513672,-0.054197654128074646,-1.057349681854248,0.9050859808921814,1.0090559720993042,0.28893494606018066,-0.5722174644470215
13.96721601486206,-0.030111271888017654,-1.050035834312439,0.9230030179023743,1.0156192779541016,0.3143359124660492,-0.5715578198432922
13.987339973449707,-0.023133836686611176,-1.0464330911636353,0.932481050491333,1.0177580118179321,0.32207781076431274,-0.5718265175819397
14.00748324394226,-0.022455859929323196,-1.0448309183120728,0.9386147856712341,1.0172830820083618,0.32472047209739685,-0.5741071105003357
14.027535200119019,-0.03205503150820732,-1.0463011264801025,0.9397064447402954,1.0134779214859009,0.31543970108032227,-0.5769050121307373
14.047685623168945,-0.03952348232269287,-1.0479052066802979,0.9370542764663696,1.0115739107131958,0.30862492322921753,-0.5778874158859253
14.067737817764282,-0.06348604708909988,-1.0539685487747192,0.9226511716842651,1.0051101446151733,0.2860887944698334,-0.5794927477836609
14.088151931762695,-0.07717452198266983,-1.0585471391677856,0.9130010604858398,1.0013864040374756,0.27137649059295654,-0.5794158577919006
14.108273029327393,-0.09268209338188171,-1.0635197162628174,0.8967899680137634,0.997470498085022,0.25506699085235596,-0.5787909626960754
14.128333568572998,-0.08672446757555008,-1.0639312267303467,0.886695146560669,1.0020723342895508,0.2600569725036621,-0.5765178799629211
14.148465871810913,-0.07829315215349197,-1.0629446506500244,0.8897165060043335,1.0055480003356934,0.2667141556739807,-0.575411856174469
14.168679475784302,-0.062256306409835815,-1.0598430633544922,0.9025535583496094,1.009917974472046,0.27970242500305176,-0.5744988322257996
14.188925981521606,-0.03868481516838074,-1.0523617267608643,0.9209261536598206,1.0155096054077148,0.3034934401512146,-0.5740185976028442
14.209056377410889,-0.028670931234955788,-1.0485873222351074,0.927588939666748,1.0184617042541504,0.3153914511203766,-0.5738749504089355
14.229129076004028,-0.02598995342850685,-1.0463746786117554,0.9370953440666199,1.019645094871521,0.3187130093574524,-0.5756398439407349
14.249268531799316,-0.028526313602924347,-1.0471835136413574,0.9381678700447083,1.0182703733444214,0.31601253151893616,-0.5768212080001831
14.269320011138916,-0.04218461364507675,-1.0502445697784424,0.9318652749061584,1.0130689144134521,0.30408167839050293,-0.5793010592460632
14.289365768432617,-0.0649757906794548,-1.056467056274414,0.9144716858863831,1.006395697593689,0.2835511267185211,-0.5805574655532837
14.309452295303345,-0.07785234600305557,-1.0610589981079102,0.908350944519043,1.0029125213623047,0.26842638850212097,-0.5802322626113892
14.3296377658844,-0.090852290391922,-1.066072940826416,0.8936589360237122,0.999140739440918,0.25328129529953003,-0.5790255665779114
14.34989595413208,-0.08406087011098862,-1.0670491456985474,0.8897104263305664,1.0044549703598022,0.25621968507766724,-0.5766113996505737
14.370067834854126,-0.07752915471792221,-1.0662120580673218,0.8938793540000916,1.0074403285980225,0.26041585206985474,-0.5755811333656311
14.390102863311768,-0.06307566910982132,-1.0633686780929565,0.9044672846794128,1.0118505954742432,0.27161604166030884,-0.5743963718414307
14.410699844360352,-0.042760737240314484,-1.0552542209625244,0.9171491265296936,1.0155513286590576,0.294837087392807,-0.5743896961212158
14.430824756622314,-0.03330479562282562,-1.051393747329712,0.9216851592063904,1.018225908279419,0.30729594826698303,-0.5743938684463501
14.450905799865723,-0.025792190805077553,-1.0488990545272827,0.9344797730445862,1.020331621170044,0.3141668736934662,-0.5755903720855713
14.47097897529602,-0.029423993080854416,-1.0503032207489014,0.9357974529266357,1.0183337926864624,0.3100028336048126,-0.5767419338226318
14.491080522537231,-0.043831855058670044,-1.054008960723877,0.931288480758667,1.0125302076339722,0.2961060404777527,-0.5789787769317627
14.511164665222168,-0.056480444967746735,-1.0572824478149414,0.9210293889045715,1.0084185600280762,0.2857073247432709,-0.579975962638855
14.531302213668823,-0.0679088905453682,-1.0613930225372314,0.9142506122589111,1.0065760612487793,0.2732504606246948,-0.5794380903244019
14.551436424255371,-0.08076539635658264,-1.0662131309509277,0.9072355031967163,1.0034323930740356,0.25716063380241394,-0.5783165693283081
14.571537971496582,-0.08362075686454773,-1.0674799680709839,0.9029166102409363,1.0028926134109497,0.2534720301628113,-0.5775707364082336
14.591602087020874,-0.07949627935886383,-1.0664249658584595,0.8974841833114624,1.0060107707977295,0.25832468271255493,-0.5757866501808167
14.611775159835815,-0.07401116192340851,-1.0653551816940308,0.8992900252342224,1.0081605911254883,0.2630409896373749,-0.5750641226768494
14.631890296936035,-0.055126484483480453,-1.0580601692199707,0.9093695282936096,1.0124258995056152,0.2844444811344147,-0.5744600296020508
14.651913404464722,-0.044331010431051254,-1.0539147853851318,0.9156045317649841,1.0144490003585815,0.29715222120285034,-0.5745481252670288
