liuyurong129/humanoid-gym/humanoid/data/target_q_20250523-020412.csv
timestamp,joint_1,joint_2,joint_3,joint_4,joint_5,joint_6
0.0003674030303955078,0.0,0.0,0.0,0.0,0.0,0.0
0.0204465389251709,0.0,0.0,0.0,0.0,0.0,0.0
0.04050874710083008,0.0,0.0,0.0,0.0,0.0,0.0
0.06067204475402832,0.0,0.0,0.0,0.0,0.0,0.0
0.08069157600402832,-0.11139844357967377,-0.28582361340522766,0.5081545114517212,-0.008834658190608025,-0.12535300850868225,-0.16501611471176147
0.10085296630859375,-0.06892165541648865,-0.31465139985084534,0.49862003326416016,0.0016132611781358719,-0.11540288478136063,-0.1990853250026703
0.12084317207336426,-0.061588142067193985,-0.35826340317726135,0.4993549585342407,0.0015533845871686935,-0.1189667135477066,-0.21037736535072327
0.1409752368927002,-0.07375700771808624,-0.381617933511734,0.5161760449409485,-0.008651887997984886,-0.13088811933994293,-0.22123339772224426
0.1610567569732666,-0.07305701076984406,-0.41248995065689087,0.5222328305244446,-0.008798858150839806,-0.1270064264535904,-0.22081562876701355
0.18112850189208984,-0.08055062592029572,-0.42883387207984924,0.5271514058113098,-0.009143730625510216,-0.11894220113754272,-0.22041478753089905
0.20134758949279785,-0.08232475817203522,-0.4195641577243805,0.5322734117507935,-0.014609983190894127,-0.11963735520839691,-0.21849799156188965
0.22147154808044434,-0.07717683911323547,-0.41232991218566895,0.5303068161010742,-0.005022158846259117,-0.11795590817928314,-0.2195626199245453
0.24152827262878418,-0.07726025581359863,-0.4018131494522095,0.5250468254089355,-0.0011112093925476074,-0.10337629914283752,-0.2178952991962433
0.2616109848022461,-0.06945064663887024,-0.3940158188343048,0.5204823613166809,0.00017221830785274506,-0.10347750782966614,-0.214008629322052
0.28165698051452637,-0.10538031160831451,-0.3991248309612274,0.5456770658493042,-0.018087023869156837,-0.1257157027721405,-0.22426247596740723
0.3017430305480957,-0.0952751636505127,-0.3974822163581848,0.5412662029266357,-0.010881593450903893,-0.11314725875854492,-0.22414645552635193
0.3218362331390381,-0.09324873983860016,-0.40150201320648193,0.5419278740882874,-0.010633086785674095,-0.11650729924440384,-0.22348862886428833
0.3418741226196289,-0.09628395736217499,-0.40188682079315186,0.5440150499343872,-0.01158704049885273,-0.11594563722610474,-0.22362565994262695
0.3620491027832031,-0.0719003677368164,-0.39646661281585693,0.5258969068527222,0.0035419464111328125,-0.09729063510894775,-0.2179851531982422
0.3821706771850586,-0.07658077776432037,-0.3907366394996643,0.5264497995376587,0.004708746448159218,-0.091057687997818,-0.21636345982551575
0.40229320526123047,-0.07030989229679108,-0.37844157218933105,0.5272151827812195,0.008868582546710968,-0.0971718579530716,-0.21629557013511658
0.42234253883361816,-0.07584375143051147,-0.3748208284378052,0.5314134359359741,0.008503254503011703,-0.09494000673294067,-0.21603882312774658
0.44258642196655273,-0.0995824784040451,-0.38442716002464294,0.5525542497634888,-0.006605168804526329,-0.11491012573242188,-0.2290109097957611
0.46273231506347656,-0.11076691746711731,-0.3832024335861206,0.5582224726676941,-0.014790480956435204,-0.11345871537923813,-0.2271275818347931
0.4828050136566162,-0.11124058067798615,-0.37707221508026123,0.5605202317237854,-0.012085763737559319,-0.11805762350559235,-0.22864675521850586
0.503044605255127,-0.10137958824634552,-0.3720017075538635,0.5554837584495544,-0.008027816191315651,-0.10429476201534271,-0.2266331911087036
0.5230262279510498,-0.07935009896755219,-0.36637601256370544,0.5410882234573364,0.009515782818198204,-0.09600237756967545,-0.2231118381023407
0.5431110858917236,-0.08165283501148224,-0.369281530380249,0.541390597820282,0.005780356004834175,-0.09378032386302948,-0.22275859117507935
0.5631699562072754,-0.08478742837905884,-0.3720434904098511,0.5466001033782959,0.005947783589363098,-0.09990467876195908,-0.2253742516040802
0.5832579135894775,-0.08694268763065338,-0.36915329098701477,0.5494359135627747,0.0073837656527757645,-0.09999966621398926,-0.22776341438293457
0.6033480167388916,-0.09604157507419586,-0.371376633644104,0.5569722652435303,-0.0012117456644773483,-0.09563528746366501,-0.2271166741847992
0.624056339263916,-0.09358729422092438,-0.37141236662864685,0.5561202168464661,0.0020726975053548813,-0.08223919570446014,-0.22745469212532043
0.6441576480865479,-0.10054437816143036,-0.3660368025302887,0.5576472878456116,-0.0032876115292310715,-0.0982338935136795,-0.22615396976470947
0.6642129421234131,-0.09754198789596558,-0.359255313873291,0.5572720170021057,0.0021787751466035843,-0.09925800561904907,-0.22855618596076965
0.6843130588531494,-0.09991791844367981,-0.3512774109840393,0.5599828958511353,8.598528802394867e-05,-0.10125589370727539,-0.22883382439613342
0.7043843269348145,-0.10268107056617737,-0.3511714041233063,0.5625187158584595,-0.0016939099878072739,-0.10225481539964676,-0.22939839959144592
0.7244524955749512,-0.10365994274616241,-0.35084375739097595,0.5655335783958435,0.0002701804041862488,-0.09912844002246857,-0.23171377182006836
0.7445242404937744,-0.08302293717861176,-0.3468104600906372,0.5515974164009094,0.013900810852646828,-0.08909296989440918,-0.2283385992050171
0.76462721824646,-0.08209134638309479,-0.3441275358200073,0.5535838007926941,0.01744011603295803,-0.08895595371723175,-0.22937440872192383
0.7847132682800293,-0.0889420360326767,-0.3437623381614685,0.558007538318634,0.009937936440110207,-0.09426883608102798,-0.22902342677116394
0.8048830032348633,-0.09987267851829529,-0.3468801975250244,0.5645057559013367,0.005273876711726189,-0.10020055621862411,-0.23214802145957947
0.8250267505645752,-0.10496841371059418,-0.34568363428115845,0.5685095191001892,0.000703928992152214,-0.09849126636981964,-0.23241496086120605
0.8452188968658447,-0.10101038217544556,-0.3510429263114929,0.5684729814529419,0.006228795275092125,-0.09393666684627533,-0.23398742079734802
0.8652157783508301,-0.11027693748474121,-0.3488277196884155,0.5713765621185303,0.0008668284863233566,-0.09221740812063217,-0.2347303032875061
0.8853487968444824,-0.09102517366409302,-0.34414100646972656,0.5576277375221252,0.016459835693240166,-0.08173475414514542,-0.2312508225440979
0.9053537845611572,-0.09250594675540924,-0.33461394906044006,0.5589796304702759,0.013328233733773232,-0.08170536160469055,-0.23111751675605774
0.9254231452941895,-0.08811093866825104,-0.33758509159088135,0.5602647066116333,0.01599801704287529,-0.07917782664299011,-0.23225420713424683
0.9455761909484863,-0.10703983902931213,-0.3443864583969116,0.5722672939300537,0.003834852948784828,-0.09042505919933319,-0.235205739736557
0.9656150341033936,-0.11310452222824097,-0.3462306261062622,0.5789806842803955,0.001663433387875557,-0.08935128897428513,-0.23895201086997986
0.9857628345489502,-0.10644340515136719,-0.3434552550315857,0.5724593997001648,0.007622899487614632,-0.09256720542907715,-0.2372404932975769
1.005784034729004,-0.09072545170783997,-0.34530964493751526,0.5620588064193726,0.021445302292704582,-0.0817653015255928,-0.2362993359565735
1.026005506515503,-0.09582221508026123,-0.34059518575668335,0.567606508731842,0.015692129731178284,-0.08077885210514069,-0.23514434695243835
1.0461235046386719,-0.0925527960062027,-0.3380669951438904,0.5672581195831299,0.020428718999028206,-0.07492588460445404,-0.2354222536087036
1.0660862922668457,-0.09458915889263153,-0.33846449851989746,0.568164050579071,0.019831007346510887,-0.07502639293670654,-0.23587894439697266
1.086167335510254,-0.10921376943588257,-0.34115493297576904,0.5817993879318237,0.005992656573653221,-0.08411838114261627,-0.2392122745513916
1.1062335968017578,-0.11135141551494598,-0.3406692445278168,0.5787801146507263,0.007677922025322914,-0.08591434359550476,-0.2387843132019043
1.1262996196746826,-0.11272820830345154,-0.335069477558136,0.5826751589775085,0.009528698399662971,-0.09188403189182281,-0.240217387676239
1.1463510990142822,-0.11936737596988678,-0.3378482460975647,0.5842352509498596,0.004506321623921394,-0.07658524066209793,-0.24028131365776062
1.166438102722168,-0.09516775608062744,-0.333368718624115,0.5722190737724304,0.024549225345253944,-0.07450088113546371,-0.2410719096660614
1.186502456665039,-0.10055960714817047,-0.3334038257598877,0.57164466381073,0.018767284229397774,-0.07172459363937378,-0.23973357677459717
1.206674575805664,-0.10039426386356354,-0.32554036378860474,0.5749260783195496,0.016751818358898163,-0.07374964654445648,-0.23892256617546082
1.2267084121704102,-0.098386749625206,-0.3236463665962219,0.576148271560669,0.018748590722680092,-0.07645455002784729,-0.2394171953201294
1.2469043731689453,-0.11528463661670685,-0.32828283309936523,0.5878444314002991,0.006814043968915939,-0.07361288368701935,-0.24102696776390076
1.2670469284057617,-0.1222987025976181,-0.3225053548812866,0.5885383486747742,0.004300491884350777,-0.08742660284042358,-0.24119526147842407
1.2870116233825684,-0.12098361551761627,-0.31491994857788086,0.5887635350227356,0.005543673411011696,-0.08853748440742493,-0.24146434664726257
1.3070628643035889,-0.11651590466499329,-0.3133981227874756,0.5860679149627686,0.008505363017320633,-0.08772856742143631,-0.24103379249572754
1.327164888381958,-0.10116948187351227,-0.3108901381492615,0.5774410963058472,0.02133646048605442,-0.07692091166973114,-0.24197813868522644
1.347238540649414,-0.1016315221786499,-0.3111828565597534,0.580012321472168,0.016119953244924545,-0.07981759309768677,-0.24125221371650696
1.3672890663146973,-0.10157118737697601,-0.3119369447231293,0.5830487012863159,0.01917751505970955,-0.076065793633461,-0.24282145500183105
1.3873484134674072,-0.10979969799518585,-0.31919223070144653,0.5852920413017273,0.016864949837327003,-0.07448853552341461,-0.24331125617027283
1.4074385166168213,-0.11392956972122192,-0.3176640272140503,0.5876821279525757,0.012567436322569847,-0.07909426838159561,-0.24422672390937805
1.4275274276733398,-0.1134987622499466,-0.32135260105133057,0.5845749378204346,0.01583089679479599,-0.07436953485012054,-0.24424684047698975
1.4475555419921875,-0.11546207964420319,-0.3224325180053711,0.5860975384712219,0.015407619997859001,-0.0719863697886467,-0.24554836750030518
1.4677188396453857,-0.10970525443553925,-0.32277610898017883,0.5850189328193665,0.019593724980950356,-0.0739295557141304,-0.2472008764743805
1.4878261089324951,-0.1121421605348587,-0.3176899254322052,0.5915719270706177,0.017392240464687347,-0.082194983959198,-0.24854379892349243
1.5079267024993896,-0.11283966898918152,-0.31793370842933655,0.59140545129776,0.013938011601567268,-0.07510680705308914,-0.24650609493255615
1.5279688835144043,-0.1035250723361969,-0.3229060173034668,0.5881385207176208,0.02552485652267933,-0.059963159263134,-0.24931704998016357
1.5480363368988037,-0.11348363757133484,-0.32622286677360535,0.5944705009460449,0.019435511901974678,-0.07358285039663315,-0.24984711408615112
1.5680820941925049,-0.12608420848846436,-0.3238019347190857,0.6006878614425659,0.014157159253954887,-0.08192149549722672,-0.25069451332092285
1.588165521621704,-0.1097756177186966,-0.3223663568496704,0.5895711183547974,0.029894137755036354,-0.05812825635075569,-0.2510032057762146
1.6082477569580078,-0.11148399114608765,-0.32117539644241333,0.5929780006408691,0.027679109945893288,-0.0683324784040451,-0.25241655111312866
1.6283023357391357,-0.11371071636676788,-0.3213532865047455,0.597250759601593,0.025681497529149055,-0.06526438891887665,-0.2552250623703003
1.648341417312622,-0.12169221043586731,-0.31848064064979553,0.5980870723724365,0.02133984863758087,-0.0714707300066948,-0.2541186213493347
1.668431282043457,-0.12441116571426392,-0.31739503145217896,0.5957776308059692,0.01989784650504589,-0.06821013987064362,-0.25065794587135315
1.6884989738464355,-0.11182938516139984,-0.3124423623085022,0.5914826393127441,0.027460137382149696,-0.06731078028678894,-0.2512107193470001
1.708547830581665,-0.11692705750465393,-0.31156834959983826,0.5945349931716919,0.02135310508310795,-0.060176290571689606,-0.25006940960884094
1.7287771701812744,-0.10894933342933655,-0.3088918924331665,0.5939429998397827,0.026220353320240974,-0.06558515131473541,-0.2528460919857025
1.7489569187164307,-0.12393303215503693,-0.3126883804798126,0.6015697717666626,0.017933055758476257,-0.0731721967458725,-0.2535459101200104
1.7689595222473145,-0.1307421773672104,-0.3154338300228119,0.6056106686592102,0.01517273299396038,-0.07274047285318375,-0.2563777267932892
1.7890167236328125,-0.12977932393550873,-0.3128083646297455,0.6061649322509766,0.020404623821377754,-0.07145153731107712,-0.25917762517929077
1.8091018199920654,-0.11619432270526886,-0.30878403782844543,0.5965396761894226,0.02496357075870037,-0.05945882946252823,-0.2538881301879883
1.8291544914245605,-0.11782999336719513,-0.30343732237815857,0.5999902486801147,0.02319723553955555,-0.05551206320524216,-0.2542535662651062
1.8492233753204346,-0.11458855867385864,-0.3082563877105713,0.5982745289802551,0.027424031868577003,-0.045538049191236496,-0.25444021821022034
1.8692681789398193,-0.12047898769378662,-0.3038504421710968,0.6007221341133118,0.021230192855000496,-0.055300623178482056,-0.25316351652145386
1.8893885612487793,-0.12530957162380219,-0.30657878518104553,0.6063275933265686,0.022163594141602516,-0.06331095844507217,-0.2605433762073517
1.9095144271850586,-0.1327197402715683,-0.30772268772125244,0.6085397601127625,0.01557358168065548,-0.06910739094018936,-0.2579319477081299
1.929544448852539,-0.1256256401538849,-0.3114967346191406,0.6022752523422241,0.022886434569954872,-0.06002691388130188,-0.25917813181877136
1.9495985507965088,-0.11819194257259369,-0.3083457052707672,0.6013980507850647,0.028443628922104836,-0.05916863679885864,-0.25992637872695923
1.969663381576538,-0.1320730596780777,-0.3110615909099579,0.6087422966957092,0.01863734982907772,-0.06477373838424683,-0.25944817066192627
1.989821195602417,-0.1323041021823883,-0.3099697530269623,0.6133087873458862,0.01761038415133953,-0.06263764202594757,-0.2616724371910095
2.0098447799682617,-0.13178546726703644,-0.31282758712768555,0.6110066175460815,0.01851881854236126,-0.06367027014493942,-0.2611212730407715
2.029874086380005,-0.13149724900722504,-0.3117099702358246,0.6104769706726074,0.019606392830610275,-0.06664734333753586,-0.2616764008998871
2.050044059753418,-0.120371013879776,-0.30881795287132263,0.6045145988464355,0.02780838869512081,-0.05884261056780815,-0.2601190507411957
2.0700628757476807,-0.1195162683725357,-0.3068626821041107,0.6050301790237427,0.031081849709153175,-0.05603225529193878,-0.26060017943382263
2.090135097503662,-0.11599364876747131,-0.3035341799259186,0.6068874597549438,0.0338730588555336,-0.056931041181087494,-0.2622784674167633
2.1102075576782227,-0.13745073974132538,-0.3091375231742859,0.6175219416618347,0.016061989590525627,-0.05672015994787216,-0.26321738958358765
2.1302976608276367,-0.13874609768390656,-0.3060457706451416,0.6176127195358276,0.019091250374913216,-0.06862306594848633,-0.26370933651924133
2.150416135787964,-0.13971292972564697,-0.30182191729545593,0.6175976395606995,0.019947143271565437,-0.06940869987010956,-0.26388680934906006
2.1707255840301514,-0.1228024810552597,-0.2956579923629761,0.6096940636634827,0.03209591656923294,-0.055410146713256836,-0.2636643946170807
2.1908373832702637,-0.11801372468471527,-0.2948015332221985,0.609090268611908,0.03911978751420975,-0.053716305643320084,-0.2655304968357086
2.2109060287475586,-0.12390227615833282,-0.29732105135917664,0.6108267903327942,0.03346100449562073,-0.04866941645741463,-0.26500165462493896
2.231062412261963,-0.12631477415561676,-0.297636479139328,0.6142703890800476,0.03376229107379913,-0.05209273844957352,-0.26717066764831543
2.251145839691162,-0.14318208396434784,-0.3016211688518524,0.622837483882904,0.021537043154239655,-0.046952396631240845,-0.2677012085914612
2.2712748050689697,-0.1432187706232071,-0.30492979288101196,0.6241865158081055,0.024315040558576584,-0.04442274570465088,-0.26950541138648987
2.291306257247925,-0.14837218821048737,-0.30203402042388916,0.6259093284606934,0.023940566927194595,-0.04734473675489426,-0.27149543166160583
2.311478614807129,-0.1285295933485031,-0.29641830921173096,0.6131169199943542,0.03969772905111313,-0.04253946244716644,-0.269883394241333
2.331501007080078,-0.13258296251296997,-0.2914292514324188,0.6134254932403564,0.03528973460197449,-0.041909534484148026,-0.2707332670688629
2.351680040359497,-0.12975604832172394,-0.2843574583530426,0.613724410533905,0.03576860576868057,-0.04287780076265335,-0.2692410349845886
2.3723483085632324,-0.12610934674739838,-0.2807120084762573,0.6148068308830261,0.04250755161046982,-0.04385705292224884,-0.272122323513031
2.3924341201782227,-0.1351415067911148,-0.2828691601753235,0.6204168200492859,0.027422716841101646,-0.05648479610681534,-0.27097371220588684
2.4126884937286377,-0.13023196160793304,-0.2850185036659241,0.618096113204956,0.03241740167140961,-0.053664349019527435,-0.27291056513786316
2.4327328205108643,-0.13191933929920197,-0.2886720597743988,0.6200381517410278,0.029425760731101036,-0.05167081207036972,-0.2720196545124054
2.452785015106201,-0.13574594259262085,-0.2896690368652344,0.6228039860725403,0.028334366157650948,-0.04876438155770302,-0.2729581892490387
2.472965717315674,-0.1361040472984314,-0.29155808687210083,0.6230761408805847,0.029796013608574867,-0.052811965346336365,-0.27239614725112915
2.4930264949798584,-0.1389521062374115,-0.2970393896102905,0.6255242824554443,0.03315141797065735,-0.05114109814167023,-0.2760188579559326
2.5131032466888428,-0.14868219196796417,-0.30385830998420715,0.6293829679489136,0.02782716415822506,-0.045921195298433304,-0.2766435742378235
2.533186197280884,-0.13164080679416656,-0.2999344766139984,0.6220999956130981,0.043077193200588226,-0.041583102196455,-0.2792242467403412
2.5532431602478027,-0.13149875402450562,-0.297402560710907,0.6208586096763611,0.0448879674077034,-0.036548711359500885,-0.27923262119293213
2.573312520980835,-0.13155558705329895,-0.2991958260536194,0.6226726770401001,0.047418154776096344,-0.03642059862613678,-0.28050875663757324
2.5934176445007324,-0.13178862631320953,-0.3025369346141815,0.6231494545936584,0.04580125957727432,-0.03629256784915924,-0.280819833278656
2.613478899002075,-0.14775605499744415,-0.3076784014701843,0.6352713704109192,0.03418388217687607,-0.042790383100509644,-0.28326180577278137
2.633547067642212,-0.14820370078086853,-0.30531349778175354,0.6348410248756409,0.03665309399366379,-0.041997529566287994,-0.2836204469203949
2.653654098510742,-0.15036077797412872,-0.30539754033088684,0.6352471113204956,0.03427928686141968,-0.05044761300086975,-0.28352051973342896
2.6736812591552734,-0.14060573279857635,-0.30312058329582214,0.6268405318260193,0.03727175295352936,-0.03754936158657074,-0.28153252601623535
2.6937804222106934,-0.14815904200077057,-0.30753272771835327,0.6321191191673279,0.04026590287685394,-0.038996677845716476,-0.2851209342479706
2.7138688564300537,-0.1485588401556015,-0.3134923279285431,0.6372438669204712,0.03495839238166809,-0.04346664249897003,-0.28636154532432556
2.7339274883270264,-0.15782855451107025,-0.31860771775245667,0.6418297290802002,0.035186767578125,-0.04988881200551987,-0.288675457239151
2.7539730072021484,-0.1416265219449997,-0.3162432909011841,0.63618403673172,0.0481271967291832,-0.018330175429582596,-0.287077933549881
2.7741854190826416,-0.142074853181839,-0.3123157322406769,0.6337587833404541,0.04605323076248169,-0.014233466237783432,-0.2860625684261322
2.794424057006836,-0.13861967623233795,-0.3128722906112671,0.6336380839347839,0.046839356422424316,-0.011571723967790604,-0.2863334119319916
2.8143131732940674,-0.143239364027977,-0.3135572075843811,0.6354734897613525,0.0453014150261879,-0.004705756902694702,-0.2868160009384155
2.8343851566314697,-0.1619984358549118,-0.313067227602005,0.6462190747261047,0.034330688416957855,-0.04132387042045593,-0.2932606637477875
2.8544554710388184,-0.16226060688495636,-0.31536170840263367,0.6465397477149963,0.03834152966737747,-0.0366731658577919,-0.2934836447238922
2.8745245933532715,-0.1650221198797226,-0.3154790699481964,0.6491624116897583,0.037253908812999725,-0.0444100946187973,-0.29439276456832886
2.894582748413086,-0.1553945094347,-0.30858924984931946,0.6448001265525818,0.043191343545913696,-0.037575989961624146,-0.2940762937068939
2.9147632122039795,-0.15288309752941132,-0.30865907669067383,0.6456325054168701,0.05110211670398712,-0.032005418092012405,-0.2964182496070862
2.934800386428833,-0.1561913788318634,-0.3176926076412201,0.6471057534217834,0.04811961203813553,-0.038543906062841415,-0.2949797511100769
2.9549074172973633,-0.16345231235027313,-0.3265613913536072,0.6546571850776672,0.047100767493247986,-0.03761453926563263,-0.3009103834629059
2.9749655723571777,-0.17017371952533722,-0.3270066976547241,0.6579238772392273,0.04071500152349472,-0.04266715049743652,-0.2990206778049469
2.995020627975464,-0.1338312029838562,-0.3312978744506836,0.6438769698143005,0.07472703605890274,-0.0016762018203735352,-0.3027547299861908
3.015108346939087,-0.14174170792102814,-0.33767005801200867,0.647520899772644,0.07186074554920197,-0.001490861177444458,-0.302352637052536
3.0352530479431152,-0.1379946917295456,-0.3454143702983856,0.6472224593162537,0.07642387598752975,0.0009548217058181763,-0.3028697967529297
3.055295705795288,-0.13868951797485352,-0.3567010760307312,0.6528373956680298,0.09225763380527496,-0.001376323401927948,-0.31061938405036926
3.075408458709717,-0.1938965767621994,-0.3695623576641083,0.6829199194908142,0.042968325316905975,-0.024594292044639587,-0.31182578206062317
3.095482110977173,-0.1995134800672531,-0.3767479658126831,0.6884859800338745,0.048517413437366486,-0.009980358183383942,-0.31892016530036926
3.1155717372894287,-0.21438594162464142,-0.37845897674560547,0.6988452076911926,0.0394916757941246,-0.017283305525779724,-0.3225402235984802
3.135619878768921,-0.21897770464420319,-0.38612881302833557,0.7020679116249084,0.04281608760356903,-0.014416910707950592,-0.32309743762016296
3.1557180881500244,-0.14623881876468658,-0.3749730885028839,0.6792037487030029,0.11220227926969528,-0.0005652680993080139,-0.32427671551704407
3.175916910171509,-0.15153519809246063,-0.3860204517841339,0.688738226890564,0.11844668537378311,0.011193923652172089,-0.32991883158683777
3.1959245204925537,-0.1463048905134201,-0.3986695408821106,0.6934828162193298,0.12688475847244263,0.003764696419239044,-0.33245107531547546
3.215998888015747,-0.14472223818302155,-0.41317424178123474,0.7018206715583801,0.1309877336025238,0.007766075432300568,-0.33497384190559387
3.2361299991607666,-0.21604086458683014,-0.42768770456314087,0.7308745384216309,0.06204346567392349,0.03315731883049011,-0.3467121422290802
3.256225347518921,-0.22616054117679596,-0.43670937418937683,0.7366948127746582,0.06622821092605591,0.05296506732702255,-0.3527555465698242
3.2763233184814453,-0.21433231234550476,-0.4201107323169708,0.7408363223075867,0.07167264819145203,0.0700000450015068,-0.3686058223247528
3.2963385581970215,-0.158358633518219,-0.4176087975502014,0.7460296154022217,0.14719510078430176,0.03766939789056778,-0.35868456959724426
3.316413402557373,-0.16574104130268097,-0.39412596821784973,0.7600394487380981,0.15499266982078552,0.0596393421292305,-0.37358781695365906
3.336472749710083,-0.18309038877487183,-0.35963135957717896,0.7634328007698059,0.16790658235549927,0.09214004129171371,-0.37671273946762085
3.356525421142578,-0.1894390881061554,-0.34407830238342285,0.7650741338729858,0.17505016922950745,0.10855173319578171,-0.38238558173179626
3.3766462802886963,-0.24896664917469025,-0.33421745896339417,0.7665224075317383,0.1008843332529068,0.2633696496486664,-0.39239218831062317
3.3968515396118164,-0.24669329822063446,-0.30647096037864685,0.7805166840553284,0.11438139528036118,0.24398347735404968,-0.38973113894462585
3.4168379306793213,-0.24778829514980316,-0.27053216099739075,0.7865008115768433,0.13130229711532593,0.2672646641731262,-0.39531370997428894
3.4368674755096436,-0.22829508781433105,-0.24598518013954163,0.771748423576355,0.15717914700508118,0.13901466131210327,-0.3994886577129364
3.4569334983825684,-0.24706874787807465,-0.20403259992599487,0.7620744705200195,0.1396443396806717,0.14728540182113647,-0.3934238851070404
3.4769973754882812,-0.2391144037246704,-0.14931505918502808,0.7581390738487244,0.13326962292194366,0.1358804702758789,-0.3912733495235443
3.497337818145752,-0.24709291756153107,-0.1152663379907608,0.7587142586708069,0.10778365284204483,0.15384846925735474,-0.3730734884738922
3.517442464828491,-0.24494822323322296,-0.06611306965351105,0.7553331255912781,0.10311291366815567,0.12825733423233032,-0.37402936816215515
3.537496566772461,-0.23647579550743103,-0.03257852792739868,0.7543667554855347,0.10078644007444382,0.09317221492528915,-0.36978092789649963
3.55755615234375,-0.2273927479982376,-0.001871950924396515,0.7560007572174072,0.12219861894845963,0.08332399278879166,-0.37848296761512756
3.577669858932495,-0.22118227183818817,0.01255781203508377,0.7589786052703857,0.1312253326177597,0.0862637534737587,-0.38098520040512085
3.597734212875366,-0.22633247077465057,0.02773461490869522,0.7588016986846924,0.1334724873304367,0.07708818465471268,-0.38295701146125793
3.617798328399658,-0.22493593394756317,0.032403141260147095,0.7563539743423462,0.13769173622131348,0.08837548643350601,-0.382509708404541
3.637856960296631,-0.22994022071361542,0.028522498905658722,0.7531598806381226,0.1373208910226822,0.10069826990365982,-0.3821012079715729
3.6579558849334717,-0.2359793335199356,0.02521665394306183,0.750625491142273,0.13056695461273193,0.09937656670808792,-0.3787579834461212
3.678093433380127,-0.23862764239311218,0.015570603311061859,0.749707818031311,0.1252010464668274,0.1087735965847969,-0.3783210813999176
3.6981191635131836,-0.2459566742181778,0.00039120763540267944,0.7481262683868408,0.11773360520601273,0.11903751641511917,-0.378785640001297
3.718285083770752,-0.24584771692752838,-0.005736902356147766,0.7481878995895386,0.11810965090990067,0.12372077256441116,-0.3801216185092926
3.7383861541748047,-0.2394758015871048,-0.005265496671199799,0.7500677704811096,0.12765184044837952,0.11539677530527115,-0.38292810320854187
3.7584450244903564,-0.25691914558410645,-0.008349686861038208,0.744796872138977,0.10324914008378983,0.11733856052160263,-0.378541499376297
3.7786431312561035,-0.24415536224842072,-0.006105698645114899,0.7454904317855835,0.11675401031970978,0.1125563457608223,-0.3813917636871338
3.7987332344055176,-0.24148763716220856,-0.004856720566749573,0.7460578680038452,0.1149161159992218,0.10895218700170517,-0.3823714554309845
3.818849802017212,-0.23832182586193085,-0.006912834942340851,0.7443976402282715,0.11695270985364914,0.10727076977491379,-0.382912278175354
3.8388705253601074,-0.23433902859687805,-0.007908780127763748,0.7454328536987305,0.12591664493083954,0.10835687071084976,-0.3841531574726105
3.859025716781616,-0.23397599160671234,-0.008819818496704102,0.7443639039993286,0.12267512083053589,0.10619404166936874,-0.3834244906902313
3.8790721893310547,-0.22482989728450775,-0.013264071196317673,0.7467201352119446,0.1286543309688568,0.11030147224664688,-0.38494810461997986
3.899115562438965,-0.2290344089269638,-0.01678362488746643,0.7438333034515381,0.12447045743465424,0.11249653249979019,-0.38523539900779724
3.919189453125,-0.23179727792739868,-0.01895742118358612,0.7417138814926147,0.12005811929702759,0.10660155862569809,-0.38419750332832336
3.9392573833465576,-0.23566673696041107,-0.01937948912382126,0.7383414506912231,0.12136823683977127,0.10319509357213974,-0.3842116892337799
3.959437131881714,-0.23631907999515533,-0.01908375322818756,0.7402863502502441,0.11067775636911392,0.1026996448636055,-0.3831840455532074
3.9795544147491455,-0.23300385475158691,-0.02149953693151474,0.7378877997398376,0.12100176513195038,0.10636384040117264,-0.3861471712589264
3.99977970123291,-0.2369944155216217,-0.022507764399051666,0.7365368604660034,0.11425400525331497,0.10302596539258957,-0.38418057560920715
4.019891262054443,-0.24015416204929352,-0.02019735425710678,0.734466016292572,0.11558826267719269,0.10286057740449905,-0.38462209701538086
4.039959669113159,-0.2392159104347229,-0.021314598619937897,0.7327200174331665,0.11400377005338669,0.09892288595438004,-0.38495519757270813
4.059992790222168,-0.237810418009758,-0.025650963187217712,0.7305189967155457,0.11708780378103256,0.09948017448186874,-0.38536176085472107
4.080235481262207,-0.2275335043668747,-0.029003333300352097,0.735403835773468,0.1263810247182846,0.10735499113798141,-0.38963326811790466
4.100362539291382,-0.22295042872428894,-0.03641526401042938,0.7366959452629089,0.1257842481136322,0.108632393181324,-0.3894469439983368
4.120445013046265,-0.22975827753543854,-0.042035408318042755,0.7305200099945068,0.11989101022481918,0.103617362678051,-0.38898515701293945
4.1404924392700195,-0.22229216992855072,-0.049884725362062454,0.7317065596580505,0.12227526307106018,0.1006145253777504,-0.3903801441192627
4.160608291625977,-0.2275518923997879,-0.049665339291095734,0.7282615303993225,0.11725684255361557,0.10266036540269852,-0.3891409635543823
4.180866003036499,-0.22463543713092804,-0.052319012582302094,0.7285125255584717,0.12227976322174072,0.10563758760690689,-0.3890383541584015
4.200934648513794,-0.2221679538488388,-0.06071152538061142,0.7258427143096924,0.12273269146680832,0.1028018668293953,-0.3906850814819336
4.2209577560424805,-0.22055168449878693,-0.07164227217435837,0.7280957698822021,0.10965710133314133,0.10051468759775162,-0.3887304961681366
4.241183519363403,-0.22139255702495575,-0.07324445247650146,0.7241643667221069,0.11451063305139542,0.10024244338274002,-0.39185631275177
4.2612457275390625,-0.21458224952220917,-0.08533282577991486,0.7225974798202515,0.12241053581237793,0.1003672257065773,-0.3913489580154419
4.281374216079712,-0.2128593772649765,-0.10307201743125916,0.7176628112792969,0.12058843672275543,0.09656020253896713,-0.390581339597702
4.301424264907837,-0.2015584260225296,-0.12875154614448547,0.7183001041412354,0.12485439330339432,0.10050841420888901,-0.3899848163127899
4.321448564529419,-0.17497597634792328,-0.15157848596572876,0.7258812785148621,0.15019439160823822,0.11423652619123459,-0.4011790156364441
4.341540098190308,-0.16310425102710724,-0.2076863944530487,0.7194114923477173,0.150156170129776,0.11256379634141922,-0.4012231230735779
4.361614227294922,-0.16048531234264374,-0.30279114842414856,0.708428680896759,0.14111997187137604,0.12021981924772263,-0.3934411108493805
4.38167667388916,-0.14569753408432007,-0.36327260732650757,0.7062546014785767,0.1515011340379715,0.12714889645576477,-0.40171822905540466
4.401821613311768,-0.1483534425497055,-0.4950163662433624,0.6980745792388916,0.1381267011165619,0.13443610072135925,-0.3973705470561981
4.421851873397827,-0.17619167268276215,-0.5943633317947388,0.7080409526824951,0.11862435191869736,0.13863429427146912,-0.3963669538497925
4.44192910194397,-0.2189326137304306,-0.6524358987808228,0.7416288256645203,0.09314244240522385,0.11645468324422836,-0.3949473202228546
4.4619762897491455,-0.22553886473178864,-0.6531344652175903,0.7476984262466431,0.09337683767080307,0.10662368685007095,-0.39561882615089417
4.482233762741089,-0.23380805552005768,-0.6350875496864319,0.7523165941238403,0.08844929933547974,0.1021823063492775,-0.3975624442100525
4.502174615859985,-0.2434207648038864,-0.6211605072021484,0.7519186735153198,0.08321890234947205,0.11354071646928787,-0.39644134044647217
4.522240161895752,-0.25270798802375793,-0.5943868160247803,0.7504442930221558,0.07490554451942444,0.11560972779989243,-0.3928763270378113
4.542317867279053,-0.2769104540348053,-0.5676899552345276,0.7547593116760254,0.0736435279250145,0.09263341873884201,-0.3994460999965668
4.562410116195679,-0.27437204122543335,-0.5105830430984497,0.7458850145339966,0.08026273548603058,0.09285543113946915,-0.39788684248924255
4.58246374130249,-0.2758491337299347,-0.46990054845809937,0.7375902533531189,0.07353974878787994,0.10517285019159317,-0.3952682912349701
4.6025214195251465,-0.2797568440437317,-0.4295528829097748,0.7341431379318237,0.07799673080444336,0.10107851773500443,-0.3990459442138672
4.6226537227630615,-0.25087231397628784,-0.40769869089126587,0.72449791431427,0.1032937690615654,0.12266402691602707,-0.3989934027194977
4.642764568328857,-0.26474007964134216,-0.3586971163749695,0.7227112054824829,0.09476369619369507,0.11623076349496841,-0.39951494336128235
4.662789344787598,-0.2740965187549591,-0.3157816231250763,0.717484176158905,0.09189175814390182,0.11438272148370743,-0.4041709005832672
4.682969331741333,-0.2608468234539032,-0.2637602686882019,0.7127474546432495,0.09775543957948685,0.1284082531929016,-0.41242358088493347
4.703110218048096,-0.26374760270118713,-0.24879831075668335,0.7128269076347351,0.08675834536552429,0.15554380416870117,-0.4157794415950775
4.723215341567993,-0.25567254424095154,-0.2000865936279297,0.7056282758712769,0.09154070168733597,0.17332598567008972,-0.4171179234981537
4.74327826499939,-0.24886105954647064,-0.17747527360916138,0.7005146145820618,0.09648575633764267,0.18616199493408203,-0.4204188883304596
4.763388633728027,-0.2457398921251297,-0.16945978999137878,0.7015153169631958,0.12091156840324402,0.13696086406707764,-0.4328870475292206
4.783448696136475,-0.23766058683395386,-0.18920478224754333,0.6987254619598389,0.12477380782365799,0.14624401926994324,-0.4351958632469177
4.803575038909912,-0.22884277999401093,-0.21801719069480896,0.6933292746543884,0.12767985463142395,0.14557242393493652,-0.4369700849056244
4.82392954826355,-0.20701943337917328,-0.28360483050346375,0.6907200813293457,0.1347161829471588,0.15542209148406982,-0.43955138325691223
4.844104528427124,-0.21296736598014832,-0.31499311327934265,0.688208281993866,0.13273337483406067,0.1567140817642212,-0.43829670548439026
4.864141941070557,-0.21436108648777008,-0.3785220980644226,0.6909105777740479,0.1213412880897522,0.1462608277797699,-0.43914327025413513
4.88417649269104,-0.2259848564863205,-0.4220256805419922,0.6952134966850281,0.1109452024102211,0.13913604617118835,-0.4439937472343445
4.904322862625122,-0.21722279489040375,-0.429038405418396,0.695411741733551,0.1338956654071808,0.13552194833755493,-0.44901004433631897
4.924354791641235,-0.2417479306459427,-0.42752063274383545,0.7016541361808777,0.12029653787612915,0.11672201007604599,-0.44751226902008057
4.944417715072632,-0.2616138160228729,-0.40512174367904663,0.7037468552589417,0.11084961146116257,0.10789310187101364,-0.45031991600990295
4.964545249938965,-0.25409653782844543,-0.37604108452796936,0.6985886693000793,0.12733721733093262,0.10632745176553726,-0.4511018693447113
4.984591245651245,-0.29212430119514465,-0.32871657609939575,0.6979519128799438,0.10594858974218369,0.11286275833845139,-0.4489403963088989
5.004709243774414,-0.2971126139163971,-0.24609673023223877,0.6888626217842102,0.11181329190731049,0.10563818365335464,-0.4514411389827728
5.024787664413452,-0.27988073229789734,-0.20595768094062805,0.6823850870132446,0.127688467502594,0.1262989342212677,-0.4577123522758484
5.044897794723511,-0.2642673850059509,-0.16712439060211182,0.6775113940238953,0.13311506807804108,0.16079139709472656,-0.46585190296173096
5.064907789230347,-0.2609556019306183,-0.17296692728996277,0.6783437728881836,0.13702383637428284,0.16535824537277222,-0.46807602047920227
5.084950923919678,-0.25263336300849915,-0.19900944828987122,0.6753795146942139,0.13682150840759277,0.15677279233932495,-0.4733051359653473
5.1051025390625,-0.23993051052093506,-0.21306857466697693,0.6703510284423828,0.15575623512268066,0.16701102256774902,-0.47963178157806396
5.125158309936523,-0.2174818515777588,-0.280291348695755,0.6703778505325317,0.16018542647361755,0.16760218143463135,-0.48301494121551514
5.14528489112854,-0.2103174924850464,-0.3705891966819763,0.6671556234359741,0.15239450335502625,0.17247071862220764,-0.4856996238231659
5.165320873260498,-0.21663405001163483,-0.4414893388748169,0.6674811244010925,0.1556500941514969,0.17457762360572815,-0.49188852310180664
5.185466766357422,-0.24598480761051178,-0.4737869203090668,0.6785274744033813,0.13114504516124725,0.1544451117515564,-0.4906671643257141
5.205484867095947,-0.2566394805908203,-0.4962272047996521,0.6899099349975586,0.14242742955684662,0.14130479097366333,-0.49490341544151306
5.225649356842041,-0.27317872643470764,-0.4950515329837799,0.6969894170761108,0.13427558541297913,0.1462971270084381,-0.4959385097026825
5.245650768280029,-0.2947808802127838,-0.44665300846099854,0.6982800364494324,0.1295386254787445,0.12812495231628418,-0.4955793619155884
5.265728235244751,-0.3070521056652069,-0.4224393963813782,0.6992387175559998,0.1241760104894638,0.1332511603832245,-0.4957507848739624
5.285834550857544,-0.32296571135520935,-0.33321845531463623,0.6953115463256836,0.1360250562429428,0.12465209513902664,-0.4990940988063812
5.305885553359985,-0.3017716109752655,-0.22528985142707825,0.6806067228317261,0.1529359519481659,0.1641283929347992,-0.5071588754653931
5.326331853866577,-0.3410970866680145,-0.198816180229187,0.6937045454978943,0.11836784332990646,0.1564117670059204,-0.5132470726966858
5.346521854400635,-0.29371240735054016,-0.16557979583740234,0.6706156730651855,0.15511025488376617,0.21914294362068176,-0.5186129808425903
5.366632461547852,-0.28067663311958313,-0.16672766208648682,0.668136715888977,0.16257557272911072,0.23638916015625,-0.5190551280975342
5.386621475219727,-0.26927095651626587,-0.19932177662849426,0.6663178205490112,0.173538476228714,0.2459983229637146,-0.5259795188903809
5.40677547454834,-0.2852098047733307,-0.2249775230884552,0.666558027267456,0.16230729222297668,0.19962435960769653,-0.5261887907981873
5.426868677139282,-0.2639906108379364,-0.2937180697917938,0.6676538586616516,0.15913882851600647,0.2019800841808319,-0.5316502451896667
5.446962594985962,-0.2571749985218048,-0.3721400201320648,0.6693660616874695,0.1540798842906952,0.19801345467567444,-0.5343218445777893
5.466989517211914,-0.2604376971721649,-0.4262004494667053,0.6732468008995056,0.15975415706634521,0.20630672574043274,-0.5354921221733093
5.487119913101196,-0.27249202132225037,-0.435467004776001,0.6794377565383911,0.15888872742652893,0.18771496415138245,-0.5373252034187317
5.507207632064819,-0.28039318323135376,-0.41295182704925537,0.6792416572570801,0.16207046806812286,0.17284172773361206,-0.5394851565361023
5.527268409729004,-0.31428608298301697,-0.36170563101768494,0.6793668866157532,0.149722620844841,0.1479201316833496,-0.5377366542816162
5.547304630279541,-0.33004894852638245,-0.2755340039730072,0.6742268204689026,0.15275786817073822,0.14867866039276123,-0.5404117107391357
5.567480802536011,-0.3189876079559326,-0.2139078676700592,0.6631090044975281,0.17314693331718445,0.13475671410560608,-0.5456603169441223
5.58748722076416,-0.30503714084625244,-0.1345137357711792,0.6478029489517212,0.18916159868240356,0.143853098154068,-0.5518477559089661
5.607581853866577,-0.29430341720581055,-0.11968400329351425,0.645681619644165,0.20313212275505066,0.16948333382606506,-0.554625391960144
5.627601385116577,-0.2811933755874634,-0.1603301614522934,0.6487400531768799,0.20618107914924622,0.18923506140708923,-0.562689483165741
5.64768385887146,-0.27491649985313416,-0.18708088994026184,0.646974503993988,0.20756372809410095,0.18535089492797852,-0.565649151802063
5.667809247970581,-0.2344885766506195,-0.2843725383281708,0.6423234939575195,0.2240995168685913,0.19395536184310913,-0.5740711688995361
5.687871217727661,-0.24559451639652252,-0.4236599802970886,0.644158661365509,0.201418936252594,0.19620710611343384,-0.5733276009559631
5.7079243659973145,-0.2563202381134033,-0.4771516025066376,0.6535167694091797,0.1806553304195404,0.2034543752670288,-0.5726780891418457
5.728000640869141,-0.2755602300167084,-0.5648999810218811,0.6703988909721375,0.18057554960250854,0.20730766654014587,-0.5781926512718201
5.748080253601074,-0.30098196864128113,-0.5766927599906921,0.6883737444877625,0.17180924117565155,0.198175311088562,-0.5801293253898621
5.768142461776733,-0.32469913363456726,-0.5459877848625183,0.6956444978713989,0.1634802222251892,0.19272518157958984,-0.5807665586471558
5.788236856460571,-0.31204894185066223,-0.5220921039581299,0.6874105334281921,0.17820902168750763,0.20114058256149292,-0.5789488554000854
5.808294296264648,-0.3334398865699768,-0.44998079538345337,0.6837431788444519,0.17849525809288025,0.19588524103164673,-0.5756327509880066
5.828361749649048,-0.3480592668056488,-0.324826180934906,0.6762567162513733,0.18951933085918427,0.1802474856376648,-0.5773590803146362
5.8485987186431885,-0.2800936698913574,-0.18921926617622375,0.6465030312538147,0.2430097758769989,0.22754812240600586,-0.5861453413963318
5.868775367736816,-0.4027550518512726,-0.17757689952850342,0.6984185576438904,0.12067179381847382,0.18490180373191833,-0.5959853529930115
5.888906002044678,-0.3788032531738281,-0.16344815492630005,0.6775241494178772,0.1449950784444809,0.23677048087120056,-0.594832718372345
5.908893823623657,-0.30598172545433044,-0.1836896538734436,0.6534717082977295,0.2042851448059082,0.2614170014858246,-0.597395122051239
5.929010629653931,-0.31854307651519775,-0.202176034450531,0.6508180499076843,0.21382974088191986,0.22313392162322998,-0.5975038409233093
5.9492106437683105,-0.2952984869480133,-0.2896498739719391,0.6513622999191284,0.21484887599945068,0.24669617414474487,-0.6048059463500977
5.969162702560425,-0.28477224707603455,-0.3769865334033966,0.6503244638442993,0.20282088220119476,0.24865233898162842,-0.6050559878349304
5.989229440689087,-0.2923292815685272,-0.43243858218193054,0.6663638353347778,0.19180363416671753,0.2323603630065918,-0.6089354157447815
6.00931191444397,-0.29379141330718994,-0.4453890919685364,0.6649109125137329,0.20053935050964355,0.22941511869430542,-0.6078218221664429
6.029376983642578,-0.302310973405838,-0.42052245140075684,0.6672369837760925,0.20429138839244843,0.2057911455631256,-0.611461877822876
6.0494115352630615,-0.33354488015174866,-0.3472015857696533,0.6664902567863464,0.18753820657730103,0.18623429536819458,-0.6097342371940613
6.069462537765503,-0.35095682740211487,-0.24228370189666748,0.6543891429901123,0.20039844512939453,0.18280696868896484,-0.6104913949966431
6.089643716812134,-0.32139021158218384,-0.2007007896900177,0.6378130316734314,0.23024910688400269,0.19341158866882324,-0.6140457391738892
6.109655380249023,-0.3221553862094879,-0.1529465764760971,0.6305318474769592,0.24078461527824402,0.19821134209632874,-0.6182392835617065
6.129720449447632,-0.30055150389671326,-0.1775500476360321,0.630031943321228,0.25661519169807434,0.21108657121658325,-0.6272247433662415
6.149772882461548,-0.2922199070453644,-0.2406083047389984,0.6307811141014099,0.2404252290725708,0.21876978874206543,-0.6336901783943176
6.169854164123535,-0.27219679951667786,-0.29818910360336304,0.6275670528411865,0.24571114778518677,0.2261330783367157,-0.6397486329078674
6.190102577209473,-0.28179076313972473,-0.3922552764415741,0.6321415305137634,0.22792935371398926,0.20233097672462463,-0.6431024670600891
6.210036993026733,-0.31922659277915955,-0.4391239881515503,0.6434968709945679,0.20537108182907104,0.2032201886177063,-0.6451860070228577
6.23016357421875,-0.3264515697956085,-0.4196513295173645,0.6485641002655029,0.21783822774887085,0.17417863011360168,-0.6498103141784668
6.2502524852752686,-0.3349526822566986,-0.3928539454936981,0.6498608589172363,0.20677483081817627,0.1910099983215332,-0.6486663222312927
6.27044415473938,-0.3636510670185089,-0.30211129784584045,0.6493738889694214,0.2161753624677658,0.1846185326576233,-0.6504245400428772
6.290423631668091,-0.33110785484313965,-0.19232675433158875,0.6237277984619141,0.24423328042030334,0.22282183170318604,-0.6578622460365295
6.310521841049194,-0.32061120867729187,-0.16659797728061676,0.6168040037155151,0.2492653876543045,0.24242252111434937,-0.6631329655647278
6.330596685409546,-0.3330968916416168,-0.14675384759902954,0.612188994884491,0.26730629801750183,0.23808106780052185,-0.6662214994430542
6.351095914840698,-0.3308200538158417,-0.21314558386802673,0.6176503300666809,0.24631419777870178,0.24627768993377686,-0.6680770516395569
6.37125039100647,-0.3188619017601013,-0.25975170731544495,0.6138532757759094,0.24817773699760437,0.26376909017562866,-0.673118531703949
6.391258478164673,-0.3153775632381439,-0.37260252237319946,0.6145437955856323,0.22784201800823212,0.25930285453796387,-0.6800068020820618
6.411364793777466,-0.3238319754600525,-0.44267725944519043,0.6304388642311096,0.21751943230628967,0.2464805543422699,-0.6868358254432678
6.4314610958099365,-0.3208440840244293,-0.4621683955192566,0.6315739750862122,0.2282852828502655,0.24814501404762268,-0.6913764476776123
6.451540470123291,-0.3360480070114136,-0.4447515904903412,0.6409445405006409,0.2275473028421402,0.2242768108844757,-0.6955839991569519
6.471595287322998,-0.3565022647380829,-0.35281679034233093,0.6392377614974976,0.22620844841003418,0.2064383625984192,-0.6936960816383362
6.491712808609009,-0.3803650438785553,-0.22385501861572266,0.6334953904151917,0.24219870567321777,0.19417384266853333,-0.6935802102088928
6.511752605438232,-0.34862658381462097,-0.19213470816612244,0.6123287081718445,0.26059243083000183,0.24692386388778687,-0.6985222697257996
6.531844139099121,-0.33411070704460144,-0.13541632890701294,0.5993894934654236,0.27444225549697876,0.24430948495864868,-0.7004989385604858
6.552032470703125,-0.33644402027130127,-0.17133840918540955,0.6021866202354431,0.28458768129348755,0.25554701685905457,-0.7035448551177979
6.5720226764678955,-0.3203482925891876,-0.2617807686328888,0.6009474396705627,0.2758455276489258,0.25974738597869873,-0.7101662755012512
6.592162370681763,-0.32120028138160706,-0.3189353942871094,0.5992130637168884,0.25542449951171875,0.2597634196281433,-0.7111582159996033
6.612323045730591,-0.3282524049282074,-0.3754950165748596,0.6120020747184753,0.24158772826194763,0.2470700740814209,-0.718680739402771
6.632337331771851,-0.3438134491443634,-0.4052770733833313,0.6190550327301025,0.2348518967628479,0.250195175409317,-0.7243407368659973
6.6524317264556885,-0.3543345034122467,-0.39274823665618896,0.6249274015426636,0.23674629628658295,0.24105387926101685,-0.7262718081474304
6.672534942626953,-0.38197317719459534,-0.2850945293903351,0.6300194263458252,0.2272735983133316,0.21131375432014465,-0.7265670895576477
6.692649841308594,-0.35395437479019165,-0.2014559507369995,0.601740837097168,0.2689577043056488,0.25441741943359375,-0.7326022982597351
6.7127344608306885,-0.3369118869304657,-0.1749476194381714,0.5858953595161438,0.31195682287216187,0.2671511769294739,-0.7362676858901978
6.732768535614014,-0.34816285967826843,-0.1850048154592514,0.5860307812690735,0.30374374985694885,0.2620999217033386,-0.7353584170341492
6.752939462661743,-0.3443123698234558,-0.2068982720375061,0.5898844599723816,0.2927955389022827,0.26496633887290955,-0.7388831973075867
6.772953748703003,-0.3185720145702362,-0.3035508692264557,0.5872055888175964,0.2890433073043823,0.25578203797340393,-0.746542751789093
6.793050765991211,-0.33858928084373474,-0.3629536032676697,0.5958510041236877,0.26375773549079895,0.2508407533168793,-0.7550851702690125
6.8130879402160645,-0.33644238114356995,-0.3741300702095032,0.5979476571083069,0.2545813024044037,0.2517656683921814,-0.7571030855178833
6.83318018913269,-0.3576824367046356,-0.34040260314941406,0.6067431569099426,0.25883767008781433,0.23080620169639587,-0.7622941136360168
6.853329181671143,-0.3903730511665344,-0.2306535542011261,0.6185665726661682,0.24489142000675201,0.21369555592536926,-0.7646260261535645
6.873360872268677,-0.3752151131629944,-0.18336088955402374,0.5946519374847412,0.2799950838088989,0.24250471591949463,-0.7691752314567566
6.893486499786377,-0.3529871702194214,-0.18314427137374878,0.5776765942573547,0.3027442693710327,0.2592874765396118,-0.7695571780204773
6.91352915763855,-0.35230204463005066,-0.2200404405593872,0.5661123991012573,0.324482798576355,0.28148433566093445,-0.7663248181343079
6.933666706085205,-0.3391183912754059,-0.27696844935417175,0.5767470598220825,0.3039262890815735,0.26091647148132324,-0.7774211764335632
6.9536943435668945,-0.3531411588191986,-0.2916833162307739,0.5845819711685181,0.2791888415813446,0.24272507429122925,-0.7862150073051453
6.973783016204834,-0.3624286949634552,-0.2723284363746643,0.5935876965522766,0.2659115195274353,0.22712630033493042,-0.7889142632484436
6.994054794311523,-0.33771252632141113,-0.2601623237133026,0.5731942057609558,0.29911747574806213,0.22594672441482544,-0.7961737513542175
7.014079809188843,-0.35579967498779297,-0.28030863404273987,0.5725535750389099,0.2907582223415375,0.24490290880203247,-0.7976728081703186
7.034205436706543,-0.36618515849113464,-0.2711004316806793,0.5739178657531738,0.2893381416797638,0.2385200560092926,-0.7979082465171814
7.054337024688721,-0.36646005511283875,-0.22001025080680847,0.5697669982910156,0.30848217010498047,0.2448020577430725,-0.8020104765892029
7.074428081512451,-0.35112693905830383,-0.22316181659698486,0.5541772842407227,0.32574447989463806,0.26327580213546753,-0.8085116744041443
7.0944647789001465,-0.34962964057922363,-0.2691013216972351,0.5621791481971741,0.3020765781402588,0.2801140248775482,-0.8060057759284973
7.114547491073608,-0.3564465045928955,-0.2850531041622162,0.5630426406860352,0.3013344407081604,0.27241989970207214,-0.8145201802253723
7.134624004364014,-0.35921457409858704,-0.24712282419204712,0.5699753761291504,0.2994789779186249,0.23789647221565247,-0.8242950439453125
7.154768943786621,-0.35991165041923523,-0.24549731612205505,0.5647434592247009,0.2941150367259979,0.24211621284484863,-0.8312166333198547
7.174827575683594,-0.36089447140693665,-0.26736173033714294,0.5575630068778992,0.3075244426727295,0.2647368609905243,-0.8321892619132996
7.195036888122559,-0.3517153263092041,-0.284194678068161,0.5439752340316772,0.32028672099113464,0.26761889457702637,-0.8329606652259827
7.215053558349609,-0.39006364345550537,-0.25184017419815063,0.5707061290740967,0.2917957007884979,0.25415095686912537,-0.8325467109680176
7.235193967819214,-0.35827842354774475,-0.1819397509098053,0.5494986176490784,0.3369262218475342,0.26054462790489197,-0.8436189293861389
7.255279302597046,-0.33135733008384705,-0.19075486063957214,0.5400800108909607,0.34381768107414246,0.2819042503833771,-0.8459599614143372
7.275322198867798,-0.3545258939266205,-0.2689436376094818,0.5377161502838135,0.33021169900894165,0.28074637055397034,-0.8416324257850647
7.295406103134155,-0.37481650710105896,-0.3131113052368164,0.5545526742935181,0.3054915964603424,0.27906686067581177,-0.8488592505455017
7.315468072891235,-0.39341023564338684,-0.27087101340293884,0.5657891631126404,0.29995423555374146,0.25433963537216187,-0.8531565070152283
7.335530519485474,-0.36039480566978455,-0.2189846634864807,0.5607472658157349,0.3244403004646301,0.25906169414520264,-0.866136908531189
7.355599880218506,-0.3662010133266449,-0.25859588384628296,0.5474638342857361,0.3132403790950775,0.2655327618122101,-0.8639580011367798
7.375678777694702,-0.39005422592163086,-0.25193026661872864,0.5462217330932617,0.3145117163658142,0.28048986196517944,-0.8596675992012024
7.395821571350098,-0.36707642674446106,-0.2494489550590515,0.5385839343070984,0.3435365855693817,0.2778538763523102,-0.8643378019332886
7.416195869445801,-0.37335315346717834,-0.23880460858345032,0.5456697344779968,0.3196069896221161,0.27756625413894653,-0.8704286813735962
7.436268091201782,-0.38521626591682434,-0.20592230558395386,0.5492896437644958,0.3246890902519226,0.2572851777076721,-0.875856339931488
7.456346035003662,-0.3846728503704071,-0.19771847128868103,0.5455089211463928,0.3305177092552185,0.2593148350715637,-0.8755037784576416
7.476404666900635,-0.3452834188938141,-0.2979924976825714,0.5182401537895203,0.3413078486919403,0.2945139408111572,-0.8757891654968262
7.496495723724365,-0.36098673939704895,-0.3172464072704315,0.5328347682952881,0.33048033714294434,0.2787171006202698,-0.8799225091934204
7.5165300369262695,-0.3837563097476959,-0.23244452476501465,0.5515421628952026,0.32803988456726074,0.2608906626701355,-0.8874198794364929
7.5366127490997314,-0.3719690442085266,-0.2146027684211731,0.5467721819877625,0.34238314628601074,0.2621281147003174,-0.8937666416168213
7.556706190109253,-0.36238089203834534,-0.2159930169582367,0.5277255177497864,0.3481665849685669,0.27370238304138184,-0.8923265337944031
7.576791524887085,-0.37996217608451843,-0.2780255377292633,0.5264357328414917,0.33534562587738037,0.2958146333694458,-0.8861002326011658
7.596850395202637,-0.3882627785205841,-0.2566290497779846,0.5379858016967773,0.3345748782157898,0.28796085715293884,-0.8924247622489929
7.616981267929077,-0.3756294548511505,-0.23376703262329102,0.5396766662597656,0.34490546584129333,0.29000037908554077,-0.8964167833328247
7.63703465461731,-0.37995660305023193,-0.19919762015342712,0.5458034873008728,0.323732852935791,0.2641511559486389,-0.901667058467865
7.657075881958008,-0.36001157760620117,-0.2781020998954773,0.5040667653083801,0.35228580236434937,0.30119025707244873,-0.8988069891929626
7.677187204360962,-0.37769725918769836,-0.31261584162712097,0.5274760723114014,0.3297894299030304,0.2909049689769745,-0.8994473814964294
7.697275161743164,-0.3953448235988617,-0.2748960554599762,0.551886796951294,0.32342422008514404,0.2720978260040283,-0.905778706073761
7.717333078384399,-0.38351210951805115,-0.20536276698112488,0.5381922125816345,0.3435249924659729,0.27480238676071167,-0.9123820662498474
7.7373809814453125,-0.3672023117542267,-0.20798450708389282,0.5231384634971619,0.353642076253891,0.26401442289352417,-0.9116865396499634
7.757526636123657,-0.35959646105766296,-0.24491193890571594,0.5127934813499451,0.3527752757072449,0.27827250957489014,-0.9096657633781433
7.777583837509155,-0.3780328929424286,-0.30910584330558777,0.5197911858558655,0.34329336881637573,0.302748441696167,-0.9081076383590698
7.797656536102295,-0.38736024498939514,-0.24095717072486877,0.5370802283287048,0.3407597541809082,0.2721039950847626,-0.9170209169387817
7.817717790603638,-0.3844289481639862,-0.21745610237121582,0.5392627716064453,0.3502469062805176,0.2641368806362152,-0.9218170642852783
7.837797164916992,-0.3792133927345276,-0.2192627489566803,0.5311185717582703,0.34736451506614685,0.2740538716316223,-0.9217857718467712
7.85785984992981,-0.3758881986141205,-0.27481183409690857,0.5127076506614685,0.3456878662109375,0.30887243151664734,-0.9166839718818665
7.878067970275879,-0.3879064619541168,-0.2600143551826477,0.5337133407592773,0.33540570735931396,0.280210018157959,-0.9198980927467346
7.898113250732422,-0.38808178901672363,-0.21926555037498474,0.5408889055252075,0.33480069041252136,0.28432953357696533,-0.9235568642616272
7.918183088302612,-0.3611786365509033,-0.20881620049476624,0.5162726044654846,0.36813753843307495,0.2747575640678406,-0.9286917448043823
7.938321352005005,-0.3848015367984772,-0.2534199059009552,0.5242959856987,0.3350103497505188,0.28584885597229004,-0.9238027334213257
7.9583704471588135,-0.38867247104644775,-0.2558346688747406,0.5223643183708191,0.3493567407131195,0.2809349298477173,-0.9263070225715637
7.978438854217529,-0.38273191452026367,-0.242814302444458,0.524246096611023,0.34636494517326355,0.28041815757751465,-0.9282687306404114
7.998501539230347,-0.3725934624671936,-0.21734121441841125,0.5246476531028748,0.35380905866622925,0.2571127414703369,-0.9346559047698975
8.019019842147827,-0.38005104660987854,-0.23124933242797852,0.5191158056259155,0.35467493534088135,0.2819129228591919,-0.9342232346534729
8.039111375808716,-0.3774900734424591,-0.2571175992488861,0.5100882053375244,0.3589499592781067,0.28072506189346313,-0.9335562586784363
8.059192180633545,-0.38206395506858826,-0.25102829933166504,0.5241145491600037,0.34749215841293335,0.28069645166397095,-0.934227466583252
8.07923674583435,-0.378401517868042,-0.23800033330917358,0.521079957485199,0.3575907051563263,0.27591753005981445,-0.9363364577293396
8.099312782287598,-0.3797626793384552,-0.23448172211647034,0.5215885639190674,0.35027384757995605,0.2723984122276306,-0.9366433024406433
8.11944055557251,-0.3787249028682709,-0.23873740434646606,0.5180581212043762,0.3587634265422821,0.2812195420265198,-0.9376382231712341
8.139591693878174,-0.385495126247406,-0.23890596628189087,0.5181998014450073,0.3516228199005127,0.2944774627685547,-0.9355224370956421
8.159667730331421,-0.38191530108451843,-0.2379656434059143,0.5188847780227661,0.3567606508731842,0.2847559452056885,-0.939793050289154
8.179765462875366,-0.38062340021133423,-0.23461604118347168,0.5183384418487549,0.3570725917816162,0.28304845094680786,-0.9400599598884583
8.199941396713257,-0.3788221776485443,-0.23688846826553345,0.5169547200202942,0.3595903515815735,0.2802095413208008,-0.9427884221076965
8.219990968704224,-0.3803965151309967,-0.2355169951915741,0.5178800225257874,0.35423579812049866,0.2818204164505005,-0.9431473612785339
8.240052700042725,-0.3758046329021454,-0.23252153396606445,0.5154412984848022,0.3621123731136322,0.2756395637989044,-0.944915235042572
8.260125637054443,-0.3723439872264862,-0.2287064790725708,0.5160727500915527,0.360066294670105,0.2682422399520874,-0.9454633593559265
8.28014850616455,-0.37583795189857483,-0.23862159252166748,0.5125445127487183,0.36214399337768555,0.28179657459259033,-0.9463368654251099
8.300462245941162,-0.3791881203651428,-0.24197766184806824,0.5148313641548157,0.3608940839767456,0.279721200466156,-0.9476808905601501
8.320599555969238,-0.37776920199394226,-0.2403927445411682,0.5152519345283508,0.3633164167404175,0.2779518961906433,-0.9478704333305359
8.340671062469482,-0.37843558192253113,-0.23718690872192383,0.5155223608016968,0.359147846698761,0.27829137444496155,-0.9494296908378601
8.36071252822876,-0.38213488459587097,-0.2422354519367218,0.5166129469871521,0.35789281129837036,0.2833748161792755,-0.9510234594345093
8.380794525146484,-0.3813847601413727,-0.24316850304603577,0.5159010887145996,0.35723844170570374,0.2849333584308624,-0.9508742690086365
8.400904178619385,-0.37891238927841187,-0.24436414241790771,0.5142215490341187,0.36352992057800293,0.282963365316391,-0.9514638781547546
8.421060800552368,-0.3801194727420807,-0.245871901512146,0.5138015747070312,0.3631647229194641,0.2835939824581146,-0.9524805545806885
8.441048860549927,-0.38044294714927673,-0.24434125423431396,0.5145952105522156,0.3616710901260376,0.2823295593261719,-0.9532604813575745
8.461145639419556,-0.3812802731990814,-0.2412591278553009,0.5161369442939758,0.3612414002418518,0.28163182735443115,-0.9529974460601807
8.481247425079346,-0.3781014084815979,-0.2406924068927765,0.5136164426803589,0.3642716109752655,0.28117048740386963,-0.9539082050323486
8.501267194747925,-0.3769160211086273,-0.2426367700099945,0.5129558444023132,0.36150747537612915,0.2891465425491333,-0.9546911716461182
8.521331071853638,-0.3822828233242035,-0.2308250367641449,0.5161625146865845,0.35962313413619995,0.28229135274887085,-0.9564396739006042
8.541442155838013,-0.38099053502082825,-0.23261874914169312,0.5136934518814087,0.36305105686187744,0.28331905603408813,-0.95733243227005
8.561482906341553,-0.37983468174934387,-0.23822709918022156,0.5108249187469482,0.36568304896354675,0.28730836510658264,-0.9578700661659241
8.581552505493164,-0.38087695837020874,-0.23772898316383362,0.513038694858551,0.364409863948822,0.2869502604007721,-0.9593296647071838
8.601815223693848,-0.3790568709373474,-0.2377782166004181,0.5131610035896301,0.3656320869922638,0.28136640787124634,-0.9598140120506287
8.622020483016968,-0.38029590249061584,-0.23972287774085999,0.5118511319160461,0.3648664951324463,0.2848075032234192,-0.9604491591453552
8.642019748687744,-0.3793867528438568,-0.23956525325775146,0.5132746696472168,0.36558422446250916,0.27970749139785767,-0.9615283012390137
8.662176132202148,-0.37991127371788025,-0.24194148182868958,0.5130564570426941,0.36555156111717224,0.2820296287536621,-0.961770236492157
8.68224549293518,-0.3813665509223938,-0.24314793944358826,0.5140747427940369,0.36081960797309875,0.2830118238925934,-0.9624334573745728
8.702293395996094,-0.3814104199409485,-0.24364611506462097,0.5137714147567749,0.3614750802516937,0.2830125093460083,-0.963006854057312
8.722357749938965,-0.3818082809448242,-0.24278470873832703,0.5126949548721313,0.36286357045173645,0.28410637378692627,-0.9636021256446838
8.742410898208618,-0.3818899095058441,-0.23337295651435852,0.5112384557723999,0.3684297800064087,0.28748083114624023,-0.9645505547523499
8.762616634368896,-0.38041970133781433,-0.2354508936405182,0.5107569694519043,0.36804312467575073,0.28442350029945374,-0.9650319814682007
8.782716989517212,-0.3808521032333374,-0.23748090863227844,0.5115089416503906,0.36735889315605164,0.2842739522457123,-0.9648699164390564
8.802800178527832,-0.38294747471809387,-0.2367103099822998,0.5116156935691833,0.36330002546310425,0.28610169887542725,-0.9644330739974976
8.82289433479309,-0.3832526206970215,-0.23221737146377563,0.5127677321434021,0.3625170588493347,0.28669989109039307,-0.9653096795082092
8.842978715896606,-0.3811943233013153,-0.23308593034744263,0.5109710693359375,0.36843791604042053,0.2864132523536682,-0.9666318893432617
8.86308765411377,-0.37958601117134094,-0.2405480146408081,0.5101907849311829,0.36945340037345886,0.28386008739471436,-0.9671760201454163
8.883132457733154,-0.3807935416698456,-0.24202871322631836,0.5116944909095764,0.36615604162216187,0.2843828797340393,-0.9678388833999634
8.903292179107666,-0.3797358572483063,-0.24205097556114197,0.5107962489128113,0.3687179684638977,0.28329604864120483,-0.9677952527999878
8.923397541046143,-0.38029661774635315,-0.24256840348243713,0.5108014941215515,0.36724966764450073,0.2842175364494324,-0.9678718447685242
8.943499326705933,-0.3796910345554352,-0.24185144901275635,0.5091309547424316,0.3688071370124817,0.2846791744232178,-0.9688304662704468
8.963549613952637,-0.3805621862411499,-0.24366608262062073,0.5110601186752319,0.3684532046318054,0.2846553325653076,-0.9692917466163635
8.983606338500977,-0.380609929561615,-0.24401167035102844,0.5110147595405579,0.36821359395980835,0.28448837995529175,-0.9696847200393677
9.003681182861328,-0.3813707232475281,-0.24304276704788208,0.5111642479896545,0.36699962615966797,0.28513121604919434,-0.9688453078269958
9.02374792098999,-0.38021764159202576,-0.2399439513683319,0.5111232399940491,0.3679460287094116,0.28345394134521484,-0.9700474143028259
9.043799877166748,-0.380511075258255,-0.2420915961265564,0.5105366110801697,0.36884167790412903,0.2845064401626587,-0.969767153263092
9.063905239105225,-0.3805127739906311,-0.24271279573440552,0.5105906128883362,0.36883223056793213,0.2845345437526703,-0.9700965285301208
9.083980321884155,-0.380964457988739,-0.243763267993927,0.5105215311050415,0.36854952573776245,0.28579801321029663,-0.9699526429176331
9.104012489318848,-0.37990084290504456,-0.2428218424320221,0.5098683834075928,0.369900107383728,0.28367552161216736,-0.9703401923179626
9.124079704284668,-0.37939849495887756,-0.24192208051681519,0.5101830363273621,0.36992374062538147,0.2825104594230652,-0.9710179567337036
9.144179344177246,-0.378530889749527,-0.2411721646785736,0.5095586776733398,0.37159883975982666,0.28190308809280396,-0.9712124466896057
9.164310455322266,-0.38061389327049255,-0.24352416396141052,0.5099323391914368,0.36987143754959106,0.28501811623573303,-0.9713870882987976
9.184321641921997,-0.380883127450943,-0.2421063780784607,0.51090008020401,0.3694210350513458,0.28355252742767334,-0.971855640411377
9.204391717910767,-0.3849301338195801,-0.23160120844841003,0.5149902701377869,0.36730241775512695,0.28408145904541016,-0.9718925952911377
9.224493503570557,-0.3783416450023651,-0.2312462031841278,0.5089386701583862,0.373721718788147,0.2820287346839905,-0.972235381603241
9.244595050811768,-0.381437748670578,-0.23668161034584045,0.511178195476532,0.370130717754364,0.2847040891647339,-0.9723345637321472
9.2645902633667,-0.38160252571105957,-0.2410585582256317,0.5104101300239563,0.37071484327316284,0.28651154041290283,-0.9720200896263123
9.284703731536865,-0.3814891576766968,-0.2416447401046753,0.5108949542045593,0.3699689507484436,0.28521010279655457,-0.9721676707267761
9.304794788360596,-0.3809039294719696,-0.24204662442207336,0.5107885003089905,0.36991971731185913,0.28488409519195557,-0.9721375107765198
9.324971914291382,-0.381795734167099,-0.24370211362838745,0.5109365582466125,0.3693408966064453,0.2863121032714844,-0.97237628698349
9.345036745071411,-0.38175466656684875,-0.2440444827079773,0.5106315016746521,0.3696930408477783,0.286615252494812,-0.9723264575004578
9.365057706832886,-0.3808732330799103,-0.24311545491218567,0.5108404755592346,0.37068861722946167,0.2842806875705719,-0.972815215587616
9.385156154632568,-0.38085106015205383,-0.2434016466140747,0.5104795098304749,0.3714292645454407,0.28542715311050415,-0.9725952744483948
9.405272722244263,-0.38092151284217834,-0.2430132031440735,0.5104253888130188,0.37029311060905457,0.285030722618103,-0.9727504253387451
9.42533802986145,-0.3810690641403198,-0.24313220381736755,0.5100783705711365,0.3705303966999054,0.28530529141426086,-0.9730115532875061
9.44544005393982,-0.3810957670211792,-0.24303728342056274,0.5098722577095032,0.3699781596660614,0.2854195237159729,-0.9739089608192444
9.46557331085205,-0.3806479275226593,-0.24224436283111572,0.5098311901092529,0.37064385414123535,0.28415971994400024,-0.9741197228431702
9.485674619674683,-0.381467342376709,-0.2432631254196167,0.5104590058326721,0.369737446308136,0.28526443243026733,-0.974554717540741
9.505735397338867,-0.38101890683174133,-0.24298664927482605,0.5099136233329773,0.37066614627838135,0.2850344479084015,-0.974460780620575
9.52585244178772,-0.38166531920433044,-0.24436619877815247,0.5102530121803284,0.37098783254623413,0.28646010160446167,-0.9745550751686096
9.545931339263916,-0.3812490403652191,-0.24388691782951355,0.5098485946655273,0.37065500020980835,0.2854499816894531,-0.9744216203689575
9.566007852554321,-0.3812052309513092,-0.24399274587631226,0.5100613236427307,0.37089306116104126,0.2855253517627716,-0.9748167395591736
9.58619236946106,-0.3806529641151428,-0.24267274141311646,0.510027289390564,0.3702380061149597,0.28385022282600403,-0.9747642278671265
9.606308460235596,-0.3812113106250763,-0.24331164360046387,0.5102748870849609,0.36972951889038086,0.28504782915115356,-0.9749308228492737
9.626358985900879,-0.3820659816265106,-0.24472424387931824,0.5103334188461304,0.3698858320713043,0.2864625155925751,-0.9750571846961975
9.64643406867981,-0.3816623389720917,-0.24449068307876587,0.5096678733825684,0.3702535033226013,0.2864667773246765,-0.975101888179779
9.666497468948364,-0.3827042877674103,-0.24410471320152283,0.5105491876602173,0.3707845211029053,0.28689342737197876,-0.9750600457191467
9.68662142753601,-0.38388776779174805,-0.23173698782920837,0.5125453472137451,0.37307655811309814,0.2856864631175995,-0.975244402885437
9.706770896911621,-0.3820565640926361,-0.23337113857269287,0.5110534429550171,0.37026435136795044,0.284047931432724,-0.9753793478012085
9.726735591888428,-0.37941431999206543,-0.23774582147598267,0.5074945092201233,0.3744667172431946,0.28574812412261963,-0.9753254652023315
9.746832609176636,-0.3817504048347473,-0.24270287156105042,0.509562075138092,0.3712862730026245,0.28733372688293457,-0.9752904772758484
9.766900300979614,-0.3810059130191803,-0.24170652031898499,0.5108178853988647,0.3711129128932953,0.2832913398742676,-0.9757609963417053
9.786967277526855,-0.3800469934940338,-0.24206793308258057,0.510459840297699,0.37249505519866943,0.283180296421051,-0.9760332703590393
9.807033061981201,-0.382425993680954,-0.24535077810287476,0.5105055570602417,0.3696727156639099,0.28689247369766235,-0.9759325981140137
9.82722783088684,-0.3815242350101471,-0.24437576532363892,0.5096417665481567,0.37177708745002747,0.286233514547348,-0.9758973121643066
9.847215175628662,-0.38117507100105286,-0.2432301938533783,0.5095217823982239,0.3712792992591858,0.2852861285209656,-0.9765158891677856
9.867280960083008,-0.3815571367740631,-0.24345549941062927,0.5102009773254395,0.37138664722442627,0.2856377959251404,-0.9768174290657043
9.887447357177734,-0.38083258271217346,-0.24249210953712463,0.5098522305488586,0.37219005823135376,0.28452247381210327,-0.9767327904701233
9.907534837722778,-0.38121965527534485,-0.24291539192199707,0.5099270343780518,0.3713207542896271,0.2853476405143738,-0.9769049286842346
9.927603006362915,-0.3815442621707916,-0.243169903755188,0.5101133584976196,0.37143850326538086,0.2856486439704895,-0.9769369959831238
9.9476478099823,-0.3813287317752838,-0.2430330514907837,0.5100533366203308,0.37116795778274536,0.28528711199760437,-0.9770103693008423
9.96773648262024,-0.3811391294002533,-0.24261432886123657,0.5102623105049133,0.3707868158817291,0.28424927592277527,-0.9770926833152771
9.987823009490967,-0.38153311610221863,-0.2430974245071411,0.5101462602615356,0.3713768422603607,0.2855646312236786,-0.9769747853279114
10.008050203323364,-0.38208135962486267,-0.24352839589118958,0.5102077126502991,0.3699207603931427,0.2866055965423584,-0.9769673943519592
10.028013467788696,-0.3813031017780304,-0.24284628033638,0.5097809433937073,0.3713458180427551,0.28546422719955444,-0.9769056439399719
10.048096656799316,-0.3823844790458679,-0.24386951327323914,0.510504961013794,0.36990994215011597,0.286845862865448,-0.9769296050071716
10.068160772323608,-0.38151708245277405,-0.24338176846504211,0.5098448991775513,0.37163853645324707,0.2858811616897583,-0.9768542647361755
10.088223457336426,-0.3812083899974823,-0.2428317368030548,0.5094797611236572,0.37138277292251587,0.2853556275367737,-0.9770205020904541
10.108298540115356,-0.38041290640830994,-0.2415841519832611,0.5100821852684021,0.3715249300003052,0.2830047011375427,-0.9773100018501282
10.128489255905151,-0.3818018436431885,-0.24502575397491455,0.5101422071456909,0.3714498281478882,0.28650540113449097,-0.9772512912750244
10.148476123809814,-0.3812140226364136,-0.24412795901298523,0.5094977021217346,0.3725627064704895,0.2859501242637634,-0.9770094752311707
10.168526411056519,-0.3814607560634613,-0.24388083815574646,0.5098655223846436,0.3714934289455414,0.28572744131088257,-0.9770935773849487
10.18862795829773,-0.3818095624446869,-0.24459272623062134,0.5096231698989868,0.37196415662765503,0.28700321912765503,-0.9770471453666687
10.208703517913818,-0.3820519745349884,-0.2445036768913269,0.509495198726654,0.37114566564559937,0.2871566414833069,-0.977009654045105
10.228901863098145,-0.3821575343608856,-0.2442174255847931,0.5103573799133301,0.37051573395729065,0.28612613677978516,-0.9772229790687561
10.24889349937439,-0.3812052309513092,-0.24352291226387024,0.5096318125724792,0.37287798523902893,0.2861054837703705,-0.9770503640174866
10.2689688205719,-0.3816808760166168,-0.2435278594493866,0.5101441144943237,0.3712480366230011,0.2856321632862091,-0.9771813750267029
10.289036750793457,-0.3817877471446991,-0.2437034249305725,0.5098896026611328,0.3715330958366394,0.2859770953655243,-0.9770869612693787
10.309096336364746,-0.38035574555397034,-0.24178165197372437,0.5099989175796509,0.37281447649002075,0.28336796164512634,-0.9771994948387146
10.32914662361145,-0.38119712471961975,-0.24213632941246033,0.5105574131011963,0.3710339069366455,0.28429508209228516,-0.9774712920188904
10.349229574203491,-0.3811335861682892,-0.2424640655517578,0.509724497795105,0.37208548188209534,0.28577345609664917,-0.9773581624031067
10.36929965019226,-0.38116058707237244,-0.2427234649658203,0.5093252658843994,0.37313830852508545,0.28603583574295044,-0.9769799113273621
10.389442682266235,-0.38210204243659973,-0.24374285340309143,0.5099202394485474,0.3715704679489136,0.28730446100234985,-0.9770309925079346
10.409629344940186,-0.3820793926715851,-0.2440686821937561,0.5097647905349731,0.3721139430999756,0.2865753173828125,-0.9773765206336975
10.429720640182495,-0.3826838433742523,-0.24437490105628967,0.5100917220115662,0.3702136278152466,0.28718188405036926,-0.9773539304733276
10.449857473373413,-0.3814261257648468,-0.24324345588684082,0.5097950100898743,0.3717198967933655,0.28591784834861755,-0.9774433970451355
10.469923257827759,-0.3813326358795166,-0.24335330724716187,0.5096189379692078,0.37286388874053955,0.2861073315143585,-0.9774503111839294
10.490296125411987,-0.3814326226711273,-0.24336254596710205,0.5096505880355835,0.37267786264419556,0.2858486771583557,-0.9773241877555847
10.510366678237915,-0.38186517357826233,-0.24416708946228027,0.5096142292022705,0.3724020719528198,0.2873995900154114,-0.9773828387260437
10.530484437942505,-0.381595641374588,-0.2435302436351776,0.5096040964126587,0.37202274799346924,0.286259263753891,-0.9773238301277161
10.550503253936768,-0.38175925612449646,-0.24350345134735107,0.5102406144142151,0.37159281969070435,0.28604358434677124,-0.9776323437690735
10.570613622665405,-0.3823154866695404,-0.2442881464958191,0.51019686460495,0.3711589574813843,0.2873888313770294,-0.9775130748748779
10.590696334838867,-0.38212791085243225,-0.24410215020179749,0.5100756287574768,0.37178754806518555,0.2864096164703369,-0.9775410890579224
10.610807418823242,-0.38049331307411194,-0.24349433183670044,0.5094056725502014,0.37285932898521423,0.2868717312812805,-0.9776677489280701
10.630868911743164,-0.38132336735725403,-0.2417648732662201,0.5101745128631592,0.3726750910282135,0.282073974609375,-0.9775925278663635
10.651009559631348,-0.381714791059494,-0.24254614114761353,0.5098834037780762,0.371103972196579,0.2859542667865753,-0.9777402281761169
10.671118021011353,-0.3809766471385956,-0.2419596016407013,0.5093966722488403,0.3728266954421997,0.2850363552570343,-0.9776790142059326
10.691129684448242,-0.3819924294948578,-0.24295637011528015,0.5103464722633362,0.37085217237472534,0.28599074482917786,-0.9779555201530457
10.711241483688354,-0.3814547061920166,-0.24272361397743225,0.5099135041236877,0.37208932638168335,0.28606152534484863,-0.9778241515159607
10.731324672698975,-0.3819611072540283,-0.24367833137512207,0.5095447897911072,0.3726359009742737,0.28748852014541626,-0.9776017665863037
10.751547574996948,-0.3806564509868622,-0.2418915033340454,0.5092371702194214,0.37313467264175415,0.28511711955070496,-0.9775040745735168
10.771528244018555,-0.3817572593688965,-0.24319806694984436,0.5097177624702454,0.37248292565345764,0.2866109609603882,-0.977675199508667
10.791733503341675,-0.3820975124835968,-0.24320191144943237,0.5101199150085449,0.3708994388580322,0.2861435115337372,-0.9778969883918762
10.811809301376343,-0.38267186284065247,-0.2439684271812439,0.5101742148399353,0.37034985423088074,0.28733760118484497,-0.9778674840927124
10.831877946853638,-0.38238218426704407,-0.24445146322250366,0.509997546672821,0.3718050718307495,0.28662168979644775,-0.9777665734291077
10.851933717727661,-0.3814600706100464,-0.24362260103225708,0.5099400281906128,0.37209847569465637,0.2849345803260803,-0.9781573414802551
10.872088193893433,-0.381454199552536,-0.24354147911071777,0.50970858335495,0.37210461497306824,0.28608715534210205,-0.9779314398765564
10.89212155342102,-0.3822685480117798,-0.24382245540618896,0.5099573731422424,0.37092190980911255,0.28625527024269104,-0.9780839085578918
10.912266731262207,-0.38183897733688354,-0.24370306730270386,0.5099838376045227,0.3722628951072693,0.2865723967552185,-0.9781707525253296
10.93233036994934,-0.38171207904815674,-0.24434658885002136,0.5100154876708984,0.3700328469276428,0.287983775138855,-0.9781737923622131
10.952402353286743,-0.37818747758865356,-0.24513289332389832,0.5084846615791321,0.37345975637435913,0.29201340675354004,-0.9777130484580994
10.972476243972778,-0.3820323050022125,-0.24544119834899902,0.5097681879997253,0.3733927607536316,0.28433895111083984,-0.9784849882125854
10.99252200126648,-0.3827650845050812,-0.24463674426078796,0.509943425655365,0.3720983862876892,0.28518959879875183,-0.9788544774055481
11.012571573257446,-0.38130852580070496,-0.24296793341636658,0.5093306303024292,0.3723973035812378,0.2861495614051819,-0.9786607623100281
11.032727479934692,-0.38253602385520935,-0.24408230185508728,0.509687602519989,0.3710313141345978,0.28774386644363403,-0.9789736270904541
11.052732706069946,-0.38129723072052,-0.2418428361415863,0.5091388821601868,0.37346863746643066,0.28549879789352417,-0.9787688851356506
11.072961568832397,-0.3814344108104706,-0.24182161688804626,0.5092474818229675,0.37308990955352783,0.2866213321685791,-0.9794585108757019
11.092929601669312,-0.38215094804763794,-0.24319913983345032,0.5094600915908813,0.3729982376098633,0.28704148530960083,-0.9794251322746277
11.113080024719238,-0.3820365071296692,-0.24321290850639343,0.5094343423843384,0.37284186482429504,0.28685447573661804,-0.9794118404388428
11.13312816619873,-0.3821319043636322,-0.24380144476890564,0.5094494223594666,0.3727813959121704,0.28709545731544495,-0.9793728590011597
11.1531662940979,-0.381973534822464,-0.24329736828804016,0.5093611478805542,0.37220895290374756,0.2870482802391052,-0.9793611764907837
11.173212051391602,-0.38215410709381104,-0.24391737580299377,0.5093705654144287,0.3727799952030182,0.2871345579624176,-0.9793922305107117
11.19335389137268,-0.3819892108440399,-0.24375814199447632,0.5094183683395386,0.372641921043396,0.28685152530670166,-0.9794766902923584
11.213383436203003,-0.38164159655570984,-0.24323949217796326,0.5092790722846985,0.37263181805610657,0.28658944368362427,-0.9793973565101624
11.23348355293274,-0.3822757303714752,-0.2440347671508789,0.5095129609107971,0.37266284227371216,0.2869568467140198,-0.979496955871582
11.253829002380371,-0.3822689950466156,-0.2439245581626892,0.5091292262077332,0.37238234281539917,0.28790152072906494,-0.9793116450309753
11.274036169052124,-0.38212183117866516,-0.24381092190742493,0.5094884037971497,0.37268418073654175,0.28694823384284973,-0.9795275330543518
11.294048309326172,-0.3820767402648926,-0.24371841549873352,0.5094735622406006,0.3725690245628357,0.28670793771743774,-0.979515016078949
11.314257144927979,-0.3821225166320801,-0.24357560276985168,0.5095891356468201,0.3718235194683075,0.28688380122184753,-0.9795318245887756
11.33433198928833,-0.3812117278575897,-0.24272644519805908,0.509200930595398,0.37346112728118896,0.28573906421661377,-0.9794803857803345
11.354448318481445,-0.3818320035934448,-0.24335068464279175,0.5092976093292236,0.372938871383667,0.2868315577507019,-0.9794984459877014
11.374539375305176,-0.3824550211429596,-0.243697851896286,0.5093294382095337,0.3711901307106018,0.2877447009086609,-0.9794244766235352
11.394662141799927,-0.38214918971061707,-0.24380621314048767,0.5096569657325745,0.3729861378669739,0.28710708022117615,-0.9796249866485596
11.4146568775177,-0.3825690448284149,-0.2443821132183075,0.5093793869018555,0.372127503156662,0.28806450963020325,-0.9794948697090149
11.43472146987915,-0.3825278580188751,-0.24454990029335022,0.5093261003494263,0.37236738204956055,0.2882864773273468,-0.9794099926948547
11.454807043075562,-0.3820326626300812,-0.24386334419250488,0.5094701647758484,0.37260279059410095,0.2868148684501648,-0.9794735312461853
11.474897861480713,-0.38275548815727234,-0.24446260929107666,0.5096510648727417,0.37125396728515625,0.2881206274032593,-0.9794991612434387
11.494951725006104,-0.3818623125553131,-0.24327385425567627,0.509705662727356,0.37252938747406006,0.2859557867050171,-0.9795187711715698
11.515021800994873,-0.3819635510444641,-0.2434569001197815,0.509484052658081,0.3727741837501526,0.2867250442504883,-0.9795159697532654
11.535112380981445,-0.382436603307724,-0.24394991993904114,0.5096838474273682,0.3716617822647095,0.28700149059295654,-0.9796072840690613
11.555160284042358,-0.3825462758541107,-0.24449023604393005,0.5094056129455566,0.3723352253437042,0.28824368119239807,-0.9793487191200256
11.575252771377563,-0.3820854723453522,-0.24401697516441345,0.5096932649612427,0.37247025966644287,0.28681132197380066,-0.9795421361923218
11.595398187637329,-0.38203245401382446,-0.24393203854560852,0.5097270011901855,0.3724350333213806,0.2867147624492645,-0.9795759916305542
11.615506649017334,-0.38743457198143005,-0.23455625772476196,0.5155268311500549,0.3695562183856964,0.2869565188884735,-0.9796651005744934
11.635519027709961,-0.3810705840587616,-0.23487809300422668,0.5075254440307617,0.37644466757774353,0.2883249521255493,-0.9795058369636536
11.655579566955566,-0.38168904185295105,-0.23902210593223572,0.508741021156311,0.3748912513256073,0.28719842433929443,-0.9792757034301758
11.675657033920288,-0.38232579827308655,-0.2416025996208191,0.5092003345489502,0.37429696321487427,0.28876107931137085,-0.9793849587440491
11.69570016860962,0.07368484139442444,-0.22318878769874573,0.5427597165107727,0.3155028522014618,0.46797043085098267,-1.0454655885696411
11.715797662734985,0.056019823998212814,-0.368131160736084,0.547726035118103,0.25377723574638367,0.4455280900001526,-1.038664698600769
11.735934257507324,0.05737561360001564,-0.6091657280921936,0.5701916217803955,0.2296740561723709,0.4538193345069885,-1.0350010395050049
11.755998134613037,0.04939467832446098,-0.8010687828063965,0.5940858125686646,0.20944476127624512,0.45736193656921387,-1.03270423412323
11.776082038879395,0.05439087003469467,-0.8801265358924866,0.6002992391586304,0.20271094143390656,0.46762388944625854,-1.0307998657226562
11.796130418777466,0.05642475560307503,-1.0165140628814697,0.6170528531074524,0.1921750009059906,0.4797872304916382,-1.0301796197891235
11.816186666488647,0.06068829819560051,-1.1157196760177612,0.6281528472900391,0.1861899197101593,0.4901771545410156,-1.028910517692566
11.836242198944092,0.055052291601896286,-1.176100492477417,0.6406760811805725,0.18037334084510803,0.4948711395263672,-1.028372049331665
11.85631775856018,0.05944423750042915,-1.1995495557785034,0.6421369314193726,0.1805112212896347,0.49698615074157715,-1.028571367263794
11.87639307975769,0.05636913701891899,-1.2387843132019043,0.6477904915809631,0.1772138625383377,0.5018242597579956,-1.0287210941314697
11.896498680114746,0.0607401467859745,-1.2590638399124146,0.6500333547592163,0.17818063497543335,0.5062284469604492,-1.0284674167633057
11.91660213470459,0.05816102400422096,-1.2666730880737305,0.6531314849853516,0.17650079727172852,0.5060945749282837,-1.0284384489059448
11.936684370040894,0.04923471435904503,-1.2714412212371826,0.6607102155685425,0.17160314321517944,0.504353940486908,-1.027847170829773
11.956839323043823,0.06154656037688255,-1.2784596681594849,0.6540191769599915,0.17616939544677734,0.5076941251754761,-1.0289831161499023
11.976773738861084,0.06310711801052094,-1.2905737161636353,0.6548524498939514,0.17716597020626068,0.5100085735321045,-1.0288350582122803
11.996862649917603,0.06136192008852959,-1.2955864667892456,0.6542550325393677,0.1757151186466217,0.5125361680984497,-1.028879165649414
12.016927480697632,0.06197744980454445,-1.3014905452728271,0.6572902202606201,0.17576663196086884,0.5109723210334778,-1.0286781787872314
12.036993026733398,0.06428830325603485,-1.2931907176971436,0.6559946537017822,0.17664489150047302,0.5114599466323853,-1.02872633934021
12.057040691375732,0.0617963932454586,-1.2999454736709595,0.656515896320343,0.17683374881744385,0.5116838216781616,-1.0288525819778442
12.077203750610352,0.061174627393484116,-1.3015836477279663,0.6575958728790283,0.17523694038391113,0.5117700099945068,-1.0287110805511475
12.097261905670166,0.05261236056685448,-1.2969173192977905,0.6631534099578857,0.1748821884393692,0.5027306079864502,-1.0288677215576172
12.11732292175293,0.05028190836310387,-1.284490704536438,0.6646339297294617,0.17340975999832153,0.5082181692123413,-1.028174638748169
12.137470722198486,0.06082941219210625,-1.2802658081054688,0.6565516591072083,0.1771596372127533,0.5108377933502197,-1.0288758277893066
12.157536268234253,0.05851353332400322,-1.283364176750183,0.6587813496589661,0.17644253373146057,0.507918119430542,-1.0287038087844849
12.177610158920288,0.06368377804756165,-1.2881261110305786,0.6572030186653137,0.1798427402973175,0.511608362197876,-1.0281506776809692
12.197713375091553,0.06298699975013733,-1.2948445081710815,0.6589510440826416,0.17699560523033142,0.510230302810669,-1.0282272100448608
12.217719793319702,0.05698266252875328,-1.2926970720291138,0.6625483632087708,0.17360332608222961,0.5087580680847168,-1.028110146522522
12.237837791442871,0.06220142915844917,-1.2930638790130615,0.6584885716438293,0.17600978910923004,0.5111804604530334,-1.0286957025527954
12.257923364639282,0.06246235594153404,-1.2971572875976562,0.6600332856178284,0.17660553753376007,0.5108898878097534,-1.0283945798873901
12.277992248535156,0.05368676409125328,-1.2903261184692383,0.6650063395500183,0.17498360574245453,0.5104050636291504,-1.02793288230896
12.298041105270386,0.061892878264188766,-1.2877421379089355,0.6594760417938232,0.17798364162445068,0.5123357176780701,-1.0284385681152344
12.31810450553894,0.059576358646154404,-1.281965970993042,0.6609725952148438,0.17835339903831482,0.5114544034004211,-1.028285026550293
12.338155746459961,0.058205243200063705,-1.2823611497879028,0.6608588099479675,0.17749391496181488,0.5117182731628418,-1.0281785726547241
12.358252048492432,0.05704909935593605,-1.2792261838912964,0.6629654169082642,0.17812460660934448,0.510509192943573,-1.0282363891601562
12.378353834152222,0.061407420784235,-1.2829699516296387,0.6591811180114746,0.17869426310062408,0.5122994780540466,-1.0288214683532715
12.398365259170532,0.060646671801805496,-1.285721778869629,0.6607576608657837,0.17815080285072327,0.5119564533233643,-1.0285240411758423
12.418453931808472,0.05920296534895897,-1.2753905057907104,0.6609731912612915,0.17896637320518494,0.5111449956893921,-1.0279722213745117
12.438539743423462,0.04735671356320381,-1.2685779333114624,0.6685149073600769,0.1755126714706421,0.5042834877967834,-1.0283316373825073
12.458606004714966,0.04949112609028816,-1.2624009847640991,0.6664149761199951,0.17623087763786316,0.5073446035385132,-1.0282515287399292
12.478684902191162,0.055149760097265244,-1.2574726343154907,0.6624481081962585,0.17961835861206055,0.5103116631507874,-1.0283217430114746
12.498756885528564,0.058369364589452744,-1.2587305307388306,0.6603068709373474,0.18024706840515137,0.5111672878265381,-1.0279247760772705
12.518847703933716,0.0519733689725399,-1.2577946186065674,0.6654099822044373,0.1776774674654007,0.5085436105728149,-1.0274056196212769
12.538952589035034,0.059842344373464584,-1.2653900384902954,0.6610455513000488,0.1781291365623474,0.50936359167099,-1.0286074876785278
12.55900263786316,0.05828271433711052,-1.2693156003952026,0.6626715064048767,0.17937979102134705,0.5072780847549438,-1.0285784006118774
12.579151630401611,0.06228950247168541,-1.2721312046051025,0.6609296202659607,0.1787310689687729,0.5106290578842163,-1.0279173851013184
12.599208354949951,0.060997169464826584,-1.2785313129425049,0.6628242135047913,0.1788259595632553,0.5110094547271729,-1.0280351638793945
12.619234323501587,0.06085307523608208,-1.2823044061660767,0.663205087184906,0.178337961435318,0.5120630264282227,-1.0283799171447754
12.639341592788696,0.06012345477938652,-1.2817375659942627,0.664395809173584,0.17822113633155823,0.5115488767623901,-1.0280956029891968
12.659497261047363,0.061636824160814285,-1.273830533027649,0.6620849967002869,0.1810218095779419,0.5139939785003662,-1.0282760858535767
12.679574728012085,0.06011628732085228,-1.2603590488433838,0.6632043123245239,0.1824343204498291,0.5127601623535156,-1.0273852348327637
12.699618577957153,0.05639318749308586,-1.2517833709716797,0.6629995107650757,0.1825321614742279,0.5136012434959412,-1.0278698205947876
12.719712734222412,0.05097603425383568,-1.248400330543518,0.6663979887962341,0.17818203568458557,0.5100795030593872,-1.028282642364502
12.739765405654907,0.05522109940648079,-1.2425243854522705,0.6624433398246765,0.18171942234039307,0.5092965364456177,-1.0281764268875122
12.759835720062256,0.05930938199162483,-1.2500566244125366,0.6621738076210022,0.18194766342639923,0.511175811290741,-1.0283641815185547
12.779875993728638,0.059628766030073166,-1.253807544708252,0.6627897620201111,0.1808638721704483,0.5102831125259399,-1.0283479690551758
12.799939632415771,0.0598159097135067,-1.2602745294570923,0.6632698178291321,0.18043702840805054,0.5114642977714539,-1.028573751449585
12.82001256942749,0.06028379872441292,-1.2643359899520874,0.6641210913658142,0.18070904910564423,0.5113334655761719,-1.0285371541976929
12.840064764022827,0.059911902993917465,-1.2687911987304688,0.6641796231269836,0.180526465177536,0.5121963024139404,-1.0289984941482544
12.860159158706665,0.057430412620306015,-1.2684317827224731,0.6658898591995239,0.17885273694992065,0.5109494924545288,-1.029283046722412
12.880240201950073,0.05835459753870964,-1.2587432861328125,0.6650148630142212,0.18173955380916595,0.5118717551231384,-1.0291810035705566
12.900303363800049,0.05815129354596138,-1.2466431856155396,0.662818193435669,0.18300485610961914,0.5134941935539246,-1.028873324394226
12.92034912109375,0.05083056911826134,-1.241686463356018,0.6673156023025513,0.17994524538516998,0.5116201639175415,-1.0287326574325562
12.940535068511963,0.0564652644097805,-1.2407736778259277,0.6639223098754883,0.18322357535362244,0.5133949518203735,-1.0292398929595947
12.960565567016602,0.05886154994368553,-1.2356261014938354,0.6639115214347839,0.18470899760723114,0.5116500854492188,-1.028660535812378
12.98068881034851,0.05797027423977852,-1.244596242904663,0.6636813282966614,0.18211890757083893,0.5120173096656799,-1.0295324325561523
13.000722408294678,0.058148931711912155,-1.2501271963119507,0.6647560000419617,0.1807553470134735,0.5116726160049438,-1.0296002626419067
13.020856380462646,0.05544170364737511,-1.2501258850097656,0.6671086549758911,0.18113774061203003,0.5106559991836548,-1.0293865203857422
13.040903329849243,0.05624525621533394,-1.2391161918640137,0.6647529602050781,0.18453127145767212,0.5125601291656494,-1.0292861461639404
13.061017036437988,0.05677253380417824,-1.2329455614089966,0.664911687374115,0.1844477355480194,0.5130378007888794,-1.0289814472198486
13.081032991409302,0.05678398534655571,-1.2355201244354248,0.6652085185050964,0.18347348272800446,0.5116860866546631,-1.0294374227523804
13.101146221160889,0.05279794707894325,-1.2222026586532593,0.6676422357559204,0.1845509111881256,0.5113142728805542,-1.0281635522842407
13.121216535568237,0.05614646151661873,-1.2269700765609741,0.6645236015319824,0.1833728849887848,0.5117394924163818,-1.0292900800704956
13.141227960586548,0.05978037044405937,-1.2351038455963135,0.6657158136367798,0.1864089071750641,0.5120016932487488,-1.029004454612732
13.161335706710815,0.05910271033644676,-1.2398432493209839,0.6652520298957825,0.18460491299629211,0.5130386352539062,-1.029428482055664
13.181470155715942,0.05858875438570976,-1.2426018714904785,0.6661409139633179,0.1834784895181656,0.5127423405647278,-1.0287237167358398
13.201468706130981,0.057985302060842514,-1.2302950620651245,0.6656008362770081,0.1856222152709961,0.5138049125671387,-1.028368592262268
13.221696853637695,0.04649840667843819,-1.226184368133545,0.671994686126709,0.17988836765289307,0.5102016925811768,-1.028946876525879
13.241711139678955,0.04755348339676857,-1.219165563583374,0.6730023622512817,0.18193942308425903,0.5084091424942017,-1.0283944606781006
13.261965274810791,0.0484442375600338,-1.2112082242965698,0.6709017157554626,0.1840631067752838,0.5108117461204529,-1.0278891324996948
13.282132863998413,0.04326619580388069,-1.207421898841858,0.6728320717811584,0.1808672845363617,0.5095518231391907,-1.0283193588256836
13.302274942398071,0.04469183459877968,-1.2023407220840454,0.6723849773406982,0.1846468150615692,0.5027934312820435,-1.028764247894287
13.322282552719116,0.05209333822131157,-1.19973623752594,0.6672928333282471,0.18740779161453247,0.513098418712616,-1.0275577306747437
13.342372417449951,0.056357357650995255,-1.2076311111450195,0.6666423678398132,0.18680095672607422,0.5113199949264526,-1.0287797451019287
13.362447261810303,0.05577884986996651,-1.2158681154251099,0.6678633093833923,0.18448296189308167,0.5114968419075012,-1.0286853313446045
13.382511377334595,0.05717901512980461,-1.221474051475525,0.6682297587394714,0.1862964779138565,0.5124412775039673,-1.0286506414413452
13.402688026428223,0.05636103078722954,-1.2240406274795532,0.6688999533653259,0.18457859754562378,0.5122318863868713,-1.0290824174880981
13.422810554504395,0.056937526911497116,-1.227254867553711,0.6685123443603516,0.1858239769935608,0.5138256549835205,-1.0288368463516235
13.442874431610107,0.05370045825839043,-1.2271782159805298,0.6717588305473328,0.18488559126853943,0.5117455720901489,-1.0285972356796265
13.462951898574829,0.05485055223107338,-1.2146326303482056,0.670203685760498,0.1876639723777771,0.5115944147109985,-1.0281630754470825
13.483104467391968,0.04261321201920509,-1.2064212560653687,0.6766501665115356,0.1811985820531845,0.5094468593597412,-1.0279855728149414
13.503172159194946,0.05270976200699806,-1.1957961320877075,0.6684285402297974,0.1860821396112442,0.5125422477722168,-1.028692364692688
13.523189067840576,0.04851996526122093,-1.1940220594406128,0.6719507575035095,0.18520992994308472,0.5109878182411194,-1.028147578239441
13.54331111907959,0.05486130341887474,-1.1952016353607178,0.6689589619636536,0.18938937783241272,0.5130997896194458,-1.0285344123840332
13.563382148742676,0.05388565734028816,-1.1921603679656982,0.6695836782455444,0.1889021247625351,0.5114210844039917,-1.0282069444656372
13.583420991897583,0.05028015747666359,-1.1976087093353271,0.6719638705253601,0.18830272555351257,0.5073260068893433,-1.0287654399871826
13.603522300720215,0.05344253405928612,-1.1991344690322876,0.669571578502655,0.18688064813613892,0.5104422569274902,-1.0284837484359741
13.623616456985474,0.05489521846175194,-1.2025002241134644,0.6725248694419861,0.18701520562171936,0.5092036724090576,-1.0283558368682861
13.643795013427734,0.05529089644551277,-1.197529673576355,0.6706700921058655,0.18740136921405792,0.5113264918327332,-1.0282195806503296
13.66389274597168,0.054528918117284775,-1.2036057710647583,0.6713080406188965,0.1879047453403473,0.5111658573150635,-1.028649091720581
13.683892488479614,0.04800061509013176,-1.2011315822601318,0.6750072836875916,0.18675413727760315,0.5102366805076599,-1.0282591581344604
13.703949689865112,0.05060296878218651,-1.192692756652832,0.6735170483589172,0.18661752343177795,0.5107555389404297,-1.0273939371109009
13.724063158035278,0.05473768338561058,-1.1796053647994995,0.6697384119033813,0.19015973806381226,0.5125541090965271,-1.0275044441223145
13.74409818649292,0.04477107897400856,-1.1796131134033203,0.6756989359855652,0.18845494091510773,0.5123919248580933,-1.0275946855545044
13.764176607131958,0.04509344324469566,-1.1722439527511597,0.6758766174316406,0.18961815536022186,0.5123618245124817,-1.027536392211914
13.784364461898804,0.05079526826739311,-1.17375648021698,0.6724339127540588,0.19019341468811035,0.5114322304725647,-1.0282373428344727
13.804368257522583,0.05348150059580803,-1.1692533493041992,0.6712333559989929,0.19163043797016144,0.512786865234375,-1.0283827781677246
13.824453592300415,0.046916741877794266,-1.1702581644058228,0.674705445766449,0.18915002048015594,0.5104395151138306,-1.028294563293457
13.844614028930664,0.05078815296292305,-1.1754298210144043,0.6731247901916504,0.18814688920974731,0.5091356039047241,-1.0286105871200562
13.86462688446045,0.05429917201399803,-1.1771026849746704,0.6725143194198608,0.19214975833892822,0.5119947195053101,-1.0275753736495972
13.884670495986938,0.054548826068639755,-1.1833794116973877,0.6737640500068665,0.18975386023521423,0.5114592909812927,-1.0280686616897583
13.904834032058716,0.05477793887257576,-1.1854441165924072,0.673854410648346,0.18940021097660065,0.5108168721199036,-1.0277483463287354
13.924901247024536,0.05442407354712486,-1.1860307455062866,0.6749234199523926,0.19020575284957886,0.5113713145256042,-1.0279203653335571
13.944987058639526,0.05511987581849098,-1.18047034740448,0.6718308329582214,0.1923927515745163,0.515967607498169,-1.0283170938491821
13.965037107467651,0.05126582458615303,-1.1710556745529175,0.6745393872261047,0.19149565696716309,0.5114729404449463,-1.0276973247528076
13.985227346420288,0.051061127334833145,-1.172602891921997,0.674039363861084,0.19038531184196472,0.5128039717674255,-1.028289556503296
14.00528860092163,0.05050499364733696,-1.169289469718933,0.6754310131072998,0.19184935092926025,0.5132670402526855,-1.027830958366394
14.025426149368286,0.0399458073079586,-1.1649484634399414,0.6800789833068848,0.1862378716468811,0.5112810134887695,-1.0277410745620728
14.045425653457642,0.051093269139528275,-1.1526137590408325,0.6732906699180603,0.1926681399345398,0.5126248598098755,-1.028462290763855
14.065507411956787,0.040585752576589584,-1.1493366956710815,0.678912878036499,0.18808218836784363,0.5101292729377747,-1.027921438217163
14.085564851760864,0.0434366874396801,-1.144723892211914,0.677696704864502,0.1907205879688263,0.5103945136070251,-1.0278136730194092
14.105637788772583,0.04393257573246956,-1.146535038948059,0.677605926990509,0.19250428676605225,0.5034058094024658,-1.0292853116989136
14.125758171081543,0.04424349591135979,-1.1465016603469849,0.6785844564437866,0.19180533289909363,0.5069305300712585,-1.0292316675186157
14.145845651626587,0.0505080483853817,-1.1456388235092163,0.6750193238258362,0.19339624047279358,0.5084282159805298,-1.0282114744186401
14.165932655334473,0.05173111334443092,-1.1516987085342407,0.6745181679725647,0.19276413321495056,0.5104192495346069,-1.0284438133239746
14.186103582382202,0.05419429764151573,-1.159887433052063,0.6752963662147522,0.1939483880996704,0.5109313130378723,-1.0287913084030151
14.2065269947052,0.053070735186338425,-1.168114423751831,0.6766791343688965,0.1919574737548828,0.5119376182556152,-1.0293247699737549
14.226655006408691,0.04999776557087898,-1.1672520637512207,0.6793695092201233,0.19014129042625427,0.510036289691925,-1.0285414457321167
14.246724367141724,0.051180917769670486,-1.1585828065872192,0.6763594150543213,0.19222773611545563,0.5139216184616089,-1.0288784503936768
14.266770839691162,0.049991872161626816,-1.1485751867294312,0.6765891909599304,0.19371405243873596,0.5143904685974121,-1.0287381410598755
14.286857604980469,0.03756416216492653,-1.1413265466690063,0.6835770606994629,0.18851786851882935,0.5099686980247498,-1.0281903743743896
14.307028532028198,0.040901269763708115,-1.1345475912094116,0.6802594065666199,0.19005703926086426,0.5100388526916504,-1.028732419013977
14.327023029327393,0.04653118923306465,-1.127553105354309,0.6767957806587219,0.19560828804969788,0.5123195648193359,-1.0292295217514038
14.34708023071289,0.04175044223666191,-1.1258190870285034,0.6796172857284546,0.19191822409629822,0.5121300220489502,-1.02852201461792
14.367243766784668,0.0501515157520771,-1.1315933465957642,0.6769624948501587,0.1952652633190155,0.5120327472686768,-1.0291990041732788
14.387269258499146,0.05153466388583183,-1.1382724046707153,0.678596556186676,0.1956070065498352,0.510236382484436,-1.0288137197494507
14.407386302947998,0.048979613929986954,-1.1436049938201904,0.6790645718574524,0.19306418299674988,0.5087463855743408,-1.02899968624115
14.427479982376099,0.05110115185379982,-1.145203709602356,0.6784437894821167,0.19571004807949066,0.5109184980392456,-1.02842116355896
14.44756031036377,0.05246126279234886,-1.1474651098251343,0.6788234114646912,0.19512610137462616,0.5121452808380127,-1.0283948183059692
14.467601537704468,0.04355945065617561,-1.1419920921325684,0.6829385757446289,0.19271326065063477,0.5129600763320923,-1.028164267539978
14.487690210342407,0.05047193542122841,-1.1398013830184937,0.679096519947052,0.19706156849861145,0.5148884057998657,-1.0284106731414795
