liuyurong129/humanoid-gym/humanoid/data/target_q_20250522-032454.csv
timestamp,joint_1,joint_2,joint_3,joint_4,joint_5,joint_6
5.507469177246094e-05,0.0,0.0,0.0,0.0,0.0,0.0
0.02013850212097168,0.0,0.0,0.0,0.0,0.0,0.0
0.04021310806274414,0.0,0.0,0.0,0.0,0.0,0.0
0.06029319763183594,0.0,0.0,0.0,0.0,0.0,0.0
0.0803534984588623,0.0,0.0,0.0,0.0,0.0,0.0
0.1004185676574707,-1.1867328882217407,-0.4341089427471161,0.8911479711532593,-0.32765039801597595,-0.07775987684726715,0.5624663829803467
0.12062811851501465,-1.2300095558166504,-0.41621455550193787,0.8855846524238586,-0.33057430386543274,-0.08158170431852341,0.5783634185791016
0.14062023162841797,-1.2730027437210083,-0.3977065086364746,0.8800594210624695,-0.33384501934051514,-0.08554547280073166,0.5942383408546448
0.1607208251953125,-1.2942599058151245,-0.3879924416542053,0.8768671154975891,-0.33544784784317017,-0.08759088069200516,0.60210120677948
0.18078255653381348,-1.3362078666687012,-0.3674435615539551,0.8710517287254333,-0.33867910504341125,-0.0916343405842781,0.6181384325027466
0.20137596130371094,-1.3772693872451782,-0.3454514145851135,0.8651319742202759,-0.3421093821525574,-0.09563970565795898,0.6344359517097473
0.22147655487060547,-1.3966660499572754,-0.332872211933136,0.8620815873146057,-0.34373220801353455,-0.09728164970874786,0.6431479454040527
0.24166584014892578,-1.4278552532196045,-0.31040918827056885,0.8556649684906006,-0.34751659631729126,-0.0998525470495224,0.6583012342453003
0.2616875171661377,-1.4403412342071533,-0.3009539246559143,0.8525323271751404,-0.3493412733078003,-0.10060951113700867,0.6646157503128052
0.2817564010620117,-1.4611878395080566,-0.2853229343891144,0.8458268642425537,-0.35309576988220215,-0.10181588679552078,0.6750657558441162
0.3019249439239502,-1.4776532649993896,-0.2722371816635132,0.8414533734321594,-0.3552262485027313,-0.10352371633052826,0.6831846237182617
0.32193803787231445,-1.4854652881622314,-0.2668302655220032,0.8408467173576355,-0.3556992709636688,-0.1049032136797905,0.6864945292472839
0.3420114517211914,-1.4974998235702515,-0.25789186358451843,0.8395999670028687,-0.35689663887023926,-0.10711251199245453,0.6919577717781067
0.36211347579956055,-1.5021586418151855,-0.2502737045288086,0.8393398523330688,-0.35771745443344116,-0.10801593959331512,0.6962684392929077
0.38216519355773926,-1.5061283111572266,-0.2474500834941864,0.8388941287994385,-0.35810980200767517,-0.10874252021312714,0.698089599609375
0.4022552967071533,-1.51456880569458,-0.24301324784755707,0.8368119597434998,-0.35925599932670593,-0.1102716326713562,0.7011000514030457
0.42238378524780273,-1.5200296640396118,-0.23918431997299194,0.8354644775390625,-0.3599518835544586,-0.11112354695796967,0.7034849524497986
0.4424715042114258,-1.5206546783447266,-0.23750118911266327,0.8351012468338013,-0.36021071672439575,-0.11109711229801178,0.704413115978241
0.46255016326904297,-1.5200166702270508,-0.23457753658294678,0.8328440189361572,-0.36106395721435547,-0.11015168577432632,0.7060683965682983
0.48259472846984863,-1.5225286483764648,-0.23260454833507538,0.83326655626297,-0.3609747886657715,-0.11091013997793198,0.707237184047699
0.5026800632476807,-1.522425651550293,-0.23178085684776306,0.8336238861083984,-0.36098992824554443,-0.1108529269695282,0.7077441215515137
0.5227594375610352,-1.5203453302383423,-0.23006671667099,0.8330526947975159,-0.3609502911567688,-0.11007463186979294,0.7085459232330322
0.5428996086120605,-1.5204957723617554,-0.2293854057788849,0.8331897854804993,-0.36055848002433777,-0.11030540615320206,0.708807110786438
0.5629854202270508,-1.5179370641708374,-0.22831924259662628,0.8337535858154297,-0.36022263765335083,-0.10979899764060974,0.7094307541847229
0.5830538272857666,-1.5167044401168823,-0.22775669395923615,0.8317712545394897,-0.36065295338630676,-0.10882209986448288,0.7098923325538635
0.6031324863433838,-1.5169016122817993,-0.2275463044643402,0.8313489556312561,-0.36056238412857056,-0.1087401807308197,0.7100344896316528
0.6232044696807861,-1.5150341987609863,-0.22729729115962982,0.8303877711296082,-0.36086970567703247,-0.10790081322193146,0.7103003263473511
0.6432700157165527,-1.5158907175064087,-0.22738726437091827,0.8299674391746521,-0.3610548973083496,-0.10801097005605698,0.7105485200881958
0.6634385585784912,-1.5152519941329956,-0.22713831067085266,0.829221785068512,-0.3609860837459564,-0.1075267493724823,0.7106900215148926
0.6834759712219238,-1.5106418132781982,-0.22642627358436584,0.8289961218833923,-0.3606323301792145,-0.10624512284994125,0.7108524441719055
0.7035274505615234,-1.5082366466522217,-0.22632551193237305,0.8311877846717834,-0.3598552942276001,-0.10648743063211441,0.7108832001686096
0.7236270904541016,-1.5083391666412354,-0.2265084832906723,0.8312293291091919,-0.3596465289592743,-0.10638412833213806,0.7108834385871887
0.7436935901641846,-1.5039039850234985,-0.22679287195205688,0.8300497531890869,-0.36012154817581177,-0.1044260635972023,0.7109915018081665
0.764005184173584,-1.5018835067749023,-0.22697319090366364,0.8279316425323486,-0.36034107208251953,-0.1030459925532341,0.711144745349884
0.7841000556945801,-1.501596450805664,-0.2272246778011322,0.8276609182357788,-0.3603944778442383,-0.1026957631111145,0.7112671136856079
0.8041591644287109,-1.5007573366165161,-0.22726060450077057,0.8274700045585632,-0.35986414551734924,-0.10237079858779907,0.7112948894500732
0.824291467666626,-1.4997010231018066,-0.22744417190551758,0.8278244733810425,-0.35973575711250305,-0.10207588970661163,0.7113270163536072
0.8443632125854492,-1.4987361431121826,-0.2278302162885666,0.8291691541671753,-0.35909974575042725,-0.10192642360925674,0.7114389538764954
0.8644001483917236,-1.497684359550476,-0.22773286700248718,0.831208348274231,-0.3578394055366516,-0.10226962715387344,0.7115067839622498
0.8844876289367676,-1.496484637260437,-0.22779491543769836,0.8304297924041748,-0.357805997133255,-0.10158847272396088,0.7115827798843384
0.9045593738555908,-1.493409276008606,-0.2282845675945282,0.8301870226860046,-0.3578663468360901,-0.10016357898712158,0.7116596698760986
0.9253413677215576,-1.4923440217971802,-0.22868400812149048,0.8289452195167542,-0.3579379618167877,-0.09938359260559082,0.7116924524307251
0.945432186126709,-1.4933809041976929,-0.22893035411834717,0.8286541700363159,-0.3577684760093689,-0.09950202703475952,0.7117475867271423
0.9654974937438965,-1.4910539388656616,-0.22903642058372498,0.8275943994522095,-0.3577285408973694,-0.09827100485563278,0.7118391990661621
0.9857661724090576,-1.4886218309402466,-0.22895629703998566,0.8270302414894104,-0.3575533926486969,-0.09723097831010818,0.7118837833404541
1.0059669017791748,-1.4874686002731323,-0.2293938249349594,0.8278684616088867,-0.3570442199707031,-0.09693803638219833,0.7118881344795227
1.0259535312652588,-1.4861059188842773,-0.22974446415901184,0.8280451893806458,-0.35675686597824097,-0.0963037982583046,0.7119327783584595
1.046065330505371,-1.4829185009002686,-0.22962209582328796,0.8275631070137024,-0.3567207157611847,-0.0952245220541954,0.7119549512863159
1.0662291049957275,-1.4793533086776733,-0.22949041426181793,0.8287750482559204,-0.35594141483306885,-0.09486675262451172,0.7119544744491577
1.0862786769866943,-1.4809000492095947,-0.23041732609272003,0.8291802406311035,-0.35586535930633545,-0.09537423402070999,0.7118955254554749
1.1063411235809326,-1.4814594984054565,-0.23084227740764618,0.829725980758667,-0.3557678759098053,-0.0955103412270546,0.7118818163871765
1.1265065670013428,-1.4778637886047363,-0.230788916349411,0.8268359899520874,-0.35614386200904846,-0.09350588172674179,0.7120049595832825
1.146637201309204,-1.4747700691223145,-0.23057034611701965,0.826461136341095,-0.35592955350875854,-0.09252416342496872,0.7120271921157837
1.1667864322662354,-1.4713140726089478,-0.23070207238197327,0.8276609182357788,-0.3554198741912842,-0.0919366255402565,0.7120366096496582
1.1869118213653564,-1.468052864074707,-0.23135985434055328,0.8268881440162659,-0.3557661175727844,-0.09043538570404053,0.7120321989059448
1.2069954872131348,-1.46463942527771,-0.23156552016735077,0.8262085914611816,-0.356013685464859,-0.0890255942940712,0.7120535373687744
1.2271168231964111,-1.4620487689971924,-0.23190945386886597,0.8244507908821106,-0.3562416434288025,-0.08756224811077118,0.712099015712738
1.2472374439239502,-1.460890531539917,-0.23199419677257538,0.8239506483078003,-0.35613763332366943,-0.08700937777757645,0.71210777759552
1.2673015594482422,-1.462619662284851,-0.23261678218841553,0.8228553533554077,-0.3561517894268036,-0.08728533983230591,0.7121931314468384
1.287454605102539,-1.4640984535217285,-0.2328973412513733,0.8236454725265503,-0.3553226888179779,-0.08773147314786911,0.7122683525085449
1.3076088428497314,-1.463944435119629,-0.23297494649887085,0.8235268592834473,-0.35507914423942566,-0.08753655850887299,0.7123501300811768
1.3276238441467285,-1.4573723077774048,-0.23286882042884827,0.8235907554626465,-0.35475605726242065,-0.08540748059749603,0.7124296426773071
1.3477261066436768,-1.4565482139587402,-0.23298773169517517,0.8246421217918396,-0.3541482090950012,-0.08535100519657135,0.7124599814414978
1.3679215908050537,-1.4512428045272827,-0.23311512172222137,0.8258598446846008,-0.35344064235687256,-0.08416914939880371,0.7125669121742249
1.3880419731140137,-1.4471607208251953,-0.2336307018995285,0.8252298831939697,-0.35327446460723877,-0.08245789259672165,0.7126296162605286
1.408127784729004,-1.4473345279693604,-0.2340124547481537,0.8243753910064697,-0.35332271456718445,-0.0821722075343132,0.7126909494400024
1.4281740188598633,-1.4468084573745728,-0.2347569465637207,0.8236141204833984,-0.3536513149738312,-0.08144555240869522,0.7128974199295044
1.448302984237671,-1.4443869590759277,-0.23489943146705627,0.8232825398445129,-0.35376647114753723,-0.08057861030101776,0.7128902077674866
1.468386173248291,-1.4419916868209839,-0.23523244261741638,0.8220043182373047,-0.3538593649864197,-0.07930923998355865,0.7129969000816345
1.489006519317627,-1.4439201354980469,-0.2356557846069336,0.8240056037902832,-0.3527926802635193,-0.08040373772382736,0.7129138708114624
1.5091257095336914,-1.4412000179290771,-0.235330730676651,0.8249882459640503,-0.35223832726478577,-0.08009224385023117,0.7128833532333374
1.529181957244873,-1.4374816417694092,-0.23552048206329346,0.8250651359558105,-0.35178524255752563,-0.07897872477769852,0.7128422260284424
1.5492968559265137,-1.4374096393585205,-0.23588666319847107,0.8251748085021973,-0.35157254338264465,-0.07864774763584137,0.7128679156303406
1.5693557262420654,-1.4348706007003784,-0.2364935725927353,0.8238221406936646,-0.3519218862056732,-0.07699432969093323,0.7130404710769653
1.589453935623169,-1.4328655004501343,-0.23664844036102295,0.8224854469299316,-0.35228022933006287,-0.07597179710865021,0.7131074070930481
1.6096184253692627,-1.4310816526412964,-0.23695825040340424,0.8220506310462952,-0.3519105613231659,-0.07507076114416122,0.713209331035614
1.6296570301055908,-1.4268574714660645,-0.2372957319021225,0.822884738445282,-0.35162949562072754,-0.07335250079631805,0.7134001851081848
1.6497271060943604,-1.4244736433029175,-0.23741929233074188,0.8224332928657532,-0.35166218876838684,-0.07249774038791656,0.7133761048316956
1.6698741912841797,-1.424233078956604,-0.2375766634941101,0.8253495693206787,-0.35022464394569397,-0.07326726615428925,0.7132886052131653
1.6902844905853271,-1.4252679347991943,-0.23819616436958313,0.8262352347373962,-0.34990382194519043,-0.07382423430681229,0.7132164239883423
1.7103888988494873,-1.423791527748108,-0.2383631467819214,0.8242219686508179,-0.3504445552825928,-0.07268820703029633,0.7133091688156128
1.7305235862731934,-1.4201782941818237,-0.23834854364395142,0.8209487795829773,-0.350935697555542,-0.07070371508598328,0.713344156742096
1.7507350444793701,-1.4156765937805176,-0.23845645785331726,0.8205131888389587,-0.3509378731250763,-0.0691172182559967,0.7132785320281982
1.7708227634429932,-1.4153352975845337,-0.23868829011917114,0.8212604522705078,-0.350626140832901,-0.06912747025489807,0.7132213711738586
1.7909226417541504,-1.4108643531799316,-0.23886564373970032,0.8210850358009338,-0.3503563106060028,-0.06737563014030457,0.7132148742675781
1.8110246658325195,-1.4087002277374268,-0.23896275460720062,0.8221667408943176,-0.3499552011489868,-0.06691347807645798,0.7131613492965698
1.8311078548431396,-1.404780626296997,-0.2387748658657074,0.8235959410667419,-0.34872564673423767,-0.06634285300970078,0.7130929231643677
1.8511831760406494,-1.4037535190582275,-0.23954454064369202,0.8215318918228149,-0.3492490351200104,-0.0651400089263916,0.7131089568138123
1.8713247776031494,-1.4051433801651,-0.23990453779697418,0.8225597143173218,-0.3487068712711334,-0.06551942229270935,0.7130586504936218
1.8913636207580566,-1.4059128761291504,-0.24055291712284088,0.8227035999298096,-0.34855034947395325,-0.06557421386241913,0.7129896879196167
1.9114117622375488,-1.4031373262405396,-0.24050626158714294,0.8222272992134094,-0.34767216444015503,-0.0643172338604927,0.7129049897193909
1.9315400123596191,-1.4018703699111938,-0.24066154658794403,0.8224397897720337,-0.34742307662963867,-0.06379170715808868,0.7128821015357971
1.9516196250915527,-1.3990752696990967,-0.24109268188476562,0.8223012089729309,-0.34710344672203064,-0.06260031461715698,0.7128745317459106
1.9720439910888672,-1.394443154335022,-0.24126607179641724,0.8210471868515015,-0.347312867641449,-0.06090168654918671,0.7130137085914612
1.9921681880950928,-1.3921926021575928,-0.24130210280418396,0.820265531539917,-0.3472023010253906,-0.05965741351246834,0.713109016418457
2.012227773666382,-1.3879318237304688,-0.24167734384536743,0.8201891183853149,-0.34710946679115295,-0.05811314284801483,0.7130590081214905
2.03237247467041,-1.386040210723877,-0.24181243777275085,0.8193804621696472,-0.34710344672203064,-0.05727319419384003,0.713053822517395
2.0524048805236816,-1.385833740234375,-0.24228604137897491,0.8197834491729736,-0.3465023636817932,-0.05712473392486572,0.7129983901977539
2.072462558746338,-1.3837175369262695,-0.2428201138973236,0.8202048540115356,-0.34643983840942383,-0.0564458966255188,0.7130043506622314
2.0925490856170654,-1.3814754486083984,-0.24299001693725586,0.819882869720459,-0.3465105891227722,-0.05560879409313202,0.7130271792411804
2.112661838531494,-1.3808292150497437,-0.24343176186084747,0.8199679255485535,-0.3460560142993927,-0.055360451340675354,0.7130004167556763
2.1327507495880127,-1.380533218383789,-0.243688702583313,0.8195955753326416,-0.346035897731781,-0.055141959339380264,0.7130290865898132
2.152841091156006,-1.372924566268921,-0.24295902252197266,0.8198325037956238,-0.3448594808578491,-0.053233370184898376,0.7131228446960449
2.173666477203369,-1.3686225414276123,-0.2433597892522812,0.8196912407875061,-0.3443956971168518,-0.05155855417251587,0.7131017446517944
2.193779945373535,-1.3678441047668457,-0.2438628226518631,0.8198166489601135,-0.344424307346344,-0.051014769822359085,0.7131668329238892
2.2138307094573975,-1.3693835735321045,-0.2446325570344925,0.8214413523674011,-0.3435667157173157,-0.05119577422738075,0.713213324546814
2.2343928813934326,-1.368297815322876,-0.24480576813220978,0.8224709033966064,-0.34290364384651184,-0.050993043929338455,0.7132291793823242
2.2544755935668945,-1.3682307004928589,-0.24517549574375153,0.8221006393432617,-0.34304189682006836,-0.05030751973390579,0.7133688926696777
2.274536371231079,-1.365551471710205,-0.24531885981559753,0.8186752200126648,-0.34358492493629456,-0.048188984394073486,0.7135434150695801
2.2946367263793945,-1.3636291027069092,-0.2451999932527542,0.8178452849388123,-0.3433021605014801,-0.04721702262759209,0.713546633720398
2.314718246459961,-1.3622398376464844,-0.24545690417289734,0.8173405528068542,-0.3429536819458008,-0.04626911133527756,0.7136595249176025
2.334768295288086,-1.356895923614502,-0.2457251101732254,0.8165407180786133,-0.343323677778244,-0.04434354975819588,0.7136807441711426
2.354875087738037,-1.3542855978012085,-0.24583926796913147,0.8163161873817444,-0.3432803452014923,-0.0434768944978714,0.7136582732200623
2.3749446868896484,-1.3512892723083496,-0.2463473528623581,0.8171358108520508,-0.3431548476219177,-0.04237999767065048,0.7136929035186768
2.395000696182251,-1.3488024473190308,-0.24668827652931213,0.8149406909942627,-0.3436608910560608,-0.041096389293670654,0.7137616872787476
2.4150679111480713,-1.348616123199463,-0.24669891595840454,0.8147026896476746,-0.34349918365478516,-0.041304655373096466,0.7137590050697327
2.4351401329040527,-1.3469163179397583,-0.2467358410358429,0.816489577293396,-0.3426559567451477,-0.04162946343421936,0.7137808203697205
2.4564108848571777,-1.344244360923767,-0.2473258227109909,0.8170596361160278,-0.34250110387802124,-0.040638867765665054,0.7137603759765625
2.476578950881958,-1.3435804843902588,-0.24761320650577545,0.817478358745575,-0.34227675199508667,-0.040584683418273926,0.7136513590812683
2.49660062789917,-1.3395335674285889,-0.2481931447982788,0.8179178833961487,-0.3420865535736084,-0.039073191583156586,0.7136399149894714
2.5170185565948486,-1.3359111547470093,-0.24842317402362823,0.8173887133598328,-0.34221193194389343,-0.03743930906057358,0.7137544751167297
2.537169933319092,-1.3324832916259766,-0.24879677593708038,0.8154099583625793,-0.34238651394844055,-0.03583461418747902,0.7138165831565857
2.557203769683838,-1.3277398347854614,-0.24867945909500122,0.8154289126396179,-0.34164130687713623,-0.034618258476257324,0.7137919068336487
2.577374219894409,-1.3295202255249023,-0.24902617931365967,0.815159261226654,-0.34132471680641174,-0.034927550703287125,0.7137697339057922
2.5973870754241943,-1.3314893245697021,-0.24961210787296295,0.8163008093833923,-0.34059831500053406,-0.03546831011772156,0.7136671543121338
2.617449998855591,-1.3306140899658203,-0.2497061789035797,0.8162773847579956,-0.3402910828590393,-0.035055141896009445,0.7136092185974121
2.637592315673828,-1.326530933380127,-0.24969527125358582,0.8145567774772644,-0.3398018777370453,-0.03310220688581467,0.7135663032531738
2.6576309204101562,-1.3228954076766968,-0.24998655915260315,0.8138216137886047,-0.3395712673664093,-0.03147130459547043,0.7136085629463196
2.677748680114746,-1.3201267719268799,-0.25013235211372375,0.8128178119659424,-0.33966055512428284,-0.030144618824124336,0.7136865258216858
2.6978349685668945,-1.3157249689102173,-0.2501840591430664,0.8132969737052917,-0.33867934346199036,-0.028516236692667007,0.7137207388877869
2.7178871631622314,-1.3131545782089233,-0.2504560649394989,0.8158013820648193,-0.33736616373062134,-0.02826288528740406,0.7136423587799072
2.738074779510498,-1.3127559423446655,-0.2507709264755249,0.8160479068756104,-0.3370967209339142,-0.028231032192707062,0.7135578393936157
2.758244276046753,-1.3113293647766113,-0.25159791111946106,0.8166486024856567,-0.3369295299053192,-0.027658479288220406,0.713493287563324
2.779200315475464,-1.3131916522979736,-0.2524590492248535,0.8176369667053223,-0.3364351987838745,-0.02821176126599312,0.7133391499519348
2.799321174621582,-1.3118667602539062,-0.2527758479118347,0.8171677589416504,-0.3366055190563202,-0.027570070698857307,0.7133326530456543
2.8193764686584473,-1.3063371181488037,-0.2531467080116272,0.8162066340446472,-0.3366372883319855,-0.025408338755369186,0.7133187055587769
2.839501142501831,-1.3061292171478271,-0.25344014167785645,0.8173546195030212,-0.33623772859573364,-0.0256973747164011,0.7132542729377747
2.859684467315674,-1.3000926971435547,-0.2537086308002472,0.818601131439209,-0.33569464087486267,-0.02401147410273552,0.713285505771637
2.8798341751098633,-1.297554850578308,-0.25413426756858826,0.817333996295929,-0.33539414405822754,-0.022686079144477844,0.7133468389511108
2.8999412059783936,-1.296164870262146,-0.2545679211616516,0.8163091540336609,-0.33585140109062195,-0.02195115014910698,0.7133603096008301
2.9200398921966553,-1.2927446365356445,-0.2550971508026123,0.8160268068313599,-0.33559247851371765,-0.02028929628431797,0.713433027267456
2.940112352371216,-1.2951045036315918,-0.2554844617843628,0.8158646821975708,-0.33531415462493896,-0.020872320979833603,0.7134379148483276
2.960181474685669,-1.2916990518569946,-0.25591158866882324,0.8156793117523193,-0.3353559970855713,-0.01948864571750164,0.7134726643562317
2.9802236557006836,-1.2862955331802368,-0.25561270117759705,0.8174823522567749,-0.3339950740337372,-0.018531205132603645,0.7133476734161377
3.0002968311309814,-1.2845101356506348,-0.25578951835632324,0.817030131816864,-0.33382150530815125,-0.017742179334163666,0.7133644223213196
3.02040958404541,-1.2814325094223022,-0.2564016282558441,0.8148911595344543,-0.33425235748291016,-0.01603195071220398,0.7134127020835876
3.0405335426330566,-1.278793454170227,-0.25645309686660767,0.8141820430755615,-0.33393171429634094,-0.01477121189236641,0.7134039998054504
3.0605742931365967,-1.2764209508895874,-0.2570827305316925,0.8142519593238831,-0.3338722288608551,-0.013645945116877556,0.7133855819702148
3.0806713104248047,-1.2740049362182617,-0.2573872208595276,0.8136160373687744,-0.3335771858692169,-0.012578794732689857,0.713390052318573
3.1007497310638428,-1.2735865116119385,-0.25751793384552,0.8143631815910339,-0.33304429054260254,-0.012562711723148823,0.7133758664131165
3.121286630630493,-1.2679556608200073,-0.257339209318161,0.8138450384140015,-0.3321378231048584,-0.010871263220906258,0.713582456111908
3.141491174697876,-1.2629793882369995,-0.25680848956108093,0.8143936395645142,-0.3308178186416626,-0.00968961976468563,0.7137755155563354
3.1614837646484375,-1.2589889764785767,-0.25777214765548706,0.8124665021896362,-0.3307932913303375,-0.0073420824483036995,0.7140229940414429
3.1815574169158936,-1.2590985298156738,-0.25837215781211853,0.8126997947692871,-0.330720990896225,-0.007112901192158461,0.7140703201293945
3.2016494274139404,-1.2563247680664062,-0.25924748182296753,0.8128753900527954,-0.33056291937828064,-0.005731781478971243,0.7141435742378235
3.221723794937134,-1.2538455724716187,-0.26013994216918945,0.8128472566604614,-0.3307808041572571,-0.004503854550421238,0.714195728302002
3.2418296337127686,-1.2561334371566772,-0.26059970259666443,0.8134506344795227,-0.3304394483566284,-0.005199803505092859,0.7141636610031128
3.2619802951812744,-1.2538022994995117,-0.2609507143497467,0.8120347261428833,-0.3306798040866852,-0.004197654314339161,0.7141980528831482
3.2819879055023193,-1.249868631362915,-0.26066532731056213,0.8114023208618164,-0.3298748731613159,-0.0032098693773150444,0.71426922082901
3.302079677581787,-1.2471543550491333,-0.26077529788017273,0.8108826875686646,-0.32979458570480347,-0.0021134407725185156,0.7143118381500244
3.322165012359619,-1.2441856861114502,-0.2615298628807068,0.8104997277259827,-0.32994207739830017,-0.0007255015661939979,0.7143988609313965
3.342217445373535,-1.24116849899292,-0.26213178038597107,0.8102972507476807,-0.3299657702445984,0.0007299356511794031,0.7145106792449951
3.3623156547546387,-1.2405343055725098,-0.2625015079975128,0.8105199337005615,-0.3300536572933197,0.0009215103927999735,0.7144730687141418
3.3824267387390137,-1.2354536056518555,-0.26280277967453003,0.80836021900177,-0.3303055167198181,0.0033626090735197067,0.7145980596542358
3.402759552001953,-1.2355657815933228,-0.2630993723869324,0.8084732294082642,-0.3302816152572632,0.0032433881424367428,0.7145273089408875
3.422870397567749,-1.2343462705612183,-0.26315900683403015,0.8106043338775635,-0.3292171061038971,0.002842704299837351,0.7144333124160767
3.4429354667663574,-1.2291103601455688,-0.2632463574409485,0.8086999654769897,-0.3290115296840668,0.004829308483749628,0.714429497718811
3.463024616241455,-1.2263426780700684,-0.26322582364082336,0.8074027299880981,-0.32860901951789856,0.00621720589697361,0.7144922018051147
3.483124017715454,-1.2253069877624512,-0.2637651264667511,0.8078793287277222,-0.3278277814388275,0.00692855566740036,0.7144474983215332
3.503192901611328,-1.2214062213897705,-0.2639555335044861,0.8077406883239746,-0.3275994658470154,0.008662129752337933,0.714511513710022
3.523280620574951,-1.2186639308929443,-0.2642865478992462,0.8059380650520325,-0.3273250460624695,0.010202249512076378,0.7146059274673462
3.5433380603790283,-1.2163240909576416,-0.26461249589920044,0.8094603419303894,-0.32572558522224426,0.010337856598198414,0.7145072817802429
3.563439130783081,-1.2170414924621582,-0.2650672495365143,0.8092617392539978,-0.3256266415119171,0.010367784649133682,0.7144902944564819
3.5835113525390625,-1.2136728763580322,-0.26575809717178345,0.8102109432220459,-0.3253132104873657,0.011641101911664009,0.7143853902816772
3.6035561561584473,-1.2098677158355713,-0.2663268446922302,0.8097870349884033,-0.32497668266296387,0.013185294345021248,0.7143248915672302
3.6236538887023926,-1.2092149257659912,-0.2667066752910614,0.8077093362808228,-0.3253883421421051,0.013823632150888443,0.7144014239311218
3.6437838077545166,-1.204219937324524,-0.2671024203300476,0.8070750832557678,-0.3250850737094879,0.015812817960977554,0.7146090269088745
3.6638364791870117,-1.1963062286376953,-0.26711517572402954,0.8079862594604492,-0.32429999113082886,0.018141863867640495,0.714875340461731
3.683917999267578,-1.1954509019851685,-0.267410010099411,0.8084511756896973,-0.32389557361602783,0.018540747463703156,0.7148977518081665
3.7039999961853027,-1.1933327913284302,-0.2680048942565918,0.8093967437744141,-0.32338976860046387,0.019096428528428078,0.7148441672325134
3.724531650543213,-1.189899206161499,-0.26827430725097656,0.8082096576690674,-0.3228742778301239,0.020553171634674072,0.7148808836936951
3.7446184158325195,-1.1891809701919556,-0.26859262585639954,0.8073559999465942,-0.3227328062057495,0.02086492069065571,0.7147185206413269
3.7647461891174316,-1.1859716176986694,-0.2692568898200989,0.8077231049537659,-0.32225924730300903,0.02236195281147957,0.7146218419075012
3.784832000732422,-1.1855764389038086,-0.2697153687477112,0.8083680868148804,-0.3220893144607544,0.0226717758923769,0.7145966291427612
3.8049049377441406,-1.1822363138198853,-0.27036550641059875,0.8072762489318848,-0.32206234335899353,0.024608079344034195,0.7147223353385925
3.8253157138824463,-1.1768239736557007,-0.27045223116874695,0.8062502145767212,-0.32187893986701965,0.026774080470204353,0.7148436903953552
3.8454301357269287,-1.167923092842102,-0.2701989412307739,0.8066970705986023,-0.3202531635761261,0.029312830418348312,0.7150519490242004
3.865506887435913,-1.1632148027420044,-0.2707443833351135,0.8076707124710083,-0.3197009861469269,0.03087553381919861,0.7151688933372498
3.885580539703369,-1.1637282371520996,-0.27113863825798035,0.8075661063194275,-0.3192978501319885,0.03106171265244484,0.7151464819908142
3.905653715133667,-1.1589435338974,-0.27177321910858154,0.8060238361358643,-0.31881245970726013,0.03354552388191223,0.7151364684104919
3.9257118701934814,-1.1568617820739746,-0.27251681685447693,0.8045052289962769,-0.3186125159263611,0.03496088460087776,0.7150733470916748
3.9458091259002686,-1.1556695699691772,-0.27286529541015625,0.8045394420623779,-0.31837204098701477,0.03535648062825203,0.7149630188941956
3.9658820629119873,-1.1559076309204102,-0.27361932396888733,0.8024872541427612,-0.31877580285072327,0.03620130941271782,0.7149888277053833
3.9859602451324463,-1.154306173324585,-0.27407199144363403,0.8021978735923767,-0.3188374638557434,0.03708280995488167,0.7150250673294067
4.006063222885132,-1.1513001918792725,-0.27397510409355164,0.802119791507721,-0.3182143270969391,0.038174282759428024,0.7150219678878784
4.026157379150391,-1.147192358970642,-0.27417922019958496,0.8045121431350708,-0.31728851795196533,0.03882446885108948,0.7148657441139221
4.046202898025513,-1.1412932872772217,-0.274785578250885,0.8022018074989319,-0.3174550235271454,0.041605692356824875,0.7149228453636169
4.066365480422974,-1.1385115385055542,-0.27511683106422424,0.8018243312835693,-0.3174523711204529,0.04280068352818489,0.7149183750152588
4.086463212966919,-1.1366186141967773,-0.2756066620349884,0.8006606698036194,-0.3172001540660858,0.04380398988723755,0.714893102645874
4.10675311088562,-1.1337229013442993,-0.2758174240589142,0.8003032803535461,-0.31649741530418396,0.04514747112989426,0.7150394916534424
4.126893043518066,-1.1302303075790405,-0.2761024236679077,0.7996769547462463,-0.3166502118110657,0.04690893366932869,0.7151512503623962
4.14696741104126,-1.1262168884277344,-0.27647215127944946,0.7989259958267212,-0.31612035632133484,0.048610564321279526,0.7150897979736328
4.167665719985962,-1.1214213371276855,-0.27685099840164185,0.7961210012435913,-0.31589964032173157,0.05087893828749657,0.715056836605072
4.187759160995483,-1.1195169687271118,-0.2771037817001343,0.7956497073173523,-0.31588855385780334,0.051740847527980804,0.7150617837905884
4.2078258991241455,-1.116302251815796,-0.27716556191444397,0.7987236976623535,-0.3142096698284149,0.052249033004045486,0.714962363243103
4.227964162826538,-1.1130515336990356,-0.2774863839149475,0.7981348633766174,-0.314145565032959,0.05410808324813843,0.7151089906692505
4.248005151748657,-1.1095232963562012,-0.2779729664325714,0.7973660230636597,-0.3136039972305298,0.05586744099855423,0.7151119709014893
4.268056392669678,-1.1050379276275635,-0.2785240113735199,0.7991098761558533,-0.31228458881378174,0.05739855021238327,0.7151166796684265
4.288176774978638,-1.103714942932129,-0.27874720096588135,0.7993367910385132,-0.3116103708744049,0.057564087212085724,0.7150189876556396
4.308346748352051,-1.098341464996338,-0.2791467308998108,0.8001822829246521,-0.3105952739715576,0.05908531695604324,0.7150869965553284
4.32857084274292,-1.0958842039108276,-0.28013402223587036,0.7985517382621765,-0.3110474944114685,0.06053580343723297,0.715107262134552
4.348727464675903,-1.0911610126495361,-0.2805541157722473,0.7972756028175354,-0.3111797273159027,0.06256338953971863,0.7151474356651306
4.368778705596924,-1.0815353393554688,-0.2809455990791321,0.7964508533477783,-0.31018927693367004,0.0660177618265152,0.7152304649353027
4.388909578323364,-1.082138180732727,-0.28125667572021484,0.7967584133148193,-0.30981820821762085,0.06531857699155807,0.715029239654541
4.4090211391448975,-1.0752031803131104,-0.28211545944213867,0.7954413294792175,-0.30961084365844727,0.06834360212087631,0.714932918548584
4.42918586730957,-1.070417881011963,-0.2827887237071991,0.7957541346549988,-0.3092746436595917,0.07076339423656464,0.7149468064308167
4.449409484863281,-1.0664784908294678,-0.28291669487953186,0.7947551608085632,-0.3089102804660797,0.07222017645835876,0.7149803638458252
4.469404935836792,-1.0604757070541382,-0.2834003269672394,0.7924526929855347,-0.30865466594696045,0.07458484917879105,0.715078592300415
4.489476203918457,-1.0606129169464111,-0.2836013734340668,0.7935653328895569,-0.307668000459671,0.07435417920351028,0.7149627208709717
4.509651184082031,-1.0538393259048462,-0.28384390473365784,0.7929645776748657,-0.3061872720718384,0.0769595056772232,0.7150961756706238
4.529731035232544,-1.0531026124954224,-0.28463244438171387,0.7936888337135315,-0.30516302585601807,0.07744833827018738,0.7150052189826965
4.549761533737183,-1.0520260334014893,-0.2851068377494812,0.7943260669708252,-0.30487948656082153,0.07815725356340408,0.7149750590324402
4.569841623306274,-1.046722173690796,-0.28598105907440186,0.791940450668335,-0.30493688583374023,0.08122812211513519,0.7151356935501099
4.590320825576782,-1.0410425662994385,-0.2862812876701355,0.7923494577407837,-0.3038347363471985,0.082695871591568,0.7151381969451904
4.610415697097778,-1.0393626689910889,-0.28674671053886414,0.7918985486030579,-0.3037031888961792,0.08373481035232544,0.7151899337768555
4.630518674850464,-1.0356056690216064,-0.2876071035861969,0.7898117899894714,-0.30361121892929077,0.08575920760631561,0.7152412533760071
4.650707483291626,-1.027899980545044,-0.2877001166343689,0.7884767651557922,-0.302790105342865,0.0887163057923317,0.7154492139816284
4.670876741409302,-1.0197434425354004,-0.28831946849823,0.7883835434913635,-0.3019068241119385,0.09167280793190002,0.7155603170394897
4.690900564193726,-1.0118917226791382,-0.2889918088912964,0.7875152826309204,-0.3005908131599426,0.09464329481124878,0.7154915928840637
4.710999250411987,-1.0108811855316162,-0.2892456352710724,0.7869930267333984,-0.3004268407821655,0.09468133747577667,0.715369701385498
4.731125831604004,-1.0067338943481445,-0.29022884368896484,0.7873101830482483,-0.3001561760902405,0.09685970097780228,0.7153382301330566
4.751147985458374,-1.0051395893096924,-0.29063472151756287,0.7887003421783447,-0.2996631860733032,0.09741134941577911,0.7152061462402344
4.771237373352051,-1.001488447189331,-0.29132935404777527,0.785722017288208,-0.299171507358551,0.09960060566663742,0.715160071849823
4.791326522827148,-0.9944965839385986,-0.29122641682624817,0.7874011397361755,-0.29689866304397583,0.10142802447080612,0.7150947451591492
4.811713457107544,-0.9938133955001831,-0.2919248640537262,0.7861179113388062,-0.2958345115184784,0.10271388292312622,0.715006947517395
4.83191990852356,-0.9918934106826782,-0.29223620891571045,0.7856825590133667,-0.2954252064228058,0.10373958945274353,0.7150065898895264
4.8519580364227295,-0.9840271472930908,-0.29275840520858765,0.7871543169021606,-0.29404449462890625,0.1064407080411911,0.7150100469589233
4.87201452255249,-0.9802349209785461,-0.2932131886482239,0.7862589955329895,-0.2935585081577301,0.10802949965000153,0.7149871587753296
4.89209508895874,-0.9768790006637573,-0.29429030418395996,0.7854729890823364,-0.2931818962097168,0.10969821363687515,0.7147723436355591
4.912205219268799,-0.9774625301361084,-0.2946377992630005,0.7850936055183411,-0.29285961389541626,0.10985322296619415,0.7147307991981506
4.932284116744995,-0.9697221517562866,-0.29510805010795593,0.7864006161689758,-0.2917485535144806,0.11262055486440659,0.7148599624633789
4.952423334121704,-0.9627951383590698,-0.29567158222198486,0.7867062091827393,-0.2901187241077423,0.11486431211233139,0.7148163914680481
4.972523212432861,-0.957537829875946,-0.2962964177131653,0.7851570248603821,-0.28963059186935425,0.11744390428066254,0.7148874998092651
4.99259877204895,-0.9509627223014832,-0.29698073863983154,0.7829343676567078,-0.2883647382259369,0.12016506493091583,0.7149405479431152
5.012730360031128,-0.9480068683624268,-0.2972142994403839,0.7852053046226501,-0.2876550853252411,0.12068712711334229,0.7149327397346497
5.032808780670166,-0.9406607151031494,-0.298361599445343,0.7808142900466919,-0.2870645523071289,0.12455639243125916,0.7151354551315308
5.052869081497192,-0.9308277368545532,-0.2990122437477112,0.7816740274429321,-0.2853032052516937,0.12790539860725403,0.7151365280151367
5.072962999343872,-0.9329967498779297,-0.29993724822998047,0.7781850099563599,-0.286186158657074,0.12798075377941132,0.7150251865386963
5.0930492877960205,-0.9264547228813171,-0.3008643090724945,0.777779221534729,-0.28558769822120667,0.1304047405719757,0.714806854724884
5.113555192947388,-0.9155314564704895,-0.3013834059238434,0.7756107449531555,-0.28375357389450073,0.13401401042938232,0.7147036194801331
5.13364577293396,-0.9109161496162415,-0.3018414378166199,0.7761675119400024,-0.2830563187599182,0.13584943115711212,0.7145528793334961
5.1537556648254395,-0.9039360284805298,-0.30252984166145325,0.7734186053276062,-0.28221753239631653,0.13894781470298767,0.7146780490875244
5.173807621002197,-0.8953205943107605,-0.30343228578567505,0.7734427452087402,-0.28115832805633545,0.14235076308250427,0.7145969867706299
5.193909168243408,-0.8912119269371033,-0.30378520488739014,0.7719006538391113,-0.2802237272262573,0.14383645355701447,0.7145671248435974
5.213979959487915,-0.8839174509048462,-0.3044278621673584,0.7696704864501953,-0.2787180244922638,0.14680203795433044,0.7147175073623657
5.234155893325806,-0.8855125904083252,-0.30510494112968445,0.7690172791481018,-0.2785934507846832,0.1467016041278839,0.7145668268203735
5.254299640655518,-0.8776153922080994,-0.30612656474113464,0.7693119645118713,-0.2764446437358856,0.15014587342739105,0.7143366932868958
5.274372577667236,-0.8724298477172852,-0.30679792165756226,0.7695168852806091,-0.2738289535045624,0.15310901403427124,0.7142046689987183
5.294463396072388,-0.8655927777290344,-0.30690041184425354,0.7688294649124146,-0.272487998008728,0.1553041636943817,0.7143272161483765
5.314529180526733,-0.8546938896179199,-0.307329922914505,0.7668372392654419,-0.2703792452812195,0.15827882289886475,0.7143547534942627
5.3346405029296875,-0.8500776886940002,-0.3080906867980957,0.7650666832923889,-0.27024897933006287,0.16027355194091797,0.7142775058746338
5.354710578918457,-0.8382242918014526,-0.3090094327926636,0.762185275554657,-0.2679382264614105,0.1644866019487381,0.7142776846885681
5.374772548675537,-0.8280507922172546,-0.3097676634788513,0.7611568570137024,-0.2660200893878937,0.1680154651403427,0.7141525149345398
5.394892692565918,-0.8256351947784424,-0.3103983700275421,0.7589468359947205,-0.2658112645149231,0.16931603848934174,0.7140454649925232
5.414989948272705,-0.817226767539978,-0.31136083602905273,0.7593467235565186,-0.2638053894042969,0.17262496054172516,0.7138715982437134
5.435096263885498,-0.8122014999389648,-0.3124089241027832,0.7579208612442017,-0.26170215010643005,0.17488504946231842,0.7136476039886475
5.4551873207092285,-0.8102660179138184,-0.31290361285209656,0.7533645033836365,-0.2614254653453827,0.17586947977542877,0.7137370109558105
5.475241661071777,-0.801615834236145,-0.3138934075832367,0.7466573119163513,-0.26056867837905884,0.17870011925697327,0.7136228084564209
5.495476245880127,-0.792945384979248,-0.3148094415664673,0.7466673254966736,-0.25845134258270264,0.18226583302021027,0.7134586572647095
5.5155980587005615,-0.7864809036254883,-0.31509408354759216,0.7476556301116943,-0.25683408975601196,0.18457162380218506,0.713426411151886
5.53564977645874,-0.7742165327072144,-0.3161028325557709,0.7469004392623901,-0.2544462978839874,0.18887174129486084,0.7130972146987915
5.555865526199341,-0.7721935510635376,-0.3168221712112427,0.7432704567909241,-0.25399863719940186,0.19003985822200775,0.7129612565040588
5.575863361358643,-0.7613520622253418,-0.3176443874835968,0.7453869581222534,-0.2508354187011719,0.19365668296813965,0.7127231955528259
5.596033573150635,-0.7487356066703796,-0.3183426260948181,0.7434070110321045,-0.24766874313354492,0.1974269598722458,0.7127643823623657
5.61612868309021,-0.7412902116775513,-0.3190905451774597,0.743442177772522,-0.24561795592308044,0.20041470229625702,0.7126560211181641
5.6361870765686035,-0.7303190231323242,-0.32017451524734497,0.7408332228660583,-0.24107150733470917,0.203885018825531,0.7124437093734741
5.6566526889801025,-0.7301545143127441,-0.3209487199783325,0.7357189655303955,-0.24028269946575165,0.20382994413375854,0.7122557759284973
5.6767659187316895,-0.7162064909934998,-0.3220425844192505,0.7275413870811462,-0.23690806329250336,0.20694491267204285,0.7119517922401428
5.69681715965271,-0.7004575729370117,-0.3231879472732544,0.7225823402404785,-0.23227697610855103,0.21182186901569366,0.7116634249687195
5.716992378234863,-0.696977436542511,-0.32405000925064087,0.7212554812431335,-0.2310035228729248,0.21331486105918884,0.711309015750885
5.737022638320923,-0.6818481683731079,-0.3253166377544403,0.7159440517425537,-0.2252010852098465,0.21810263395309448,0.7109277844429016
5.757261037826538,-0.6615418195724487,-0.3265537619590759,0.7092841863632202,-0.2188347578048706,0.22384941577911377,0.7105650305747986
5.777376651763916,-0.6495447158813477,-0.32615774869918823,0.7129966020584106,-0.21491582691669464,0.2259005755186081,0.7104085683822632
5.797432899475098,-0.6372414231300354,-0.32745328545570374,0.7093465328216553,-0.21166899800300598,0.23029980063438416,0.7094981670379639
5.8175318241119385,-0.6331855058670044,-0.3288184106349945,0.7009820938110352,-0.21061013638973236,0.2325248122215271,0.7089176774024963
5.837661504745483,-0.6144802570343018,-0.32991722226142883,0.6905099153518677,-0.2038111835718155,0.2366950958967209,0.7083171010017395
5.8577165603637695,-0.5951886177062988,-0.331572949886322,0.6789380311965942,-0.1960884928703308,0.2414088249206543,0.7074605822563171
5.87782621383667,-0.5725110769271851,-0.33145177364349365,0.679097056388855,-0.18762458860874176,0.24440976977348328,0.7075546979904175
5.897894620895386,-0.551446259021759,-0.3325740396976471,0.675083577632904,-0.17907604575157166,0.24838313460350037,0.7067791819572449
5.917983055114746,-0.5354534983634949,-0.3366444408893585,0.657982587814331,-0.17182792723178864,0.2514088451862335,0.705764651298523
5.938084602355957,-0.5394420623779297,-0.3388770818710327,0.6443268060684204,-0.17153072357177734,0.25159525871276855,0.7047709822654724
5.958186149597168,-0.5211225748062134,-0.3423457145690918,0.6356695890426636,-0.16401967406272888,0.2554434537887573,0.7036135792732239
5.978567600250244,-0.5054793357849121,-0.3458889424800873,0.6271852254867554,-0.1567700207233429,0.25784045457839966,0.7021065950393677
5.998692035675049,-0.4844997823238373,-0.34558695554733276,0.638285219669342,-0.14933231472969055,0.2603107988834381,0.7024734616279602
6.018782138824463,-0.4715079665184021,-0.34820616245269775,0.6326198577880859,-0.14258040487766266,0.2627203166484833,0.701181173324585
6.038839101791382,-0.4822348654270172,-0.35331329703330994,0.6108126044273376,-0.14392611384391785,0.2607991397380829,0.6995099186897278
6.059002161026001,-0.46807006001472473,-0.3579125702381134,0.6038517951965332,-0.13638314604759216,0.2632799744606018,0.6984232664108276
6.079403638839722,-0.4488039016723633,-0.3566649258136749,0.6181533336639404,-0.12989117205142975,0.26548510789871216,0.6992698311805725
6.099506378173828,-0.4396214187145233,-0.3599880039691925,0.6157320737838745,-0.12420323491096497,0.2669222056865692,0.6985630393028259
6.119578123092651,-0.4304823875427246,-0.361992210149765,0.6192825436592102,-0.11912785470485687,0.2693093717098236,0.6981124877929688
6.1396825313568115,-0.44284674525260925,-0.3666679263114929,0.6090928316116333,-0.12140478193759918,0.26990243792533875,0.696594774723053
6.159739017486572,-0.43773534893989563,-0.366944283246994,0.626042366027832,-0.11807440221309662,0.27297115325927734,0.6965935230255127
6.179886341094971,-0.4357263147830963,-0.36887046694755554,0.6412362456321716,-0.11597108095884323,0.2759961485862732,0.6966084241867065
6.1999876499176025,-0.420328289270401,-0.3655530512332916,0.660011351108551,-0.11122335493564606,0.2766574025154114,0.6977965235710144
6.220096111297607,-0.4186936020851135,-0.3671281635761261,0.6799226403236389,-0.1095714271068573,0.2808054983615875,0.6979350447654724
6.240260124206543,-0.43454158306121826,-0.3736254572868347,0.6767082214355469,-0.11372584104537964,0.28268304467201233,0.6966887712478638
6.26039457321167,-0.4390524625778198,-0.3779281973838806,0.6912649869918823,-0.11477077752351761,0.28576043248176575,0.6963741779327393
6.280426025390625,-0.43719929456710815,-0.3810943365097046,0.709878146648407,-0.11329634487628937,0.2902464270591736,0.6968450546264648
6.300642490386963,-0.4227828085422516,-0.37761297821998596,0.7294036149978638,-0.1085924506187439,0.29080092906951904,0.698014497756958
6.320801019668579,-0.4166765511035919,-0.38017818331718445,0.7551621198654175,-0.10629752278327942,0.29708704352378845,0.6989170908927917
6.340871810913086,-0.4155709147453308,-0.38456568121910095,0.7755323052406311,-0.10628315806388855,0.3035706579685211,0.6992871761322021
6.361157417297363,-0.42325595021247864,-0.3906700909137726,0.7851947546005249,-0.108631432056427,0.30955713987350464,0.6989992260932922
6.381195306777954,-0.41953691840171814,-0.39489156007766724,0.8068934082984924,-0.10753248631954193,0.316178560256958,0.699570894241333
6.40123438835144,-0.4061240255832672,-0.39432191848754883,0.8271276354789734,-0.1027248278260231,0.31948593258857727,0.7007080912590027
6.421339988708496,-0.40927746891975403,-0.40279537439346313,0.8455662727355957,-0.10307522863149643,0.3275093734264374,0.7006621956825256
6.441407918930054,-0.4234716296195984,-0.4129847288131714,0.8498058319091797,-0.10691824555397034,0.33324286341667175,0.7001751661300659
6.461562633514404,-0.43076595664024353,-0.41780903935432434,0.8501746654510498,-0.1092243492603302,0.33615797758102417,0.7000216245651245
6.48162317276001,-0.44748008251190186,-0.4266258776187897,0.8473973870277405,-0.11339821666479111,0.3400146961212158,0.6996185183525085
6.501661062240601,-0.4608190059661865,-0.4334256947040558,0.8435443639755249,-0.11633434891700745,0.34257009625434875,0.6995917558670044
6.521761417388916,-0.4654940664768219,-0.43605220317840576,0.8426485657691956,-0.11710836738348007,0.34412679076194763,0.6998709440231323
6.541844606399536,-0.473536878824234,-0.44031545519828796,0.8382394909858704,-0.11785000562667847,0.3464232087135315,0.7004740834236145
6.562065839767456,-0.4784611463546753,-0.4433195888996124,0.8322789072990417,-0.11752866953611374,0.3481108546257019,0.7010897397994995
6.582155227661133,-0.4794859290122986,-0.44452089071273804,0.827966570854187,-0.11720024794340134,0.34882938861846924,0.701297402381897
6.602236270904541,-0.48273536562919617,-0.44635599851608276,0.8229595422744751,-0.11612384766340256,0.3497489392757416,0.7019912004470825
6.62231969833374,-0.485592246055603,-0.447479248046875,0.8182533979415894,-0.11651091277599335,0.34909799695014954,0.7022098302841187
6.642400503158569,-0.48891112208366394,-0.4485662877559662,0.8130128383636475,-0.11467275023460388,0.34746310114860535,0.7030765414237976
6.662464141845703,-0.4953456521034241,-0.4500887989997864,0.8049410581588745,-0.11378104239702225,0.345683753490448,0.7040086984634399
6.68256950378418,-0.4993308186531067,-0.45078331232070923,0.8007695078849792,-0.11361709982156754,0.3437143564224243,0.7044187784194946
6.70264744758606,-0.5037113428115845,-0.4514712393283844,0.7996219992637634,-0.11292045563459396,0.3418499529361725,0.7057633399963379
6.722724914550781,-0.5062071681022644,-0.45184043049812317,0.7995782494544983,-0.11268818378448486,0.34093713760375977,0.7064307332038879
6.742798566818237,-0.5110988616943359,-0.45303699374198914,0.7920253872871399,-0.11184342205524445,0.3376351296901703,0.7077208757400513
6.762875080108643,-0.511644184589386,-0.45378780364990234,0.7838475108146667,-0.11067253351211548,0.3367898762226105,0.7092092037200928
6.7829484939575195,-0.5094448328018188,-0.45388057827949524,0.778881847858429,-0.10912436246871948,0.33627262711524963,0.709822952747345
6.80301308631897,-0.5015044212341309,-0.4529326856136322,0.7796298265457153,-0.10523898154497147,0.3371703624725342,0.7114691138267517
6.823096036911011,-0.4970366358757019,-0.4521978199481964,0.7810656428337097,-0.1028822511434555,0.33694130182266235,0.7123927474021912
6.843173503875732,-0.4880208969116211,-0.4517871141433716,0.7771530151367188,-0.09969332814216614,0.33808448910713196,0.7136537432670593
6.863223075866699,-0.4817805290222168,-0.45179226994514465,0.7700558304786682,-0.09689732640981674,0.33893609046936035,0.7149307727813721
6.883327484130859,-0.4773535430431366,-0.45189642906188965,0.7651673555374146,-0.0949849858880043,0.3404691219329834,0.7153985500335693
6.903435707092285,-0.47024548053741455,-0.45115917921066284,0.7654048204421997,-0.09085442125797272,0.3406558632850647,0.7167782783508301
6.923538446426392,-0.4660271108150482,-0.45063066482543945,0.7685587406158447,-0.088759645819664,0.3401942551136017,0.7178289294242859
6.943626880645752,-0.46710190176963806,-0.45087435841560364,0.7685631513595581,-0.08850589394569397,0.33935654163360596,0.7183939814567566
6.963719606399536,-0.4722743630409241,-0.4521186649799347,0.7681617736816406,-0.08958065509796143,0.3379306495189667,0.7194272875785828
6.984729051589966,-0.47935283184051514,-0.453931987285614,0.763099730014801,-0.09064002335071564,0.3363095223903656,0.7205706834793091
7.004818677902222,-0.4802403450012207,-0.45396947860717773,0.7668492794036865,-0.09060953557491302,0.3359978497028351,0.7213356494903564
7.024889230728149,-0.48846715688705444,-0.4556725025177002,0.7625288963317871,-0.09174083918333054,0.3333898186683655,0.7226484417915344
7.044952630996704,-0.4920412003993988,-0.45630961656570435,0.7627900242805481,-0.09239660948514938,0.33200496435165405,0.7233947515487671
7.065054893493652,-0.4985817074775696,-0.4575904905796051,0.7600390911102295,-0.09251458942890167,0.3292078971862793,0.7250332832336426
7.0851075649261475,-0.5008112788200378,-0.45859479904174805,0.755132257938385,-0.09147686511278152,0.32833749055862427,0.7270110845565796
7.105199813842773,-0.5027331113815308,-0.45886558294296265,0.7530633211135864,-0.09101434051990509,0.32655054330825806,0.7278546094894409
7.125271558761597,-0.4991499185562134,-0.45867156982421875,0.7518948316574097,-0.0882321149110794,0.32480230927467346,0.7300231456756592
7.145355463027954,-0.49192118644714355,-0.4582672715187073,0.7506635785102844,-0.08346346765756607,0.3246327042579651,0.7324762940406799
7.16542649269104,-0.4807990789413452,-0.4577028155326843,0.7498819828033447,-0.07993358373641968,0.32671114802360535,0.7336351871490479
7.185593128204346,-0.4737623631954193,-0.4576716423034668,0.7524644136428833,-0.07722832262516022,0.3283006548881531,0.7358710169792175
7.2056050300598145,-0.4695591330528259,-0.45820003747940063,0.7533797025680542,-0.07649549841880798,0.330596387386322,0.737747073173523
7.225701093673706,-0.4701192378997803,-0.4584919512271881,0.7547353506088257,-0.07628621906042099,0.3310695290565491,0.7385261058807373
7.245769023895264,-0.46363019943237305,-0.45823657512664795,0.7573037147521973,-0.07403581589460373,0.33247795701026917,0.7406622767448425
7.26593542098999,-0.46182429790496826,-0.4580845236778259,0.7633171081542969,-0.07261178642511368,0.33143070340156555,0.7427314519882202
7.286117076873779,-0.4657514691352844,-0.45891231298446655,0.7617941498756409,-0.07313226163387299,0.3297124207019806,0.7434750199317932
7.306159019470215,-0.4668121635913849,-0.4592943489551544,0.767473042011261,-0.07166330516338348,0.3281831443309784,0.7455848455429077
7.326314687728882,-0.46640610694885254,-0.4600140452384949,0.77064448595047,-0.07080501317977905,0.32777655124664307,0.7477583289146423
7.346411466598511,-0.4664383828639984,-0.460419237613678,0.7730023860931396,-0.07051365822553635,0.32723525166511536,0.7487627863883972
7.366493463516235,-0.4711754322052002,-0.4621669054031372,0.7745450735092163,-0.07169178873300552,0.3253682851791382,0.7503342032432556
7.386566877365112,-0.47431880235671997,-0.4632769823074341,0.7725493907928467,-0.07226148247718811,0.3244253098964691,0.751183032989502
7.406634569168091,-0.47943443059921265,-0.46532386541366577,0.7673335671424866,-0.07298003882169724,0.3238145709037781,0.7531391978263855
7.426699161529541,-0.4854065179824829,-0.4670247733592987,0.7599559426307678,-0.07371701300144196,0.3210750222206116,0.7548814415931702
7.44677472114563,-0.4847501814365387,-0.46726977825164795,0.7589786052703857,-0.07352433353662491,0.3209250569343567,0.7558826208114624
7.466965913772583,-0.4871561527252197,-0.4683849513530731,0.7513100504875183,-0.07329576462507248,0.31955116987228394,0.7579196095466614
7.487664461135864,-0.48911893367767334,-0.4689794182777405,0.7473463416099548,-0.07318601757287979,0.3188990652561188,0.7602438926696777
7.50777792930603,-0.4899253249168396,-0.4691239595413208,0.7472981810569763,-0.07326078414916992,0.3187939524650574,0.7615312337875366
7.527820110321045,-0.48688095808029175,-0.468646377325058,0.7494527697563171,-0.07154393196105957,0.3193957209587097,0.7643557190895081
7.547945737838745,-0.48281773924827576,-0.46800607442855835,0.7528318166732788,-0.06955230981111526,0.31941863894462585,0.7657753825187683
7.568032264709473,-0.4816540479660034,-0.468452125787735,0.748520016670227,-0.06923931837081909,0.31832730770111084,0.768139123916626
7.5881829261779785,-0.4792298674583435,-0.46828845143318176,0.751686692237854,-0.06849854439496994,0.3166830837726593,0.7707803845405579
7.6082923412323,-0.4723723828792572,-0.46761053800582886,0.75565505027771,-0.06608857959508896,0.3173724114894867,0.7725286483764648
7.6284496784210205,-0.4651828110218048,-0.4670795202255249,0.7599138617515564,-0.0628473311662674,0.31675833463668823,0.7755606174468994
7.648608207702637,-0.4614564776420593,-0.46719205379486084,0.7648301720619202,-0.06074202060699463,0.3167871832847595,0.7785699367523193
7.668702602386475,-0.46334099769592285,-0.46806758642196655,0.7618280649185181,-0.06128491461277008,0.3166572153568268,0.779867947101593
7.688805341720581,-0.4587963819503784,-0.46805259585380554,0.7684985399246216,-0.0592818520963192,0.31685835123062134,0.7829360365867615
7.708889961242676,-0.4573303759098053,-0.46811574697494507,0.7704896926879883,-0.05795690417289734,0.31613072752952576,0.7844202518463135
7.728976011276245,-0.46102672815322876,-0.4695069193840027,0.7693202495574951,-0.05907207727432251,0.314110666513443,0.7867209911346436
7.749052286148071,-0.46468353271484375,-0.4712076187133789,0.7622634172439575,-0.06047097593545914,0.3120490610599518,0.7887045741081238
7.769146919250488,-0.46976763010025024,-0.47224584221839905,0.7586699724197388,-0.06140952929854393,0.3099997937679291,0.7896632552146912
7.789253234863281,-0.47613245248794556,-0.4736773669719696,0.7509413361549377,-0.06299126893281937,0.3063773810863495,0.7916431427001953
7.809288740158081,-0.48316746950149536,-0.4754195511341095,0.742825984954834,-0.06412380933761597,0.30407631397247314,0.7943704724311829
7.829388856887817,-0.48453807830810547,-0.47578901052474976,0.7423334121704102,-0.06439393758773804,0.3035932183265686,0.7958553433418274
7.84954571723938,-0.48533114790916443,-0.47598764300346375,0.7426655292510986,-0.0632554441690445,0.3028046488761902,0.798959493637085
7.869634628295898,-0.47991570830345154,-0.4755193591117859,0.7472374439239502,-0.06152840703725815,0.302787184715271,0.802219033241272
7.8897950649261475,-0.4770362377166748,-0.4752374589443207,0.7504529356956482,-0.06063445657491684,0.30323806405067444,0.8038380146026611
7.909853219985962,-0.4691144824028015,-0.474707692861557,0.7543147206306458,-0.058002062141895294,0.3033735156059265,0.8071396350860596
7.92992901802063,-0.4613721966743469,-0.4736205041408539,0.7630561590194702,-0.05514700710773468,0.3025956153869629,0.809081494808197
7.950052261352539,-0.4508622884750366,-0.4732082188129425,0.7693540453910828,-0.051542602479457855,0.303935170173645,0.8125001788139343
7.97017765045166,-0.4472457766532898,-0.4738723039627075,0.7713642716407776,-0.05144684016704559,0.30380696058273315,0.8154975771903992
7.990242004394531,-0.4506502151489258,-0.4749584496021271,0.7691231966018677,-0.05274157226085663,0.3030950129032135,0.8166384100914001
8.010339498519897,-0.45290035009384155,-0.47629258036613464,0.7701556086540222,-0.05340030789375305,0.3019733726978302,0.8192933797836304
8.030431509017944,-0.4571281969547272,-0.4780387580394745,0.7667520046234131,-0.05452834069728851,0.30034998059272766,0.821775496006012
8.050528049468994,-0.4597795605659485,-0.479019433259964,0.7633000016212463,-0.05548691377043724,0.29934337735176086,0.8229840397834778
8.070605993270874,-0.46776437759399414,-0.4807601571083069,0.7553415298461914,-0.05715208128094673,0.2963605225086212,0.8252094388008118
8.090739727020264,-0.4723912477493286,-0.48166757822036743,0.7509620189666748,-0.058444637805223465,0.2942299246788025,0.8263034820556641
8.110915899276733,-0.47787514328956604,-0.4827497601509094,0.7472684383392334,-0.05956927314400673,0.2925162613391876,0.8291082382202148
8.13094425201416,-0.480408251285553,-0.483242928981781,0.7436714172363281,-0.05963660404086113,0.2912020683288574,0.8320716619491577
8.151085138320923,-0.48041224479675293,-0.48325541615486145,0.7428737878799438,-0.05925901606678963,0.289980947971344,0.8336575031280518
8.171259641647339,-0.47989407181739807,-0.4833091199398041,0.7415735721588135,-0.0586969293653965,0.2892756462097168,0.836922287940979
8.191486597061157,-0.4728071689605713,-0.48256832361221313,0.7440103888511658,-0.05569145455956459,0.28965893387794495,0.8406364321708679
8.211641788482666,-0.4735754728317261,-0.4828842580318451,0.7418321371078491,-0.05590181052684784,0.2894977033138275,0.8424767255783081
8.231671571731567,-0.4716837406158447,-0.4829443097114563,0.7425810694694519,-0.0554136261343956,0.2892868220806122,0.8465151786804199
8.25174880027771,-0.47380948066711426,-0.4832037687301636,0.7414942383766174,-0.05569911375641823,0.28830069303512573,0.8483294248580933
8.271818399429321,-0.47453340888023376,-0.4833633303642273,0.7420693039894104,-0.0557008758187294,0.2872357964515686,0.8522918224334717
8.29188871383667,-0.4779765009880066,-0.48377424478530884,0.740490198135376,-0.05682649463415146,0.2849878668785095,0.8560558557510376
8.312079668045044,-0.4803856313228607,-0.4840121269226074,0.7385210394859314,-0.056826651096343994,0.28352072834968567,0.8578976392745972
8.33214783668518,-0.48772719502449036,-0.4843960404396057,0.7334257960319519,-0.05822721868753433,0.2780860960483551,0.8612294793128967
8.352240562438965,-0.49046504497528076,-0.4843771457672119,0.7253991365432739,-0.05871003121137619,0.27354124188423157,0.8648452758789062
8.37234377861023,-0.48877793550491333,-0.48405539989471436,0.7240181565284729,-0.05839867517352104,0.27252447605133057,0.8668481707572937
8.392393589019775,-0.4858313500881195,-0.48371216654777527,0.718951404094696,-0.057488467544317245,0.27090540528297424,0.8711408376693726
8.412492752075195,-0.4807415008544922,-0.48309826850891113,0.718780517578125,-0.05676014721393585,0.27122658491134644,0.8733662366867065
8.432718753814697,-0.4764537513256073,-0.48270776867866516,0.7189913392066956,-0.05497319996356964,0.2720300555229187,0.8782860636711121
8.45272421836853,-0.4748561680316925,-0.4824727773666382,0.7193243503570557,-0.054335255175828934,0.27250611782073975,0.8833141326904297
8.472804546356201,-0.47148364782333374,-0.48213493824005127,0.722598135471344,-0.05372854694724083,0.2728610932826996,0.8860490918159485
8.492988348007202,-0.463792085647583,-0.48113641142845154,0.7270225882530212,-0.050994180142879486,0.2730047106742859,0.8912996053695679
8.512986183166504,-0.4632921814918518,-0.48096710443496704,0.7250338196754456,-0.051103513687849045,0.2724320888519287,0.893730640411377
8.533064603805542,-0.46286121010780334,-0.4806262254714966,0.725989580154419,-0.04957599937915802,0.26904669404029846,0.8989371657371521
8.553289413452148,-0.4620208740234375,-0.4805169105529785,0.7299082279205322,-0.04809572547674179,0.26503461599349976,0.9042778015136719
8.573379755020142,-0.4585495591163635,-0.48043596744537354,0.7344796061515808,-0.04855430871248245,0.26415929198265076,0.9070793986320496
8.593449354171753,-0.4632229208946228,-0.4812212586402893,0.7318235635757446,-0.048313017934560776,0.2608136534690857,0.9122958779335022
8.61398696899414,-0.46851202845573425,-0.4820685088634491,0.726439356803894,-0.04797787591814995,0.25843796133995056,0.9177117943763733
8.634073734283447,-0.47213685512542725,-0.48253142833709717,0.7227412462234497,-0.04906390607357025,0.2571464776992798,0.9203022718429565
8.654128551483154,-0.47876662015914917,-0.4831482768058777,0.7144255638122559,-0.052320558577775955,0.25440990924835205,0.9256085157394409
8.674220085144043,-0.48118841648101807,-0.48322635889053345,0.7105705142021179,-0.05417756363749504,0.2535319924354553,0.9284279346466064
8.694332361221313,-0.4844803512096405,-0.4829179346561432,0.7031090259552002,-0.055519942194223404,0.25198546051979065,0.9347280263900757
8.714375734329224,-0.4871729910373688,-0.48194876313209534,0.6994284391403198,-0.057326413691043854,0.2500801086425781,0.9410151839256287
8.734482288360596,-0.48881837725639343,-0.4813440144062042,0.6978033185005188,-0.056709278374910355,0.2488418072462082,0.9443941116333008
8.75456714630127,-0.48762592673301697,-0.4799126982688904,0.6961182951927185,-0.05647195503115654,0.24739345908164978,0.9512154459953308
8.774744510650635,-0.4852622449398041,-0.47827333211898804,0.6955661177635193,-0.056110844016075134,0.24599331617355347,0.9578917026519775
8.7948317527771,-0.4856278896331787,-0.477655827999115,0.6937152147293091,-0.05529167503118515,0.24465292692184448,0.9612395763397217
8.814918041229248,-0.4835008680820465,-0.47626858949661255,0.6923948526382446,-0.05207963287830353,0.24356961250305176,0.9682331085205078
8.834998607635498,-0.4844282269477844,-0.47585341334342957,0.6917624473571777,-0.051741957664489746,0.2429438680410385,0.9718134999275208
8.855250835418701,-0.48542559146881104,-0.47489404678344727,0.6928189396858215,-0.051888786256313324,0.24184167385101318,0.9788554906845093
8.87523627281189,-0.48513421416282654,-0.4737979769706726,0.6903428435325623,-0.05068210884928703,0.2412470579147339,0.9859087467193604
8.895365238189697,-0.48678532242774963,-0.4733457863330841,0.6875039935112,-0.051696185022592545,0.24015206098556519,0.989084005355835
8.915457963943481,-0.4865407943725586,-0.4717825949192047,0.6840329766273499,-0.05121102184057236,0.23813840746879578,0.995323657989502
8.935823440551758,-0.4876546263694763,-0.47018831968307495,0.6814055442810059,-0.05004548281431198,0.23533248901367188,1.0013227462768555
8.955908060073853,-0.48473110795021057,-0.46938371658325195,0.6815064549446106,-0.048447661101818085,0.23596392571926117,1.0045541524887085
8.975979089736938,-0.48320141434669495,-0.46803581714630127,0.6803942322731018,-0.04729419946670532,0.23591262102127075,1.0105135440826416
8.996074676513672,-0.4819817543029785,-0.4672965705394745,0.6811412572860718,-0.04716445133090019,0.23597770929336548,1.0134273767471313
9.01616907119751,-0.4818594455718994,-0.4660819172859192,0.6818663477897644,-0.04472427815198898,0.23480795323848724,1.0192558765411377
9.036232948303223,-0.4815300703048706,-0.46488136053085327,0.6816169023513794,-0.044134821742773056,0.23426449298858643,1.0246654748916626
9.056297302246094,-0.4836946725845337,-0.46446460485458374,0.6791521310806274,-0.0461907759308815,0.23362180590629578,1.0269334316253662
9.076436758041382,-0.4890037178993225,-0.46317145228385925,0.6751362085342407,-0.046433012932538986,0.23176737129688263,1.0316728353500366
9.096590757369995,-0.49065691232681274,-0.4618266224861145,0.6727958917617798,-0.04504522308707237,0.23073093593120575,1.0364513397216797
9.1167151927948,-0.4919337034225464,-0.46119675040245056,0.6710188388824463,-0.045275572687387466,0.229940265417099,1.0386182069778442
9.136803388595581,-0.49231722950935364,-0.45959025621414185,0.6723574995994568,-0.04545535519719124,0.22936803102493286,1.042996883392334
9.156908750534058,-0.4910352826118469,-0.45867133140563965,0.6751872897148132,-0.04499247297644615,0.22959303855895996,1.0451289415359497
9.177042245864868,-0.4882167875766754,-0.457170695066452,0.6719655990600586,-0.04289933666586876,0.23034079372882843,1.0491912364959717
9.197119235992432,-0.4856780469417572,-0.4556528925895691,0.6709387302398682,-0.04133383557200432,0.23070798814296722,1.0531655550003052
9.217297554016113,-0.48803165555000305,-0.45509225130081177,0.667527437210083,-0.04210475832223892,0.23046639561653137,1.054856300354004
9.237339735031128,-0.4917493760585785,-0.45378175377845764,0.6622787714004517,-0.04487384110689163,0.2300506830215454,1.058039903640747
9.257511854171753,-0.4926476776599884,-0.45274099707603455,0.6624326705932617,-0.044485077261924744,0.22951307892799377,1.0596740245819092
9.277629137039185,-0.49023982882499695,-0.45082923769950867,0.6655178070068359,-0.042653344571590424,0.22938546538352966,1.0629338026046753
9.297649621963501,-0.489109605550766,-0.4491733908653259,0.6667529344558716,-0.0412081778049469,0.22876648604869843,1.0658655166625977
9.31773853302002,-0.48929363489151,-0.448605477809906,0.665502667427063,-0.04052623733878136,0.22794122993946075,1.0673314332962036
9.33780837059021,-0.48923593759536743,-0.44774359464645386,0.6606085896492004,-0.0395626574754715,0.22612740099430084,1.0702515840530396
9.357861757278442,-0.4877784848213196,-0.4467231333255768,0.6543337106704712,-0.040734197944402695,0.22668005526065826,1.0728622674942017
9.3780677318573,-0.4886079430580139,-0.4461100101470947,0.6521076560020447,-0.041302748024463654,0.22666457295417786,1.0741432905197144
9.398179292678833,-0.4890671372413635,-0.4445822238922119,0.6507906317710876,-0.0398922897875309,0.22717511653900146,1.0768134593963623
9.418399810791016,-0.4895000457763672,-0.44281136989593506,0.6529722809791565,-0.03864646703004837,0.2263319194316864,1.079000473022461
9.438583850860596,-0.4894404113292694,-0.4420590102672577,0.6540998816490173,-0.03819451853632927,0.2256653755903244,1.0800366401672363
9.45864748954773,-0.48677393794059753,-0.4407716989517212,0.6584968566894531,-0.03735009580850601,0.22544412314891815,1.0823249816894531
9.47874140739441,-0.4884563386440277,-0.4403718113899231,0.6568102836608887,-0.037546638399362564,0.22446371614933014,1.0831853151321411
9.498817205429077,-0.49197623133659363,-0.43995290994644165,0.6492409110069275,-0.03918579965829849,0.22267375886440277,1.0850353240966797
9.51890230178833,-0.49305692315101624,-0.4395374059677124,0.6433713436126709,-0.040861520916223526,0.22147972881793976,1.0869890451431274
9.53899884223938,-0.4930848777294159,-0.43898215889930725,0.642520010471344,-0.041611675173044205,0.22153565287590027,1.0878746509552002
9.559147119522095,-0.4921221435070038,-0.4373278319835663,0.6414122581481934,-0.040310706943273544,0.22226811945438385,1.089590072631836
9.579391717910767,-0.4868808388710022,-0.43578100204467773,0.6485933661460876,-0.03727392852306366,0.22341015934944153,1.091691255569458
9.599480390548706,-0.4850436747074127,-0.43513020873069763,0.6517015099525452,-0.036454301327466965,0.22329381108283997,1.0924981832504272
9.61957836151123,-0.48216041922569275,-0.4341811537742615,0.6530027389526367,-0.0352683924138546,0.22397419810295105,1.0941606760025024
9.639717817306519,-0.48473623394966125,-0.4335871934890747,0.6466827392578125,-0.03615322336554527,0.22308260202407837,1.0953590869903564
9.659815788269043,-0.48693138360977173,-0.43338543176651,0.642327606678009,-0.036613043397665024,0.22268158197402954,1.0959964990615845
9.679911851882935,-0.4892818331718445,-0.43290024995803833,0.6373795866966248,-0.03745044767856598,0.22169148921966553,1.097233772277832
9.700061559677124,-0.4936770796775818,-0.43213385343551636,0.6320831775665283,-0.03985808417201042,0.21967583894729614,1.0978946685791016
9.7201566696167,-0.49438995122909546,-0.43138039112091064,0.6331598162651062,-0.040719181299209595,0.21953155100345612,1.098380208015442
9.74022126197815,-0.49079692363739014,-0.4298345148563385,0.6442465782165527,-0.040853846818208694,0.22045917809009552,1.0997891426086426
9.760374307632446,-0.48852166533470154,-0.4292651414871216,0.6501615047454834,-0.03953956812620163,0.22101014852523804,1.1005754470825195
9.780409812927246,-0.4886210560798645,-0.42905595898628235,0.6453429460525513,-0.038278982043266296,0.22035712003707886,1.1017102003097534
9.800476789474487,-0.4888564944267273,-0.42914265394210815,0.6433179974555969,-0.03868553414940834,0.2193116992712021,1.1022014617919922
9.820687770843506,-0.48982369899749756,-0.42923131585121155,0.6362854838371277,-0.03881087154150009,0.21839258074760437,1.1033587455749512
9.841782569885254,-0.49273812770843506,-0.4289103150367737,0.6291831731796265,-0.03888073191046715,0.21743710339069366,1.1043330430984497
9.861884832382202,-0.4912058413028717,-0.42843198776245117,0.6307157278060913,-0.03825072571635246,0.21745942533016205,1.1049169301986694
9.881949663162231,-0.49578946828842163,-0.4274361729621887,0.62711501121521,-0.038727037608623505,0.21685285866260529,1.1053675413131714
9.902040719985962,-0.49390554428100586,-0.4266849160194397,0.6325187683105469,-0.037945594638586044,0.2172817587852478,1.105857491493225
9.922155857086182,-0.48909926414489746,-0.4257783591747284,0.6406344771385193,-0.03599971532821655,0.21795135736465454,1.1068482398986816
9.942235708236694,-0.4877869784832001,-0.4256121516227722,0.6396164298057556,-0.03622471168637276,0.21760854125022888,1.107460618019104
9.962732315063477,-0.48695045709609985,-0.42574793100357056,0.6361141204833984,-0.03684345632791519,0.21715259552001953,1.1081597805023193
9.982826232910156,-0.4865199625492096,-0.4258727431297302,0.6338865756988525,-0.03706981986761093,0.21716056764125824,1.1085445880889893
10.002893209457397,-0.48689746856689453,-0.42559492588043213,0.6303980350494385,-0.03689856454730034,0.21741007268428802,1.1091879606246948
10.023024320602417,-0.48658856749534607,-0.4253232181072235,0.6298251748085022,-0.036714281886816025,0.21730691194534302,1.109433650970459
10.043110609054565,-0.4863380193710327,-0.42466452717781067,0.6303218007087708,-0.03690354526042938,0.21660377085208893,1.1098990440368652
10.063154935836792,-0.4833851456642151,-0.4240495562553406,0.6366896629333496,-0.035952258855104446,0.21710431575775146,1.110819935798645
10.08324646949768,-0.4842783808708191,-0.42385855317115784,0.6370882987976074,-0.036359161138534546,0.21673321723937988,1.111037254333496
10.103327751159668,-0.48661428689956665,-0.4237574338912964,0.6385815143585205,-0.03689762204885483,0.21608735620975494,1.1117370128631592
10.123998165130615,-0.4872230589389801,-0.42415955662727356,0.6339513659477234,-0.036763083189725876,0.21545112133026123,1.1122671365737915
10.144085168838501,-0.4885285198688507,-0.424322247505188,0.6315612196922302,-0.03710982948541641,0.21469934284687042,1.1124122142791748
10.164157390594482,-0.49237942695617676,-0.42449885606765747,0.6238487362861633,-0.038732998073101044,0.21378065645694733,1.1125575304031372
10.18468427658081,-0.49346697330474854,-0.4239235520362854,0.6234977841377258,-0.0388205386698246,0.21346336603164673,1.1128838062286377
10.204777002334595,-0.49336665868759155,-0.4235769808292389,0.6246786117553711,-0.039006587117910385,0.21367546916007996,1.1130939722061157
10.224867582321167,-0.49170535802841187,-0.422892689704895,0.62937331199646,-0.038327328860759735,0.21419036388397217,1.1135566234588623
10.24495792388916,-0.4902076721191406,-0.4225881099700928,0.6320250630378723,-0.0379377119243145,0.2147558331489563,1.1138249635696411
10.265114784240723,-0.48970097303390503,-0.42250221967697144,0.631989061832428,-0.03772947937250137,0.214278906583786,1.1140958070755005
10.285447835922241,-0.4890419542789459,-0.4224562346935272,0.6317529082298279,-0.037748049944639206,0.21427734196186066,1.1143344640731812
10.305628299713135,-0.48899492621421814,-0.42254209518432617,0.6299588680267334,-0.03779502958059311,0.2140207141637802,1.1148236989974976
10.325641632080078,-0.48894137144088745,-0.42254161834716797,0.6293329000473022,-0.03785809129476547,0.21380695700645447,1.1150414943695068
10.345821619033813,-0.4886007308959961,-0.4224136471748352,0.6278957724571228,-0.03831716626882553,0.21388649940490723,1.115592122077942
10.365862131118774,-0.4873460829257965,-0.42215466499328613,0.6298579573631287,-0.037544310092926025,0.21425244212150574,1.1162797212600708
10.385932922363281,-0.48697400093078613,-0.42213577032089233,0.6300131678581238,-0.03742861747741699,0.21432793140411377,1.1165788173675537
10.406013011932373,-0.486505925655365,-0.4221094250679016,0.6293794512748718,-0.03770948946475983,0.21438755095005035,1.1170101165771484
10.426100492477417,-0.48698896169662476,-0.42195799946784973,0.6278622150421143,-0.03750938922166824,0.21450820565223694,1.1173361539840698
10.446285963058472,-0.48715993762016296,-0.4218820333480835,0.6274030804634094,-0.0372784286737442,0.21446694433689117,1.117476224899292
10.466309547424316,-0.4864596724510193,-0.4216731786727905,0.6273221969604492,-0.037136077880859375,0.2148250788450241,1.1177923679351807
10.487291812896729,-0.4871371388435364,-0.4213451147079468,0.6274450421333313,-0.03794378042221069,0.21481049060821533,1.117897391319275
10.5074143409729,-0.4870451092720032,-0.4210866391658783,0.6289225816726685,-0.03840893134474754,0.21494251489639282,1.1179332733154297
10.52748441696167,-0.4865977466106415,-0.42087435722351074,0.6292231678962708,-0.03816709294915199,0.21500039100646973,1.1181215047836304
10.547584295272827,-0.48697346448898315,-0.42084449529647827,0.6287046670913696,-0.03836526721715927,0.2148393839597702,1.1182358264923096
10.56764006614685,-0.48698481917381287,-0.420884370803833,0.6280589699745178,-0.03842739015817642,0.2145145833492279,1.1184834241867065
10.58769941329956,-0.4869028627872467,-0.4207685887813568,0.6287928819656372,-0.038169052451848984,0.21426762640476227,1.11873197555542
10.607802152633667,-0.4864114820957184,-0.4206660985946655,0.6299958229064941,-0.03804461658000946,0.21443182229995728,1.1188894510269165
10.627956628799438,-0.487131804227829,-0.4207381010055542,0.6293666362762451,-0.03839607164263725,0.213981494307518,1.1190166473388672
10.648054838180542,-0.4920053482055664,-0.4208102524280548,0.6283372044563293,-0.039435192942619324,0.21232299506664276,1.1191165447235107
10.668153762817383,-0.4943702518939972,-0.4208619296550751,0.628186821937561,-0.04006529971957207,0.21181190013885498,1.119315266609192
10.688222408294678,-0.49423837661743164,-0.42101937532424927,0.627739429473877,-0.040328674018383026,0.21148990094661713,1.119521975517273
10.708329677581787,-0.4941089451313019,-0.4210725426673889,0.6272046566009521,-0.040407270193099976,0.21154096722602844,1.1196414232254028
10.728451251983643,-0.49463915824890137,-0.4211800694465637,0.6258728504180908,-0.040695950388908386,0.21122325956821442,1.1197694540023804
10.748508930206299,-0.49308598041534424,-0.42108944058418274,0.6257016658782959,-0.0402018278837204,0.21178537607192993,1.1200222969055176
10.768625974655151,-0.48906630277633667,-0.42110371589660645,0.6260233521461487,-0.03923271596431732,0.21304035186767578,1.1202263832092285
10.78874921798706,-0.4880419075489044,-0.4209378957748413,0.626098096370697,-0.0385202020406723,0.2134668231010437,1.1204841136932373
10.809122085571289,-0.48737257719039917,-0.42065051198005676,0.6267994046211243,-0.039214108139276505,0.21385398507118225,1.1206352710723877
10.829177618026733,-0.4869844913482666,-0.4204419255256653,0.6279197335243225,-0.03927183523774147,0.21408700942993164,1.1207724809646606
10.8492591381073,-0.4864595830440521,-0.4202616810798645,0.6295885443687439,-0.03932028263807297,0.21440136432647705,1.121018886566162
10.869484186172485,-0.4888453185558319,-0.42046958208084106,0.6282995939254761,-0.039490602910518646,0.21309810876846313,1.1210784912109375
10.889569520950317,-0.4892788529396057,-0.420543909072876,0.6278027892112732,-0.039081063121557236,0.21281671524047852,1.1211967468261719
10.909794807434082,-0.4911276698112488,-0.4207580089569092,0.625946044921875,-0.039704129099845886,0.21192622184753418,1.1212307214736938
10.94063949584961,-0.49210911989212036,-0.4208220839500427,0.6247255802154541,-0.04013990983366966,0.21166932582855225,1.1212518215179443
10.960695743560791,-0.49092742800712585,-0.420819491147995,0.6249685287475586,-0.03987107425928116,0.2120271623134613,1.1214333772659302
10.980786561965942,-0.4857063889503479,-0.42078089714050293,0.6254510879516602,-0.03867093846201897,0.21369726955890656,1.1217541694641113
11.001113414764404,-0.4859742522239685,-0.4206041991710663,0.6253607273101807,-0.03864891454577446,0.21349583566188812,1.1218273639678955
11.021233797073364,-0.4856342673301697,-0.42047035694122314,0.625355064868927,-0.03831243887543678,0.213767871260643,1.12191903591156
11.041312217712402,-0.48570528626441956,-0.4204079508781433,0.6253848671913147,-0.03790600970387459,0.21368063986301422,1.1220381259918213
11.061412572860718,-0.4858907163143158,-0.4203813672065735,0.6253634691238403,-0.03782230615615845,0.21356043219566345,1.1220754384994507
11.081496238708496,-0.48648136854171753,-0.4204014539718628,0.6253538727760315,-0.03804830089211464,0.21305081248283386,1.1220682859420776
11.101686477661133,-0.48693975806236267,-0.4204247295856476,0.6253111958503723,-0.03830879554152489,0.21264252066612244,1.1220580339431763
11.121779203414917,-0.4870445430278778,-0.4204629063606262,0.625381350517273,-0.03852127119898796,0.2124883383512497,1.1220650672912598
11.14185094833374,-0.48662662506103516,-0.42043793201446533,0.6264172792434692,-0.03871119022369385,0.21264341473579407,1.1221551895141602
11.161928415298462,-0.4859851598739624,-0.4204033613204956,0.6274648308753967,-0.03899441286921501,0.21298521757125854,1.1222243309020996
11.182017803192139,-0.48564693331718445,-0.4204583168029785,0.6276262998580933,-0.03936279937624931,0.21322521567344666,1.1222954988479614
11.202072858810425,-0.48557642102241516,-0.4204765260219574,0.6271902322769165,-0.0388106144964695,0.2134338915348053,1.1224253177642822
11.222180128097534,-0.48562467098236084,-0.42050257325172424,0.6271069049835205,-0.03894738480448723,0.2133861929178238,1.1224114894866943
11.242286443710327,-0.4865650534629822,-0.42053741216659546,0.6268936991691589,-0.03933936357498169,0.2130366861820221,1.1224135160446167
11.262385129928589,-0.4869079887866974,-0.4206116497516632,0.6269646286964417,-0.03978689759969711,0.21288372576236725,1.122437834739685
11.282473802566528,-0.4926576018333435,-0.4206874668598175,0.6264142990112305,-0.04096640646457672,0.2109932154417038,1.1224033832550049
11.302520990371704,-0.4929945766925812,-0.420835942029953,0.6261927485466003,-0.041375163942575455,0.2108050435781479,1.1225584745407104
11.322604417800903,-0.4930074214935303,-0.42091965675354004,0.6259902715682983,-0.04118816927075386,0.21065424382686615,1.122631549835205
11.34268832206726,-0.4926784634590149,-0.42113739252090454,0.6261328458786011,-0.0412478893995285,0.21046453714370728,1.1227957010269165
11.362952709197998,-0.49224475026130676,-0.421225905418396,0.6260256767272949,-0.04106227308511734,0.21055611968040466,1.1229764223098755
11.38304328918457,-0.491327702999115,-0.42127251625061035,0.6261407732963562,-0.04093090817332268,0.21091245114803314,1.1231095790863037
11.40311574935913,-0.4880291223526001,-0.4212351441383362,0.6261671781539917,-0.0403568260371685,0.21204659342765808,1.1232672929763794
11.423198938369751,-0.48788416385650635,-0.42116203904151917,0.6258707046508789,-0.0401826947927475,0.21208323538303375,1.1232877969741821
11.443266868591309,-0.48841482400894165,-0.4210185706615448,0.6254068613052368,-0.040354713797569275,0.21191643178462982,1.1233811378479004
11.463325262069702,-0.4882517457008362,-0.4209890365600586,0.6256250739097595,-0.04042752459645271,0.21204563975334167,1.1235929727554321
11.483407497406006,-0.48824071884155273,-0.42099523544311523,0.6257625222206116,-0.04044056311249733,0.21203485131263733,1.1236811876296997
11.503484725952148,-0.4884873926639557,-0.4210243821144104,0.6258605718612671,-0.04057072103023529,0.21181395649909973,1.123780369758606
11.523653745651245,-0.48816215991973877,-0.42105770111083984,0.6261138319969177,-0.04079057648777962,0.21197298169136047,1.123921275138855
11.543766498565674,-0.4884302020072937,-0.4210708737373352,0.6260483860969543,-0.04087590053677559,0.2117675542831421,1.1239216327667236
11.563844680786133,-0.488404780626297,-0.4210445284843445,0.6259852051734924,-0.04054662212729454,0.21184617280960083,1.124030590057373
11.583970069885254,-0.48826491832733154,-0.42100077867507935,0.6259494423866272,-0.040592364966869354,0.21198825538158417,1.1240873336791992
11.604080438613892,-0.4883783161640167,-0.4209657907485962,0.6258832216262817,-0.040737979114055634,0.21192573010921478,1.1241337060928345
11.624097108840942,-0.4885796904563904,-0.4209182858467102,0.6257259249687195,-0.04056369513273239,0.2118464559316635,1.1241798400878906
11.644357442855835,-0.4885774850845337,-0.42091211676597595,0.6257579922676086,-0.040620192885398865,0.2118348628282547,1.1242021322250366
11.66445803642273,-0.4884685277938843,-0.4209214746952057,0.6258928775787354,-0.04096769168972969,0.21184200048446655,1.1242297887802124
11.684651374816895,-0.48880672454833984,-0.42090272903442383,0.6256956458091736,-0.040766920894384384,0.21164007484912872,1.1242445707321167
11.704762697219849,-0.48905330896377563,-0.4208940267562866,0.62554532289505,-0.04090344160795212,0.21146917343139648,1.124230146408081
11.724917888641357,-0.4888558089733124,-0.42090076208114624,0.6256444454193115,-0.041195593774318695,0.21154740452766418,1.1242949962615967
11.744970560073853,-0.4888768196105957,-0.42088329792022705,0.6255577206611633,-0.04121161997318268,0.21154966950416565,1.1243107318878174
11.765069484710693,-0.488825261592865,-0.42087897658348083,0.6255657076835632,-0.04114232957363129,0.2115767002105713,1.1243698596954346
11.785350799560547,-0.4890921413898468,-0.42086437344551086,0.6254571676254272,-0.04087144136428833,0.21141445636749268,1.1243903636932373
11.805557489395142,-0.4889124929904938,-0.4208507537841797,0.6255667209625244,-0.041176099330186844,0.21150155365467072,1.1243975162506104
11.825518608093262,-0.4884384572505951,-0.420724093914032,0.6255635619163513,-0.0410207062959671,0.21183761954307556,1.124416470527649
11.845616579055786,-0.48857101798057556,-0.4207266569137573,0.6255081295967102,-0.04102335497736931,0.21169601380825043,1.1243830919265747
11.865734100341797,-0.48873811960220337,-0.4207177758216858,0.6253550052642822,-0.04110259562730789,0.2115694284439087,1.1243826150894165
11.885771751403809,-0.48835086822509766,-0.42066264152526855,0.6254486441612244,-0.040563978254795074,0.21185527741909027,1.124491572380066
11.905879497528076,-0.4880545437335968,-0.4206291437149048,0.6255406737327576,-0.04051253944635391,0.21206538379192352,1.1245330572128296
11.925999641418457,-0.4876747727394104,-0.4206167161464691,0.6257404685020447,-0.040796179324388504,0.21226686239242554,1.1245529651641846
11.946049690246582,-0.487607479095459,-0.4206348657608032,0.6258066296577454,-0.04078387841582298,0.21234098076820374,1.124595046043396
11.966148376464844,-0.48763391375541687,-0.42063379287719727,0.6257668733596802,-0.04047972336411476,0.212405726313591,1.1246497631072998
11.986319065093994,-0.48820748925209045,-0.420658141374588,0.6255559921264648,-0.04045192152261734,0.21207749843597412,1.1246578693389893
12.006521940231323,-0.4885016083717346,-0.42066070437431335,0.6253817081451416,-0.0404495894908905,0.21193337440490723,1.124680519104004
12.026665210723877,-0.48839932680130005,-0.4206881523132324,0.6255316734313965,-0.04082483425736427,0.2119438201189041,1.1246896982192993
12.046711444854736,-0.4885267913341522,-0.42068248987197876,0.6254367828369141,-0.040986061096191406,0.21188348531723022,1.124715805053711
12.066813945770264,-0.48862242698669434,-0.42066729068756104,0.6253193616867065,-0.04110032692551613,0.2118435651063919,1.1247193813323975
12.086911678314209,-0.48884057998657227,-0.42058974504470825,0.6248049139976501,-0.04107055068016052,0.2118583470582962,1.1248204708099365
12.106993436813354,-0.4889153838157654,-0.4206155240535736,0.6251726150512695,-0.041465144604444504,0.2117186337709427,1.1249864101409912
12.127228021621704,-0.4888990819454193,-0.42064937949180603,0.6251887679100037,-0.04140671715140343,0.21171371638774872,1.1250965595245361
12.147293090820312,-0.48875415325164795,-0.42068538069725037,0.625252902507782,-0.04096192494034767,0.21182605624198914,1.125335693359375
12.16735029220581,-0.4887595772743225,-0.420707643032074,0.6252526640892029,-0.040948349982500076,0.21179568767547607,1.1254684925079346
12.187483787536621,-0.4887719452381134,-0.420715868473053,0.6252580285072327,-0.04097148776054382,0.2117704153060913,1.1255199909210205
12.207625389099121,-0.48901140689849854,-0.4207572937011719,0.6252171397209167,-0.04106919839978218,0.21153856813907623,1.1255741119384766
12.227643013000488,-0.48920756578445435,-0.42078226804733276,0.6251749992370605,-0.041133370250463486,0.21135899424552917,1.1255825757980347
12.247733354568481,-0.4891446828842163,-0.420677125453949,0.6251207590103149,-0.04083435237407684,0.21137012541294098,1.1256035566329956
12.267839193344116,-0.48917990922927856,-0.4206484258174896,0.6251161694526672,-0.04088573902845383,0.21129965782165527,1.1255877017974854
12.287930011749268,-0.4883541166782379,-0.4205951690673828,0.625389039516449,-0.040988434106111526,0.21180956065654755,1.1256815195083618
12.308478355407715,-0.4883836507797241,-0.4205414652824402,0.6252447962760925,-0.0407087616622448,0.21181927621364594,1.12568998336792
12.328613042831421,-0.48819825053215027,-0.4205525815486908,0.6253801584243774,-0.04101420193910599,0.21187180280685425,1.1256848573684692
12.348709106445312,-0.4881047010421753,-0.42054423689842224,0.625416100025177,-0.0409712940454483,0.21190698444843292,1.1256980895996094
12.368846893310547,-0.488231897354126,-0.4205629527568817,0.6254535913467407,-0.040967922657728195,0.21177448332309723,1.1256858110427856
12.388933897018433,-0.4879736304283142,-0.42057883739471436,0.6256356239318848,-0.04117720201611519,0.2118789553642273,1.1257045269012451
12.408961296081543,-0.4880673289299011,-0.42055484652519226,0.6255156993865967,-0.04084565490484238,0.2118711620569229,1.1257202625274658
12.42907190322876,-0.48796960711479187,-0.42055678367614746,0.6255835294723511,-0.04079944267868996,0.21192120015621185,1.1257413625717163
12.449373960494995,-0.4880702495574951,-0.4205334186553955,0.6254698634147644,-0.040518730878829956,0.21190518140792847,1.1257518529891968
12.469565868377686,-0.4879922866821289,-0.4204879701137543,0.6254134774208069,-0.03995446488261223,0.21204908192157745,1.1257996559143066
12.490210771560669,-0.48786717653274536,-0.42055344581604004,0.6256009340286255,-0.040478698909282684,0.21212609112262726,1.1258164644241333
12.510444164276123,-0.48793157935142517,-0.42059189081192017,0.6256862878799438,-0.04054083302617073,0.2120736986398697,1.1258183717727661
12.53057050704956,-0.44210195541381836,-0.40802207589149475,0.6235941648483276,-0.034835170954465866,0.21743620932102203,1.1125538349151611
12.550578594207764,-0.4192134439945221,-0.4017043709754944,0.6223992109298706,-0.03207337483763695,0.2200939655303955,1.1058393716812134
12.570748329162598,-0.373769074678421,-0.38846245408058167,0.6190277338027954,-0.027775323018431664,0.2249201089143753,1.0915274620056152
12.590953350067139,-0.32861563563346863,-0.3748771548271179,0.6151135563850403,-0.025079887360334396,0.22938352823257446,1.0762828588485718
12.611051797866821,-0.3064173460006714,-0.367876797914505,0.6125720143318176,-0.025215232744812965,0.23057901859283447,1.0676039457321167
12.631124019622803,-0.2623804211616516,-0.3537205159664154,0.6061693429946899,-0.026163198053836823,0.2319280505180359,1.0498499870300293
12.651371717453003,-0.2213812619447708,-0.33875831961631775,0.5969382524490356,-0.031610310077667236,0.22899380326271057,1.0286614894866943
12.671467304229736,-0.20160412788391113,-0.33092451095581055,0.5922850370407104,-0.035668667405843735,0.22576889395713806,1.0175271034240723
12.691586971282959,-0.1711292564868927,-0.3144174814224243,0.5767650604248047,-0.04919885843992233,0.21217672526836395,0.9913186430931091
12.711629867553711,-0.1598798632621765,-0.2981469929218292,0.5583364963531494,-0.0685281902551651,0.18790481984615326,0.9638510346412659
12.731740474700928,-0.16291044652462006,-0.29098689556121826,0.5488961338996887,-0.07855074852705002,0.17278358340263367,0.9517545104026794
12.751841068267822,-0.1768476366996765,-0.28005948662757874,0.5319689512252808,-0.10052671283483505,0.14260928332805634,0.9296175241470337
12.771885395050049,-0.1854054033756256,-0.27486395835876465,0.5253893733024597,-0.11090442538261414,0.1260858029127121,0.9195796847343445
12.791963815689087,-0.19618158042430878,-0.26583409309387207,0.5085247755050659,-0.13474133610725403,0.09347082674503326,0.8999877572059631
12.81203579902649,-0.19325529038906097,-0.259308785200119,0.492762953042984,-0.16163255274295807,0.06079471856355667,0.8800504803657532
12.832176923751831,-0.18395590782165527,-0.2546032965183258,0.48192891478538513,-0.17371982336044312,0.046916402876377106,0.8722855448722839
12.852267026901245,-0.15255776047706604,-0.2487185150384903,0.4682754576206207,-0.19463838636875153,0.02670963667333126,0.8600601553916931
12.872337341308594,-0.10743493586778641,-0.24316422641277313,0.45440834760665894,-0.2044556587934494,0.021131841465830803,0.8551507592201233
12.89249038696289,-0.08505667746067047,-0.242994025349617,0.4450818598270416,-0.210152730345726,0.02069937437772751,0.8530158996582031
12.912591695785522,-0.03703239560127258,-0.24172236025333405,0.4347013831138611,-0.21553799510002136,0.021766655147075653,0.850867748260498
12.932653903961182,0.010646341368556023,-0.24044634401798248,0.42750123143196106,-0.21964353322982788,0.023212209343910217,0.849506139755249
12.952776670455933,0.034688934683799744,-0.2387721687555313,0.43411630392074585,-0.2196526974439621,0.022600166499614716,0.8493760228157043
12.972866535186768,0.08080204576253891,-0.23682989180088043,0.43265286087989807,-0.22507059574127197,0.02077983133494854,0.8481170535087585
12.992958068847656,0.11351051926612854,-0.2346082478761673,0.43618467450141907,-0.23468533158302307,0.01355879008769989,0.8466213345527649
13.013505220413208,0.10297182947397232,-0.23644188046455383,0.43320316076278687,-0.244479238986969,0.00425938842818141,0.8446139693260193
13.033597230911255,0.09827820956707001,-0.2306700199842453,0.4466780424118042,-0.2555559277534485,-0.011458665132522583,0.8442218899726868
13.05368709564209,0.08088207244873047,-0.2229006439447403,0.4540296494960785,-0.265740305185318,-0.03178006783127785,0.8440665006637573
13.07374906539917,0.07214517146348953,-0.21463964879512787,0.46760186553001404,-0.2707027494907379,-0.0482538640499115,0.8445197939872742
13.093816995620728,0.03469276428222656,-0.20652328431606293,0.46106114983558655,-0.2807594835758209,-0.07395448535680771,0.844953179359436
13.113894939422607,0.004069185815751553,-0.20220492780208588,0.4560004472732544,-0.2906358540058136,-0.09786448627710342,0.8467962145805359
13.133978605270386,-0.015301288105547428,-0.204421728849411,0.44311487674713135,-0.2963103652000427,-0.10469283908605576,0.8468770980834961
13.154037714004517,-0.020972590893507004,-0.20535127818584442,0.4247942864894867,-0.30735859274864197,-0.12145990133285522,0.8520306944847107
13.174095392227173,-0.003056915942579508,-0.21273823082447052,0.40545594692230225,-0.31848612427711487,-0.12756356596946716,0.8585957288742065
13.19443416595459,0.02104068547487259,-0.21654242277145386,0.40936222672462463,-0.31883925199508667,-0.12573018670082092,0.8619257211685181
13.214534282684326,0.05511774122714996,-0.22727711498737335,0.39627981185913086,-0.32352888584136963,-0.11707071959972382,0.8677420616149902
13.234599351882935,0.09919960796833038,-0.23802229762077332,0.39658769965171814,-0.3246932029724121,-0.1048097312450409,0.8733481168746948
13.254727125167847,0.12241992354393005,-0.24332958459854126,0.397945374250412,-0.3253003656864166,-0.09789483994245529,0.8761088848114014
13.274822473526001,0.16721200942993164,-0.25287458300590515,0.41100627183914185,-0.3246438205242157,-0.08653067797422409,0.8810626864433289
13.294910669326782,0.19757767021656036,-0.2599044442176819,0.42528611421585083,-0.32532575726509094,-0.08137699961662292,0.8843376636505127
13.315027236938477,0.20777340233325958,-0.26063764095306396,0.43741145730018616,-0.3259428143501282,-0.0821102112531662,0.8856626749038696
13.335112810134888,0.20974722504615784,-0.25919806957244873,0.45338210463523865,-0.33069097995758057,-0.08814196288585663,0.8867648243904114
13.35518503189087,0.19552654027938843,-0.25362929701805115,0.4672784209251404,-0.3381273150444031,-0.0996272936463356,0.8874230980873108
13.37539291381836,0.17584025859832764,-0.24856433272361755,0.4695805013179779,-0.3407963514328003,-0.10836909711360931,0.8872856497764587
13.395477056503296,0.1467040628194809,-0.2415783852338791,0.47830161452293396,-0.3446710407733917,-0.12350737303495407,0.8881199955940247
13.415546178817749,0.11317674815654755,-0.23582449555397034,0.4868498742580414,-0.3507955074310303,-0.1408136785030365,0.8884000778198242
13.435636281967163,0.11451895534992218,-0.2364264875650406,0.49768954515457153,-0.3539280891418457,-0.1451624035835266,0.889403223991394
13.455735683441162,0.10169155895709991,-0.2374301701784134,0.5041590929031372,-0.35956478118896484,-0.15407846868038177,0.8905443549156189
13.47578477859497,0.1106584370136261,-0.24471436440944672,0.5084941387176514,-0.36412012577056885,-0.15251003205776215,0.8929277658462524
13.49586796760559,0.11078740656375885,-0.2507297694683075,0.500356137752533,-0.367981493473053,-0.1475604772567749,0.8941842317581177
13.515950918197632,0.13591283559799194,-0.26175442337989807,0.5081159472465515,-0.3731253147125244,-0.1382712423801422,0.8963439464569092
13.536088705062866,0.1598917841911316,-0.27085888385772705,0.5184358954429626,-0.37631407380104065,-0.12867040932178497,0.8981946110725403
13.556163549423218,0.17907024919986725,-0.2735985815525055,0.5340476632118225,-0.3764038681983948,-0.12630772590637207,0.8987972140312195
13.576194763183594,0.19729900360107422,-0.28065913915634155,0.547003448009491,-0.37904414534568787,-0.11875413358211517,0.8996780514717102
13.596253871917725,0.21312861144542694,-0.2853313684463501,0.5652117729187012,-0.38135984539985657,-0.11423986405134201,0.899785041809082
13.616344451904297,0.20243093371391296,-0.2874545156955719,0.560562789440155,-0.3836401402950287,-0.1123858317732811,0.8995158672332764
13.636419296264648,0.1998329758644104,-0.28927966952323914,0.5675855278968811,-0.38716819882392883,-0.11102238297462463,0.8988655805587769
13.656561613082886,0.19654621183872223,-0.290995717048645,0.5786715149879456,-0.3913862407207489,-0.11198554188013077,0.8978506922721863
13.676645278930664,0.2129540741443634,-0.29116249084472656,0.5974957942962646,-0.39230653643608093,-0.11257527023553848,0.8973967432975769
13.696730136871338,0.21332630515098572,-0.29332205653190613,0.6095996499061584,-0.396206259727478,-0.11283715069293976,0.8962644934654236
13.717587232589722,0.20912609994411469,-0.2953444719314575,0.6194594502449036,-0.4005334973335266,-0.11284033209085464,0.8951616883277893
13.737688302993774,0.18684132397174835,-0.2982124388217926,0.6096282601356506,-0.4052714705467224,-0.11319435387849808,0.8941936492919922
13.757748365402222,0.1922205239534378,-0.3029554784297943,0.6187460422515869,-0.4082149863243103,-0.10955698043107986,0.8932797908782959
13.778198957443237,0.20192188024520874,-0.3076742887496948,0.6277827024459839,-0.4121190309524536,-0.10496573150157928,0.8922637104988098
13.798288106918335,0.2197514772415161,-0.30700019001960754,0.645249605178833,-0.41277170181274414,-0.10569370537996292,0.8914868235588074
13.818392515182495,0.22634091973304749,-0.3115517497062683,0.6539350748062134,-0.41410836577415466,-0.10058849304914474,0.890708327293396
13.838416337966919,0.22689545154571533,-0.3169342577457428,0.6582038998603821,-0.4176701009273529,-0.0944594144821167,0.8898258209228516
13.858510255813599,0.2110232263803482,-0.32218340039253235,0.6471362709999084,-0.41925790905952454,-0.08974304795265198,0.8895904421806335
13.87858533859253,0.20364855229854584,-0.3241061270236969,0.6524636149406433,-0.4235278367996216,-0.0887085348367691,0.8884254693984985
13.898946046829224,0.1913030445575714,-0.3252664804458618,0.6512334942817688,-0.4255812168121338,-0.08713214844465256,0.8877679109573364
13.91904592514038,0.1909940093755722,-0.3242235779762268,0.6572332978248596,-0.4258752465248108,-0.08722323179244995,0.887738823890686
13.93911337852478,0.17568904161453247,-0.32769665122032166,0.6483875513076782,-0.42867758870124817,-0.08430932462215424,0.8872403502464294
13.959373235702515,0.1637232005596161,-0.33062124252319336,0.6421710252761841,-0.43086475133895874,-0.08258208632469177,0.8866400718688965
13.979459762573242,0.16068297624588013,-0.3318939507007599,0.6395877003669739,-0.430803120136261,-0.08063816279172897,0.8867835998535156
13.999561786651611,0.1559518575668335,-0.3339864909648895,0.6360250115394592,-0.4319537878036499,-0.07737649977207184,0.887050449848175
14.019696712493896,0.15548670291900635,-0.33555060625076294,0.6346067190170288,-0.43229812383651733,-0.07312595099210739,0.8877286314964294
14.039796590805054,0.15570653975009918,-0.3361537456512451,0.6346116662025452,-0.4332432746887207,-0.07172072678804398,0.8878352046012878
14.059869289398193,0.15371541678905487,-0.33673030138015747,0.6359102725982666,-0.4336511492729187,-0.07073120772838593,0.887951672077179
14.079941511154175,0.1526551991701126,-0.3368348777294159,0.6363257765769958,-0.433663934469223,-0.07044148445129395,0.8880279064178467
14.100037097930908,0.1482030302286148,-0.33721277117729187,0.6344960927963257,-0.4336894750595093,-0.07045915722846985,0.8879955410957336
14.120096206665039,0.14613348245620728,-0.3375287652015686,0.6323314905166626,-0.4348595142364502,-0.069862499833107,0.8881405591964722
14.140324115753174,0.14619912207126617,-0.33762094378471375,0.6308307647705078,-0.435590535402298,-0.06909805536270142,0.8882906436920166
14.16041898727417,0.14559370279312134,-0.3375694155693054,0.628385603427887,-0.43556511402130127,-0.06823685765266418,0.8885999321937561
14.180530548095703,0.14630195498466492,-0.33818119764328003,0.628051221370697,-0.4367479085922241,-0.06677649170160294,0.8889088034629822
14.200793027877808,0.1454830914735794,-0.33828815817832947,0.6266304850578308,-0.43625250458717346,-0.06612184643745422,0.8892744779586792
14.220886707305908,0.14579741656780243,-0.33804768323898315,0.6250775456428528,-0.4363976716995239,-0.06576018035411835,0.889424741268158
14.24096131324768,0.14705350995063782,-0.3379250168800354,0.6269329786300659,-0.43618741631507874,-0.06560713052749634,0.8897920846939087
14.261019945144653,0.14739517867565155,-0.3383305072784424,0.6274632811546326,-0.4379989206790924,-0.06557081639766693,0.8897608518600464
14.281126976013184,0.14612077176570892,-0.33845147490501404,0.6267044544219971,-0.43753519654273987,-0.06574343144893646,0.8897895216941833
14.301201820373535,0.14535866677761078,-0.33912932872772217,0.6251960396766663,-0.43790239095687866,-0.06496656686067581,0.8900904655456543
14.321379899978638,0.14666685461997986,-0.3389433026313782,0.6258652210235596,-0.4381633400917053,-0.0647052526473999,0.890381932258606
14.341495513916016,0.14726513624191284,-0.3391990661621094,0.624683141708374,-0.4375930428504944,-0.06352578848600388,0.8907697200775146
14.36157488822937,0.14759767055511475,-0.33921706676483154,0.6236916780471802,-0.43861156702041626,-0.06302662938833237,0.8909438252449036
14.38163709640503,0.14742186665534973,-0.33942463994026184,0.623981237411499,-0.4387582838535309,-0.06244519725441933,0.8912192583084106
14.401733875274658,0.14842596650123596,-0.3395587205886841,0.624296247959137,-0.4390013515949249,-0.06171248108148575,0.8914017677307129
14.42181921005249,0.1470683366060257,-0.3394860029220581,0.6219935417175293,-0.4389490783214569,-0.061570849269628525,0.8914183378219604
14.441882610321045,0.1469574272632599,-0.3391949236392975,0.6206850409507751,-0.43812572956085205,-0.06110924854874611,0.8916943073272705
14.461971759796143,0.1478806436061859,-0.33921152353286743,0.6193581819534302,-0.4378753900527954,-0.06019138917326927,0.8919417858123779
14.482070207595825,0.14985601603984833,-0.3385676145553589,0.6162840127944946,-0.43773218989372253,-0.0592476986348629,0.8922502994537354
14.502119541168213,0.15122422575950623,-0.33829742670059204,0.6120050549507141,-0.43709325790405273,-0.057882875204086304,0.8927689790725708
14.522210836410522,0.15255218744277954,-0.3385409116744995,0.6124261021614075,-0.4376986026763916,-0.057165440171957016,0.8930597901344299
14.542290210723877,0.15193238854408264,-0.3389386832714081,0.6101298928260803,-0.438445508480072,-0.056586552411317825,0.8933352828025818
14.562351942062378,0.1515784114599228,-0.3387981057167053,0.608269989490509,-0.4380849003791809,-0.05646093562245369,0.8936558365821838
