liuyurong129/humanoid-gym/humanoid/data/target_q_20250522-034841.csv
timestamp,joint_1,joint_2,joint_3,joint_4,joint_5,joint_6
5.2928924560546875e-05,0.0,0.0,0.0,0.0,0.0,0.0
0.020136356353759766,0.0,0.0,0.0,0.0,0.0,0.0
0.04021930694580078,0.0,0.0,0.0,0.0,0.0,0.0
0.06027841567993164,0.0,0.0,0.0,0.0,0.0,0.0
0.08034539222717285,0.0,0.0,0.0,0.0,0.0,0.0
0.10054516792297363,-0.8267583250999451,-0.7353938817977905,0.9018993377685547,-0.49732503294944763,-0.047638267278671265,0.21868231892585754
0.12067103385925293,-0.8509944677352905,-0.7314833998680115,0.8975889682769775,-0.49678507447242737,-0.04693185165524483,0.22039897739887238
0.14072060585021973,-0.8996380567550659,-0.7255005240440369,0.8884539604187012,-0.4970118999481201,-0.046194836497306824,0.22259634733200073
0.1608433723449707,-0.9241034984588623,-0.7226288914680481,0.8842774629592896,-0.49723854660987854,-0.04615533724427223,0.22343286871910095
0.18089032173156738,-0.9733737707138062,-0.7151277661323547,0.881586492061615,-0.4965124726295471,-0.04520862177014351,0.22514988481998444
0.20097661018371582,-0.9979400634765625,-0.710625171661377,0.88139808177948,-0.49575990438461304,-0.045257918536663055,0.22593654692173004
0.22115182876586914,-1.0463863611221313,-0.7002221941947937,0.8762491941452026,-0.4954816997051239,-0.042247459292411804,0.2278957962989807
0.24135828018188477,-1.089598536491394,-0.6894387006759644,0.8655659556388855,-0.49660524725914,-0.037953175604343414,0.2296610176563263
0.26144933700561523,-1.1083128452301025,-0.683911919593811,0.8616340160369873,-0.49668335914611816,-0.03622434660792351,0.23039501905441284
0.28151535987854004,-1.1435405015945435,-0.6732667088508606,0.8569869995117188,-0.49687862396240234,-0.03524075075984001,0.23130358755588531
0.30159425735473633,-1.1546833515167236,-0.6682448387145996,0.8576222658157349,-0.4965518116950989,-0.03457140922546387,0.2317129522562027
0.32180213928222656,-1.1727514266967773,-0.6604745388031006,0.8575121164321899,-0.4961543679237366,-0.03253995627164841,0.23224911093711853
0.3417961597442627,-1.187546730041504,-0.6539966464042664,0.8566329479217529,-0.4961005449295044,-0.03109815903007984,0.23269245028495789
0.36190032958984375,-1.1937642097473145,-0.6512448787689209,0.8508195877075195,-0.4968903362751007,-0.028877194970846176,0.23315992951393127
0.38198399543762207,-1.2063989639282227,-0.6460492014884949,0.8465954065322876,-0.4977323114871979,-0.027777520939707756,0.23340895771980286
0.40204834938049316,-1.2169549465179443,-0.6415162086486816,0.844519853591919,-0.4978858232498169,-0.027263207361102104,0.23358437418937683
0.4221315383911133,-1.2193580865859985,-0.6397477388381958,0.8453254103660583,-0.49779805541038513,-0.02706907130777836,0.2335096150636673
0.44221997261047363,-1.2222282886505127,-0.6363901495933533,0.8481961488723755,-0.49661076068878174,-0.026675399392843246,0.23365023732185364
0.46233081817626953,-1.2268520593643188,-0.6334657073020935,0.8496377468109131,-0.49604231119155884,-0.026749540120363235,0.2339615821838379
0.48248839378356934,-1.2267215251922607,-0.6327279806137085,0.8494400978088379,-0.49590781331062317,-0.025715718045830727,0.23405411839485168
0.5025300979614258,-1.2246730327606201,-0.6318537592887878,0.8485441207885742,-0.49590229988098145,-0.023591186851263046,0.23411209881305695
0.5226230621337891,-1.2213951349258423,-0.6312394142150879,0.8496317863464355,-0.49528467655181885,-0.022342048585414886,0.2342485636472702
0.5427193641662598,-1.2205792665481567,-0.6304824948310852,0.8483289480209351,-0.49562668800354004,-0.020756162703037262,0.23428864777088165
0.56284499168396,-1.2210352420806885,-0.6302084922790527,0.8487844467163086,-0.4955870509147644,-0.02078566700220108,0.23414121568202972
0.5829057693481445,-1.220362901687622,-0.6302936673164368,0.848840594291687,-0.49559473991394043,-0.019804589450359344,0.23380538821220398
0.6030130386352539,-1.2182693481445312,-0.6303733587265015,0.8476462960243225,-0.4959508776664734,-0.01808198355138302,0.2336229681968689
0.6230912208557129,-1.219877004623413,-0.6299753189086914,0.8487356901168823,-0.4955790042877197,-0.01890679821372032,0.23347489535808563
0.6431901454925537,-1.2181440591812134,-0.6300304532051086,0.8469810485839844,-0.49568819999694824,-0.017288655042648315,0.23337669670581818
0.6637301445007324,-1.2133479118347168,-0.6300960779190063,0.8503749966621399,-0.4947183132171631,-0.016471615061163902,0.23307813704013824
0.6838200092315674,-1.2123178243637085,-0.6303572654724121,0.8507757782936096,-0.4942903518676758,-0.01593116857111454,0.23295700550079346
0.7039375305175781,-1.2092106342315674,-0.6310818195343018,0.8497346639633179,-0.49422603845596313,-0.014114280231297016,0.23280251026153564
0.7241201400756836,-1.207547903060913,-0.6311955451965332,0.8506523370742798,-0.4936404824256897,-0.013668895699083805,0.23274479806423187
0.7441227436065674,-1.2065860033035278,-0.6316865086555481,0.8502820730209351,-0.49341949820518494,-0.012665350921452045,0.23256990313529968
0.7641947269439697,-1.2023687362670898,-0.6324118375778198,0.8482701778411865,-0.49344831705093384,-0.010204599238932133,0.23248155415058136
0.7843689918518066,-1.203275442123413,-0.6323710680007935,0.8486993312835693,-0.4932742714881897,-0.010488379746675491,0.23237723112106323
0.8044276237487793,-1.2026822566986084,-0.6321496367454529,0.8505261540412903,-0.4927932620048523,-0.010821220465004444,0.23224091529846191
0.8245358467102051,-1.1974858045578003,-0.6323978304862976,0.8534664511680603,-0.49213674664497375,-0.010091854259371758,0.2321663647890091
0.8447079658508301,-1.1952433586120605,-0.6336353421211243,0.8523549437522888,-0.4923279285430908,-0.008955013938248158,0.23179113864898682
0.8647472858428955,-1.1880300045013428,-0.6344496011734009,0.8525562286376953,-0.4920833110809326,-0.0063315993174910545,0.23167502880096436
0.8848564624786377,-1.186443567276001,-0.635049045085907,0.8524602651596069,-0.49186593294143677,-0.005684535019099712,0.23146268725395203
0.9049389362335205,-1.1838421821594238,-0.6359467506408691,0.851155698299408,-0.49207133054733276,-0.003917092457413673,0.23116514086723328
0.9250309467315674,-1.180301547050476,-0.636262059211731,0.8522158861160278,-0.4912532567977905,-0.0029009822756052017,0.23091238737106323
0.9451887607574463,-1.1805967092514038,-0.6364863514900208,0.8522958159446716,-0.4910901188850403,-0.0028246603906154633,0.23073938488960266
0.9652237892150879,-1.1787986755371094,-0.6366487741470337,0.8526907563209534,-0.49058887362480164,-0.0021014839876443148,0.2305760681629181
0.9855360984802246,-1.173783779144287,-0.6379380226135254,0.8533644080162048,-0.4905436635017395,-0.000514222658239305,0.2301272451877594
1.0056581497192383,-1.1718016862869263,-0.6386192440986633,0.8515366315841675,-0.49070388078689575,0.0008956361562013626,0.23005032539367676
1.0257112979888916,-1.1676030158996582,-0.6390318274497986,0.8536275625228882,-0.48965632915496826,0.001731536234728992,0.22978916764259338
1.045799970626831,-1.1661708354949951,-0.6393723487854004,0.8526519536972046,-0.4896058738231659,0.0026191771030426025,0.22976022958755493
1.0659070014953613,-1.1654052734375,-0.6396688222885132,0.8548039197921753,-0.48855459690093994,0.002685431158170104,0.2295493632555008
1.0859551429748535,-1.161176323890686,-0.6411865949630737,0.8523334860801697,-0.48936018347740173,0.005473317578434944,0.2292921245098114
1.1061182022094727,-1.1624577045440674,-0.641350507736206,0.8521473407745361,-0.48948508501052856,0.005198956932872534,0.22909745573997498
1.1262233257293701,-1.1584391593933105,-0.641675591468811,0.8536784052848816,-0.48915067315101624,0.005963864736258984,0.22892656922340393
1.146261215209961,-1.1554059982299805,-0.6419270038604736,0.854135274887085,-0.488816499710083,0.006736372597515583,0.22890089452266693
1.1666069030761719,-1.151350975036621,-0.643047571182251,0.8539870977401733,-0.4883909225463867,0.008506448939442635,0.2285933792591095
1.1869618892669678,-1.142367959022522,-0.6442193984985352,0.8552238345146179,-0.4878893196582794,0.011473942548036575,0.22838154435157776
1.2071053981781006,-1.1383895874023438,-0.6450343132019043,0.8543992042541504,-0.4878354072570801,0.013275698758661747,0.22829562425613403
1.2271177768707275,-1.1338448524475098,-0.6453311443328857,0.8531565070152283,-0.48731356859207153,0.015449275262653828,0.22842326760292053
1.2472217082977295,-1.131293535232544,-0.6455766558647156,0.8548182249069214,-0.48639824986457825,0.01575418934226036,0.2282956838607788
1.2673077583312988,-1.1260383129119873,-0.6467795372009277,0.8532128930091858,-0.4849512577056885,0.01854526251554489,0.2282826006412506
1.2877342700958252,-1.1271151304244995,-0.6472505927085876,0.8527671098709106,-0.4850912094116211,0.018418043851852417,0.22800268232822418
1.3078460693359375,-1.1235108375549316,-0.6482847332954407,0.8558793663978577,-0.4848502278327942,0.01899651251733303,0.2273506224155426
1.3279218673706055,-1.1207404136657715,-0.6492230296134949,0.8578885793685913,-0.4842885136604309,0.019633699208498,0.22687488794326782
1.347984790802002,-1.1205904483795166,-0.6495673656463623,0.8573145270347595,-0.48409396409988403,0.019837545230984688,0.22674071788787842
1.3680775165557861,-1.1191902160644531,-0.6503802537918091,0.8575678467750549,-0.483945369720459,0.021097632125020027,0.22637781500816345
1.3881251811981201,-1.1189359426498413,-0.6508265137672424,0.8572196960449219,-0.4841565489768982,0.02149183303117752,0.22614148259162903
1.4082574844360352,-1.1159800291061401,-0.6515426635742188,0.8582400679588318,-0.48369598388671875,0.022564515471458435,0.2257176786661148
1.4284107685089111,-1.1119593381881714,-0.6521735787391663,0.8591141700744629,-0.4832049608230591,0.02405247464776039,0.22548843920230865
1.4485292434692383,-1.1104257106781006,-0.6527863144874573,0.8591241836547852,-0.48307082056999207,0.024759933352470398,0.22520461678504944
1.468630075454712,-1.1076176166534424,-0.6535806655883789,0.8595736026763916,-0.482742041349411,0.025986524298787117,0.2248496413230896
1.4887852668762207,-1.1044819355010986,-0.6541059017181396,0.8600092530250549,-0.4822792112827301,0.02711557038128376,0.22474050521850586
1.5088398456573486,-1.1013813018798828,-0.6548311114311218,0.8604556918144226,-0.481448769569397,0.02837373875081539,0.22453758120536804
1.5289323329925537,-1.0999428033828735,-0.6550633907318115,0.8602327704429626,-0.48077601194381714,0.0294235460460186,0.22463929653167725
1.5490334033966064,-1.096986174583435,-0.6554610133171082,0.8619638681411743,-0.4803457260131836,0.02985980175435543,0.22450490295886993
1.569126844406128,-1.0923837423324585,-0.6567686796188354,0.8596230745315552,-0.48110195994377136,0.03250076249241829,0.22432824969291687
1.5896587371826172,-1.08341383934021,-0.6577243804931641,0.8607713580131531,-0.48052603006362915,0.035239968448877335,0.2242543250322342
1.6096961498260498,-1.0806618928909302,-0.6583721041679382,0.8604018688201904,-0.48046180605888367,0.03635195270180702,0.22412317991256714
1.6298627853393555,-1.0769742727279663,-0.6595306396484375,0.8607581257820129,-0.4800179600715637,0.03765242174267769,0.2237241268157959
1.6502885818481445,-1.080285906791687,-0.659852147102356,0.8576084971427917,-0.4811372458934784,0.037896763533353806,0.22339805960655212
1.6703910827636719,-1.0795459747314453,-0.6596306562423706,0.8577084541320801,-0.48085692524909973,0.03826266527175903,0.22338327765464783
1.690514326095581,-1.0696126222610474,-0.6600987315177917,0.8616821765899658,-0.4793844223022461,0.040375966578722,0.2233416587114334
1.7105903625488281,-1.0691208839416504,-0.6607520580291748,0.8605958223342896,-0.4792031943798065,0.041065115481615067,0.22319269180297852
1.7306606769561768,-1.0637562274932861,-0.6614546775817871,0.8604280352592468,-0.47823336720466614,0.04303821548819542,0.22320619225502014
1.7507171630859375,-1.0604779720306396,-0.6619085073471069,0.8631267547607422,-0.4766910970211029,0.043715700507164,0.22304275631904602
1.7708020210266113,-1.0573478937149048,-0.6627930998802185,0.8624956607818604,-0.47656336426734924,0.04539071023464203,0.222956120967865
1.791062355041504,-1.0573406219482422,-0.6634365916252136,0.8631314039230347,-0.4765443205833435,0.0455242358148098,0.2226598560810089
1.811255931854248,-1.0546692609786987,-0.6641802191734314,0.8644331693649292,-0.4764825105667114,0.04635196924209595,0.22229483723640442
1.8313534259796143,-1.0509008169174194,-0.6649242639541626,0.864972710609436,-0.4763241410255432,0.04766969382762909,0.22212764620780945
1.851435661315918,-1.0464825630187988,-0.6662967801094055,0.8639500141143799,-0.4767719507217407,0.04983656480908394,0.22177954018115997
1.8716206550598145,-1.042297124862671,-0.6668336987495422,0.8632282614707947,-0.47644805908203125,0.05140795186161995,0.22182230651378632
1.891709327697754,-1.0357269048690796,-0.6686817407608032,0.8636894226074219,-0.47656434774398804,0.05400874838232994,0.2212584912776947
1.9118013381958008,-1.0323542356491089,-0.6691306829452515,0.8636557459831238,-0.47633153200149536,0.05549655854701996,0.2211332619190216
1.9318726062774658,-1.0329288244247437,-0.6694026589393616,0.86347496509552,-0.4763944745063782,0.05547921359539032,0.22093427181243896
1.951970100402832,-1.0259395837783813,-0.6703670620918274,0.8664149045944214,-0.4752548933029175,0.0571499802172184,0.22073805332183838
1.97202730178833,-1.0165363550186157,-0.6720483303070068,0.8670670986175537,-0.4732944965362549,0.06042855978012085,0.22074204683303833
1.9921112060546875,-1.0123718976974487,-0.6725488901138306,0.8698285818099976,-0.47194430232048035,0.061230193823575974,0.22072598338127136
2.01218318939209,-1.011108160018921,-0.6736918687820435,0.8678638935089111,-0.472228467464447,0.06267174333333969,0.22050385177135468
2.032258987426758,-1.012191653251648,-0.673973560333252,0.8669230341911316,-0.47307631373405457,0.0630398765206337,0.22032611072063446
2.0523343086242676,-1.0065960884094238,-0.6746315360069275,0.8689997792243958,-0.47250258922576904,0.06451094895601273,0.22013044357299805
2.072392702102661,-0.9984849691390991,-0.6762834191322327,0.8679517507553101,-0.47198790311813354,0.06769835948944092,0.21995046734809875
2.092482089996338,-0.9972491264343262,-0.6768006086349487,0.8686991930007935,-0.4714506268501282,0.06788813322782516,0.21964237093925476
2.112558364868164,-0.9908924102783203,-0.6775911450386047,0.8690457940101624,-0.4713554382324219,0.07048807293176651,0.21950972080230713
2.132824182510376,-0.9907526969909668,-0.678086519241333,0.8703444600105286,-0.4705612063407898,0.07047208398580551,0.21901321411132812
2.1529176235198975,-0.9876500368118286,-0.6788367629051208,0.8704968690872192,-0.47037091851234436,0.07182824611663818,0.2187553346157074
2.1729869842529297,-0.9847022294998169,-0.679479718208313,0.8705373406410217,-0.4689364433288574,0.07341401278972626,0.21869391202926636
2.1930770874023438,-0.9795283079147339,-0.6801389455795288,0.8721491694450378,-0.46802669763565063,0.07492459565401077,0.21864715218544006
2.2131471633911133,-0.9736897349357605,-0.6813737154006958,0.8727700710296631,-0.4668963849544525,0.07671840488910675,0.21852432191371918
2.233198404312134,-0.967181384563446,-0.6826455593109131,0.8740671873092651,-0.4668051600456238,0.0790342167019844,0.21823778748512268
2.253295421600342,-0.9682394862174988,-0.683151364326477,0.8715786933898926,-0.46767258644104004,0.07966536283493042,0.21806377172470093
2.27337384223938,-0.9642997980117798,-0.6837499737739563,0.8717455863952637,-0.4673161208629608,0.08149143308401108,0.21794548630714417
2.2934744358062744,-0.9555491805076599,-0.6852635145187378,0.873548150062561,-0.4662453532218933,0.08424537628889084,0.21768103539943695
2.313610553741455,-0.9484317898750305,-0.6863143444061279,0.8756380677223206,-0.4652271270751953,0.08611437678337097,0.2175985723733902
2.3336896896362305,-0.9393879175186157,-0.6882796883583069,0.8774083852767944,-0.4638778567314148,0.08902490884065628,0.2172280102968216
2.354339361190796,-0.9334354996681213,-0.6894428730010986,0.8818088173866272,-0.46246400475502014,0.09024690091609955,0.2168899029493332
2.374539613723755,-0.9334942102432251,-0.6905053853988647,0.8803344964981079,-0.4624125361442566,0.09125281125307083,0.2165631800889969
2.394559383392334,-0.9252885580062866,-0.6920358538627625,0.8820902705192566,-0.46092653274536133,0.09442653506994247,0.21653059124946594
2.414654016494751,-0.9193354845046997,-0.692855954170227,0.8843203783035278,-0.45971739292144775,0.09583506733179092,0.21657484769821167
2.434824228286743,-0.9140303730964661,-0.6945919990539551,0.8842176198959351,-0.45931652188301086,0.09833721816539764,0.21615833044052124
2.454911708831787,-0.9077136516571045,-0.6959060430526733,0.8833208680152893,-0.45912083983421326,0.10117704421281815,0.21604971587657928
2.4749927520751953,-0.9082731008529663,-0.6966097950935364,0.8828493356704712,-0.4595962464809418,0.10144075751304626,0.21567440032958984
2.4950578212738037,-0.8996409177780151,-0.6984123587608337,0.8850663900375366,-0.45778077840805054,0.10398787260055542,0.21548205614089966
2.515141725540161,-0.8894528746604919,-0.6998831629753113,0.8875678777694702,-0.4558298587799072,0.10751670598983765,0.2156398445367813
2.535288095474243,-0.8859082460403442,-0.7006636261940002,0.8865814805030823,-0.4556058645248413,0.10954327136278152,0.21567314863204956
2.555401563644409,-0.8747347593307495,-0.7025542855262756,0.8866320252418518,-0.45533862709999084,0.11339303851127625,0.2157922089099884
2.575526475906372,-0.8702730536460876,-0.7034828066825867,0.8896574974060059,-0.45457249879837036,0.11421986669301987,0.21555830538272858
2.595553398132324,-0.8656976819038391,-0.7055582404136658,0.8916596174240112,-0.45373061299324036,0.11631283164024353,0.2148563116788864
2.6159231662750244,-0.8622875213623047,-0.7063454985618591,0.8923476934432983,-0.45329099893569946,0.11756416410207748,0.21475642919540405
2.6360130310058594,-0.8525223135948181,-0.7083955407142639,0.8954436182975769,-0.4515388309955597,0.12033048272132874,0.21454845368862152
2.6563220024108887,-0.8391058444976807,-0.7109955549240112,0.8996673822402954,-0.44765645265579224,0.12449253350496292,0.21478790044784546
2.676442861557007,-0.8423641920089722,-0.7117225527763367,0.8924091458320618,-0.4486271142959595,0.12561005353927612,0.21476702392101288
2.6965606212615967,-0.8303394913673401,-0.7139561176300049,0.8946713805198669,-0.4473758935928345,0.1298772692680359,0.2145732343196869
2.7165791988372803,-0.8216787576675415,-0.7150161266326904,0.9001349210739136,-0.4458576440811157,0.13158999383449554,0.21455204486846924
2.73677396774292,-0.81027752161026,-0.7174596786499023,0.9027863144874573,-0.4438783824443817,0.1356378048658371,0.2144727110862732
2.7567644119262695,-0.7987436056137085,-0.7198303937911987,0.907673180103302,-0.440554678440094,0.13882330060005188,0.21470996737480164
2.7768428325653076,-0.7939127683639526,-0.7214147448539734,0.9058720469474792,-0.44053521752357483,0.1417437195777893,0.21452966332435608
2.7969396114349365,-0.7858659029006958,-0.7241606712341309,0.9073582887649536,-0.4395735263824463,0.14485463500022888,0.21443481743335724
2.817082166671753,-0.7767831683158875,-0.7268068790435791,0.9065326452255249,-0.4381455183029175,0.14861953258514404,0.21457335352897644
2.837197780609131,-0.7642428278923035,-0.7284826040267944,0.915392279624939,-0.43570268154144287,0.15080253779888153,0.2147122174501419
2.8572781085968018,-0.7525067925453186,-0.7313264608383179,0.9181121587753296,-0.43394696712493896,0.15511077642440796,0.21455693244934082
2.8773841857910156,-0.7549778819084167,-0.7323662638664246,0.9152487516403198,-0.434611976146698,0.15611858665943146,0.21391205489635468
2.8974711894989014,-0.74632728099823,-0.7348766922950745,0.9177407622337341,-0.4323778748512268,0.1598484367132187,0.2134593278169632
2.9175684452056885,-0.7342987656593323,-0.7376251220703125,0.9198824167251587,-0.4284273087978363,0.16403527557849884,0.21380434930324554
2.937631845474243,-0.7193723917007446,-0.7400453686714172,0.9251444935798645,-0.42535170912742615,0.16757036745548248,0.21437951922416687
2.957749128341675,-0.6995171308517456,-0.7445080876350403,0.9285179972648621,-0.41995829343795776,0.1734451949596405,0.2149701863527298
2.9778647422790527,-0.6942448019981384,-0.7465119957923889,0.925261378288269,-0.4185478687286377,0.17633384466171265,0.21497663855552673
2.997981309890747,-0.6645322442054749,-0.7527740001678467,0.9313315153121948,-0.4115327000617981,0.18517334759235382,0.21594148874282837
3.0182647705078125,-0.6395825743675232,-0.7585827708244324,0.9343507289886475,-0.40638071298599243,0.19367283582687378,0.21632155776023865
3.0383756160736084,-0.6258533000946045,-0.760708212852478,0.9404208660125732,-0.40329650044441223,0.196674183011055,0.21680611371994019
3.058499574661255,-0.5986499786376953,-0.7663168907165527,0.9451401829719543,-0.39666545391082764,0.20511777698993683,0.21749247610569
3.078653573989868,-0.5956162214279175,-0.7684608697891235,0.9387122392654419,-0.3964870572090149,0.20909222960472107,0.21718397736549377
3.0986788272857666,-0.5751163363456726,-0.7744309306144714,0.9362612366676331,-0.3898252844810486,0.21624961495399475,0.21752572059631348
3.118811845779419,-0.5527856945991516,-0.78160560131073,0.9297677874565125,-0.38301894068717957,0.2240569144487381,0.2181396186351776
3.13887095451355,-0.5321529507637024,-0.7846110463142395,0.9417855739593506,-0.37706518173217773,0.22708344459533691,0.2192453294992447
3.158986806869507,-0.5067552328109741,-0.795996904373169,0.9348188042640686,-0.36641815304756165,0.23549975454807281,0.220188707113266
3.179046630859375,-0.49741023778915405,-0.8064423203468323,0.9159825444221497,-0.36017006635665894,0.241391122341156,0.22030481696128845
3.1991384029388428,-0.46670714020729065,-0.8236467838287354,0.9131922125816345,-0.3448181748390198,0.250810444355011,0.22076958417892456
3.219186305999756,-0.4356946051120758,-0.8423240184783936,0.9091375470161438,-0.3313884437084198,0.2614257037639618,0.2212306261062622
3.239320755004883,-0.4168136417865753,-0.8512970805168152,0.9198943376541138,-0.32438305020332336,0.2661769688129425,0.2220265418291092
3.2593820095062256,-0.383235901594162,-0.8770301342010498,0.9191879630088806,-0.30687493085861206,0.27861085534095764,0.22198127210140228
3.279698133468628,-0.34873878955841064,-0.9012769460678101,0.9197743535041809,-0.28934600949287415,0.29208076000213623,0.22106288373470306
3.2997887134552,-0.33119580149650574,-0.9137843251228333,0.9165038466453552,-0.2798987627029419,0.29982873797416687,0.22015103697776794
3.3198628425598145,-0.30272549390792847,-0.942818820476532,0.9128730893135071,-0.260498583316803,0.3127039074897766,0.21765226125717163
3.339946746826172,-0.28361427783966064,-0.9514727592468262,0.92142254114151,-0.2525809705257416,0.31966063380241394,0.2168198823928833
3.3600683212280273,-0.2552436888217926,-0.969870924949646,0.9255667924880981,-0.23656226694583893,0.33299800753593445,0.2142031490802765
3.380129098892212,-0.2429468184709549,-0.9662987589836121,0.9375656247138977,-0.23196762800216675,0.3419055938720703,0.2077925056219101
3.4002480506896973,-0.24516591429710388,-0.9654948711395264,0.9369410872459412,-0.2310713827610016,0.34494489431381226,0.20402418076992035
3.4203906059265137,-0.2447546422481537,-0.9670372009277344,0.9400593638420105,-0.22656038403511047,0.3496888279914856,0.1981683224439621
3.440443515777588,-0.246431365609169,-0.9665092825889587,0.9499799609184265,-0.22272461652755737,0.3521793484687805,0.19354331493377686
3.460574150085449,-0.24331113696098328,-0.9659972190856934,0.963103175163269,-0.220919668674469,0.35122543573379517,0.1920112669467926
3.480604887008667,-0.2431621551513672,-0.9657680988311768,0.9800308346748352,-0.21847906708717346,0.35060352087020874,0.18829549849033356
3.50068998336792,-0.24403680860996246,-0.9634910821914673,0.9918952584266663,-0.21800562739372253,0.3517247438430786,0.18582001328468323
3.5208044052124023,-0.2426614612340927,-0.9615068435668945,1.0135828256607056,-0.21591630578041077,0.3529447317123413,0.1833169311285019
3.5409653186798096,-0.24196726083755493,-0.9645736813545227,1.0228238105773926,-0.2135569453239441,0.35573723912239075,0.1816895604133606
3.5610530376434326,-0.23909436166286469,-0.968166708946228,1.023917317390442,-0.21186403930187225,0.3561752140522003,0.18197530508041382
3.581141948699951,-0.23798303306102753,-0.9747019410133362,1.0234973430633545,-0.20833617448806763,0.3590429425239563,0.18068228662014008
3.601212739944458,-0.2484179139137268,-0.9794338941574097,1.0185595750808716,-0.20852267742156982,0.3593994379043579,0.1789727807044983
3.6212871074676514,-0.25112488865852356,-0.9897444844245911,1.0097689628601074,-0.2061704844236374,0.3606652617454529,0.1779944747686386
3.641449451446533,-0.25332775712013245,-0.9990970492362976,1.006321907043457,-0.20237088203430176,0.3609894812107086,0.1766306459903717
3.6615426540374756,-0.24391818046569824,-0.9928199052810669,1.0285162925720215,-0.2007603794336319,0.36014658212661743,0.1755521297454834
3.6815969944000244,-0.24189385771751404,-0.9950330853462219,1.038617491722107,-0.19855156540870667,0.36045336723327637,0.17373770475387573
3.701739549636841,-0.2500298023223877,-1.0016136169433594,1.034254550933838,-0.19547417759895325,0.3603672385215759,0.17265267670154572
3.721813917160034,-0.24821801483631134,-1.002112865447998,1.051618218421936,-0.19400683045387268,0.3596031665802002,0.1710338592529297
3.741880416870117,-0.24488180875778198,-0.9999585747718811,1.0760228633880615,-0.19456930458545685,0.35962602496147156,0.16866418719291687
3.761967897415161,-0.23383618891239166,-0.9968760013580322,1.0905430316925049,-0.19354207813739777,0.36013564467430115,0.16800643503665924
3.782062530517578,-0.23564429581165314,-1.0004217624664307,1.1020629405975342,-0.1904912143945694,0.3606874346733093,0.16668342053890228
3.8031251430511475,-0.23774178326129913,-1.0048210620880127,1.1127164363861084,-0.1900143027305603,0.36060863733291626,0.16524191200733185
3.8232312202453613,-0.24615232646465302,-1.0080194473266602,1.1208405494689941,-0.18943722546100616,0.3601265847682953,0.16400402784347534
3.8433475494384766,-0.24711894989013672,-1.0142379999160767,1.1258063316345215,-0.1883680373430252,0.3611956238746643,0.16353654861450195
3.863398790359497,-0.23943907022476196,-1.0143237113952637,1.1324599981307983,-0.18765071034431458,0.3622501492500305,0.16331200301647186
3.883492946624756,-0.2462947815656662,-1.022339940071106,1.1386479139328003,-0.18496938049793243,0.3607923984527588,0.16196689009666443
3.903548240661621,-0.25094807147979736,-1.0307976007461548,1.145307183265686,-0.18184968829154968,0.3605714440345764,0.16055962443351746
3.9236361980438232,-0.2581818103790283,-1.036928415298462,1.1471924781799316,-0.17985223233699799,0.36012986302375793,0.15963150560855865
3.943718910217285,-0.2684946656227112,-1.0497246980667114,1.1489553451538086,-0.1751425713300705,0.36117252707481384,0.15817201137542725
3.9638476371765137,-0.27610543370246887,-1.056700348854065,1.150670051574707,-0.17391660809516907,0.3626631498336792,0.1570940762758255
3.983992576599121,-0.29162129759788513,-1.0713396072387695,1.148941993713379,-0.17060068249702454,0.36464762687683105,0.15594914555549622
4.004268646240234,-0.301658034324646,-1.0798094272613525,1.146027684211731,-0.16865648329257965,0.36493587493896484,0.15521365404129028
4.024417400360107,-0.3186901807785034,-1.0947911739349365,1.1465680599212646,-0.16134798526763916,0.3643288016319275,0.15357942879199982
4.044510841369629,-0.3419901430606842,-1.1088941097259521,1.1455132961273193,-0.15588757395744324,0.3629550635814667,0.1521645039319992
4.064549684524536,-0.34581416845321655,-1.113067865371704,1.1500606536865234,-0.15310955047607422,0.36377349495887756,0.1518079936504364
4.0846617221832275,-0.34784644842147827,-1.1202890872955322,1.1625679731369019,-0.1486896425485611,0.36407214403152466,0.14943039417266846
4.104700565338135,-0.3380817174911499,-1.124837875366211,1.184977412223816,-0.14024017751216888,0.3630460202693939,0.1459190547466278
4.12479043006897,-0.3262788951396942,-1.1273887157440186,1.1975016593933105,-0.13383111357688904,0.3641447424888611,0.14431393146514893
4.144912004470825,-0.3083595037460327,-1.1330933570861816,1.2212855815887451,-0.12575934827327728,0.36454468965530396,0.14172662794589996
4.164970397949219,-0.29086437821388245,-1.1413915157318115,1.2387897968292236,-0.1187582015991211,0.3705095946788788,0.14073854684829712
4.185046911239624,-0.28356656432151794,-1.1454546451568604,1.2475383281707764,-0.11604268848896027,0.37370550632476807,0.1406673938035965
4.205207347869873,-0.2815215587615967,-1.1558785438537598,1.2521966695785522,-0.11475884914398193,0.37920668721199036,0.14123663306236267
4.2252891063690186,-0.28602084517478943,-1.1616291999816895,1.2530508041381836,-0.11450771987438202,0.37958765029907227,0.14144763350486755
4.245518445968628,-0.298780620098114,-1.1727261543273926,1.2442282438278198,-0.11483171582221985,0.3833593428134918,0.1425754725933075
4.265486478805542,-0.31516459584236145,-1.1826460361480713,1.2359263896942139,-0.11604864150285721,0.3834192454814911,0.14338622987270355
4.285634279251099,-0.32395434379577637,-1.1867496967315674,1.2342382669448853,-0.11628340184688568,0.38209497928619385,0.14358142018318176
4.30570387840271,-0.33871376514434814,-1.1931118965148926,1.2388921976089478,-0.11605359613895416,0.3765994608402252,0.1434427797794342
4.325958967208862,-0.34311577677726746,-1.1959054470062256,1.2594367265701294,-0.11448900401592255,0.3696695864200592,0.14316418766975403
4.346039772033691,-0.3442084491252899,-1.1975140571594238,1.2714680433273315,-0.11204114556312561,0.36516475677490234,0.14303234219551086
4.366218090057373,-0.3449346125125885,-1.2039390802383423,1.2822940349578857,-0.10524661839008331,0.3586639165878296,0.1435096263885498
4.386324167251587,-0.34286075830459595,-1.2076321840286255,1.2854329347610474,-0.1014154851436615,0.3568146228790283,0.14388087391853333
4.40639853477478,-0.34719812870025635,-1.2164486646652222,1.287521481513977,-0.0944933146238327,0.3522910177707672,0.14490608870983124
4.426583290100098,-0.3452697694301605,-1.2202677726745605,1.284955382347107,-0.09401372075080872,0.35451728105545044,0.14561644196510315
4.446732521057129,-0.33837947249412537,-1.2265825271606445,1.2781562805175781,-0.09989308565855026,0.3617821931838989,0.14587412774562836
4.466808557510376,-0.33807820081710815,-1.2319384813308716,1.279011845588684,-0.10506513714790344,0.3642493784427643,0.14508767426013947
4.4868690967559814,-0.3269330561161041,-1.2314033508300781,1.2890347242355347,-0.10841181129217148,0.369737446308136,0.14452779293060303
4.506977558135986,-0.31821393966674805,-1.2327687740325928,1.3097162246704102,-0.10618841648101807,0.372282475233078,0.14396026730537415
4.527039051055908,-0.3216709792613983,-1.2370011806488037,1.3211356401443481,-0.09915859252214432,0.3692931830883026,0.14463451504707336
4.547118425369263,-0.32983872294425964,-1.2404645681381226,1.3216252326965332,-0.0952901840209961,0.3661939799785614,0.14558640122413635
4.56722617149353,-0.33836519718170166,-1.2462586164474487,1.3202838897705078,-0.08787761628627777,0.3632628917694092,0.14725157618522644
4.587384462356567,-0.34811046719551086,-1.2525112628936768,1.3161110877990723,-0.08310258388519287,0.3565335273742676,0.14836347103118896
4.607508182525635,-0.35699033737182617,-1.2561897039413452,1.3085404634475708,-0.08510541170835495,0.35388651490211487,0.14831091463565826
4.627622365951538,-0.35863760113716125,-1.2587809562683105,1.3002568483352661,-0.09704753756523132,0.3595309853553772,0.14703550934791565
4.6477015018463135,-0.3464997708797455,-1.2575199604034424,1.3053224086761475,-0.0988265722990036,0.36418581008911133,0.1460995078086853
4.667800426483154,-0.33277079463005066,-1.2570078372955322,1.3181308507919312,-0.09442613273859024,0.3691066801548004,0.1448282152414322
4.687838315963745,-0.31770509481430054,-1.2561112642288208,1.3410764932632446,-0.08481338620185852,0.370830237865448,0.14483675360679626
4.707917928695679,-0.30934572219848633,-1.2555046081542969,1.3520538806915283,-0.08216631412506104,0.3719763457775116,0.14501164853572845
4.7279887199401855,-0.3231545686721802,-1.2613359689712524,1.3457677364349365,-0.0776875913143158,0.3723716735839844,0.14623162150382996
4.7482709884643555,-0.3353927433490753,-1.2647178173065186,1.334324598312378,-0.07280635833740234,0.3735992908477783,0.14828956127166748
4.7683632373809814,-0.3401767313480377,-1.266564130783081,1.3267953395843506,-0.07310439646244049,0.3735150992870331,0.14850857853889465
4.788481950759888,-0.35566049814224243,-1.27030348777771,1.306829810142517,-0.08578544110059738,0.372016578912735,0.14676986634731293
4.8088459968566895,-0.3666362762451172,-1.2703436613082886,1.3008562326431274,-0.09172506630420685,0.3691445589065552,0.1443730592727661
4.828973293304443,-0.3551631569862366,-1.2678006887435913,1.3155570030212402,-0.0881839394569397,0.3682253062725067,0.14262332022190094
4.849036931991577,-0.34813737869262695,-1.2675042152404785,1.3405959606170654,-0.07972376048564911,0.3648054003715515,0.1403273344039917
4.869507312774658,-0.33227184414863586,-1.2665975093841553,1.361141562461853,-0.065287746489048,0.3655579388141632,0.1410507708787918
4.88958740234375,-0.32145819067955017,-1.2656821012496948,1.372545599937439,-0.06473827362060547,0.36729443073272705,0.14105947315692902
4.909667015075684,-0.31542402505874634,-1.2685515880584717,1.3698604106903076,-0.059893202036619186,0.3723984360694885,0.1420208215713501
4.929746150970459,-0.31994879245758057,-1.2703804969787598,1.3644641637802124,-0.05802318453788757,0.37376952171325684,0.142556831240654
4.949848651885986,-0.3356054723262787,-1.2749881744384766,1.3444912433624268,-0.06229795143008232,0.37668052315711975,0.1430031955242157
4.969963550567627,-0.353290319442749,-1.2776234149932861,1.3131420612335205,-0.08013538271188736,0.3811488747596741,0.14074768126010895
4.990055799484253,-0.3671896457672119,-1.2783613204956055,1.2966784238815308,-0.08859343826770782,0.3800068795681,0.13888201117515564
5.010222434997559,-0.3609321713447571,-1.2739936113357544,1.3189060688018799,-0.08863560110330582,0.3796568512916565,0.13563668727874756
5.030306339263916,-0.350263774394989,-1.2724552154541016,1.3469841480255127,-0.07760065793991089,0.37396490573883057,0.13297124207019806
5.050428152084351,-0.35252922773361206,-1.273256540298462,1.3504159450531006,-0.06717164814472198,0.3699655532836914,0.13317039608955383
5.070519924163818,-0.33235228061676025,-1.2716774940490723,1.3707752227783203,-0.058834485709667206,0.3706125020980835,0.13319097459316254
5.090588808059692,-0.3213299512863159,-1.2705750465393066,1.381988286972046,-0.05681656301021576,0.37183451652526855,0.1333339661359787
5.1106836795806885,-0.3214544951915741,-1.2743680477142334,1.3734124898910522,-0.05188509821891785,0.3749622702598572,0.13402828574180603
5.1307759284973145,-0.3330230414867401,-1.2778855562210083,1.3556770086288452,-0.05100122094154358,0.37750038504600525,0.13519276678562164
5.150814771652222,-0.3357912600040436,-1.2786924839019775,1.3431439399719238,-0.05821993574500084,0.38318976759910583,0.13463807106018066
5.170903205871582,-0.3593246638774872,-1.2812988758087158,1.3145238161087036,-0.07470044493675232,0.3831339180469513,0.13177670538425446
5.191023588180542,-0.3719979226589203,-1.2803348302841187,1.309678554534912,-0.07899961620569229,0.3792843222618103,0.1287727952003479
5.211122751235962,-0.3695768117904663,-1.2785433530807495,1.3212721347808838,-0.07700274884700775,0.37883928418159485,0.12751373648643494
5.231196403503418,-0.3471693992614746,-1.275141716003418,1.3474100828170776,-0.06460252404212952,0.37807992100715637,0.12516136467456818
5.251614809036255,-0.34322285652160645,-1.276523470878601,1.3588612079620361,-0.05010954290628433,0.3716793656349182,0.12440500408411026
5.271704196929932,-0.33333998918533325,-1.2754383087158203,1.369511604309082,-0.04682982712984085,0.3729637861251831,0.1245746910572052
5.291764974594116,-0.31518125534057617,-1.2728440761566162,1.3854326009750366,-0.04434864595532417,0.3799329698085785,0.12527519464492798
5.311846971511841,-0.3135431408882141,-1.2741023302078247,1.384436845779419,-0.04254710301756859,0.3818676173686981,0.12532725930213928
5.331918716430664,-0.33661291003227234,-1.2800357341766357,1.359936237335205,-0.0461120530962944,0.3810487985610962,0.12567415833473206
5.351979494094849,-0.35633403062820435,-1.2828906774520874,1.3235794305801392,-0.05780218914151192,0.38363489508628845,0.1244916170835495
5.372067928314209,-0.37008339166641235,-1.284273386001587,1.3048101663589478,-0.06310353428125381,0.3807613253593445,0.12320017069578171
5.392229080200195,-0.36716046929359436,-1.27940833568573,1.3192108869552612,-0.0699319839477539,0.383184015750885,0.11982713639736176
5.41245174407959,-0.3503459393978119,-1.275155782699585,1.3362224102020264,-0.07281722873449326,0.38739362359046936,0.11750715970993042
5.432534694671631,-0.3518812656402588,-1.2761561870574951,1.352117896080017,-0.059827253222465515,0.3784111440181732,0.1149996742606163
5.452600955963135,-0.34190380573272705,-1.2747946977615356,1.3661301136016846,-0.045313287526369095,0.3781065344810486,0.115263931453228
5.472697019577026,-0.3309917747974396,-1.2736045122146606,1.3793343305587769,-0.04181268811225891,0.37906450033187866,0.11512834578752518
5.492786645889282,-0.32070785760879517,-1.2746704816818237,1.3855386972427368,-0.033079829066991806,0.3810211718082428,0.11609348654747009
5.512824296951294,-0.33149486780166626,-1.2785658836364746,1.369767427444458,-0.02840784192085266,0.3802073001861572,0.11800647526979446
5.532913684844971,-0.33827537298202515,-1.280848503112793,1.3583823442459106,-0.032714422792196274,0.38191261887550354,0.11849343776702881
5.553065299987793,-0.35888540744781494,-1.284477710723877,1.3251550197601318,-0.05287569761276245,0.38484278321266174,0.11662841588258743
5.573325157165527,-0.37400081753730774,-1.2832512855529785,1.3099099397659302,-0.07014921307563782,0.3837704062461853,0.11286988854408264
5.5934131145477295,-0.37328723073005676,-1.281150221824646,1.31910240650177,-0.07222788780927658,0.38338086009025574,0.11101697385311127
5.613508939743042,-0.35290491580963135,-1.277221918106079,1.3457539081573486,-0.0655083954334259,0.3827815651893616,0.10759375989437103
5.633780479431152,-0.35178428888320923,-1.2776246070861816,1.359869122505188,-0.048809152096509933,0.37594613432884216,0.10695066303014755
5.653874158859253,-0.3451824188232422,-1.2765933275222778,1.3662264347076416,-0.04125511646270752,0.37655141949653625,0.10764273256063461
5.674013137817383,-0.32169032096862793,-1.273130178451538,1.3917266130447388,-0.038220301270484924,0.3792687654495239,0.10790657997131348
5.694061279296875,-0.3144878149032593,-1.272902488708496,1.3955143690109253,-0.03337866812944412,0.38184890151023865,0.10853844881057739
5.714155912399292,-0.3261237144470215,-1.2761555910110474,1.376837134361267,-0.026033654808998108,0.38180065155029297,0.1104847714304924
5.734227180480957,-0.3418090343475342,-1.2791485786437988,1.3483918905258179,-0.0369124636054039,0.3883919417858124,0.11095079779624939
5.754342317581177,-0.35285651683807373,-1.2807526588439941,1.3295010328292847,-0.04809361696243286,0.3908872604370117,0.10963848978281021
5.774491786956787,-0.3733358681201935,-1.2819231748580933,1.310357928276062,-0.06419117748737335,0.3872597813606262,0.10601618885993958
5.794470310211182,-0.3610115051269531,-1.2775866985321045,1.3330986499786377,-0.06541606038808823,0.387525349855423,0.10272108018398285
5.8145482540130615,-0.35467612743377686,-1.276780605316162,1.347078800201416,-0.061683688312768936,0.3852504789829254,0.10128982365131378
5.834702968597412,-0.3559533357620239,-1.27748703956604,1.3572803735733032,-0.04549965262413025,0.37707915902137756,0.10085766017436981
5.854787111282349,-0.34108710289001465,-1.2744165658950806,1.3767634630203247,-0.03570546209812164,0.37693312764167786,0.10155478119850159
5.874865293502808,-0.32894545793533325,-1.2727622985839844,1.3921535015106201,-0.03544440120458603,0.3770384192466736,0.10145726054906845
5.894954204559326,-0.3177964985370636,-1.2734886407852173,1.3895580768585205,-0.03157071769237518,0.3820447325706482,0.10238081961870193
5.9156553745269775,-0.3205840289592743,-1.2749390602111816,1.3811789751052856,-0.028565987944602966,0.38328176736831665,0.1031670942902565
5.935815334320068,-0.3290874660015106,-1.2773609161376953,1.36235511302948,-0.03648756071925163,0.39168041944503784,0.10356990993022919
5.955841064453125,-0.3611222803592682,-1.2818963527679443,1.3286296129226685,-0.053657472133636475,0.3906239867210388,0.10159695893526077
5.975923776626587,-0.37777024507522583,-1.283494472503662,1.3126816749572754,-0.05966029316186905,0.3864106237888336,0.10021086037158966
5.9959986209869385,-0.37748149037361145,-1.2803360223770142,1.3149298429489136,-0.061551086604595184,0.38457733392715454,0.09740400314331055
6.016054153442383,-0.3605056405067444,-1.2771797180175781,1.3437210321426392,-0.05283336713910103,0.3806706964969635,0.09479320794343948
6.0361950397491455,-0.36015528440475464,-1.2779096364974976,1.356704831123352,-0.046684909611940384,0.375975102186203,0.09401224553585052
6.056304216384888,-0.3485739827156067,-1.2775514125823975,1.3680636882781982,-0.0324786938726902,0.3752850592136383,0.09496060758829117
6.07703971862793,-0.31960809230804443,-1.272689938545227,1.3935387134552002,-0.0336051769554615,0.381104052066803,0.09558137506246567
6.09728479385376,-0.3109421133995056,-1.2718663215637207,1.3984767198562622,-0.02941468171775341,0.38412216305732727,0.09641502052545547
6.1172544956207275,-0.3184293508529663,-1.2751461267471313,1.379712700843811,-0.02891644835472107,0.38934433460235596,0.09768681973218918
6.137347221374512,-0.3278493583202362,-1.2776484489440918,1.3657017946243286,-0.033233001828193665,0.391358345746994,0.09799515455961227
6.1574225425720215,-0.35267701745033264,-1.2809959650039673,1.3346855640411377,-0.04783124104142189,0.3931151032447815,0.09667810052633286
6.177534818649292,-0.3724364936351776,-1.2818763256072998,1.3147342205047607,-0.05809400603175163,0.3879986107349396,0.09393297135829926
6.197762727737427,-0.3747287392616272,-1.2808234691619873,1.3250889778137207,-0.056995902210474014,0.3842015266418457,0.09268421679735184
6.217957496643066,-0.3613314926624298,-1.2781316041946411,1.3490573167800903,-0.04873431846499443,0.3801414966583252,0.09043172001838684
6.237974166870117,-0.36096513271331787,-1.2786097526550293,1.3587197065353394,-0.04363373667001724,0.3757587671279907,0.08984338492155075
6.2582244873046875,-0.34524980187416077,-1.277806282043457,1.373643398284912,-0.03221829608082771,0.37455320358276367,0.09037648886442184
6.278178930282593,-0.3338398039340973,-1.2766960859298706,1.383192777633667,-0.029323991388082504,0.3761151432991028,0.09109057486057281
6.2983009815216064,-0.3155823349952698,-1.2748314142227173,1.3948547840118408,-0.02558000758290291,0.38275739550590515,0.09268760681152344
6.319040060043335,-0.31982505321502686,-1.277126669883728,1.3768820762634277,-0.028795011341571808,0.38968026638031006,0.09359292685985565
6.33912467956543,-0.33212757110595703,-1.2792646884918213,1.364248514175415,-0.03434273600578308,0.39180347323417664,0.09395401179790497
6.359193325042725,-0.3600931167602539,-1.28279709815979,1.3338544368743896,-0.0484117791056633,0.39067429304122925,0.09260330349206924
6.379611968994141,-0.3762969672679901,-1.2826147079467773,1.3138941526412964,-0.05797509104013443,0.3870319724082947,0.08999527245759964
6.399708271026611,-0.3756095767021179,-1.2807426452636719,1.3275015354156494,-0.05430617555975914,0.38344207406044006,0.08903338015079498
6.4198079109191895,-0.35744234919548035,-1.2776092290878296,1.3571672439575195,-0.04844551533460617,0.3807205855846405,0.08619636297225952
6.439950466156006,-0.3624531626701355,-1.2790040969848633,1.3625285625457764,-0.04152398556470871,0.373303085565567,0.08576902747154236
6.459994792938232,-0.3469901978969574,-1.2766609191894531,1.3794983625411987,-0.027703315019607544,0.37243568897247314,0.08698975294828415
6.480092525482178,-0.32218581438064575,-1.2741888761520386,1.3948986530303955,-0.02643928863108158,0.37955787777900696,0.0877588614821434
6.500194787979126,-0.3267633616924286,-1.2763148546218872,1.384979248046875,-0.024550018832087517,0.3803752362728119,0.0884522795677185
6.520296096801758,-0.3290504813194275,-1.27725350856781,1.3674370050430298,-0.028161777183413506,0.3878679573535919,0.0889832004904747
6.540334224700928,-0.33037516474723816,-1.2765533924102783,1.3592190742492676,-0.033040851354599,0.3937700390815735,0.08884630352258682
6.560494899749756,-0.35872381925582886,-1.2805860042572021,1.3309097290039062,-0.04506911337375641,0.39125537872314453,0.08709557354450226
6.580578804016113,-0.3707766532897949,-1.2806909084320068,1.322996973991394,-0.05282372236251831,0.3870909512042999,0.08467310667037964
6.600648641586304,-0.37197569012641907,-1.279768705368042,1.3263121843338013,-0.054622869938611984,0.38643908500671387,0.08352050185203552
6.620805740356445,-0.36473631858825684,-1.2780109643936157,1.35097336769104,-0.04531650245189667,0.38030457496643066,0.081816665828228
6.640902996063232,-0.3637081980705261,-1.2783244848251343,1.362792730331421,-0.03763270750641823,0.37582945823669434,0.08157213032245636
6.660955190658569,-0.3405523896217346,-1.2765789031982422,1.382792353630066,-0.0231776162981987,0.37576591968536377,0.0829656720161438
6.681054353713989,-0.32762593030929565,-1.2749521732330322,1.3917585611343384,-0.02007555402815342,0.3789261281490326,0.08380933851003647
6.701145887374878,-0.32713449001312256,-1.2773253917694092,1.382106900215149,-0.01984415389597416,0.3830050826072693,0.085186667740345
6.721229791641235,-0.33612751960754395,-1.2800203561782837,1.3533552885055542,-0.028845127671957016,0.3898710608482361,0.0856817364692688
6.741295337677002,-0.34061336517333984,-1.2801506519317627,1.3371855020523071,-0.03703216090798378,0.3951333165168762,0.08513187617063522
6.761376619338989,-0.3612343668937683,-1.2813785076141357,1.3135581016540527,-0.053033873438835144,0.3948443830013275,0.08213885128498077
6.781477451324463,-0.3637993633747101,-1.2787895202636719,1.3289368152618408,-0.05606872960925102,0.39184728264808655,0.07934992015361786
6.801572561264038,-0.3574158847332001,-1.2766016721725464,1.346458911895752,-0.053730558604002,0.39130714535713196,0.07844789326190948
6.821660757064819,-0.3635563850402832,-1.2773995399475098,1.3632705211639404,-0.039980437606573105,0.3796568512916565,0.07815802097320557
6.8417487144470215,-0.3658480942249298,-1.277952790260315,1.3681670427322388,-0.03354169428348541,0.3747522830963135,0.07852411270141602
6.861994981765747,-0.33999839425086975,-1.2749241590499878,1.3894903659820557,-0.022871464490890503,0.37474218010902405,0.08009945601224899
6.881967067718506,-0.33824798464775085,-1.277194619178772,1.3828765153884888,-0.015347964130342007,0.37521588802337646,0.08186830580234528
6.902062892913818,-0.34020769596099854,-1.2787773609161377,1.3730942010879517,-0.01749550923705101,0.37784314155578613,0.08251816779375076
6.922152519226074,-0.3386731445789337,-1.278922200202942,1.3504425287246704,-0.026572085916996002,0.38842156529426575,0.08276239037513733
6.9421961307525635,-0.3504894971847534,-1.2802703380584717,1.326103687286377,-0.04577551782131195,0.3939748704433441,0.0800299420952797
6.962289810180664,-0.3545375466346741,-1.2799415588378906,1.320737361907959,-0.05424578860402107,0.3949894905090332,0.07825344800949097
6.9824512004852295,-0.35824450850486755,-1.2781345844268799,1.3270624876022339,-0.057265717536211014,0.3940633237361908,0.07578648626804352
7.002739667892456,-0.35281217098236084,-1.2754164934158325,1.3563438653945923,-0.04885544627904892,0.3905813694000244,0.07464756071567535
7.022874355316162,-0.3552430272102356,-1.275726556777954,1.3620270490646362,-0.04037046432495117,0.3857787251472473,0.0749136433005333
7.042884349822998,-0.3531601130962372,-1.2766259908676147,1.3865622282028198,-0.02342890575528145,0.37365809082984924,0.07638710737228394
7.062972784042358,-0.34871456027030945,-1.2766952514648438,1.3938190937042236,-0.016215652227401733,0.3717029094696045,0.07766947895288467
7.08305811882019,-0.34836292266845703,-1.279693603515625,1.3798823356628418,-0.009966491721570492,0.3710137903690338,0.08022676408290863
7.103131294250488,-0.34396761655807495,-1.2814301252365112,1.3685567378997803,-0.016805678606033325,0.3768789768218994,0.08088447153568268
7.123220205307007,-0.3459665775299072,-1.2825016975402832,1.3561915159225464,-0.024645941331982613,0.3810253143310547,0.08033442497253418
7.143369197845459,-0.35582175850868225,-1.2835032939910889,1.3264707326889038,-0.04400382936000824,0.3884645998477936,0.0777997374534607
7.163776159286499,-0.35508406162261963,-1.2800906896591187,1.3208105564117432,-0.05468282848596573,0.39404240250587463,0.07503867894411087
7.1838884353637695,-0.34071242809295654,-1.2760475873947144,1.333828330039978,-0.05514350160956383,0.3989587128162384,0.07382982224225998
7.203928709030151,-0.3350767493247986,-1.273841381072998,1.3617039918899536,-0.04869135469198227,0.39746713638305664,0.07244186103343964
7.224326848983765,-0.3315501809120178,-1.27345609664917,1.3779411315917969,-0.03173220530152321,0.3911418318748474,0.07350187003612518
7.244470596313477,-0.32776960730552673,-1.272761344909668,1.3920165300369263,-0.02712438628077507,0.3879932761192322,0.07438524067401886
7.264556407928467,-0.339800089597702,-1.2765454053878784,1.386867642402649,-0.023199323564767838,0.38291269540786743,0.07671192288398743
7.284664630889893,-0.35235267877578735,-1.2790980339050293,1.3742567300796509,-0.020439591258764267,0.37842079997062683,0.07815630733966827
7.304726839065552,-0.3646201491355896,-1.2816855907440186,1.3481965065002441,-0.021130269393324852,0.37526994943618774,0.0796746164560318
7.324775457382202,-0.382108211517334,-1.2841676473617554,1.3180124759674072,-0.03559752181172371,0.3712805509567261,0.07752406597137451
7.34489893913269,-0.3714630603790283,-1.2817374467849731,1.320308804512024,-0.04243984818458557,0.37485602498054504,0.07570938020944595
7.3649725914001465,-0.35090938210487366,-1.2774865627288818,1.3432934284210205,-0.04833044111728668,0.38138753175735474,0.07226119190454483
7.3850297927856445,-0.34352239966392517,-1.275901198387146,1.3588802814483643,-0.04319451376795769,0.3838769793510437,0.07108333706855774
7.405239105224609,-0.33732515573501587,-1.2742512226104736,1.3615608215332031,-0.03721337020397186,0.38652628660202026,0.07149401307106018
7.425252437591553,-0.3198292851448059,-1.2716050148010254,1.3789993524551392,-0.03078051283955574,0.3905275762081146,0.07192375510931015
7.445313930511475,-0.32087796926498413,-1.2713654041290283,1.3909989595413208,-0.02847430482506752,0.3885681629180908,0.07282712310552597
7.465422868728638,-0.3258853852748871,-1.270621657371521,1.3831268548965454,-0.023823540657758713,0.39210712909698486,0.07594998925924301
7.485523223876953,-0.35139626264572144,-1.2760332822799683,1.367339849472046,-0.023344257846474648,0.38504958152770996,0.07816953957080841
7.5055530071258545,-0.3606746792793274,-1.277561902999878,1.3534520864486694,-0.02621152251958847,0.3839918076992035,0.07853949815034866
7.525672435760498,-0.38564568758010864,-1.2814056873321533,1.323950171470642,-0.038656000047922134,0.3779061436653137,0.07718409597873688
7.545739412307739,-0.3672724664211273,-1.2773592472076416,1.3262279033660889,-0.04419173300266266,0.37723031640052795,0.07398541271686554
7.565856695175171,-0.36164191365242004,-1.2765133380889893,1.3358180522918701,-0.04520479589700699,0.3767296373844147,0.07231345772743225
7.585883855819702,-0.35237738490104675,-1.2751706838607788,1.353452205657959,-0.04126383364200592,0.3784646689891815,0.07106097042560577
7.605989933013916,-0.3352651596069336,-1.2725328207015991,1.3637957572937012,-0.03568015247583389,0.38501960039138794,0.07096367329359055
7.6260645389556885,-0.32210367918014526,-1.2706317901611328,1.3782978057861328,-0.03387245163321495,0.38659998774528503,0.0710064247250557
7.646158933639526,-0.317178338766098,-1.2700833082199097,1.3891528844833374,-0.025585420429706573,0.3885950744152069,0.07273108512163162
7.666262865066528,-0.31819573044776917,-1.268479585647583,1.385141372680664,-0.02118426002562046,0.3921818435192108,0.0744810551404953
7.686376333236694,-0.3204377293586731,-1.2688535451889038,1.378066062927246,-0.022208459675312042,0.39763444662094116,0.07676006853580475
7.706421852111816,-0.3547728359699249,-1.2757351398468018,1.34498929977417,-0.03087957575917244,0.39122480154037476,0.07690355181694031
7.726472616195679,-0.3694326877593994,-1.278178095817566,1.326414704322815,-0.03795681148767471,0.3883134126663208,0.07616814970970154
7.746567487716675,-0.39287662506103516,-1.2794898748397827,1.311108112335205,-0.047504227608442307,0.3793725371360779,0.07389359176158905
7.76666259765625,-0.3693898916244507,-1.2752665281295776,1.335567593574524,-0.0450863391160965,0.3776145577430725,0.0707666426897049
7.786757230758667,-0.36172088980674744,-1.2749340534210205,1.3506361246109009,-0.04062741994857788,0.3749445676803589,0.06962227076292038
7.806812524795532,-0.3600034713745117,-1.2751877307891846,1.36090087890625,-0.027148598805069923,0.3712362051010132,0.07035811245441437
7.82693886756897,-0.3293863832950592,-1.27164888381958,1.383626103401184,-0.025219392031431198,0.37899625301361084,0.07123160362243652
7.846980571746826,-0.3115629255771637,-1.2688168287277222,1.394779920578003,-0.026165349408984184,0.3846672773361206,0.0717531368136406
7.86704158782959,-0.3132530152797699,-1.2701828479766846,1.3886278867721558,-0.023602131754159927,0.3905509114265442,0.07383763045072556
7.887118577957153,-0.31701499223709106,-1.2711929082870483,1.3823057413101196,-0.02710300125181675,0.39506223797798157,0.07466726750135422
7.907234191894531,-0.3293810188770294,-1.2737541198730469,1.363748550415039,-0.03614431619644165,0.4007691740989685,0.07527002692222595
7.927490949630737,-0.3483313322067261,-1.276462197303772,1.3488154411315918,-0.040981464087963104,0.39736485481262207,0.07492706924676895
7.947634220123291,-0.3732859492301941,-1.2791680097579956,1.3250221014022827,-0.04799823835492134,0.38834136724472046,0.07319039106369019
7.967822790145874,-0.3755006790161133,-1.2771514654159546,1.3306108713150024,-0.04542229697108269,0.38172945380210876,0.07157447934150696
7.988103151321411,-0.36388641595840454,-1.2757760286331177,1.3441708087921143,-0.039675235748291016,0.3786451518535614,0.07050268352031708
8.008135318756104,-0.35295504331588745,-1.2758630514144897,1.3633064031600952,-0.02697831392288208,0.37320369482040405,0.07020676136016846
8.028190612792969,-0.340355783700943,-1.2747856378555298,1.376023530960083,-0.024315420538187027,0.374782532453537,0.07053741067647934
8.048260927200317,-0.3255957067012787,-1.2740609645843506,1.3903189897537231,-0.018720608204603195,0.3780485987663269,0.07260007411241531
8.068321704864502,-0.3215678930282593,-1.2753541469573975,1.3769820928573608,-0.020253442227840424,0.38597917556762695,0.07448065280914307
8.088402271270752,-0.324273020029068,-1.2766042947769165,1.3693007230758667,-0.02345449849963188,0.3885437250137329,0.07488757371902466
8.108484983444214,-0.3427501916885376,-1.2789912223815918,1.3448561429977417,-0.03618675470352173,0.3932996988296509,0.07468830794095993
8.128612041473389,-0.36224159598350525,-1.2803430557250977,1.3242570161819458,-0.04911542683839798,0.3911024034023285,0.07254870235919952
8.148714780807495,-0.36486876010894775,-1.2795608043670654,1.322882056236267,-0.05169454962015152,0.3896687626838684,0.0713917538523674
8.168809413909912,-0.36094051599502563,-1.276644229888916,1.3423254489898682,-0.048268578946590424,0.38718804717063904,0.06976428627967834
8.188884258270264,-0.36021924018859863,-1.2760381698608398,1.353047251701355,-0.043982915580272675,0.3844481110572815,0.069522924721241
8.208970069885254,-0.35660475492477417,-1.2763662338256836,1.3728983402252197,-0.02967727556824684,0.37487924098968506,0.0700942724943161
8.229084730148315,-0.33772870898246765,-1.2747068405151367,1.3923014402389526,-0.018569340929389,0.375479131937027,0.07218028604984283
8.24915623664856,-0.33257031440734863,-1.2750639915466309,1.3941216468811035,-0.014814903028309345,0.3764982521533966,0.07341015338897705
8.26923131942749,-0.33970168232917786,-1.2789554595947266,1.366172432899475,-0.017391271889209747,0.37960875034332275,0.07497493922710419
8.289418458938599,-0.3472873866558075,-1.2802402973175049,1.3355337381362915,-0.030061081051826477,0.3875274360179901,0.07455934584140778
8.309519052505493,-0.35218414664268494,-1.280155062675476,1.3231914043426514,-0.04036588594317436,0.3918399214744568,0.07333066314458847
8.329626083374023,-0.3587785065174103,-1.278640627861023,1.3118020296096802,-0.05493522435426712,0.3960205316543579,0.07045727968215942
8.349695444107056,-0.35555753111839294,-1.2769217491149902,1.32667875289917,-0.05623464658856392,0.3955232799053192,0.0690697580575943
8.369846105575562,-0.34809577465057373,-1.2738646268844604,1.3577247858047485,-0.05015312880277634,0.39381301403045654,0.06793905049562454
8.389869213104248,-0.3477351665496826,-1.2737244367599487,1.3661326169967651,-0.03732641413807869,0.3889804482460022,0.06897588074207306
8.409963846206665,-0.3452187180519104,-1.274212121963501,1.3764331340789795,-0.030595988035202026,0.3836459815502167,0.0696374773979187
8.4300537109375,-0.338721364736557,-1.2753093242645264,1.3930646181106567,-0.01965300552546978,0.37720444798469543,0.07169006019830704
8.45032262802124,-0.34624406695365906,-1.2792174816131592,1.3818011283874512,-0.01288401335477829,0.37302833795547485,0.07451770454645157
8.470389127731323,-0.3519045114517212,-1.2814509868621826,1.3679025173187256,-0.01657605543732643,0.3742804527282715,0.07536515593528748
8.490483045578003,-0.3609437346458435,-1.2839863300323486,1.3379125595092773,-0.03102344647049904,0.37904074788093567,0.07494109869003296
8.510688543319702,-0.36941587924957275,-1.283920407295227,1.3081228733062744,-0.046845193952322006,0.38220086693763733,0.07254143804311752
8.530776500701904,-0.3575282096862793,-1.2802941799163818,1.3244869709014893,-0.048657141625881195,0.3853760063648224,0.07118310034275055
8.550857782363892,-0.3360489010810852,-1.2747999429702759,1.3491601943969727,-0.05406522378325462,0.3937515914440155,0.06831637024879456
8.57090973854065,-0.33278554677963257,-1.273957371711731,1.36502206325531,-0.043680720031261444,0.39224016666412354,0.0680275410413742
8.591036319732666,-0.33081117272377014,-1.2730438709259033,1.369392991065979,-0.035935912281274796,0.3920523524284363,0.06882207840681076
8.611146450042725,-0.31676197052001953,-1.2696815729141235,1.3891491889953613,-0.031449127942323685,0.39586859941482544,0.07065190374851227
8.631234645843506,-0.33432984352111816,-1.2721312046051025,1.377869963645935,-0.023124732077121735,0.39128074049949646,0.07375136017799377
8.651333808898926,-0.345574289560318,-1.2747687101364136,1.3688322305679321,-0.022010087966918945,0.38735032081604004,0.07483667135238647
8.671420097351074,-0.3623555600643158,-1.2789356708526611,1.3467575311660767,-0.028617247939109802,0.38397470116615295,0.07566236704587936
8.691601276397705,-0.3903712034225464,-1.2831329107284546,1.3197546005249023,-0.03828730806708336,0.3716003894805908,0.07413044571876526
8.711689710617065,-0.37979671359062195,-1.2805593013763428,1.3200981616973877,-0.044224757701158524,0.37347543239593506,0.07249611616134644
8.731752634048462,-0.3559747338294983,-1.2766499519348145,1.338037371635437,-0.04841388389468193,0.3782716989517212,0.069342240691185
8.751936435699463,-0.3466639518737793,-1.2753286361694336,1.3524624109268188,-0.04619966074824333,0.38014718890190125,0.06847158074378967
8.771974802017212,-0.33653780817985535,-1.2739624977111816,1.3624958992004395,-0.03772466629743576,0.3837829530239105,0.06869333237409592
8.7921724319458,-0.31421226263046265,-1.2699824571609497,1.3783142566680908,-0.03497222810983658,0.39241525530815125,0.06969159096479416
8.812268018722534,-0.31012070178985596,-1.269273281097412,1.3867835998535156,-0.031040124595165253,0.39307403564453125,0.0705379992723465
8.832414388656616,-0.3269890546798706,-1.2687009572982788,1.3784795999526978,-0.02386096678674221,0.3944951295852661,0.0740566998720169
8.852574825286865,-0.334803968667984,-1.270186185836792,1.3717845678329468,-0.024084731936454773,0.39446741342544556,0.07529130578041077
8.872672080993652,-0.35042715072631836,-1.2744289636611938,1.3538836240768433,-0.028399687260389328,0.3904871344566345,0.07576882839202881
8.892756700515747,-0.38184618949890137,-1.2797605991363525,1.3245666027069092,-0.0424414798617363,0.38090333342552185,0.07394178956747055
8.912875175476074,-0.3838384449481964,-1.2791880369186401,1.3188328742980957,-0.04948115721344948,0.38119804859161377,0.07272745668888092
8.932951211929321,-0.3581247329711914,-1.2749754190444946,1.339741826057434,-0.04496747627854347,0.37877705693244934,0.06972795724868774
8.953011512756348,-0.35254475474357605,-1.2747746706008911,1.3624812364578247,-0.038191623985767365,0.37646281719207764,0.06866437196731567
8.97308087348938,-0.34957176446914673,-1.27493417263031,1.368513822555542,-0.034360695630311966,0.37694990634918213,0.06882698833942413
8.993160724639893,-0.33452582359313965,-1.2732324600219727,1.3843108415603638,-0.028819970786571503,0.38025587797164917,0.07006019353866577
9.013261795043945,-0.3105478286743164,-1.2705270051956177,1.3935401439666748,-0.02320878766477108,0.38803815841674805,0.07236465811729431
9.033348083496094,-0.3185979425907135,-1.2722163200378418,1.383286476135254,-0.022237714380025864,0.38907790184020996,0.07355225831270218
9.053484439849854,-0.33250749111175537,-1.274388074874878,1.3628007173538208,-0.02580125816166401,0.39317792654037476,0.07521787285804749
9.073527336120605,-0.3421698808670044,-1.2760798931121826,1.352402687072754,-0.030721835792064667,0.39337754249572754,0.07512974739074707
9.093672752380371,-0.36974698305130005,-1.2798986434936523,1.3244481086730957,-0.044040247797966,0.3880605101585388,0.0733017548918724
9.113681316375732,-0.38225898146629333,-1.2792038917541504,1.3189860582351685,-0.05170813575387001,0.3819534182548523,0.07071370631456375
9.133768081665039,-0.3679870367050171,-1.2759206295013428,1.330224871635437,-0.051304154098033905,0.384768009185791,0.06952296942472458
9.153868198394775,-0.3611348569393158,-1.275854229927063,1.3569930791854858,-0.041438836604356766,0.37548017501831055,0.06763222813606262
9.17395544052124,-0.35038766264915466,-1.2746093273162842,1.368396282196045,-0.026852037757635117,0.3749527931213379,0.06902114301919937
9.194040298461914,-0.3361842632293701,-1.2725344896316528,1.3795878887176514,-0.025770077481865883,0.37785160541534424,0.06978359818458557
9.21412181854248,-0.3197391629219055,-1.2714301347732544,1.3873295783996582,-0.023500893265008926,0.38428235054016113,0.07157007604837418
9.234253883361816,-0.31698673963546753,-1.2720662355422974,1.3818535804748535,-0.020183015614748,0.38909921050071716,0.07336112856864929
9.254369497299194,-0.326272189617157,-1.2738888263702393,1.3687419891357422,-0.02376135252416134,0.3914479613304138,0.07398969680070877
9.27442717552185,-0.35583195090293884,-1.278711199760437,1.338249683380127,-0.03762662410736084,0.39043959975242615,0.07338469475507736
9.294653177261353,-0.37525832653045654,-1.2798783779144287,1.3162500858306885,-0.049198828637599945,0.38644176721572876,0.07111556828022003
9.314752340316772,-0.37862303853034973,-1.2788039445877075,1.3192033767700195,-0.04927637055516243,0.38312283158302307,0.07009004801511765
9.33481764793396,-0.35913795232772827,-1.2744941711425781,1.3482574224472046,-0.04422615468502045,0.38254696130752563,0.068028524518013
9.354898452758789,-0.35851266980171204,-1.275171160697937,1.3593823909759521,-0.03939360752701759,0.37719807028770447,0.06723389029502869
9.37506651878357,-0.3473300039768219,-1.2742639780044556,1.3694807291030884,-0.024283945560455322,0.37629035115242004,0.06877025961875916
9.395299911499023,-0.3259657621383667,-1.2714717388153076,1.3885539770126343,-0.022804923355579376,0.3821283280849457,0.07028548419475555
9.4154212474823,-0.32305610179901123,-1.2716987133026123,1.3906302452087402,-0.01903170347213745,0.38329970836639404,0.07150517404079437
9.435523986816406,-0.3299610912799835,-1.2749972343444824,1.3669666051864624,-0.022217752411961555,0.38757503032684326,0.07265407592058182
9.455611944198608,-0.33697912096977234,-1.2761917114257812,1.354793667793274,-0.029234062880277634,0.39201417565345764,0.07290472090244293
9.475671768188477,-0.35392066836357117,-1.278367280960083,1.3314255475997925,-0.04357302188873291,0.3950749635696411,0.07140551507472992
9.495766878128052,-0.36152583360671997,-1.2786848545074463,1.3234392404556274,-0.048977263271808624,0.39337849617004395,0.07026521861553192
9.515993118286133,-0.3666990101337433,-1.2774592638015747,1.3289772272109985,-0.05226695165038109,0.38896486163139343,0.06822847574949265
9.536181211471558,-0.35832566022872925,-1.2753241062164307,1.3555525541305542,-0.04397786781191826,0.38386037945747375,0.06727676838636398
9.556247472763062,-0.3589766323566437,-1.276200294494629,1.3624088764190674,-0.03649933636188507,0.3779233396053314,0.06718474626541138
9.57641053199768,-0.34754911065101624,-1.2756764888763428,1.3816322088241577,-0.023814868181943893,0.3739807903766632,0.06890115141868591
9.596663475036621,-0.3251655697822571,-1.2735437154769897,1.3943941593170166,-0.018682461231946945,0.37977999448776245,0.07125778496265411
9.616765260696411,-0.3161218464374542,-1.2732079029083252,1.3973876237869263,-0.0183432474732399,0.38314753770828247,0.07226110994815826
9.63683295249939,-0.325348436832428,-1.2772252559661865,1.3693588972091675,-0.023909015581011772,0.3881518542766571,0.07309812307357788
9.656942367553711,-0.3388855457305908,-1.2789121866226196,1.350046157836914,-0.031333036720752716,0.39143630862236023,0.07322710752487183
9.677019119262695,-0.35517802834510803,-1.2800508737564087,1.3194613456726074,-0.047561220824718475,0.395378053188324,0.07134035229682922
9.697154998779297,-0.3654601573944092,-1.2792781591415405,1.3247582912445068,-0.052844658493995667,0.3886461555957794,0.06865989416837692
9.717293500900269,-0.3646860122680664,-1.2778059244155884,1.3339289426803589,-0.05140955001115799,0.38791635632514954,0.06789223849773407
9.737343549728394,-0.3602328598499298,-1.2762675285339355,1.3577178716659546,-0.04404515027999878,0.3837517499923706,0.06719446182250977
9.757438659667969,-0.35775864124298096,-1.277296781539917,1.3771315813064575,-0.027730073779821396,0.3740812838077545,0.06808652728796005
9.77751088142395,-0.34776777029037476,-1.275773286819458,1.3910531997680664,-0.023106057196855545,0.37346553802490234,0.06908121705055237
9.797616004943848,-0.33082008361816406,-1.2750329971313477,1.3959977626800537,-0.018763545900583267,0.3788079023361206,0.07154937833547592
9.818309783935547,-0.33134064078330994,-1.2778064012527466,1.3731281757354736,-0.01689467951655388,0.38263648748397827,0.0735999196767807
9.838398456573486,-0.33256998658180237,-1.2786471843719482,1.3610368967056274,-0.020559661090373993,0.3861895501613617,0.07392086088657379
9.858485460281372,-0.35163211822509766,-1.2805407047271729,1.3229154348373413,-0.03629260137677193,0.3924354910850525,0.07279817759990692
9.87890625,-0.3647575080394745,-1.2797036170959473,1.3110034465789795,-0.05341653525829315,0.3936278223991394,0.06952441483736038
9.899001836776733,-0.36194881796836853,-1.2776111364364624,1.3241900205612183,-0.056947581470012665,0.3940294682979584,0.0678715705871582
9.919099569320679,-0.35193732380867004,-1.274473786354065,1.3509416580200195,-0.052787210792303085,0.393187940120697,0.06597203761339188
9.93949818611145,-0.35438457131385803,-1.2748072147369385,1.3567503690719604,-0.047653134912252426,0.38965702056884766,0.06573343276977539
9.959673643112183,-0.3574918806552887,-1.276052713394165,1.3719276189804077,-0.03361424058675766,0.3795856535434723,0.06657414138317108
9.979679107666016,-0.3393199145793915,-1.2737847566604614,1.3933539390563965,-0.024597318843007088,0.37807685136795044,0.06884445250034332
9.9997718334198,-0.3360822796821594,-1.2740793228149414,1.39513099193573,-0.01783457212150097,0.37772974371910095,0.07039769738912582
10.019881963729858,-0.3345071077346802,-1.2767311334609985,1.3807677030563354,-0.01319313794374466,0.37924695014953613,0.07268115133047104
10.040123701095581,-0.33828794956207275,-1.2792539596557617,1.3563250303268433,-0.022564684972167015,0.38539597392082214,0.07289138436317444
10.06032943725586,-0.3480875492095947,-1.2810359001159668,1.3363862037658691,-0.03359745070338249,0.3876720368862152,0.0717359334230423
10.08033013343811,-0.36155733466148376,-1.28071928024292,1.3064533472061157,-0.05233469232916832,0.3924514651298523,0.06868770718574524
10.101254940032959,-0.35206344723701477,-1.2751773595809937,1.32998526096344,-0.0543111115694046,0.3956597149372101,0.06635957956314087
10.121352910995483,-0.349629670381546,-1.2738348245620728,1.3466570377349854,-0.051014430820941925,0.3939433693885803,0.06556611508131027
10.141422033309937,-0.3459451198577881,-1.2724157571792603,1.3653278350830078,-0.04142206534743309,0.39105328917503357,0.06544409692287445
10.16151213645935,-0.3476148247718811,-1.2726554870605469,1.3693757057189941,-0.034020960330963135,0.38689783215522766,0.06610120832920074
10.181586980819702,-0.33722516894340515,-1.27232027053833,1.3924598693847656,-0.023183654993772507,0.378526896238327,0.06765049695968628
10.201683044433594,-0.34538495540618896,-1.2742575407028198,1.3883837461471558,-0.012543508782982826,0.3744291067123413,0.07089304178953171
10.221748113632202,-0.3498709201812744,-1.2764090299606323,1.3751873970031738,-0.01335456408560276,0.3747965097427368,0.07190477102994919
10.241835594177246,-0.3592483401298523,-1.279691219329834,1.349075198173523,-0.020705629140138626,0.3764561116695404,0.07241885364055634
10.26210880279541,-0.37273287773132324,-1.2813640832901,1.3176007270812988,-0.04266497865319252,0.38066795468330383,0.06983665376901627
10.282198429107666,-0.3682241439819336,-1.2798023223876953,1.3131401538848877,-0.04977378621697426,0.3841606676578522,0.06818879395723343
10.302305698394775,-0.349357932806015,-1.274664282798767,1.3360168933868408,-0.056843217462301254,0.39029747247695923,0.06466705352067947
10.32295823097229,-0.33701738715171814,-1.2720959186553955,1.3566412925720215,-0.04970601201057434,0.39256906509399414,0.06325504183769226
10.34303879737854,-0.3326666057109833,-1.2711641788482666,1.3605862855911255,-0.040424883365631104,0.3925420343875885,0.06368521600961685
10.363107204437256,-0.3215290307998657,-1.2690244913101196,1.3842262029647827,-0.029709666967391968,0.39112550020217896,0.06535772234201431
10.383228778839111,-0.3174248933792114,-1.2676761150360107,1.3930556774139404,-0.026688886806368828,0.3926430940628052,0.06685129553079605
10.4032883644104,-0.33287718892097473,-1.2690361738204956,1.3797513246536255,-0.018302660435438156,0.38974079489707947,0.07042733579874039
10.423401117324829,-0.35137471556663513,-1.2725051641464233,1.3682351112365723,-0.01772608608007431,0.3845703899860382,0.07182447612285614
10.443447351455688,-0.3738022744655609,-1.2774063348770142,1.3411657810211182,-0.023856861516833305,0.37972646951675415,0.07297353446483612
10.463631868362427,-0.3931645154953003,-1.2799628973007202,1.312150239944458,-0.035907771438360214,0.37204110622406006,0.07141570746898651
10.48377513885498,-0.37995561957359314,-1.2772315740585327,1.3159008026123047,-0.04029887542128563,0.37343934178352356,0.06993725150823593
10.503806352615356,-0.35946717858314514,-1.2737053632736206,1.329843282699585,-0.045875877141952515,0.3781324028968811,0.06660885363817215
10.523965835571289,-0.3524149954319,-1.2729660272598267,1.3435496091842651,-0.04517712444067001,0.3797582983970642,0.0654335767030716
10.54402494430542,-0.33708372712135315,-1.2703781127929688,1.3621150255203247,-0.03914133831858635,0.3864280879497528,0.06498842686414719
10.564253330230713,-0.313308447599411,-1.2670493125915527,1.3834339380264282,-0.029799899086356163,0.3924557566642761,0.06586581468582153
10.584343433380127,-0.3141085207462311,-1.2666937112808228,1.395979404449463,-0.026793505996465683,0.39016517996788025,0.06710135191679001
10.604449987411499,-0.3156999945640564,-1.266240119934082,1.3877798318862915,-0.022436007857322693,0.39698725938796997,0.07091762125492096
10.624545335769653,-0.3244187831878662,-1.2678247690200806,1.3786746263504028,-0.021938538178801537,0.39726245403289795,0.07255755364894867
10.644625186920166,-0.35357651114463806,-1.2740797996520996,1.3485426902770996,-0.02601885236799717,0.3905499577522278,0.07377509027719498
10.665297031402588,-0.38558945059776306,-1.279127836227417,1.3137102127075195,-0.03653406724333763,0.3802991807460785,0.07258196920156479
10.685393333435059,-0.3944971263408661,-1.2792142629623413,1.3082079887390137,-0.041444793343544006,0.376910001039505,0.07163441181182861
10.705530643463135,-0.36934515833854675,-1.2744593620300293,1.3318232297897339,-0.042897336184978485,0.37556469440460205,0.06809044629335403
10.725565671920776,-0.3607543706893921,-1.2736912965774536,1.343217134475708,-0.041653819382190704,0.3758573532104492,0.0670306384563446
10.745765924453735,-0.3509405255317688,-1.2729157209396362,1.3545725345611572,-0.033743347972631454,0.3776940107345581,0.06702560931444168
10.766111850738525,-0.32407623529434204,-1.2690141201019287,1.3743066787719727,-0.02989077754318714,0.3857375979423523,0.06808891892433167
10.78623652458191,-0.30803239345550537,-1.2659096717834473,1.3874603509902954,-0.030168619006872177,0.38984325528144836,0.06873605400323868
10.806349277496338,-0.312447726726532,-1.2652630805969238,1.382086992263794,-0.02362074889242649,0.3956523835659027,0.07161690294742584
10.826602697372437,-0.325559139251709,-1.2667102813720703,1.3688719272613525,-0.023966709151864052,0.39945700764656067,0.07430533319711685
10.8466956615448,-0.340023934841156,-1.2699154615402222,1.3549860715866089,-0.028346598148345947,0.397396445274353,0.0745576024055481
10.866758584976196,-0.3673963248729706,-1.2747427225112915,1.3206865787506104,-0.04266424477100372,0.39308977127075195,0.07323791086673737
10.88707947731018,-0.39071694016456604,-1.2762413024902344,1.3099842071533203,-0.0503946952521801,0.38182950019836426,0.07095292210578918
10.90718412399292,-0.3744587302207947,-1.2729943990707397,1.3183475732803345,-0.049744389951229095,0.3840622007846832,0.06960513442754745
10.927263021469116,-0.36205053329467773,-1.2722201347351074,1.3511683940887451,-0.04395754635334015,0.3757532835006714,0.06672874838113785
10.947365760803223,-0.3639053404331207,-1.2736999988555908,1.359761118888855,-0.03933645784854889,0.3711177706718445,0.06615429371595383
10.967446088790894,-0.3485865890979767,-1.2722526788711548,1.3709889650344849,-0.025951335206627846,0.3740936517715454,0.06819544732570648
10.987518787384033,-0.32015010714530945,-1.269491195678711,1.3904742002487183,-0.02382941171526909,0.3809603452682495,0.06985626369714737
11.007658004760742,-0.31637054681777954,-1.2697852849960327,1.3850923776626587,-0.02339417114853859,0.38619640469551086,0.07107590138912201
11.027704238891602,-0.31877797842025757,-1.2711470127105713,1.3722859621047974,-0.024713998660445213,0.3933439552783966,0.07307327538728714
11.047753095626831,-0.3234226107597351,-1.2717971801757812,1.3657848834991455,-0.029635172337293625,0.3977329730987549,0.07366970926523209
11.06783938407898,-0.35112541913986206,-1.2763569355010986,1.3348431587219238,-0.043483175337314606,0.3969668447971344,0.0725468322634697
11.087942600250244,-0.37535423040390015,-1.2784942388534546,1.3129560947418213,-0.05343646556138992,0.38953840732574463,0.07013271749019623
11.108038187026978,-0.382627934217453,-1.278167963027954,1.310890555381775,-0.05245500057935715,0.3842489719390869,0.06933248043060303
11.12809443473816,-0.3632371127605438,-1.2745568752288818,1.3472622632980347,-0.0428057499229908,0.37990155816078186,0.06764888018369675
11.148193359375,-0.36431998014450073,-1.2753573656082153,1.3618006706237793,-0.03810160234570503,0.37362140417099,0.06695891916751862
11.168346643447876,-0.3511880040168762,-1.274903655052185,1.379509687423706,-0.023489179089665413,0.3700297474861145,0.06850875169038773
11.18836760520935,-0.32978588342666626,-1.2735698223114014,1.3892347812652588,-0.01879497617483139,0.37675100564956665,0.07090848684310913
11.208483219146729,-0.32267361879348755,-1.2734651565551758,1.3884766101837158,-0.018749728798866272,0.38138696551322937,0.07193993777036667
11.228552341461182,-0.32140618562698364,-1.2748931646347046,1.3739724159240723,-0.022409019991755486,0.3891007602214813,0.07337537407875061
11.248903036117554,-0.343247652053833,-1.2785574197769165,1.3387761116027832,-0.0378793366253376,0.3949155807495117,0.07295366376638412
11.269001722335815,-0.35479432344436646,-1.2796976566314697,1.3223570585250854,-0.04668445885181427,0.394986093044281,0.07166658341884613
11.289071321487427,-0.3642011880874634,-1.2787442207336426,1.3229821920394897,-0.054580651223659515,0.39109697937965393,0.06885099411010742
11.309241533279419,-0.35770127177238464,-1.2751727104187012,1.350247859954834,-0.050282590091228485,0.38949447870254517,0.06765179336071014
11.329333066940308,-0.3567477762699127,-1.274960994720459,1.3561676740646362,-0.045071832835674286,0.3871057331562042,0.06749816983938217
11.349427700042725,-0.36535921692848206,-1.2765493392944336,1.3619407415390015,-0.02697460725903511,0.3723718225955963,0.06857718527317047
11.369494676589966,-0.3432719111442566,-1.2741124629974365,1.3900561332702637,-0.022935502231121063,0.37147942185401917,0.06968242675065994
11.389577388763428,-0.3348199129104614,-1.273664951324463,1.3951765298843384,-0.0190499946475029,0.37391749024391174,0.07097838073968887
11.409801721572876,-0.33397889137268066,-1.2764389514923096,1.3812259435653687,-0.014615251682698727,0.37670597434043884,0.07332777976989746
11.429787874221802,-0.33766281604766846,-1.2789230346679688,1.358142614364624,-0.020654339343309402,0.38214969635009766,0.07403639703989029
11.449896812438965,-0.34227997064590454,-1.279525876045227,1.3416002988815308,-0.02960963174700737,0.3874092996120453,0.07340756058692932
11.469957113265991,-0.35545772314071655,-1.2797679901123047,1.3156533241271973,-0.0517059862613678,0.39405620098114014,0.07026747614145279
11.490250587463379,-0.3567955791950226,-1.277016043663025,1.3257765769958496,-0.06069857254624367,0.3951702415943146,0.06710973381996155
11.510398864746094,-0.3532390892505646,-1.2749080657958984,1.3398642539978027,-0.05763489380478859,0.39520466327667236,0.06651986390352249
11.53046441078186,-0.3539489209651947,-1.2738546133041382,1.3577961921691895,-0.04362362623214722,0.3895668387413025,0.06670885533094406
11.550546169281006,-0.35758060216903687,-1.2738323211669922,1.3623851537704468,-0.03351627662777901,0.38427066802978516,0.06751862913370132
11.570626258850098,-0.34915444254875183,-1.2740228176116943,1.3951953649520874,-0.021809477359056473,0.3749209940433502,0.0689486414194107
11.590739488601685,-0.3461430072784424,-1.2767269611358643,1.3903323411941528,-0.010693726129829884,0.3720007538795471,0.07247784733772278
11.610825538635254,-0.3479914367198944,-1.2791990041732788,1.3783483505249023,-0.010229501873254776,0.3720366954803467,0.0739440992474556
11.630901336669922,-0.34932777285575867,-1.2819100618362427,1.3537118434906006,-0.017833195626735687,0.3774465322494507,0.07538776099681854
11.65099287033081,-0.3631778955459595,-1.2842085361480713,1.3157023191452026,-0.038853809237480164,0.3837866485118866,0.07328381389379501
11.671180963516235,-0.3617500066757202,-1.2822065353393555,1.3123533725738525,-0.0521109364926815,0.3886317312717438,0.07120006531476974
11.691189050674438,-0.34176763892173767,-1.2759262323379517,1.3343493938446045,-0.0654006227850914,0.3973030149936676,0.06723355501890182
11.711289644241333,-0.33542123436927795,-1.2745730876922607,1.3452484607696533,-0.06280995160341263,0.39839282631874084,0.06610939651727676
11.731357336044312,-0.33648383617401123,-1.2736153602600098,1.3632752895355225,-0.047515157610177994,0.3942200541496277,0.06614543497562408
11.75143027305603,-0.3378971815109253,-1.273043155670166,1.3714202642440796,-0.036297187209129333,0.39074939489364624,0.06749357283115387
11.771522045135498,-0.32019081711769104,-1.2686039209365845,1.400302767753601,-0.028809862211346626,0.39014989137649536,0.0700477808713913
11.791771411895752,-0.342233270406723,-1.2737363576889038,1.3916997909545898,-0.018475418910384178,0.38071906566619873,0.07349758595228195
11.81186318397522,-0.3589383065700531,-1.2778457403182983,1.374622106552124,-0.016950789839029312,0.37535610795021057,0.07542677223682404
11.831923246383667,-0.37354353070259094,-1.2821941375732422,1.3421118259429932,-0.024196455255150795,0.3736937940120697,0.07669665664434433
11.852013111114502,-0.3839567303657532,-1.2839607000350952,1.3216285705566406,-0.03370693325996399,0.37240809202194214,0.07577348500490189
11.87209439277649,-0.3736913204193115,-1.2803449630737305,1.3097760677337646,-0.04770592227578163,0.3764056861400604,0.07207676768302917
11.892284631729126,-0.35861101746559143,-1.2770798206329346,1.3188068866729736,-0.05286282300949097,0.3804454505443573,0.06977330148220062
11.91240406036377,-0.3459910452365875,-1.274821400642395,1.345682144165039,-0.05077656731009483,0.383611798286438,0.06704907864332199
11.932388544082642,-0.3308836817741394,-1.2718555927276611,1.3621201515197754,-0.04207522049546242,0.38937467336654663,0.06677756458520889
11.952481269836426,-0.3227223753929138,-1.2709457874298096,1.3714429140090942,-0.03485202044248581,0.3904576897621155,0.06721777468919754
11.972572088241577,-0.3203083276748657,-1.2690917253494263,1.3968768119812012,-0.03025137074291706,0.38991761207580566,0.06943117827177048
11.992629051208496,-0.31944921612739563,-1.2683970928192139,1.3926647901535034,-0.021795038133859634,0.39354705810546875,0.07293058186769485
12.012720584869385,-0.33438944816589355,-1.2714945077896118,1.3837239742279053,-0.017411287873983383,0.3880179226398468,0.0745873674750328
12.03279423713684,-0.36288872361183167,-1.2787420749664307,1.3512821197509766,-0.02324993908405304,0.3808658719062805,0.0759892389178276
12.052868604660034,-0.37694251537323,-1.2814826965332031,1.3321192264556885,-0.029515383765101433,0.3772222101688385,0.07551013678312302
12.072953701019287,-0.39128172397613525,-1.2820192575454712,1.3004029989242554,-0.04381917417049408,0.37389010190963745,0.07287319749593735
12.093191623687744,-0.3694378733634949,-1.2765977382659912,1.3197699785232544,-0.04821794852614403,0.37562572956085205,0.0690629705786705
12.113285541534424,-0.35591068863868713,-1.274490237236023,1.335403323173523,-0.04776294156908989,0.3786180913448334,0.06754255294799805
12.133352279663086,-0.34329041838645935,-1.2732415199279785,1.3599759340286255,-0.04081716760993004,0.3810126781463623,0.0662885382771492
12.153629779815674,-0.3334681987762451,-1.2715027332305908,1.3693681955337524,-0.03617795184254646,0.38456785678863525,0.06681247055530548
12.173723459243774,-0.3080836534500122,-1.2670010328292847,1.3912556171417236,-0.030209803953766823,0.3916344940662384,0.06807781755924225
12.19379472732544,-0.30909019708633423,-1.265512466430664,1.3976209163665771,-0.025019515305757523,0.39454561471939087,0.07086368650197983
12.21387529373169,-0.31246036291122437,-1.2654423713684082,1.3928295373916626,-0.019948657602071762,0.39586693048477173,0.07274802029132843
12.233947277069092,-0.3346482515335083,-1.270830750465393,1.3766756057739258,-0.022712871432304382,0.3942039906978607,0.07495050877332687
12.254037380218506,-0.34933844208717346,-1.2737418413162231,1.3570841550827026,-0.026399999856948853,0.39249154925346375,0.07555849105119705
12.274197578430176,-0.3788003921508789,-1.2791661024093628,1.3195157051086426,-0.03607262670993805,0.3833136260509491,0.0746401995420456
12.294395208358765,-0.3888157904148102,-1.278218150138855,1.3103258609771729,-0.042336199432611465,0.37510764598846436,0.07239873707294464
12.314522504806519,-0.381686806678772,-1.2760658264160156,1.3185091018676758,-0.045312874019145966,0.37421074509620667,0.0706181451678276
