liuyurong129/humanoid-gym/humanoid/data/target_q_20250523-024634.csv
timestamp,joint_1,joint_2,joint_3,joint_4,joint_5,joint_6
5.221366882324219e-05,0.0,0.0,0.0,0.0,0.0,0.0
0.020115137100219727,0.0,0.0,0.0,0.0,0.0,0.0
0.040193796157836914,0.0,0.0,0.0,0.0,0.0,0.0
0.06023263931274414,0.1428074836730957,-0.47304341197013855,0.025311321020126343,-0.21158748865127563,-0.23315522074699402,-0.340888112783432
0.0803229808807373,0.08923494815826416,-0.622160017490387,0.1638689786195755,-0.1791885793209076,-0.24993553757667542,-0.17849065363407135
0.10039353370666504,0.12458086758852005,-0.9867652654647827,0.2416711151599884,-0.1400231570005417,-0.28390583395957947,-0.2171764373779297
0.1205439567565918,0.11209919303655624,-1.2371888160705566,0.2706310749053955,-0.11257929354906082,-0.2873055934906006,-0.22274067997932434
0.14055943489074707,0.09464911371469498,-1.4190016984939575,0.28212082386016846,-0.09762455523014069,-0.2641751170158386,-0.22286438941955566
0.16064786911010742,0.09915155917406082,-1.4667530059814453,0.325996994972229,-0.09167677909135818,-0.29898226261138916,-0.2420833259820938
0.18069219589233398,0.09153164178133011,-1.569657802581787,0.32387250661849976,-0.08388804644346237,-0.271126389503479,-0.23843371868133545
0.20073413848876953,0.08232340961694717,-1.6572394371032715,0.3295501470565796,-0.07274805754423141,-0.28493499755859375,-0.23756065964698792
0.22084331512451172,0.0680079385638237,-1.7012522220611572,0.30707040429115295,-0.0692572146654129,-0.2631220817565918,-0.22783121466636658
0.24096918106079102,0.06488055735826492,-1.747633934020996,0.3046344518661499,-0.06544123589992523,-0.2523726224899292,-0.22752392292022705
0.26099371910095215,0.0587194487452507,-1.7861326932907104,0.3040475845336914,-0.06253869831562042,-0.25223249197006226,-0.22749298810958862
0.28113389015197754,0.05854346603155136,-1.8115527629852295,0.3086475729942322,-0.060259804129600525,-0.2550460398197174,-0.22910286486148834
0.30116987228393555,0.06028351932764053,-1.8170323371887207,0.31298118829727173,-0.05943683534860611,-0.2565380334854126,-0.23047390580177307
0.32123494148254395,0.06077345460653305,-1.8180427551269531,0.3200121521949768,-0.05924011766910553,-0.26622474193573,-0.2319362461566925
0.34130191802978516,0.0632738545536995,-1.7991840839385986,0.3197784125804901,-0.061003826558589935,-0.2627914249897003,-0.23179370164871216
0.36134862899780273,0.06045941263437271,-1.793465256690979,0.31435173749923706,-0.06280981004238129,-0.2554702162742615,-0.23074966669082642
0.3814356327056885,0.063040591776371,-1.7856266498565674,0.3220321238040924,-0.06374215334653854,-0.2606242001056671,-0.2336609810590744
0.4015188217163086,0.06252805143594742,-1.7826822996139526,0.3222663998603821,-0.06246263533830643,-0.26070138812065125,-0.23289838433265686
0.4215703010559082,0.06279847770929337,-1.7746840715408325,0.316903680562973,-0.06294240802526474,-0.2612316906452179,-0.23066911101341248
0.44180798530578613,0.061842165887355804,-1.7688275575637817,0.3202444911003113,-0.06383828073740005,-0.25968772172927856,-0.23168018460273743
0.46192049980163574,0.06461498886346817,-1.7651171684265137,0.3234423100948334,-0.06428000330924988,-0.2652057707309723,-0.23211422562599182
0.48197269439697266,0.06470725685358047,-1.7524445056915283,0.325213223695755,-0.06640404462814331,-0.2616637647151947,-0.23355576395988464
0.5020174980163574,0.06518279761075974,-1.73883855342865,0.32477205991744995,-0.06715337187051773,-0.26112857460975647,-0.23286807537078857
0.522075891494751,0.068888358771801,-1.7224054336547852,0.3324832320213318,-0.06884393095970154,-0.26724275946617126,-0.23540669679641724
0.5421633720397949,0.07065064460039139,-1.7059717178344727,0.3379969596862793,-0.06960634142160416,-0.27128711342811584,-0.236712247133255
0.5622355937957764,0.07145606726408005,-1.6911466121673584,0.33785009384155273,-0.07214090973138809,-0.2708290219306946,-0.23726117610931396
0.5822949409484863,0.07356458157300949,-1.6809300184249878,0.3410876393318176,-0.072818823158741,-0.2763562798500061,-0.23758846521377563
0.6023647785186768,0.0651310607790947,-1.688008427619934,0.32486552000045776,-0.07285436242818832,-0.25959745049476624,-0.23178711533546448
0.622462272644043,0.06717044860124588,-1.6747740507125854,0.32646721601486206,-0.07410841435194016,-0.2584647834300995,-0.232085719704628
0.6425454616546631,0.06787718087434769,-1.659731149673462,0.3207576274871826,-0.07516029477119446,-0.25866439938545227,-0.2293822169303894
0.6625809669494629,0.06781274825334549,-1.6477530002593994,0.32504802942276,-0.0754394456744194,-0.2605994939804077,-0.2306123971939087
0.6827428340911865,0.07625361531972885,-1.62310791015625,0.3436170220375061,-0.07933563739061356,-0.2739279270172119,-0.23940815031528473
0.702826976776123,0.07449499517679214,-1.6094969511032104,0.34485942125320435,-0.08082746714353561,-0.26799342036247253,-0.24043115973472595
0.722886323928833,0.07453415542840958,-1.604243278503418,0.34389764070510864,-0.08161423355340958,-0.26943644881248474,-0.23961517214775085
0.7429494857788086,0.07882968336343765,-1.586024522781372,0.3525542616844177,-0.08257288485765457,-0.2786392271518707,-0.2413904368877411
0.7630271911621094,0.0729750469326973,-1.5922027826309204,0.333416610956192,-0.08260689675807953,-0.2637416422367096,-0.23303194344043732
0.7831029891967773,0.07160095125436783,-1.5828689336776733,0.3329985737800598,-0.08357494324445724,-0.26262128353118896,-0.23326310515403748
0.8031489849090576,0.07353127747774124,-1.55962336063385,0.3373243808746338,-0.08416040241718292,-0.2652411460876465,-0.2328076809644699
0.8232505321502686,0.08376786857843399,-1.5317602157592773,0.3575587570667267,-0.08742069453001022,-0.2867390513420105,-0.24186116456985474
0.8433341979980469,0.08290611952543259,-1.5127439498901367,0.35719484090805054,-0.09035266190767288,-0.28248435258865356,-0.2424670159816742
0.8634469509124756,0.08560555428266525,-1.493000864982605,0.36313048005104065,-0.09178654104471207,-0.28840550780296326,-0.242659792304039
0.8834877014160156,0.0884053185582161,-1.4538047313690186,0.36816251277923584,-0.09576458483934402,-0.28901901841163635,-0.24447853863239288
0.903588056564331,0.08045098930597305,-1.4600141048431396,0.3438538908958435,-0.09578033536672592,-0.26489439606666565,-0.2348632961511612
0.9237630367279053,0.08435261994600296,-1.4288185834884644,0.3440467119216919,-0.09798101335763931,-0.27321863174438477,-0.2339412271976471
0.9437394142150879,0.08538367599248886,-1.391247272491455,0.3459767699241638,-0.10202120989561081,-0.2751739025115967,-0.23411591351032257
0.9637892246246338,0.09124410897493362,-1.335504174232483,0.3442056477069855,-0.10724242776632309,-0.2716381549835205,-0.23190373182296753
0.9839060306549072,0.10417390614748001,-1.2859925031661987,0.37670379877090454,-0.11288226395845413,-0.3003879487514496,-0.2503321170806885
1.0039708614349365,0.10602056235074997,-1.245425820350647,0.38356465101242065,-0.11620838195085526,-0.30714523792266846,-0.2520545721054077
1.0240373611450195,0.10888295620679855,-1.1983026266098022,0.37955448031425476,-0.12126599997282028,-0.3029981255531311,-0.25146764516830444
1.0440964698791504,0.11199034005403519,-1.143303632736206,0.38315683603286743,-0.1252414435148239,-0.30839836597442627,-0.2521604001522064
1.064202070236206,0.10568622499704361,-1.1367225646972656,0.3557025194168091,-0.1267562359571457,-0.28126153349876404,-0.23828688263893127
1.0843415260314941,0.11201141029596329,-1.0572296380996704,0.3575174808502197,-0.13416598737239838,-0.284032940864563,-0.2389473021030426
1.1043524742126465,0.11884970217943192,-0.9507727026939392,0.35698992013931274,-0.1426158994436264,-0.29970648884773254,-0.2396731972694397
1.124403953552246,0.1319466531276703,-0.813086748123169,0.3521667718887329,-0.1539705991744995,-0.29139596223831177,-0.23902179300785065
1.1444940567016602,0.14149871468544006,-0.6678581237792969,0.3995850682258606,-0.16324998438358307,-0.34173300862312317,-0.26728078722953796
1.1647381782531738,0.1347801834344864,-0.41854602098464966,0.4104216396808624,-0.17634789645671844,-0.37962546944618225,-0.27484947443008423
1.18497896194458,0.15456247329711914,-0.14176717400550842,0.3861629366874695,-0.2049170583486557,-0.34671327471733093,-0.27437928318977356
1.20512056350708,0.15322420001029968,-0.0483548566699028,0.35386693477630615,-0.19043035805225372,-0.34760770201683044,-0.2630302608013153
1.225182056427002,0.15857887268066406,0.17,0.3561527729034424,-0.22102029621601105,-0.2896997928619385,-0.2665345072746277
1.2452514171600342,0.14776775240898132,0.17,0.36772283911705017,-0.20798544585704803,-0.30655503273010254,-0.2767457365989685
1.2653584480285645,0.14134551584720612,0.17,0.36777234077453613,-0.2086557298898697,-0.30270522832870483,-0.28255322575569153
1.2854557037353516,0.1369076669216156,0.17,0.36757948994636536,-0.198992520570755,-0.3029246926307678,-0.2845054268836975
1.3055663108825684,0.12996086478233337,0.17,0.3716803193092346,-0.20277906954288483,-0.2970813810825348,-0.2860667407512665
1.3255786895751953,0.13761214911937714,0.17,0.37346282601356506,-0.21454249322414398,-0.30990827083587646,-0.2855432331562042
1.3456780910491943,0.14441713690757751,0.17,0.3751501142978668,-0.2150123566389084,-0.31300294399261475,-0.2868259847164154
1.365760326385498,0.1432388722896576,0.17,0.37694042921066284,-0.21509923040866852,-0.3214165270328522,-0.2870226800441742
1.3858606815338135,0.13751965761184692,0.17,0.3794904947280884,-0.21552777290344238,-0.32051989436149597,-0.28792065382003784
1.4059576988220215,0.13829803466796875,0.17,0.38197460770606995,-0.2173588126897812,-0.3186984062194824,-0.28969183564186096
1.4259862899780273,0.13993878662586212,0.17,0.3848799169063568,-0.2174176424741745,-0.3196878135204315,-0.28822383284568787
1.4460556507110596,0.14083462953567505,0.17,0.38205859065055847,-0.21500445902347565,-0.32400986552238464,-0.28831613063812256
1.4661123752593994,0.13810616731643677,0.17,0.3797228932380676,-0.2173854261636734,-0.3202606439590454,-0.2883143424987793
1.486321210861206,0.1388569474220276,0.17,0.3786737322807312,-0.20977909862995148,-0.31863272190093994,-0.28884732723236084
1.5064213275909424,0.13806843757629395,0.17,0.3753208816051483,-0.21559327840805054,-0.31580498814582825,-0.28966906666755676
1.5264112949371338,0.13778111338615417,0.17,0.3778189420700073,-0.21603985130786896,-0.3106417953968048,-0.288950651884079
1.5464487075805664,0.14009368419647217,0.17,0.3754810690879822,-0.21617604792118073,-0.3181982934474945,-0.29012590646743774
1.5665485858917236,0.14046502113342285,0.17,0.37057697772979736,-0.21421906352043152,-0.3165415823459625,-0.2905654311180115
1.5866062641143799,0.1397240161895752,0.17,0.3658527135848999,-0.20286858081817627,-0.3184208869934082,-0.28915151953697205
1.6067383289337158,0.13870549201965332,0.17,0.3620290458202362,-0.21152083575725555,-0.3066747188568115,-0.28774726390838623
1.6267476081848145,0.14254823327064514,0.17,0.36094149947166443,-0.21354112029075623,-0.3148328959941864,-0.287252277135849
1.6468324661254883,0.13685080409049988,0.17,0.357572078704834,-0.2108595222234726,-0.3126090466976166,-0.2865438163280487
1.666987419128418,0.14246609807014465,0.17,0.35876089334487915,-0.21585680544376373,-0.3155721426010132,-0.28683653473854065
1.6870019435882568,0.14653709530830383,0.17,0.35582244396209717,-0.21245987713336945,-0.3172430694103241,-0.2876913845539093
1.7070891857147217,0.1442304253578186,0.17,0.3511396050453186,-0.21277007460594177,-0.3172037899494171,-0.2884131073951721
1.7271945476531982,0.1409062296152115,0.17,0.3510501980781555,-0.21386690437793732,-0.3175945281982422,-0.2889770567417145
1.747223138809204,0.14518272876739502,0.17,0.35004591941833496,-0.21540600061416626,-0.31157052516937256,-0.287733256816864
1.7674100399017334,0.14348918199539185,0.17,0.34606075286865234,-0.21202825009822845,-0.31564202904701233,-0.2871688902378082
1.7875752449035645,0.1394575834274292,0.17,0.34248119592666626,-0.2073107212781906,-0.31915730237960815,-0.28883442282676697
1.8076272010803223,0.13844382762908936,0.17,0.34106409549713135,-0.20865818858146667,-0.3077070415019989,-0.2870764434337616
1.8277242183685303,0.14139457046985626,0.17,0.3358573019504547,-0.2088293582201004,-0.30433958768844604,-0.2849713861942291
1.847785472869873,0.1481459140777588,0.17,0.33560478687286377,-0.21161825954914093,-0.3059597313404083,-0.2846039831638336
1.8679156303405762,0.1432698369026184,0.17,0.33142462372779846,-0.21695704758167267,-0.307237446308136,-0.2842235267162323
1.887958288192749,0.14403170347213745,0.17,0.3324503004550934,-0.2171865999698639,-0.3097406029701233,-0.28524285554885864
1.9083046913146973,0.14867347478866577,0.17,0.3261236548423767,-0.2136886566877365,-0.31576859951019287,-0.28492751717567444
1.9283876419067383,0.14885921776294708,0.17,0.32695746421813965,-0.21812205016613007,-0.3046055734157562,-0.28422996401786804
1.9485113620758057,0.14623969793319702,0.17,0.32666435837745667,-0.21421395242214203,-0.30888524651527405,-0.2849092185497284
1.9685537815093994,0.1463291049003601,0.17,0.32198652625083923,-0.21609239280223846,-0.3005218803882599,-0.28451046347618103
1.9889380931854248,0.1435806155204773,0.17,0.3205779790878296,-0.2141374796628952,-0.30498191714286804,-0.28425729274749756
2.0090246200561523,0.14870253205299377,0.17,0.3162462115287781,-0.21404576301574707,-0.2969512939453125,-0.2832506597042084
2.0291616916656494,0.13858886063098907,0.17,0.31234386563301086,-0.21282555162906647,-0.31067681312561035,-0.2850373089313507
2.0492606163024902,0.14123040437698364,0.17,0.3078630864620209,-0.21439598500728607,-0.299910306930542,-0.2842106521129608
2.0693788528442383,0.1394992470741272,0.14536991715431213,0.30370989441871643,-0.2055356204509735,-0.2817597985267639,-0.2804684638977051
2.0894007682800293,0.13584116101264954,0.09603764861822128,0.29739809036254883,-0.20337112247943878,-0.28310588002204895,-0.2807748317718506
2.109571933746338,0.1408783346414566,0.05124218016862869,0.2954275608062744,-0.20619812607765198,-0.28177860379219055,-0.2775314450263977
2.1295688152313232,0.1444026231765747,0.019985966384410858,0.2950676679611206,-0.21525272727012634,-0.2814483344554901,-0.2762505114078522
2.1496758460998535,0.1440836489200592,-0.003928788006305695,0.2936425805091858,-0.20975489914417267,-0.2887192368507385,-0.2786555588245392
2.1697750091552734,0.1438329517841339,-0.062429361045360565,0.28833436965942383,-0.2046741545200348,-0.2864343523979187,-0.27683112025260925
2.1898982524871826,0.13846293091773987,-0.12117747217416763,0.2924184501171112,-0.20655731856822968,-0.2778654992580414,-0.2750971019268036
2.20992112159729,0.14276917278766632,-0.1977698802947998,0.29538220167160034,-0.20199839770793915,-0.2775147557258606,-0.2729848325252533
2.2300286293029785,0.12727920711040497,-0.26019248366355896,0.2866530418395996,-0.19182677567005157,-0.32462477684020996,-0.2781915068626404
2.250084161758423,0.12198841571807861,-0.38034486770629883,0.2873428165912628,-0.18436826765537262,-0.31733977794647217,-0.2763770520687103
2.2702417373657227,0.1279885619878769,-0.5026277303695679,0.3044300377368927,-0.1802859753370285,-0.330076664686203,-0.2766854763031006
2.290435552597046,0.13789311051368713,-0.5359839200973511,0.3189918100833893,-0.175635427236557,-0.3227030038833618,-0.2707267701625824
2.310525417327881,0.1344025433063507,-0.5190826654434204,0.33312708139419556,-0.1690945327281952,-0.37967613339424133,-0.2876729965209961
2.330597400665283,0.14383956789970398,-0.4366753399372101,0.3362595736980438,-0.16602246463298798,-0.40860292315483093,-0.29490238428115845
2.3506650924682617,0.1582077145576477,-0.3124468922615051,0.3341347575187683,-0.1681363433599472,-0.41038379073143005,-0.3027707636356354
2.3708622455596924,0.1672857701778412,-0.22722744941711426,0.341404527425766,-0.1695718914270401,-0.39381280541419983,-0.30122578144073486
2.3909752368927,0.18039149045944214,-0.10356495529413223,0.33751481771469116,-0.1643352210521698,-0.41159817576408386,-0.31204861402511597
2.4110641479492188,0.17527617514133453,-0.01925947517156601,0.32965829968452454,-0.1875753104686737,-0.39302539825439453,-0.30866047739982605
2.431126117706299,0.17352184653282166,-0.04355008155107498,0.3207266926765442,-0.19068439304828644,-0.34627142548561096,-0.30358240008354187
2.451317548751831,0.16078856587409973,-0.09225393086671829,0.3183867931365967,-0.18412020802497864,-0.32568594813346863,-0.29784977436065674
2.4714198112487793,0.14858689904212952,-0.13215786218643188,0.3140213191509247,-0.18713705241680145,-0.33331653475761414,-0.30341866612434387
2.491475820541382,0.14189189672470093,-0.20538732409477234,0.3158668279647827,-0.18331988155841827,-0.3286994695663452,-0.3008505403995514
2.5115230083465576,0.1342281997203827,-0.2791355848312378,0.32109957933425903,-0.18699300289154053,-0.32276639342308044,-0.30098453164100647
2.5317633152008057,0.14676716923713684,-0.2913951277732849,0.3381509780883789,-0.1992778182029724,-0.30456608533859253,-0.29996955394744873
2.551846742630005,0.14698106050491333,-0.330914169549942,0.3443993628025055,-0.19974790513515472,-0.30239346623420715,-0.2992302477359772
2.571915626525879,0.1556810736656189,-0.38021591305732727,0.3428455591201782,-0.18663214147090912,-0.3373086750507355,-0.29930439591407776
2.5919697284698486,0.15720435976982117,-0.4327029585838318,0.33645379543304443,-0.17970587313175201,-0.3592360019683838,-0.30192965269088745
2.612046718597412,0.1391982138156891,-0.46319666504859924,0.33446645736694336,-0.17073924839496613,-0.4115450382232666,-0.3076275885105133
2.632112741470337,0.14730265736579895,-0.45225003361701965,0.34867000579833984,-0.16714562475681305,-0.4343282878398895,-0.31293439865112305
2.6522908210754395,0.14981506764888763,-0.40951240062713623,0.35379695892333984,-0.16351430118083954,-0.4501391351222992,-0.3171499967575073
2.672280788421631,0.1617645025253296,-0.3373154103755951,0.3570851683616638,-0.16686506569385529,-0.4532187879085541,-0.3267322778701782
2.692369222640991,0.16381746530532837,-0.33029696345329285,0.34219828248023987,-0.16690461337566376,-0.4297774136066437,-0.317468523979187
2.7124292850494385,0.16312210261821747,-0.2283596396446228,0.3466094136238098,-0.1788993626832962,-0.4370467960834503,-0.32231661677360535
2.7325282096862793,0.16740155220031738,-0.10964258760213852,0.353302538394928,-0.18096886575222015,-0.4338480532169342,-0.32721853256225586
2.7525973320007324,0.1756284087896347,-0.0592460110783577,0.35625290870666504,-0.19907742738723755,-0.39883461594581604,-0.3316495716571808
2.772723913192749,0.16624701023101807,-0.056601859629154205,0.3449541926383972,-0.19848427176475525,-0.372345894575119,-0.33004680275917053
2.792773485183716,0.16022169589996338,-0.08392072468996048,0.3398056626319885,-0.19857542216777802,-0.36281517148017883,-0.3295179307460785
2.812993288040161,0.15450569987297058,-0.10578567534685135,0.33588817715644836,-0.19782690703868866,-0.3453637659549713,-0.32776081562042236
2.832962989807129,0.14239934086799622,-0.1606731116771698,0.33153223991394043,-0.19268937408924103,-0.33381110429763794,-0.3252643644809723
2.853064775466919,0.13585996627807617,-0.22194376587867737,0.33764612674713135,-0.19934265315532684,-0.3343574106693268,-0.3286803662776947
2.873098373413086,0.14468857645988464,-0.23907485604286194,0.34828856587409973,-0.206106498837471,-0.3374502658843994,-0.3290849030017853
2.8932363986968994,0.14533033967018127,-0.28170645236968994,0.35635101795196533,-0.2065877616405487,-0.3383585512638092,-0.32689446210861206
2.9132649898529053,0.15224850177764893,-0.342242032289505,0.3513799011707306,-0.2038964480161667,-0.3527291417121887,-0.32904377579689026
2.933309555053711,0.14842036366462708,-0.38681429624557495,0.35241276025772095,-0.20059962570667267,-0.36188840866088867,-0.3284587860107422
2.953547239303589,0.1395103633403778,-0.4144291579723358,0.35220956802368164,-0.19590820372104645,-0.38218003511428833,-0.3293868601322174
2.973691463470459,0.1434125453233719,-0.43259724974632263,0.36473900079727173,-0.20200474560260773,-0.38895052671432495,-0.33430996537208557
2.9938416481018066,0.149068221449852,-0.41052737832069397,0.3770439326763153,-0.20348471403121948,-0.41247501969337463,-0.33923834562301636
3.0138776302337646,0.16264629364013672,-0.36461299657821655,0.37629109621047974,-0.2008284479379654,-0.4272942543029785,-0.3448072373867035
3.0340418815612793,0.16574636101722717,-0.3521375358104706,0.35690492391586304,-0.20744585990905762,-0.38151493668556213,-0.33766740560531616
3.054051399230957,0.1719832420349121,-0.26795336604118347,0.3558574318885803,-0.20875652134418488,-0.3710215091705322,-0.33901551365852356
3.0741119384765625,0.1724156141281128,-0.17446672916412354,0.35741138458251953,-0.21412314474582672,-0.4012605845928192,-0.3478967845439911
3.094160556793213,0.15639054775238037,-0.157208651304245,0.3433365523815155,-0.21678029000759125,-0.41022181510925293,-0.3539780378341675
3.1142454147338867,0.1670328974723816,-0.15656602382659912,0.3434620201587677,-0.21728546917438507,-0.3703860342502594,-0.35253429412841797
3.1344175338745117,0.1559666097164154,-0.19556424021720886,0.3385326564311981,-0.21726378798484802,-0.36909446120262146,-0.35305091738700867
3.154470205307007,0.1486339569091797,-0.26657095551490784,0.33461809158325195,-0.21508511900901794,-0.3647472858428955,-0.35397568345069885
3.1747658252716064,0.14659570157527924,-0.31663498282432556,0.3454350233078003,-0.21370355784893036,-0.3543447256088257,-0.3508812487125397
3.194856643676758,0.14649608731269836,-0.33084872364997864,0.35172218084335327,-0.21822871267795563,-0.34969034790992737,-0.3510168492794037
3.2150189876556396,0.15811461210250854,-0.3531663715839386,0.35558414459228516,-0.21681542694568634,-0.3691323697566986,-0.3527171313762665
3.2350127696990967,0.15730330348014832,-0.36337873339653015,0.35672178864479065,-0.22310690581798553,-0.3628811538219452,-0.3536616265773773
3.255244493484497,0.1452348232269287,-0.36715617775917053,0.36053138971328735,-0.22133924067020416,-0.4003412127494812,-0.3601170778274536
3.275197982788086,0.15742796659469604,-0.35960352420806885,0.35805508494377136,-0.22254151105880737,-0.3916599750518799,-0.36332371830940247
3.295311689376831,0.15941566228866577,-0.36222395300865173,0.351016104221344,-0.2230626791715622,-0.404159814119339,-0.36736348271369934
3.315330982208252,0.1564912497997284,-0.37725144624710083,0.34369340538978577,-0.22558146715164185,-0.40014922618865967,-0.369855672121048
3.3354578018188477,0.14857091009616852,-0.3712267279624939,0.35051146149635315,-0.22190874814987183,-0.41754257678985596,-0.3652089536190033
3.355556011199951,0.14954820275306702,-0.36827751994132996,0.3519739508628845,-0.2266554832458496,-0.41202399134635925,-0.3718102276325226
3.3755931854248047,0.15371772646903992,-0.3794090449810028,0.34723731875419617,-0.22882229089736938,-0.4193492531776428,-0.37872371077537537
3.395815372467041,0.15773823857307434,-0.35508212447166443,0.3605384826660156,-0.2350112348794937,-0.39766886830329895,-0.3805527985095978
3.4159014225006104,0.16014185547828674,-0.3451090455055237,0.35419994592666626,-0.23268087208271027,-0.3826816976070404,-0.3712705075740814
3.4359946250915527,0.16638237237930298,-0.30804872512817383,0.35345908999443054,-0.23723606765270233,-0.3800233006477356,-0.37622806429862976
3.4560415744781494,0.1671253889799118,-0.2565912902355194,0.35583317279815674,-0.2420520931482315,-0.3852427303791046,-0.37951207160949707
3.4762156009674072,0.15835657715797424,-0.25018200278282166,0.34691306948661804,-0.24404098093509674,-0.39758822321891785,-0.3907378911972046
3.4963254928588867,0.15220309793949127,-0.23193928599357605,0.3416922092437744,-0.24565242230892181,-0.3956693410873413,-0.392048180103302
3.5163185596466064,0.15393008291721344,-0.23903974890708923,0.33005404472351074,-0.24379415810108185,-0.4029836058616638,-0.39452141523361206
3.536487579345703,0.15362483263015747,-0.2744099199771881,0.3206936717033386,-0.2429703325033188,-0.40668985247612,-0.39651528000831604
3.55657696723938,0.16037753224372864,-0.27391448616981506,0.3291926681995392,-0.2500612437725067,-0.3872829079627991,-0.39279213547706604
3.5766334533691406,0.15504322946071625,-0.30286845564842224,0.33153319358825684,-0.2540714144706726,-0.38471993803977966,-0.39707300066947937
3.5967519283294678,0.15800276398658752,-0.31775912642478943,0.3395966589450836,-0.25228244066238403,-0.37699365615844727,-0.3943706452846527
3.6168293952941895,0.15706321597099304,-0.3226914703845978,0.34277424216270447,-0.25248515605926514,-0.38123950362205505,-0.3931300938129425
3.6369056701660156,0.15938977897167206,-0.33277657628059387,0.33710533380508423,-0.2573854625225067,-0.4135441184043884,-0.40994420647621155
3.6569740772247314,0.1630168855190277,-0.3284143805503845,0.3353460133075714,-0.2572953701019287,-0.4053674638271332,-0.40875372290611267
3.677018642425537,0.169150710105896,-0.30532750487327576,0.3404030203819275,-0.25938448309898376,-0.3905293643474579,-0.40700387954711914
3.69710111618042,0.16410541534423828,-0.30116206407546997,0.33497142791748047,-0.25956442952156067,-0.4054223597049713,-0.41013163328170776
3.717174768447876,0.16408777236938477,-0.30092185735702515,0.32856765389442444,-0.26097744703292847,-0.41415736079216003,-0.41590747237205505
3.737286329269409,0.15877732634544373,-0.2920597791671753,0.3290024399757385,-0.26644235849380493,-0.40486738085746765,-0.41889071464538574
3.757363796234131,0.16456717252731323,-0.2849043905735016,0.3259444832801819,-0.26988279819488525,-0.414713591337204,-0.4235072433948517
3.777493953704834,0.16477641463279724,-0.2688407897949219,0.3291248381137848,-0.26872682571411133,-0.39078202843666077,-0.41235974431037903
3.797513723373413,0.16454491019248962,-0.2599206566810608,0.3256717324256897,-0.27084213495254517,-0.4004956781864166,-0.41612550616264343
3.8175649642944336,0.16953906416893005,-0.2645324766635895,0.31807976961135864,-0.2746763527393341,-0.39390745759010315,-0.4209502637386322
3.8376595973968506,0.15825167298316956,-0.2772710621356964,0.3127036690711975,-0.2747885286808014,-0.4278346300125122,-0.429042786359787
3.857715129852295,0.15838629007339478,-0.28573647141456604,0.3132956624031067,-0.2786254584789276,-0.4100501537322998,-0.4303688704967499
3.8778059482574463,0.16801127791404724,-0.3043035566806793,0.31202101707458496,-0.2787250876426697,-0.4167269170284271,-0.4316352307796478
3.897857189178467,0.16903096437454224,-0.29830896854400635,0.3165118098258972,-0.27901357412338257,-0.4079066812992096,-0.4295800030231476
3.9179270267486572,0.1695958524942398,-0.2987326979637146,0.3141915798187256,-0.2821049988269806,-0.4157492518424988,-0.4323778450489044
3.938034772872925,0.16468602418899536,-0.2929188311100006,0.31274083256721497,-0.2867700755596161,-0.4262051284313202,-0.4370979368686676
3.958134889602661,0.16631388664245605,-0.2839744985103607,0.31098103523254395,-0.2905890643596649,-0.4233802258968353,-0.4434258043766022
3.9782533645629883,0.16655606031417847,-0.27079710364341736,0.31376007199287415,-0.2934391498565674,-0.4158978760242462,-0.4451507031917572
3.9982666969299316,0.16952180862426758,-0.26955941319465637,0.3101676404476166,-0.2925747036933899,-0.4069954752922058,-0.44113689661026
4.0183329582214355,0.16861194372177124,-0.28851860761642456,0.30077144503593445,-0.29395803809165955,-0.407141774892807,-0.443194717168808
4.038406610488892,0.16940954327583313,-0.3022705018520355,0.3045428693294525,-0.2965983748435974,-0.4047260880470276,-0.44498881697654724
4.058638095855713,0.1706906259059906,-0.29989850521087646,0.3068256974220276,-0.2990390360355377,-0.3993195593357086,-0.44741830229759216
4.0787413120269775,0.16917264461517334,-0.3018198013305664,0.3058340549468994,-0.30336952209472656,-0.4090419113636017,-0.45449259877204895
4.098826169967651,0.16990959644317627,-0.2974463701248169,0.30336013436317444,-0.3086196482181549,-0.4226170778274536,-0.4609108865261078
4.118882656097412,0.16966110467910767,-0.2801327407360077,0.3038133978843689,-0.31332311034202576,-0.39141562581062317,-0.4619300663471222
4.138973712921143,0.16889744997024536,-0.2805769145488739,0.30259764194488525,-0.3143261671066284,-0.4090368449687958,-0.4641881287097931
4.159084320068359,0.16853554546833038,-0.2741599977016449,0.29929035902023315,-0.31494611501693726,-0.3910149037837982,-0.46172991394996643
4.179143667221069,0.17110589146614075,-0.28421974182128906,0.2940528392791748,-0.3200919032096863,-0.3996834456920624,-0.46600791811943054
4.199392557144165,0.16667073965072632,-0.2990904748439789,0.2854934334754944,-0.32312747836112976,-0.4048105776309967,-0.4713464677333832
4.219508171081543,0.17141899466514587,-0.2971251606941223,0.2933327257633209,-0.32699036598205566,-0.41164353489875793,-0.47583284974098206
4.239637851715088,0.17828264832496643,-0.27287042140960693,0.2957615554332733,-0.3313537538051605,-0.4153122007846832,-0.4808739125728607
4.259769439697266,0.1727900207042694,-0.26691770553588867,0.28479239344596863,-0.3333757817745209,-0.42486444115638733,-0.4835709035396576
4.27983021736145,0.17675048112869263,-0.26591071486473083,0.2826881408691406,-0.3394358158111572,-0.41227027773857117,-0.4882121980190277
4.30000376701355,0.17279914021492004,-0.27508336305618286,0.28049322962760925,-0.33896780014038086,-0.40257707238197327,-0.48692983388900757
4.320135593414307,0.17156916856765747,-0.2955555021762848,0.2745242714881897,-0.33832302689552307,-0.41597622632980347,-0.48853740096092224
4.340125560760498,0.17191237211227417,-0.2893333435058594,0.2842143774032593,-0.34357592463493347,-0.4210421144962311,-0.49245643615722656
4.36019229888916,0.17635571956634521,-0.279193252325058,0.28528159856796265,-0.346187561750412,-0.42708685994148254,-0.4994107782840729
4.380283832550049,0.18690022826194763,-0.26198050379753113,0.2780158519744873,-0.3506287634372711,-0.4256259799003601,-0.5032241940498352
4.400341749191284,0.17183876037597656,-0.26428869366645813,0.2682066559791565,-0.35857081413269043,-0.42606186866760254,-0.5073122382164001
4.4206085205078125,0.1696186065673828,-0.2507964074611664,0.2738805413246155,-0.3614983558654785,-0.4219508469104767,-0.5131247639656067
4.4407548904418945,0.17484915256500244,-0.27352026104927063,0.259854793548584,-0.36267390847206116,-0.4039698839187622,-0.5132185220718384
4.460909128189087,0.16920164227485657,-0.293208509683609,0.2681336998939514,-0.3658943772315979,-0.413287490606308,-0.5159206390380859
4.480947017669678,0.1811656355857849,-0.28068792819976807,0.2770173251628876,-0.36704370379447937,-0.41243675351142883,-0.5174816846847534
4.501140832901001,0.1878657042980194,-0.27808889746665955,0.27239686250686646,-0.3690240979194641,-0.4344637095928192,-0.5207928419113159
4.521132469177246,0.17977997660636902,-0.24971351027488708,0.2669264078140259,-0.37956035137176514,-0.44774144887924194,-0.5296764373779297
4.541346549987793,0.18227756023406982,-0.2175137996673584,0.26127490401268005,-0.3859274387359619,-0.438475102186203,-0.5312610864639282
4.561435222625732,0.17553478479385376,-0.24485903978347778,0.2419753074645996,-0.38058534264564514,-0.41333886981010437,-0.5292437076568604
4.581529140472412,0.16417250037193298,-0.3168446123600006,0.2496325671672821,-0.38730913400650024,-0.41666534543037415,-0.5325353145599365
4.601565361022949,0.17508941888809204,-0.29153990745544434,0.2850651443004608,-0.3839791715145111,-0.4208875596523285,-0.5327010750770569
4.621738910675049,0.20452654361724854,-0.2427852749824524,0.2898896038532257,-0.3896665871143341,-0.46736204624176025,-0.5440373420715332
4.6418304443359375,0.20674070715904236,-0.21310025453567505,0.24121442437171936,-0.3925212025642395,-0.4673328399658203,-0.5420315861701965
4.661914348602295,0.14944535493850708,-0.2543441653251648,0.20529517531394958,-0.40385645627975464,-0.4424237310886383,-0.5462137460708618
4.681958913803101,0.1448144018650055,-0.3129079043865204,0.2527383863925934,-0.40947583317756653,-0.3751911520957947,-0.5511757731437683
4.702044248580933,0.1667550504207611,-0.2935178875923157,0.2879748046398163,-0.39870402216911316,-0.34314805269241333,-0.5383446216583252
4.722234487533569,0.2320663034915924,-0.30043667554855347,0.25418949127197266,-0.3895648121833801,-0.5092282891273499,-0.5556694269180298
4.742248773574829,0.18757618963718414,-0.16948577761650085,0.25383782386779785,-0.40649956464767456,-0.49426382780075073,-0.5578902959823608
4.762313604354858,0.15600153803825378,-0.13996684551239014,0.23287945985794067,-0.42133912444114685,-0.5034267902374268,-0.5605684518814087
4.782395362854004,0.1694064736366272,-0.23409762978553772,0.19309036433696747,-0.4205467998981476,-0.45621350407600403,-0.5657614469528198
4.802455902099609,0.14827091991901398,-0.34563949704170227,0.24888846278190613,-0.42220786213874817,-0.3881688714027405,-0.5536266565322876
4.822560548782349,0.15863308310508728,-0.37976887822151184,0.2504016160964966,-0.3959556221961975,-0.37630751729011536,-0.5418386459350586
4.842621088027954,0.2443901002407074,-0.26497718691825867,0.30271220207214355,-0.3964008092880249,-0.45815882086753845,-0.5462621450424194
4.862660646438599,0.2078235149383545,-0.182806134223938,0.20537325739860535,-0.42289337515830994,-0.6095105409622192,-0.5814400315284729
4.882723808288574,0.20299148559570312,-0.13781800866127014,0.20600131154060364,-0.44749635457992554,-0.520045816898346,-0.5763932466506958
4.9028167724609375,0.14345043897628784,-0.1874547004699707,0.1926449090242386,-0.4430275857448578,-0.43223005533218384,-0.5768370032310486
4.922893762588501,0.15557846426963806,-0.3320121169090271,0.228486567735672,-0.41721126437187195,-0.3598552644252777,-0.5532556176185608
4.9429450035095215,0.19149142503738403,-0.4191196858882904,0.2605364918708801,-0.407809853553772,-0.4172956645488739,-0.5413373112678528
4.963040590286255,0.213510662317276,-0.3926697075366974,0.28475379943847656,-0.40772950649261475,-0.41527053713798523,-0.5423140525817871
4.983113527297974,0.24363863468170166,-0.14237654209136963,0.31347745656967163,-0.4161990284919739,-0.5326840281486511,-0.5829508304595947
5.003274440765381,0.25895965099334717,0.030851207673549652,0.2464876025915146,-0.4369908571243286,-0.5339299440383911,-0.5991896986961365
5.023311614990234,0.21524611115455627,0.04060037434101105,0.21019934117794037,-0.4710870683193207,-0.4976336658000946,-0.5919256210327148
5.04364538192749,0.1780497431755066,-0.057523272931575775,0.19870954751968384,-0.438755601644516,-0.44315609335899353,-0.5658694505691528
5.063786506652832,0.1700844168663025,-0.17328447103500366,0.17199236154556274,-0.42335009574890137,-0.47364485263824463,-0.5733230113983154
5.083873748779297,0.11819084733724594,-0.4180939495563507,0.17592346668243408,-0.4085255265235901,-0.4125056564807892,-0.5512950420379639
5.103961706161499,0.1352677047252655,-0.5252108573913574,0.2421932816505432,-0.4155600070953369,-0.36197513341903687,-0.5441468358039856
5.124022483825684,0.15368695557117462,-0.5495849251747131,0.2714064121246338,-0.40146997570991516,-0.39000776410102844,-0.5380765199661255
5.144075393676758,0.20750293135643005,-0.47085508704185486,0.3004562258720398,-0.41573700308799744,-0.4640287160873413,-0.5501047372817993
5.164163589477539,0.24910852313041687,-0.16853424906730652,0.318643718957901,-0.43578943610191345,-0.5243916511535645,-0.5984913110733032
5.1842145919799805,0.27741649746894836,0.09865470975637436,0.2556741237640381,-0.4617728292942047,-0.49817898869514465,-0.6105841398239136
5.204516887664795,0.23925524950027466,0.12993520498275757,0.2122175246477127,-0.45196452736854553,-0.6453754901885986,-0.618071973323822
5.224684000015259,0.22911515831947327,0.15352019667625427,0.18212932348251343,-0.47935304045677185,-0.5690181851387024,-0.609502375125885
5.244748830795288,0.1912519335746765,0.021695829927921295,0.19349876046180725,-0.436288058757782,-0.5220817923545837,-0.5842677354812622
5.26485538482666,0.1562182605266571,-0.2663082778453827,0.12768153846263885,-0.3869965076446533,-0.4696507751941681,-0.5469974279403687
5.284902095794678,0.1067003458738327,-0.36910906434059143,0.12270885705947876,-0.3917483985424042,-0.42462292313575745,-0.5506163835525513
5.305049180984497,0.09100627154111862,-0.386439710855484,0.19885499775409698,-0.3991045355796814,-0.3111743927001953,-0.552812397480011
5.325088262557983,0.18629366159439087,-0.3529473841190338,0.3011346459388733,-0.42320355772972107,-0.3912763297557831,-0.5524066090583801
5.345430374145508,0.2828182876110077,-0.1796034872531891,0.270950049161911,-0.42208802700042725,-0.5403843522071838,-0.6004080772399902
5.365558385848999,0.259975790977478,-0.14488396048545837,0.19926443696022034,-0.4407289922237396,-0.577110767364502,-0.5863100290298462
5.385636568069458,0.16438978910446167,-0.051000453531742096,0.18127784132957458,-0.4993666708469391,-0.5388588309288025,-0.5976155996322632
5.4057111740112305,0.15358024835586548,-0.17285987734794617,0.1656510829925537,-0.46812519431114197,-0.44547656178474426,-0.59043949842453
5.425994396209717,0.12910456955432892,-0.2888878285884857,0.15243422985076904,-0.4092584252357483,-0.3785954415798187,-0.5595787763595581
5.4461517333984375,0.17119565606117249,-0.3853531777858734,0.22563877701759338,-0.403163880109787,-0.4419509768486023,-0.5397182106971741
5.466139078140259,0.23023858666419983,-0.2941030263900757,0.2778337895870209,-0.41963401436805725,-0.4747813642024994,-0.5607854723930359
5.486302375793457,0.23465189337730408,-0.15535399317741394,0.29305022954940796,-0.4078032970428467,-0.5626426935195923,-0.5815929174423218
5.506372690200806,0.24689283967018127,-0.006002418696880341,0.2180597335100174,-0.43638166785240173,-0.6335800886154175,-0.6070067882537842
5.5264506340026855,0.22474190592765808,-0.012809477746486664,0.1848866045475006,-0.47724828124046326,-0.5146887898445129,-0.5998837351799011
5.54655647277832,0.15564310550689697,-0.19749656319618225,0.16173699498176575,-0.44293341040611267,-0.44570937752723694,-0.5780352354049683
5.566648483276367,0.12500372529029846,-0.354635089635849,0.12303987145423889,-0.4124509394168854,-0.39909330010414124,-0.5723649263381958
5.586737394332886,0.11875274032354355,-0.4028696119785309,0.20044322311878204,-0.3923657536506653,-0.24629703164100647,-0.5557451844215393
5.606774568557739,0.20252442359924316,-0.4446028769016266,0.2616180181503296,-0.41940781474113464,-0.40060314536094666,-0.5499623417854309
5.626867771148682,0.2257731556892395,-0.3213326930999756,0.3245812952518463,-0.4167730510234833,-0.4343986511230469,-0.5589597821235657
5.64693021774292,0.2281683087348938,-0.21714505553245544,0.23152804374694824,-0.41946864128112793,-0.5324519872665405,-0.5721678137779236
5.66700291633606,0.19780230522155762,-0.16840487718582153,0.17822466790676117,-0.5015056133270264,-0.5772392153739929,-0.614867627620697
5.687199354171753,0.1526431441307068,-0.1516341269016266,0.20970982313156128,-0.4864417612552643,-0.5322638750076294,-0.5976929664611816
5.707251071929932,0.15403658151626587,-0.2246074378490448,0.19830083847045898,-0.43155691027641296,-0.3821597695350647,-0.5650450587272644
5.7273008823394775,0.19497287273406982,-0.41867807507514954,0.19355876743793488,-0.43927180767059326,-0.5829501748085022,-0.5911902189254761
5.747377157211304,0.2025282084941864,-0.38072720170021057,0.2603636682033539,-0.41920116543769836,-0.4276137053966522,-0.557794988155365
5.767489433288574,0.21630564332008362,-0.3331475853919983,0.2710309326648712,-0.42526376247406006,-0.5153378248214722,-0.5756206512451172
5.78751277923584,0.2516164481639862,-0.07746275514364243,0.25805267691612244,-0.4431251883506775,-0.5360956192016602,-0.5944561958312988
5.807615518569946,0.2493213415145874,0.025368206202983856,0.22373084723949432,-0.4556128680706024,-0.5596981048583984,-0.5976588129997253
5.827756404876709,0.20952171087265015,-0.03852016478776932,0.1750440150499344,-0.4910387694835663,-0.48160842061042786,-0.607759416103363
5.84782338142395,0.1708642840385437,-0.13429251313209534,0.1645812839269638,-0.46203887462615967,-0.47181087732315063,-0.589624285697937
5.867988348007202,0.11524972319602966,-0.34884628653526306,0.16066384315490723,-0.4193063974380493,-0.39812171459198,-0.5691882967948914
5.88799524307251,0.13690882921218872,-0.40490245819091797,0.22430072724819183,-0.4143984019756317,-0.3040050268173218,-0.5537465810775757
5.908069610595703,0.2183023989200592,-0.3843405544757843,0.29839402437210083,-0.42810767889022827,-0.431722491979599,-0.5657639503479004
5.928180694580078,0.23794588446617126,-0.31104815006256104,0.2940032482147217,-0.42070910334587097,-0.48542848229408264,-0.556509792804718
5.948218584060669,0.22354838252067566,-0.1560194492340088,0.18623974919319153,-0.4542597830295563,-0.6254079937934875,-0.5962638854980469
5.968288421630859,0.1814917027950287,-0.011809282004833221,0.18333417177200317,-0.4906013309955597,-0.6095402240753174,-0.6058400273323059
5.988345146179199,0.16830086708068848,-0.029328428208827972,0.17508858442306519,-0.49805566668510437,-0.5579160451889038,-0.6059999465942383
6.008454084396362,0.1279691755771637,-0.20810550451278687,0.14412051439285278,-0.42105674743652344,-0.38983210921287537,-0.5682410597801208
6.028601169586182,0.17457318305969238,-0.3922785520553589,0.23847229778766632,-0.4507423937320709,-0.41885146498680115,-0.560731053352356
6.048582553863525,0.18964222073554993,-0.41893696784973145,0.3044494390487671,-0.4337872266769409,-0.3532589375972748,-0.5561809539794922
6.0688316822052,0.1939377784729004,-0.4519515335559845,0.2508590519428253,-0.4051595628261566,-0.2962277829647064,-0.5297233462333679
6.088918209075928,0.26218441128730774,-0.2471676766872406,0.26242828369140625,-0.4355860650539398,-0.5404694676399231,-0.5691474676132202
6.109009265899658,0.19118419289588928,-0.17484784126281738,0.1443217396736145,-0.4895404279232025,-0.6080023646354675,-0.59614098072052
6.129058837890625,0.13372066617012024,-0.09333298355340958,0.22068676352500916,-0.49993762373924255,-0.4642162322998047,-0.6040515899658203
6.149167060852051,0.14578062295913696,-0.19606226682662964,0.1703070104122162,-0.45326969027519226,-0.4335947632789612,-0.5803618431091309
6.16929817199707,0.17266064882278442,-0.3561343848705292,0.23502975702285767,-0.45159912109375,-0.34627121686935425,-0.5663914084434509
6.189405679702759,0.18687354028224945,-0.4636991322040558,0.27336040139198303,-0.4344281852245331,-0.4604664742946625,-0.5639118552207947
6.209482908248901,0.2330019772052765,-0.30838972330093384,0.32005491852760315,-0.42396146059036255,-0.48387905955314636,-0.5830315351486206
6.229551315307617,0.25315845012664795,-0.17065298557281494,0.2895057797431946,-0.4380371868610382,-0.49460920691490173,-0.5795750617980957
6.2496497631073,0.2397524118423462,-0.09005478769540787,0.17859813570976257,-0.45612671971321106,-0.6312648057937622,-0.6062122583389282
6.26968789100647,0.14920511841773987,-0.11903590708971024,0.16869613528251648,-0.4940105378627777,-0.4964562654495239,-0.5964657068252563
6.2898759841918945,0.11137956380844116,-0.21687078475952148,0.13767927885055542,-0.4693729877471924,-0.427893728017807,-0.5980480909347534
6.309949159622192,0.16227823495864868,-0.39393872022628784,0.21227215230464935,-0.4583335220813751,-0.41215041279792786,-0.5816069841384888
6.329988479614258,0.19486939907073975,-0.47148019075393677,0.2601415514945984,-0.43633973598480225,-0.3960382044315338,-0.5549823045730591
6.350075006484985,0.20600879192352295,-0.4693964421749115,0.26787033677101135,-0.43384215235710144,-0.44884735345840454,-0.560508131980896
6.370138168334961,0.25309401750564575,-0.20051583647727966,0.30335691571235657,-0.44895872473716736,-0.5124543905258179,-0.5934867858886719
6.390182733535767,0.2669074237346649,0.0073003098368644714,0.2146119922399521,-0.4689827859401703,-0.5128878355026245,-0.602073073387146
6.410296678543091,0.23513266444206238,0.0413542315363884,0.1809767633676529,-0.4780217111110687,-0.6613166928291321,-0.6451895236968994
6.430405378341675,0.2056373655796051,0.004616536200046539,0.15679103136062622,-0.49825242161750793,-0.5185961127281189,-0.6090329885482788
6.450450420379639,0.15063601732254028,-0.22866174578666687,0.12168936431407928,-0.4154224395751953,-0.4621312618255615,-0.5657789707183838
6.470556735992432,0.12112674117088318,-0.47699564695358276,0.02100163698196411,-0.37347760796546936,-0.4365607500076294,-0.5405463576316833
6.4906580448150635,0.07932882010936737,-0.5329845547676086,0.13751818239688873,-0.3699881136417389,-0.2344723343849182,-0.5414711236953735
6.5107316970825195,0.15618965029716492,-0.6419931650161743,0.24541044235229492,-0.4292580187320709,-0.44543397426605225,-0.5485877394676208
6.531104803085327,0.21709492802619934,-0.5425885915756226,0.264860063791275,-0.4600655138492584,-0.5054029226303101,-0.576479971408844
6.551215887069702,0.22410035133361816,-0.43702808022499084,0.282368928194046,-0.46374306082725525,-0.4123634994029999,-0.5669552087783813
6.571394920349121,0.2635138928890228,-0.07832501083612442,0.29975801706314087,-0.48827192187309265,-0.5059379935264587,-0.6147473454475403
6.591418981552124,0.27672383189201355,0.11880414932966232,0.21944186091423035,-0.497260183095932,-0.587182343006134,-0.6467884182929993
6.61149525642395,0.23824292421340942,0.1459173560142517,0.19589067995548248,-0.49878832697868347,-0.596514880657196,-0.6144839525222778
6.631575345993042,0.21547451615333557,0.10893141478300095,0.17765715718269348,-0.4899829924106598,-0.5228231549263,-0.6125943064689636
6.651683807373047,0.19818055629730225,-0.09451492875814438,0.1439657360315323,-0.4416007995605469,-0.5139560699462891,-0.5792694687843323
6.67183518409729,0.16618233919143677,-0.26572805643081665,0.10156446695327759,-0.4065074622631073,-0.5135520100593567,-0.5580658912658691
6.691928863525391,0.08032052963972092,-0.3656494617462158,0.1862073838710785,-0.44301867485046387,-0.40033426880836487,-0.5660130977630615
6.712029695510864,0.1392160952091217,-0.41512733697891235,0.2635725736618042,-0.45582205057144165,-0.33189910650253296,-0.5638864636421204
6.732065200805664,0.20674055814743042,-0.3620636761188507,0.2997058928012848,-0.4528040289878845,-0.3943925201892853,-0.5592218041419983
6.752140522003174,0.25255143642425537,-0.30792543292045593,0.2812154293060303,-0.4644698202610016,-0.511631429195404,-0.5941526889801025
6.772284984588623,0.2544381022453308,-0.11451441794633865,0.1907345950603485,-0.49750229716300964,-0.5978573560714722,-0.6427494287490845
6.7922399044036865,0.19730284810066223,-0.0009050443768501282,0.19856476783752441,-0.507854163646698,-0.5765543580055237,-0.6147180199623108
6.812747001647949,0.1754140853881836,-0.019132472574710846,0.16493430733680725,-0.514448881149292,-0.5710276961326599,-0.6163874864578247
6.83289909362793,0.15177464485168457,-0.20481660962104797,0.13773564994335175,-0.4349672496318817,-0.44462016224861145,-0.5693788528442383
6.852990388870239,0.16959847509860992,-0.35496535897254944,0.22578346729278564,-0.4581647217273712,-0.474150687456131,-0.5675579309463501
6.873027801513672,0.1911027431488037,-0.40034952759742737,0.2696688175201416,-0.4448944926261902,-0.4364861845970154,-0.5643223524093628
6.893506765365601,0.21836039423942566,-0.28713899850845337,0.3072267770767212,-0.43291181325912476,-0.527285099029541,-0.5948658585548401
6.913594484329224,0.25406613945961,-0.21126198768615723,0.24302904307842255,-0.45730605721473694,-0.5933750867843628,-0.5861374139785767
