liuyurong129/humanoid-gym/humanoid/data/target_q_20250521-000835.csv
timestamp,joint_1,joint_2,joint_3,joint_4,joint_5,joint_6
3.0994415283203125e-05,0.0,0.0,0.0,0.0,0.0,0.0
0.020107507705688477,0.0,0.0,0.0,0.0,0.0,0.0
0.04017758369445801,0.0,0.0,0.0,0.0,0.0,0.0
0.0602259635925293,-2.030627489089966,-1.857285976409912,0.0650147795677185,2.313194751739502,-0.7441876530647278,1.305333137512207
0.08051466941833496,-2.9873228073120117,-2.5379183292388916,0.28467437624931335,1.9244284629821777,-0.25311633944511414,1.6315300464630127
0.1006011962890625,-2.942634344100952,-2.6215109825134277,0.4314250946044922,1.883607029914856,-0.17622144520282745,1.6215009689331055
0.12067031860351562,-2.877197265625,-2.6809303760528564,0.576443076133728,1.873740792274475,-0.09926091134548187,1.6032532453536987
0.14073801040649414,-2.848526954650879,-2.6775522232055664,0.6339055299758911,1.874700665473938,-0.05561690032482147,1.5907621383666992
0.16080808639526367,-2.805511236190796,-2.675140380859375,0.6734135150909424,1.8819160461425781,-0.015347574837505817,1.576224446296692
0.1809546947479248,-2.7937426567077637,-2.673562526702881,0.6913248300552368,1.882659673690796,0.0006675375625491142,1.56927490234375
0.20098114013671875,-2.769714117050171,-2.6727476119995117,0.7123825550079346,1.8850088119506836,0.01906532421708107,1.5603164434432983
0.22104525566101074,-2.7477896213531494,-2.6703646183013916,0.7252768278121948,1.8909854888916016,0.03066263720393181,1.5556066036224365
0.24109578132629395,-2.7306337356567383,-2.6677825450897217,0.733688473701477,1.8950947523117065,0.033897045999765396,1.5545443296432495
0.26117825508117676,-2.731217861175537,-2.6646275520324707,0.7326011657714844,1.8931176662445068,0.032136935740709305,1.5550148487091064
0.28124499320983887,-2.7124812602996826,-2.65867280960083,0.7457577586174011,1.8995840549468994,0.038391780108213425,1.5523027181625366
0.3013010025024414,-2.6883602142333984,-2.6567978858947754,0.7603812217712402,1.9032974243164062,0.0493856817483902,1.5474082231521606
0.3216886520385742,-2.6866822242736816,-2.6545424461364746,0.7624810338020325,1.9019582271575928,0.05208360403776169,1.5465985536575317
0.34178614616394043,-2.664954662322998,-2.6534013748168945,0.7768447399139404,1.9035923480987549,0.06637387722730637,1.540567398071289
0.361846923828125,-2.644948720932007,-2.654367208480835,0.7930488586425781,1.9075051546096802,0.07844578474760056,1.5344862937927246
0.38190555572509766,-2.62748384475708,-2.655444860458374,0.8091180324554443,1.90925931930542,0.09527885913848877,1.5270521640777588
0.40204572677612305,-2.612461566925049,-2.6556408405303955,0.8231150507926941,1.9109320640563965,0.10630781203508377,1.5209760665893555
0.42211341857910156,-2.614070177078247,-2.653510570526123,0.8282376527786255,1.9117777347564697,0.10843511670827866,1.519324779510498
0.4421730041503906,-2.60111665725708,-2.651392698287964,0.837999165058136,1.9151126146316528,0.11519747972488403,1.5172531604766846
0.46222376823425293,-2.583587169647217,-2.6507725715637207,0.8448838591575623,1.9177594184875488,0.12008140236139297,1.5153028964996338
0.4822978973388672,-2.5768284797668457,-2.6483404636383057,0.8494099974632263,1.91777765750885,0.1245657205581665,1.5129801034927368
0.5023937225341797,-2.5716712474823,-2.6475210189819336,0.854090690612793,1.9197582006454468,0.12793248891830444,1.511025309562683
0.5224833488464355,-2.553356170654297,-2.648165702819824,0.8661997318267822,1.9236713647842407,0.13567420840263367,1.5065550804138184
0.5426056385040283,-2.5422840118408203,-2.647088050842285,0.874578595161438,1.9252309799194336,0.14108173549175262,1.5035130977630615
0.5627963542938232,-2.537814140319824,-2.643688201904297,0.8789101839065552,1.9247357845306396,0.1452086716890335,1.5016238689422607
0.5828738212585449,-2.536708354949951,-2.642087936401367,0.8796409964561462,1.9240572452545166,0.147398442029953,1.5012969970703125
0.6030170917510986,-2.5222930908203125,-2.6428442001342773,0.8892168402671814,1.92537522315979,0.15483155846595764,1.497889518737793
0.6230130195617676,-2.5067691802978516,-2.6429238319396973,0.8998103141784668,1.9269523620605469,0.16478896141052246,1.4932982921600342
0.6432485580444336,-2.5016140937805176,-2.6426758766174316,0.9078191518783569,1.9291253089904785,0.16866523027420044,1.4900774955749512
0.6633274555206299,-2.491039276123047,-2.64249849319458,0.9181709289550781,1.9316160678863525,0.1755009889602661,1.4860506057739258
0.683396577835083,-2.484107255935669,-2.6406431198120117,0.922899603843689,1.9316504001617432,0.1802494078874588,1.4842711687088013
0.7035026550292969,-2.470665693283081,-2.640303373336792,0.9329668879508972,1.9348697662353516,0.1882457733154297,1.4806625843048096
0.7237234115600586,-2.460753917694092,-2.639131546020508,0.9418861269950867,1.9361851215362549,0.19409483671188354,1.4780516624450684
0.743812084197998,-2.4632086753845215,-2.637375593185425,0.9397495985031128,1.9330317974090576,0.19383540749549866,1.4784834384918213
0.7639880180358887,-2.4507033824920654,-2.637299060821533,0.945482075214386,1.9347705841064453,0.19955968856811523,1.4752507209777832
0.7839829921722412,-2.4413888454437256,-2.6376237869262695,0.9514918327331543,1.935532808303833,0.20376354455947876,1.4728984832763672
0.8041403293609619,-2.434145212173462,-2.6361606121063232,0.9590784311294556,1.9372458457946777,0.2085215151309967,1.470061182975769
0.8242197036743164,-2.428589105606079,-2.635568618774414,0.9634948968887329,1.9391916990280151,0.2116038054227829,1.4686667919158936
0.8442971706390381,-2.424966812133789,-2.6335039138793945,0.9702098965644836,1.9401662349700928,0.2164541333913803,1.4663547277450562
0.8643407821655273,-2.4169631004333496,-2.633057117462158,0.9760982394218445,1.9412670135498047,0.22168543934822083,1.4641082286834717
0.8844258785247803,-2.405700445175171,-2.633798599243164,0.9833337664604187,1.9433473348617554,0.22708159685134888,1.461235523223877
0.9044938087463379,-2.4044392108917236,-2.6329431533813477,0.9841668605804443,1.9429682493209839,0.22775807976722717,1.4613043069839478
0.9245700836181641,-2.398695945739746,-2.6310031414031982,0.9868175983428955,1.9432318210601807,0.23067915439605713,1.4602493047714233
0.944671630859375,-2.3921334743499756,-2.629884719848633,0.9918803572654724,1.9442843198776245,0.2344442903995514,1.4579782485961914
0.9647302627563477,-2.385849952697754,-2.629443645477295,0.9987655878067017,1.9437041282653809,0.23892197012901306,1.4548970460891724
0.9849472045898438,-2.3809025287628174,-2.629840135574341,1.0038232803344727,1.945551872253418,0.2424604892730713,1.4525082111358643
1.005115270614624,-2.370934009552002,-2.630997657775879,1.0097599029541016,1.9461572170257568,0.24648013710975647,1.450427532196045
1.0251235961914062,-2.362492799758911,-2.631089925765991,1.0165060758590698,1.947534441947937,0.2509474456310272,1.4484798908233643
1.0451734066009521,-2.3565220832824707,-2.630094289779663,1.019796371459961,1.947322130203247,0.25429418683052063,1.446730136871338
1.0652730464935303,-2.3508388996124268,-2.6300864219665527,1.0258173942565918,1.9490329027175903,0.2577820420265198,1.4445737600326538
1.085329532623291,-2.3453257083892822,-2.628448247909546,1.0309937000274658,1.9501951932907104,0.261543869972229,1.4421439170837402
1.105414867401123,-2.3428192138671875,-2.6275641918182373,1.0343904495239258,1.9484498500823975,0.26467788219451904,1.439666986465454
1.1255011558532715,-2.331831693649292,-2.6287219524383545,1.041688084602356,1.9503754377365112,0.26927074790000916,1.4371061325073242
1.145570993423462,-2.324429988861084,-2.6292662620544434,1.047989010810852,1.9520559310913086,0.273663729429245,1.4352976083755493
1.1656723022460938,-2.319408655166626,-2.627633810043335,1.0504202842712402,1.951180100440979,0.2746305465698242,1.4342290163040161
1.1857397556304932,-2.3190202713012695,-2.6265103816986084,1.049738883972168,1.948514699935913,0.27569058537483215,1.4334056377410889
1.2057974338531494,-2.3133935928344727,-2.626521348953247,1.0547080039978027,1.95005202293396,0.2790325880050659,1.4315423965454102
1.2259337902069092,-2.305311679840088,-2.6274900436401367,1.061413288116455,1.952953577041626,0.28305238485336304,1.4296445846557617
1.2460460662841797,-2.3073158264160156,-2.6242518424987793,1.0646390914916992,1.9530293941497803,0.28529730439186096,1.4291142225265503
1.266101360321045,-2.29923677444458,-2.6240153312683105,1.0698407888412476,1.953662633895874,0.2891021966934204,1.4267632961273193
1.2861568927764893,-2.288618564605713,-2.6247057914733887,1.077789545059204,1.9536634683609009,0.2938099801540375,1.4239013195037842
1.3062431812286377,-2.2885959148406982,-2.6235716342926025,1.0765836238861084,1.9523195028305054,0.29310527443885803,1.423703908920288
1.32631254196167,-2.283769130706787,-2.623892307281494,1.079339861869812,1.9532458782196045,0.295869916677475,1.4215419292449951
1.346465826034546,-2.277702808380127,-2.6237130165100098,1.0835990905761719,1.9534603357315063,0.2995111346244812,1.4193544387817383
1.3664989471435547,-2.2663931846618652,-2.6250381469726562,1.0919520854949951,1.9559801816940308,0.3042590022087097,1.416921615600586
1.3866140842437744,-2.2675511837005615,-2.6236319541931152,1.0932533740997314,1.9549281597137451,0.30497604608535767,1.416276216506958
1.4066917896270752,-2.2630486488342285,-2.6219348907470703,1.09877610206604,1.9561877250671387,0.3089856207370758,1.4141225814819336
1.4267616271972656,-2.252593755722046,-2.622845411300659,1.1060200929641724,1.9583408832550049,0.3140380084514618,1.411152720451355
1.446814775466919,-2.248007297515869,-2.622382402420044,1.1066216230392456,1.9561468362808228,0.31450432538986206,1.4094310998916626
1.4668984413146973,-2.249767303466797,-2.6214146614074707,1.105844497680664,1.955751895904541,0.31411445140838623,1.4095790386199951
1.4869632720947266,-2.2415904998779297,-2.621932029724121,1.1100493669509888,1.956871747970581,0.3181154131889343,1.4074366092681885
1.507051944732666,-2.2364935874938965,-2.6219089031219482,1.116814374923706,1.9584599733352661,0.3220440149307251,1.4052183628082275
1.5271024703979492,-2.230884552001953,-2.621859550476074,1.1207242012023926,1.9586153030395508,0.32488787174224854,1.4035202264785767
1.547431230545044,-2.225602388381958,-2.62158203125,1.1253793239593506,1.9603346586227417,0.32874006032943726,1.402104139328003
1.5675137042999268,-2.2210171222686768,-2.6209964752197266,1.1291930675506592,1.9604218006134033,0.3321521282196045,1.4001193046569824
1.587552547454834,-2.21732759475708,-2.6194450855255127,1.1319198608398438,1.9607431888580322,0.33420225977897644,1.399031400680542
1.6075878143310547,-2.211992025375366,-2.619886875152588,1.133225679397583,1.9591655731201172,0.3348756432533264,1.3971688747406006
1.6277101039886475,-2.2067577838897705,-2.6202311515808105,1.1388155221939087,1.9607763290405273,0.3378288745880127,1.3947705030441284
1.6477956771850586,-2.2022125720977783,-2.620422601699829,1.1404268741607666,1.96150803565979,0.3399026095867157,1.394224762916565
1.6678779125213623,-2.195282220840454,-2.620103120803833,1.1479824781417847,1.9628479480743408,0.34436556696891785,1.391752004623413
1.6879222393035889,-2.1902265548706055,-2.6198770999908447,1.1531553268432617,1.962554693222046,0.34797608852386475,1.3895058631896973
1.7079782485961914,-2.1831462383270264,-2.619878053665161,1.1586698293685913,1.9636051654815674,0.3517438769340515,1.38765549659729
1.7281222343444824,-2.186488628387451,-2.6185786724090576,1.1565945148468018,1.9610048532485962,0.35095736384391785,1.3879046440124512
1.7481741905212402,-2.1837637424468994,-2.617249011993408,1.1572182178497314,1.960974931716919,0.3522031605243683,1.386970043182373
1.7682044506072998,-2.178142547607422,-2.618089199066162,1.1614904403686523,1.9615728855133057,0.35471969842910767,1.38478684425354
1.7882647514343262,-2.1728034019470215,-2.6170904636383057,1.1668875217437744,1.963637351989746,0.3565002381801605,1.3834083080291748
1.808344841003418,-2.1700897216796875,-2.617058753967285,1.1675865650177002,1.9624497890472412,0.35805752873420715,1.3822567462921143
1.8284087181091309,-2.1612789630889893,-2.6183934211730957,1.1712260246276855,1.9627007246017456,0.3605613708496094,1.3804833889007568
1.8484930992126465,-2.1535253524780273,-2.618497371673584,1.1782939434051514,1.964503526687622,0.36567363142967224,1.377549648284912
1.8685410022735596,-2.1501011848449707,-2.617955446243286,1.1820985078811646,1.9636499881744385,0.3676798641681671,1.375718355178833
1.8886098861694336,-2.147085428237915,-2.6184356212615967,1.183343768119812,1.9635193347930908,0.3704555928707123,1.3747131824493408
1.9087769985198975,-2.1449928283691406,-2.6181411743164062,1.187514305114746,1.9637806415557861,0.37315207719802856,1.3729820251464844
1.9287793636322021,-2.1408090591430664,-2.6166164875030518,1.1950007677078247,1.9658772945404053,0.3774458169937134,1.3707606792449951
1.94883131980896,-2.13568115234375,-2.6159939765930176,1.1961556673049927,1.9655184745788574,0.37860435247421265,1.3701200485229492
1.9689557552337646,-2.1354684829711914,-2.614884376525879,1.1952886581420898,1.9647456407546997,0.3772750496864319,1.3700783252716064
1.9889936447143555,-2.1309077739715576,-2.613675594329834,1.1969685554504395,1.9646104574203491,0.3785313367843628,1.3684275150299072
2.0090575218200684,-2.1241848468780518,-2.613401412963867,1.2010619640350342,1.96584153175354,0.38084641098976135,1.3665342330932617
2.0291383266448975,-2.1173038482666016,-2.6132380962371826,1.206421971321106,1.967483639717102,0.3851071894168854,1.3647828102111816
2.0492255687713623,-2.113906145095825,-2.612569808959961,1.2118325233459473,1.9690806865692139,0.3886036276817322,1.3627521991729736
2.0693159103393555,-2.109464645385742,-2.6123993396759033,1.2150650024414062,1.9689631462097168,0.39205822348594666,1.3613059520721436
2.0893709659576416,-2.1063990592956543,-2.6122078895568848,1.2167059183120728,1.9692631959915161,0.393015593290329,1.3608165979385376
2.1094861030578613,-2.1048295497894287,-2.611481189727783,1.2174642086029053,1.968765377998352,0.39415016770362854,1.3600678443908691
2.129586696624756,-2.104377508163452,-2.6103925704956055,1.2161674499511719,1.9681732654571533,0.3936915397644043,1.3598570823669434
2.149639844894409,-2.09727144241333,-2.610602378845215,1.2198199033737183,1.9696283340454102,0.3962951898574829,1.357980489730835
2.1696903705596924,-2.089791774749756,-2.6113669872283936,1.2246928215026855,1.9709203243255615,0.3992053270339966,1.3562805652618408
2.1898152828216553,-2.090776205062866,-2.610305070877075,1.2281546592712402,1.9706239700317383,0.3997305631637573,1.3551909923553467
2.209911346435547,-2.0842883586883545,-2.610678195953369,1.233105182647705,1.9704480171203613,0.4032995402812958,1.3524123430252075
2.229973793029785,-2.079288959503174,-2.6111021041870117,1.2392330169677734,1.970029592514038,0.4069027304649353,1.3501421213150024
2.2500412464141846,-2.073824405670166,-2.6112747192382812,1.2408885955810547,1.970635175704956,0.4088071584701538,1.3489384651184082
2.270083427429199,-2.0731608867645264,-2.610487699508667,1.2414214611053467,1.970007061958313,0.4096165895462036,1.3483126163482666
2.290191650390625,-2.0688235759735107,-2.6106629371643066,1.2429397106170654,1.9711480140686035,0.41124069690704346,1.3475757837295532
2.3102400302886963,-2.0627756118774414,-2.6098766326904297,1.247267484664917,1.9724421501159668,0.4132584035396576,1.346197485923767
2.3302953243255615,-2.0619325637817383,-2.6077256202697754,1.251708745956421,1.9729260206222534,0.4158722758293152,1.3451249599456787
2.350398302078247,-2.059619903564453,-2.606473684310913,1.2534995079040527,1.9723516702651978,0.4181891083717346,1.3438966274261475
2.3704864978790283,-2.0547494888305664,-2.6070785522460938,1.254862904548645,1.9726191759109497,0.41974425315856934,1.3428393602371216
2.390550374984741,-2.0470423698425293,-2.6087162494659424,1.2585444450378418,1.9727916717529297,0.4219273030757904,1.3401598930358887
2.4106285572052,-2.0457916259765625,-2.6077446937561035,1.2618277072906494,1.9729982614517212,0.42368555068969727,1.3384312391281128
2.430769443511963,-2.044854164123535,-2.607962131500244,1.2606759071350098,1.9718213081359863,0.42344391345977783,1.3384556770324707
2.4508490562438965,-2.035256862640381,-2.6087138652801514,1.267867088317871,1.9733185768127441,0.427900493144989,1.3358409404754639
2.470918655395508,-2.0338737964630127,-2.6076905727386475,1.2708224058151245,1.972555160522461,0.429728239774704,1.3350093364715576
2.490971088409424,-2.0314297676086426,-2.6063318252563477,1.274989366531372,1.9725658893585205,0.43225473165512085,1.3335325717926025
2.511075496673584,-2.02640962600708,-2.6064298152923584,1.2766740322113037,1.973829746246338,0.4337739050388336,1.3322927951812744
2.5311574935913086,-2.026201009750366,-2.6061763763427734,1.275299310684204,1.9724868535995483,0.4329177439212799,1.3322837352752686
2.5512263774871826,-2.022803783416748,-2.6061973571777344,1.2768701314926147,1.9728469848632812,0.43409210443496704,1.3312044143676758
2.571281909942627,-2.020993232727051,-2.6055541038513184,1.2801069021224976,1.9738495349884033,0.4371372163295746,1.3297734260559082
2.5913352966308594,-2.017918109893799,-2.604994773864746,1.2823857069015503,1.9734265804290771,0.43824589252471924,1.3284826278686523
2.6114392280578613,-2.0151124000549316,-2.6049695014953613,1.285647988319397,1.9747055768966675,0.4399285912513733,1.3274683952331543
2.6314926147460938,-2.00936222076416,-2.6052041053771973,1.2906100749969482,1.975730538368225,0.4424622058868408,1.325590968132019
2.651616334915161,-2.005674123764038,-2.6047093868255615,1.2937043905258179,1.9755645990371704,0.4440581202507019,1.3240216970443726
2.6716392040252686,-2.004502534866333,-2.6029114723205566,1.2929961681365967,1.9749789237976074,0.4459953010082245,1.323278546333313
2.6917214393615723,-1.9997386932373047,-2.6036407947540283,1.2951730489730835,1.9757170677185059,0.44758138060569763,1.3221375942230225
2.7117908000946045,-1.9940130710601807,-2.6044278144836426,1.298672080039978,1.9760323762893677,0.4498549699783325,1.320671796798706
2.7318599224090576,-1.9901268482208252,-2.6045777797698975,1.3026069402694702,1.9761416912078857,0.452473521232605,1.3196351528167725
2.7520313262939453,-1.9873144626617432,-2.6034791469573975,1.3054213523864746,1.9770512580871582,0.45469772815704346,1.3185231685638428
2.772083044052124,-1.9842703342437744,-2.6014139652252197,1.308498501777649,1.9775943756103516,0.4565637409687042,1.3173303604125977
2.792213201522827,-1.9794971942901611,-2.602294921875,1.3096582889556885,1.9773838520050049,0.45754456520080566,1.316361665725708
2.812258005142212,-1.9799305200576782,-2.601410150527954,1.3096821308135986,1.9761383533477783,0.4584046006202698,1.3154451847076416
2.832326650619507,-1.977839469909668,-2.6009879112243652,1.3131078481674194,1.9770623445510864,0.45971032977104187,1.3133628368377686
2.8523662090301514,-1.9748153686523438,-2.602451801300049,1.3122307062149048,1.9751032590866089,0.4590299725532532,1.311640739440918
2.872452735900879,-1.9725183248519897,-2.6025819778442383,1.3133089542388916,1.9759080410003662,0.46001413464546204,1.3112707138061523
2.892519235610962,-1.9650559425354004,-2.6034483909606934,1.319426417350769,1.9776716232299805,0.46252816915512085,1.3095409870147705
2.912581205368042,-1.9654712677001953,-2.601212978363037,1.3204808235168457,1.9768155813217163,0.46373695135116577,1.3092131614685059
2.9326303005218506,-1.9648666381835938,-2.6012468338012695,1.3195031881332397,1.9757304191589355,0.4644637703895569,1.3082695007324219
2.952725410461426,-1.958076000213623,-2.602355480194092,1.324590802192688,1.977745771408081,0.4675251245498657,1.3062912225723267
2.972878932952881,-1.9504934549331665,-2.60345196723938,1.3280305862426758,1.978495717048645,0.4703916013240814,1.304877519607544
2.99299693107605,-1.9486291408538818,-2.6025230884552,1.329412817955017,1.9779016971588135,0.4703543782234192,1.3043978214263916
3.0130016803741455,-1.950361967086792,-2.600956439971924,1.330712080001831,1.9775848388671875,0.4713122248649597,1.3035671710968018
3.0330915451049805,-1.9473092555999756,-2.6009364128112793,1.3323031663894653,1.9777240753173828,0.47331565618515015,1.302335262298584
3.0531959533691406,-1.9433037042617798,-2.600924015045166,1.336012840270996,1.9783090353012085,0.4747779965400696,1.3006893396377563
3.0732429027557373,-1.936894178390503,-2.6016311645507812,1.3410567045211792,1.9792230129241943,0.47730427980422974,1.2985156774520874
3.093282461166382,-1.9361073970794678,-2.5998425483703613,1.3412858247756958,1.9787063598632812,0.47829169034957886,1.2980111837387085
3.113396644592285,-1.934621810913086,-2.5996015071868896,1.3422908782958984,1.9790468215942383,0.4791562557220459,1.2966883182525635
3.1335372924804688,-1.9351067543029785,-2.5991568565368652,1.3400933742523193,1.97731351852417,0.47927165031433105,1.296940565109253
3.1535680294036865,-1.928657054901123,-2.5994930267333984,1.3451142311096191,1.9779267311096191,0.4816322326660156,1.2951421737670898
3.173664093017578,-1.9223406314849854,-2.60007381439209,1.3519339561462402,1.9799641370773315,0.48505452275276184,1.2931236028671265
3.193699359893799,-1.9217705726623535,-2.5981593132019043,1.3546854257583618,1.9791443347930908,0.48628872632980347,1.2923178672790527
3.2138352394104004,-1.9215819835662842,-2.5978527069091797,1.3530633449554443,1.9779160022735596,0.4866088628768921,1.2924134731292725
3.2338669300079346,-1.9188053607940674,-2.5979537963867188,1.3528189659118652,1.9772684574127197,0.486998051404953,1.2914553880691528
3.2541046142578125,-1.912746548652649,-2.5984978675842285,1.3572230339050293,1.9784152507781982,0.48959818482398987,1.2894232273101807
3.2740478515625,-1.910322904586792,-2.5990536212921143,1.3581790924072266,1.9774999618530273,0.48939916491508484,1.28791344165802
3.294661521911621,-1.9062154293060303,-2.5993618965148926,1.3606576919555664,1.9775810241699219,0.49178364872932434,1.286128282546997
3.314786195755005,-1.9035558700561523,-2.5991768836975098,1.3638694286346436,1.9791316986083984,0.49274370074272156,1.2852659225463867
3.3348567485809326,-1.901764154434204,-2.598238945007324,1.3669514656066895,1.9797123670578003,0.4952850043773651,1.2843549251556396
3.3549745082855225,-1.8974692821502686,-2.5977299213409424,1.3692537546157837,1.9790096282958984,0.4967940151691437,1.2832378149032593
3.3751349449157715,-1.8945088386535645,-2.597332000732422,1.371158242225647,1.9799525737762451,0.4980349838733673,1.282260537147522
3.395258903503418,-1.89349365234375,-2.596313953399658,1.3729265928268433,1.9803106784820557,0.49943867325782776,1.2815274000167847
3.415297031402588,-1.892611026763916,-2.5960159301757812,1.37221097946167,1.979213833808899,0.49975016713142395,1.2807281017303467
3.4353654384613037,-1.8905680179595947,-2.5961761474609375,1.3725519180297852,1.9796910285949707,0.5002049207687378,1.2802789211273193
3.455416679382324,-1.8871893882751465,-2.596078634262085,1.3754007816314697,1.9802051782608032,0.5020813345909119,1.2788950204849243
3.475497245788574,-1.8846302032470703,-2.5954606533050537,1.379190444946289,1.9811575412750244,0.5030239820480347,1.2778983116149902
3.4955620765686035,-1.8786003589630127,-2.5957679748535156,1.3821585178375244,1.9799312353134155,0.5050557851791382,1.275830864906311
3.5156328678131104,-1.877619981765747,-2.5950798988342285,1.3836019039154053,1.9793002605438232,0.506392240524292,1.2742037773132324
3.5357093811035156,-1.873908281326294,-2.5957512855529785,1.3836615085601807,1.9793014526367188,0.5074501037597656,1.2735061645507812
3.555899143218994,-1.8672113418579102,-2.596442937850952,1.3900494575500488,1.9804075956344604,0.5103740692138672,1.2715294361114502
3.576035976409912,-1.8672668933868408,-2.595736503601074,1.390417456626892,1.9801149368286133,0.5107470750808716,1.27146577835083
3.5961523056030273,-1.8649674654006958,-2.594775676727295,1.3930038213729858,1.980308175086975,0.5121996402740479,1.2708706855773926
3.616178035736084,-1.8619062900543213,-2.5940585136413574,1.3948184251785278,1.9804847240447998,0.5143555402755737,1.269571304321289
3.636253595352173,-1.861060380935669,-2.5931148529052734,1.397649884223938,1.9820448160171509,0.5156887769699097,1.268681526184082
3.65633487701416,-1.8554573059082031,-2.5928337574005127,1.4013100862503052,1.9827879667282104,0.5183147192001343,1.2668805122375488
3.6764144897460938,-1.8524799346923828,-2.592677593231201,1.4009895324707031,1.9819903373718262,0.5184944868087769,1.266663908958435
3.696474075317383,-1.8515385389328003,-2.5921409130096436,1.4011948108673096,1.9819775819778442,0.5188218355178833,1.265957236289978
3.716603994369507,-1.8499784469604492,-2.591158866882324,1.4042532444000244,1.983197808265686,0.520630955696106,1.265088677406311
3.736690044403076,-1.8494439125061035,-2.5903589725494385,1.4044642448425293,1.9824559688568115,0.5213912725448608,1.26411771774292
3.7568018436431885,-1.8476718664169312,-2.59006929397583,1.4036248922348022,1.9817612171173096,0.520911693572998,1.263469934463501
3.7768516540527344,-1.8452543020248413,-2.5891313552856445,1.4075422286987305,1.9821443557739258,0.523163914680481,1.2613732814788818
3.7969143390655518,-1.8413245677947998,-2.5895743370056152,1.4075238704681396,1.9815680980682373,0.523093581199646,1.2605940103530884
3.8170080184936523,-1.8376202583312988,-2.5902912616729736,1.4089062213897705,1.982473611831665,0.5247129201889038,1.2596073150634766
3.837069272994995,-1.8347421884536743,-2.589015483856201,1.4135173559188843,1.9830172061920166,0.5275603532791138,1.2579182386398315
3.8571295738220215,-1.831383228302002,-2.589280605316162,1.4121975898742676,1.9822590351104736,0.5275869369506836,1.2574853897094727
3.8771860599517822,-1.8264731168746948,-2.5902020931243896,1.4181396961212158,1.9841201305389404,0.530635416507721,1.2550973892211914
3.8972742557525635,-1.8232465982437134,-2.590641975402832,1.419506311416626,1.9840915203094482,0.5320114493370056,1.2545182704925537
3.917358160018921,-1.8231314420700073,-2.588778018951416,1.421011209487915,1.9832993745803833,0.5327914357185364,1.2542340755462646
3.9374594688415527,-1.821061134338379,-2.5869922637939453,1.4240635633468628,1.9830231666564941,0.5348184108734131,1.2524396181106567
3.957501173019409,-1.813946008682251,-2.5881552696228027,1.4267246723175049,1.9832435846328735,0.5357498526573181,1.2501399517059326
3.9775986671447754,-1.8147079944610596,-2.587982654571533,1.424757719039917,1.9816792011260986,0.5354104042053223,1.2497913837432861
3.997659921646118,-1.8092161417007446,-2.588346242904663,1.428926706314087,1.9829156398773193,0.5377517938613892,1.2478516101837158
4.017735719680786,-1.8044990301132202,-2.588749885559082,1.4336689710617065,1.9847679138183594,0.5407439470291138,1.2461884021759033
4.037794351577759,-1.8038229942321777,-2.58789324760437,1.4331974983215332,1.9825479984283447,0.5404961705207825,1.2457432746887207
4.057893991470337,-1.8041764497756958,-2.5868358612060547,1.4330337047576904,1.9826533794403076,0.5406494736671448,1.245715618133545
4.077946424484253,-1.8016859292984009,-2.585139751434326,1.4376962184906006,1.984120488166809,0.5436561107635498,1.2441011667251587
4.098007440567017,-1.7984944581985474,-2.5846548080444336,1.435944676399231,1.9840883016586304,0.5431721210479736,1.2440738677978516
4.118072032928467,-1.7958259582519531,-2.584559202194214,1.4388673305511475,1.9854576587677002,0.5448276400566101,1.2430391311645508
4.138184309005737,-1.7925541400909424,-2.583772659301758,1.4416859149932861,1.9851887226104736,0.5460968613624573,1.2419872283935547
4.158253908157349,-1.7913161516189575,-2.583120584487915,1.4405629634857178,1.9843804836273193,0.5467871427536011,1.2416887283325195
4.17831015586853,-1.786176323890686,-2.5849790573120117,1.4433307647705078,1.9839624166488647,0.5482808947563171,1.2396137714385986
4.1983582973480225,-1.7819874286651611,-2.5855212211608887,1.4493825435638428,1.9839808940887451,0.5503616333007812,1.2376339435577393
4.218453884124756,-1.7805464267730713,-2.585402488708496,1.4504554271697998,1.9834868907928467,0.5505584478378296,1.2374244928359985
4.238534212112427,-1.7775790691375732,-2.5840678215026855,1.4524867534637451,1.9838287830352783,0.5516145825386047,1.2353124618530273
4.258578538894653,-1.7733389139175415,-2.583402156829834,1.4532287120819092,1.9838709831237793,0.5529794096946716,1.2345181703567505
4.278669595718384,-1.773568868637085,-2.583268165588379,1.4532339572906494,1.9831657409667969,0.5534375309944153,1.233691930770874
4.298703908920288,-1.7717626094818115,-2.5828332901000977,1.4563183784484863,1.9843093156814575,0.5547389388084412,1.2328910827636719
4.318789720535278,-1.7656477689743042,-2.5832431316375732,1.4595675468444824,1.9849936962127686,0.5573559999465942,1.2312188148498535
4.3388543128967285,-1.7628639936447144,-2.582324743270874,1.4615795612335205,1.9850395917892456,0.5578267574310303,1.2301967144012451
4.358919382095337,-1.7641565799713135,-2.5813302993774414,1.4593477249145508,1.9843089580535889,0.5577666759490967,1.2306630611419678
4.379031658172607,-1.7628246545791626,-2.5812339782714844,1.4589577913284302,1.98418128490448,0.5575369596481323,1.2296526432037354
4.399104118347168,-1.759972333908081,-2.581397294998169,1.462739109992981,1.9845499992370605,0.559697151184082,1.227653980255127
4.41914701461792,-1.7584304809570312,-2.580888032913208,1.4622923135757446,1.9830586910247803,0.5596100091934204,1.2268564701080322
4.43920636177063,-1.7557518482208252,-2.5801010131835938,1.4646472930908203,1.9853148460388184,0.5606855154037476,1.2260483503341675
4.459332704544067,-1.7547895908355713,-2.5798277854919434,1.4635295867919922,1.9841499328613281,0.5600706934928894,1.226097822189331
4.479414939880371,-1.7503881454467773,-2.5796306133270264,1.465855598449707,1.9846317768096924,0.5626409649848938,1.2249224185943604
4.499516725540161,-1.7482616901397705,-2.5784265995025635,1.4678397178649902,1.9848085641860962,0.564133882522583,1.2237135171890259
4.5195817947387695,-1.7463287115097046,-2.577923536300659,1.469581127166748,1.9853063821792603,0.5649695992469788,1.2228243350982666
4.539637565612793,-1.7456942796707153,-2.5770809650421143,1.471189260482788,1.9860632419586182,0.5665850639343262,1.2221741676330566
4.559723854064941,-1.740628957748413,-2.577608346939087,1.4752492904663086,1.9873076677322388,0.5681813955307007,1.220768690109253
4.579826831817627,-1.7368409633636475,-2.5771312713623047,1.477352261543274,1.9872403144836426,0.5696136355400085,1.220210075378418
4.599877834320068,-1.7352566719055176,-2.5752930641174316,1.4781221151351929,1.986918568611145,0.5696656703948975,1.2197070121765137
4.620030164718628,-1.7341268062591553,-2.57430362701416,1.4772437810897827,1.986267328262329,0.5702652335166931,1.2190370559692383
4.640115976333618,-1.7312180995941162,-2.575650930404663,1.4772696495056152,1.986743688583374,0.5710055828094482,1.2185028791427612
4.6602253913879395,-1.72672438621521,-2.5756008625030518,1.4820630550384521,1.986267328262329,0.5735601186752319,1.2162578105926514
4.680441617965698,-1.7240524291992188,-2.575234889984131,1.4830607175827026,1.985155463218689,0.573266327381134,1.214987874031067
4.7005934715271,-1.7239007949829102,-2.5741662979125977,1.4834070205688477,1.985302209854126,0.5741738080978394,1.2140463590621948
4.7206807136535645,-1.7236459255218506,-2.5738654136657715,1.484031319618225,1.9861464500427246,0.5742703676223755,1.2136696577072144
4.740739345550537,-1.7167106866836548,-2.5744307041168213,1.4881614446640015,1.9873305559158325,0.5770596265792847,1.2121015787124634
4.760806560516357,-1.716947078704834,-2.5726771354675293,1.4894431829452515,1.9857454299926758,0.5773181915283203,1.2116177082061768
4.78087854385376,-1.7169198989868164,-2.5727779865264893,1.486412525177002,1.9844666719436646,0.5767319202423096,1.211426019668579
4.800975561141968,-1.7155466079711914,-2.5729830265045166,1.4886865615844727,1.985733985900879,0.5780330896377563,1.210115671157837
4.821047782897949,-1.7107796669006348,-2.5728695392608643,1.4919358491897583,1.9869105815887451,0.579770028591156,1.2091408967971802
4.841120004653931,-1.7095260620117188,-2.5727336406707764,1.4899044036865234,1.985353946685791,0.578713059425354,1.2090840339660645
4.861215591430664,-1.7046680450439453,-2.5731801986694336,1.4940327405929565,1.9871009588241577,0.5809169411659241,1.2074415683746338
4.881328105926514,-1.7053402662277222,-2.572460889816284,1.4936158657073975,1.9856278896331787,0.580927848815918,1.2074098587036133
4.901390790939331,-1.702181339263916,-2.5719261169433594,1.497644066810608,1.9856053590774536,0.5829191207885742,1.2051911354064941
4.921475410461426,-1.696035385131836,-2.572762966156006,1.501793622970581,1.9861640930175781,0.5856786966323853,1.2027008533477783
4.941508054733276,-1.6952030658721924,-2.570962429046631,1.5012009143829346,1.9852956533432007,0.5858547687530518,1.2025357484817505
4.961589336395264,-1.6909661293029785,-2.5711426734924316,1.501204490661621,1.9858407974243164,0.5866926908493042,1.201778769493103
4.981674671173096,-1.6921716928482056,-2.570587396621704,1.5005604028701782,1.985620379447937,0.5855646133422852,1.2019799947738647
5.001992225646973,-1.6884173154830933,-2.570854663848877,1.5025763511657715,1.9859344959259033,0.5868988037109375,1.2007386684417725
5.022020101547241,-1.6877678632736206,-2.570004463195801,1.504529356956482,1.9862984418869019,0.5885907411575317,1.2000370025634766
5.042382478713989,-1.6851922273635864,-2.5690557956695557,1.5067245960235596,1.9861581325531006,0.5901408791542053,1.199137806892395
5.06247353553772,-1.6819170713424683,-2.569843292236328,1.5092792510986328,1.986576795578003,0.5911063551902771,1.1978752613067627
5.082640171051025,-1.678438425064087,-2.5697479248046875,1.5105618238449097,1.9853264093399048,0.5910788774490356,1.1973369121551514
5.1026506423950195,-1.675130009651184,-2.5688202381134033,1.512815237045288,1.9856235980987549,0.592815637588501,1.1961910724639893
5.122702360153198,-1.6734395027160645,-2.5677244663238525,1.5145107507705688,1.985689640045166,0.5947108864784241,1.1947695016860962
5.142786264419556,-1.673948049545288,-2.567683696746826,1.5126738548278809,1.9849863052368164,0.5937696695327759,1.1947791576385498
5.162853479385376,-1.6723077297210693,-2.5683372020721436,1.5138862133026123,1.9847018718719482,0.5938003659248352,1.1931161880493164
5.182924509048462,-1.6719145774841309,-2.5669937133789062,1.5150293111801147,1.9854580163955688,0.5943971276283264,1.1926114559173584
5.203030586242676,-1.6699379682540894,-2.566514492034912,1.5154677629470825,1.985063910484314,0.5949920415878296,1.192244291305542
5.223095893859863,-1.669295072555542,-2.5664420127868652,1.5147597789764404,1.9848453998565674,0.5943987965583801,1.192345142364502
5.243225812911987,-1.6654958724975586,-2.567091703414917,1.5166558027267456,1.985589623451233,0.5960438251495361,1.190812349319458
5.26336669921875,-1.6616992950439453,-2.5673420429229736,1.5178853273391724,1.9858202934265137,0.5973541736602783,1.1900227069854736
5.283426523208618,-1.659792184829712,-2.56601881980896,1.5202162265777588,1.9856418371200562,0.599610447883606,1.1888877153396606
5.303508043289185,-1.6588199138641357,-2.565648317337036,1.5216811895370483,1.9865473508834839,0.6002402305603027,1.1881990432739258
5.323570251464844,-1.6574760675430298,-2.564764976501465,1.521782398223877,1.9867340326309204,0.6003607511520386,1.1882826089859009
5.343642234802246,-1.654140830039978,-2.5644383430480957,1.526160478591919,1.9877536296844482,0.6019437313079834,1.1868234872817993
5.363754510879517,-1.6524581909179688,-2.563553810119629,1.5254298448562622,1.987011194229126,0.60247802734375,1.1865181922912598
5.383784532546997,-1.6478426456451416,-2.5636250972747803,1.5271143913269043,1.9873226881027222,0.6038504838943481,1.1851491928100586
5.403866767883301,-1.6473422050476074,-2.5630743503570557,1.5282690525054932,1.9870095252990723,0.6051777005195618,1.1843817234039307
5.423979759216309,-1.6482056379318237,-2.5625991821289062,1.5256766080856323,1.9862862825393677,0.604047417640686,1.184361457824707
5.444029092788696,-1.6415553092956543,-2.563854217529297,1.529512643814087,1.9861431121826172,0.6060155630111694,1.1821402311325073
5.4640843868255615,-1.6391644477844238,-2.564143657684326,1.5311849117279053,1.9867722988128662,0.6062069535255432,1.1813123226165771
5.484163761138916,-1.6376852989196777,-2.563405990600586,1.5331611633300781,1.9876737594604492,0.6065440773963928,1.1811482906341553
5.5042970180511475,-1.6368584632873535,-2.5617966651916504,1.5338512659072876,1.987236499786377,0.6086797118186951,1.1799300909042358
5.524325370788574,-1.6345621347427368,-2.5612339973449707,1.5348197221755981,1.9882668256759644,0.6094971299171448,1.1792216300964355
5.544383525848389,-1.6299365758895874,-2.5611398220062256,1.5359559059143066,1.9880330562591553,0.6103043556213379,1.178318977355957
5.564470291137695,-1.6300387382507324,-2.5605249404907227,1.5381691455841064,1.988452434539795,0.6112087368965149,1.1778188943862915
5.58459210395813,-1.630289912223816,-2.5594801902770996,1.5373166799545288,1.9876391887664795,0.6117212772369385,1.177394986152649
5.60463547706604,-1.6287868022918701,-2.5587494373321533,1.5392847061157227,1.9881477355957031,0.6122387647628784,1.176764726638794
5.6246864795684814,-1.6273037195205688,-2.556993007659912,1.5393550395965576,1.9876781702041626,0.6133303046226501,1.1763123273849487
5.644743204116821,-1.624244213104248,-2.5581045150756836,1.5396047830581665,1.98787522315979,0.6133136749267578,1.1756713390350342
5.664825439453125,-1.6225179433822632,-2.558196544647217,1.5417280197143555,1.9880568981170654,0.6143556833267212,1.174739956855774
5.684889078140259,-1.6176536083221436,-2.558112144470215,1.544503927230835,1.9878151416778564,0.6162577867507935,1.1732268333435059
5.704950332641602,-1.6160032749176025,-2.5583066940307617,1.5436137914657593,1.9858109951019287,0.61593097448349,1.1718072891235352
5.725011110305786,-1.6144191026687622,-2.5570878982543945,1.5478187799453735,1.9871103763580322,0.6178398132324219,1.1702326536178589
5.745129346847534,-1.6125293970108032,-2.5578274726867676,1.5464240312576294,1.9858664274215698,0.6174296140670776,1.1699812412261963
5.765180587768555,-1.6109695434570312,-2.5583510398864746,1.5472643375396729,1.9861619472503662,0.6170742511749268,1.169730305671692
5.785226106643677,-1.606255054473877,-2.558109760284424,1.5499083995819092,1.9863693714141846,0.618610143661499,1.1686583757400513
5.8053107261657715,-1.6050825119018555,-2.556870937347412,1.5496973991394043,1.9859930276870728,0.6189270615577698,1.1684656143188477
5.82538914680481,-1.6054065227508545,-2.555997371673584,1.5489158630371094,1.9860308170318604,0.6192502975463867,1.1682041883468628
5.845473051071167,-1.6025469303131104,-2.5564091205596924,1.550951600074768,1.9874982833862305,0.6207137107849121,1.16706383228302
5.865571022033691,-1.6008038520812988,-2.5560104846954346,1.5501630306243896,1.9864161014556885,0.619907796382904,1.1668460369110107
5.885599851608276,-1.6003029346466064,-2.5547518730163574,1.5515062808990479,1.9871528148651123,0.6208642721176147,1.1664564609527588
5.905775308609009,-1.5959351062774658,-2.5543789863586426,1.5529800653457642,1.9874871969223022,0.6223809123039246,1.1652555465698242
5.925856828689575,-1.593543529510498,-2.554521083831787,1.5542325973510742,1.9879792928695679,0.6231577396392822,1.1647112369537354
5.945923328399658,-1.590501308441162,-2.553900957107544,1.557695746421814,1.9886107444763184,0.6246737837791443,1.1632559299468994
5.965997219085693,-1.5893843173980713,-2.5529515743255615,1.5556049346923828,1.9865802526474,0.6242557764053345,1.1625992059707642
5.98622989654541,-1.5880554914474487,-2.5520148277282715,1.5574618577957153,1.987691044807434,0.6252405643463135,1.161395788192749
6.0063230991363525,-1.5884997844696045,-2.551547050476074,1.5553231239318848,1.986642837524414,0.6247177124023438,1.1614675521850586
6.02650785446167,-1.5858473777770996,-2.5513901710510254,1.5582093000411987,1.9876818656921387,0.6259506344795227,1.160091519355774
6.046486139297485,-1.586328148841858,-2.5501787662506104,1.5571986436843872,1.9875415563583374,0.6248512864112854,1.1606990098953247
6.066722393035889,-1.5827947854995728,-2.5500450134277344,1.5605204105377197,1.988647699356079,0.6260665655136108,1.1595101356506348
6.086802959442139,-1.580573320388794,-2.549638271331787,1.5611958503723145,1.9881243705749512,0.6271597743034363,1.159132957458496
6.106869459152222,-1.5770673751831055,-2.5496885776519775,1.5602481365203857,1.9870973825454712,0.6272897720336914,1.1585447788238525
6.126936197280884,-1.5748804807662964,-2.5494256019592285,1.5620410442352295,1.986521601676941,0.6281471252441406,1.157308578491211
6.1470787525177,-1.5725458860397339,-2.549332618713379,1.5637990236282349,1.9864636659622192,0.6293157935142517,1.1557629108428955
6.167189359664917,-1.5712332725524902,-2.5488333702087402,1.5671052932739258,1.9873344898223877,0.6308422684669495,1.154948353767395
6.187258005142212,-1.566676378250122,-2.5491507053375244,1.5701043605804443,1.9879074096679688,0.6321843862533569,1.154112696647644
6.207403182983398,-1.5631370544433594,-2.547644853591919,1.570781946182251,1.9875061511993408,0.6333546042442322,1.1534557342529297
6.2274010181427,-1.5626016855239868,-2.546898365020752,1.5684618949890137,1.9864261150360107,0.6326292753219604,1.1531236171722412
6.247489929199219,-1.5612244606018066,-2.5466856956481934,1.5709877014160156,1.987517237663269,0.6337618231773376,1.1523008346557617
6.26754903793335,-1.559012532234192,-2.5462920665740967,1.5709526538848877,1.9844131469726562,0.6346819400787354,1.1499979496002197
6.287610054016113,-1.5549867153167725,-2.5472419261932373,1.5719465017318726,1.9868137836456299,0.6345344185829163,1.1489049196243286
6.30766224861145,-1.5528039932250977,-2.5467560291290283,1.576264500617981,1.9879586696624756,0.6366567611694336,1.1478638648986816
6.327769041061401,-1.55313241481781,-2.545124053955078,1.5768334865570068,1.9868528842926025,0.6370379328727722,1.1477739810943604
6.3478639125823975,-1.5530565977096558,-2.5447633266448975,1.5729128122329712,1.9858553409576416,0.6355940103530884,1.1480268239974976
6.3680009841918945,-1.549473762512207,-2.5459461212158203,1.573319911956787,1.9860236644744873,0.6358240842819214,1.1469860076904297
6.3879923820495605,-1.546890377998352,-2.5461037158966064,1.5755571126937866,1.9859421253204346,0.6374272108078003,1.145755648612976
6.408106327056885,-1.5447052717208862,-2.5462162494659424,1.5773366689682007,1.9868924617767334,0.6385441422462463,1.1452600955963135
6.428171634674072,-1.542356252670288,-2.544987916946411,1.580957293510437,1.9863070249557495,0.640180766582489,1.1437907218933105
6.448233604431152,-1.541731357574463,-2.544304847717285,1.5798060894012451,1.9859161376953125,0.6397972106933594,1.1432256698608398
6.46828556060791,-1.54063081741333,-2.5438690185546875,1.5798301696777344,1.985424518585205,0.6401152610778809,1.1422483921051025
6.4883787631988525,-1.5405559539794922,-2.5434975624084473,1.5800492763519287,1.985451579093933,0.6401288509368896,1.141699194908142
6.508450031280518,-1.5358374118804932,-2.5436348915100098,1.5812397003173828,1.9860756397247314,0.6414673328399658,1.140733242034912
6.528521776199341,-1.5332040786743164,-2.5418689250946045,1.5851408243179321,1.9866546392440796,0.6435058116912842,1.1395936012268066
6.548593044281006,-1.5299023389816284,-2.541464328765869,1.5854220390319824,1.9865422248840332,0.6441172957420349,1.1389133930206299
6.568800210952759,-1.5304136276245117,-2.5412659645080566,1.5856118202209473,1.9864540100097656,0.6444920301437378,1.1386134624481201
6.588894605636597,-1.5296056270599365,-2.5412845611572266,1.5855177640914917,1.9858150482177734,0.6446722745895386,1.1381045579910278
6.60898232460022,-1.5272358655929565,-2.540637254714966,1.5872862339019775,1.986222267150879,0.6453068852424622,1.137684941291809
6.629021167755127,-1.5251315832138062,-2.540879487991333,1.5880426168441772,1.9858589172363281,0.6451886892318726,1.1369339227676392
6.649076223373413,-1.5220458507537842,-2.539914608001709,1.590887188911438,1.9858735799789429,0.6473041772842407,1.135850191116333
6.669158220291138,-1.5186699628829956,-2.540022611618042,1.590928077697754,1.9860960245132446,0.6478116512298584,1.1354767084121704
6.689227104187012,-1.516550064086914,-2.5394277572631836,1.5923686027526855,1.986519455909729,0.6487782001495361,1.1343414783477783
6.70929479598999,-1.5157983303070068,-2.538445472717285,1.5940110683441162,1.9858256578445435,0.649467945098877,1.1331257820129395
6.7293477058410645,-1.510087251663208,-2.5393402576446533,1.5960023403167725,1.9844963550567627,0.6512317061424255,1.1305222511291504
6.749468803405762,-1.5106240510940552,-2.5388717651367188,1.597238540649414,1.9851865768432617,0.6508285403251648,1.130316138267517
6.769493818283081,-1.5104262828826904,-2.5375616550445557,1.596799612045288,1.9848743677139282,0.6514226198196411,1.129948377609253
6.789538860321045,-1.5079553127288818,-2.537564516067505,1.5979149341583252,1.9861781597137451,0.6516207456588745,1.1295539140701294
6.8096301555633545,-1.5043070316314697,-2.5363941192626953,1.599051833152771,1.9857097864151,0.6528064608573914,1.129045844078064
6.8297271728515625,-1.5028886795043945,-2.536541223526001,1.5982093811035156,1.9855585098266602,0.6532478928565979,1.128633975982666
6.849797964096069,-1.501044750213623,-2.5367929935455322,1.5981991291046143,1.9855377674102783,0.6533116102218628,1.1277859210968018
6.869856119155884,-1.5008678436279297,-2.5367627143859863,1.5983891487121582,1.985701084136963,0.6532490849494934,1.1273349523544312
6.88994288444519,-1.4997445344924927,-2.5365633964538574,1.6002321243286133,1.9857884645462036,0.6546637415885925,1.1264750957489014
6.910014867782593,-1.4988466501235962,-2.535189151763916,1.6012269258499146,1.9858299493789673,0.6545279026031494,1.1261037588119507
6.930083274841309,-1.4979248046875,-2.5344438552856445,1.5991332530975342,1.9854607582092285,0.6530696749687195,1.126368761062622
6.950132846832275,-1.4966137409210205,-2.534501552581787,1.5997989177703857,1.9851338863372803,0.6538418531417847,1.125403642654419
6.970219373703003,-1.4959542751312256,-2.5344908237457275,1.6006009578704834,1.9853957891464233,0.6537574529647827,1.1249868869781494
6.990285158157349,-1.4909977912902832,-2.5344040393829346,1.6032023429870605,1.9858553409576416,0.6557042598724365,1.123531699180603
7.010348081588745,-1.4865269660949707,-2.5345873832702637,1.6040868759155273,1.9856181144714355,0.6566701531410217,1.1222337484359741
7.030394792556763,-1.4857888221740723,-2.53311824798584,1.6048147678375244,1.985464334487915,0.6574915647506714,1.121451497077942
7.050480365753174,-1.4852330684661865,-2.5331242084503174,1.605017900466919,1.9854910373687744,0.6581261157989502,1.1210976839065552
7.0705461502075195,-1.4852800369262695,-2.531809091567993,1.6061739921569824,1.9861462116241455,0.6590190529823303,1.1208648681640625
7.090696811676025,-1.4829829931259155,-2.5306026935577393,1.6075801849365234,1.9861210584640503,0.6598470211029053,1.120375394821167
7.110702037811279,-1.479529857635498,-2.5312061309814453,1.607147455215454,1.98556387424469,0.6587851047515869,1.119945764541626
7.130807161331177,-1.4773892164230347,-2.531583786010742,1.6074360609054565,1.9857652187347412,0.6591295003890991,1.1196515560150146
7.150891065597534,-1.4750508069992065,-2.531064987182617,1.6093556880950928,1.9852527379989624,0.6605216264724731,1.1184580326080322
7.170949697494507,-1.4724535942077637,-2.529982566833496,1.6116199493408203,1.9858471155166626,0.6625694036483765,1.1172422170639038
7.1910080909729,-1.4721317291259766,-2.5297656059265137,1.6115823984146118,1.9854662418365479,0.6623938679695129,1.1167685985565186
7.2110631465911865,-1.4674135446548462,-2.530094623565674,1.6150612831115723,1.9860124588012695,0.6642724275588989,1.1156420707702637
7.231151819229126,-1.4680498838424683,-2.5293710231781006,1.6153855323791504,1.9855470657348633,0.6638720631599426,1.115645408630371
7.251219272613525,-1.4667562246322632,-2.527189254760742,1.6181399822235107,1.9851919412612915,0.6657671928405762,1.1145665645599365
7.271281480789185,-1.464876413345337,-2.527146816253662,1.6149555444717407,1.983985424041748,0.664737343788147,1.1140451431274414
7.291339635848999,-1.460553526878357,-2.528869390487671,1.6149673461914062,1.9843432903289795,0.6647282242774963,1.1131236553192139
7.3114235401153564,-1.4605227708816528,-2.5290627479553223,1.6154258251190186,1.9832115173339844,0.6647217273712158,1.1124625205993652
7.331496000289917,-1.458803653717041,-2.528890609741211,1.6193232536315918,1.9845439195632935,0.6663718223571777,1.1107110977172852
7.351568937301636,-1.4564491510391235,-2.5277600288391113,1.6191133260726929,1.9836362600326538,0.6672888398170471,1.110178828239441
7.371603965759277,-1.4551219940185547,-2.528073787689209,1.6183494329452515,1.9834842681884766,0.6668095588684082,1.1097668409347534
7.391693592071533,-1.4541819095611572,-2.526937961578369,1.6217204332351685,1.9850873947143555,0.6680768728256226,1.109245777130127
7.411768436431885,-1.452345371246338,-2.525033712387085,1.6215373277664185,1.9841029644012451,0.6689963936805725,1.1085524559020996
7.431877374649048,-1.4522554874420166,-2.5249648094177246,1.6198450326919556,1.9840047359466553,0.6682665348052979,1.1087368726730347
7.451934099197388,-1.4516685009002686,-2.525282859802246,1.6197021007537842,1.9839438199996948,0.668746292591095,1.107946515083313
7.471982479095459,-1.4494876861572266,-2.5256240367889404,1.6204744577407837,1.983722448348999,0.6687034368515015,1.1073051691055298
7.49207615852356,-1.447028398513794,-2.525521755218506,1.6227121353149414,1.9836115837097168,0.6698616743087769,1.1063474416732788
7.51215386390686,-1.4427410364151,-2.525221824645996,1.6236684322357178,1.9834957122802734,0.6711245179176331,1.1050496101379395
7.532207489013672,-1.440483808517456,-2.525461435317993,1.6247968673706055,1.9837150573730469,0.6716622710227966,1.1040501594543457
7.5523247718811035,-1.4397790431976318,-2.524284839630127,1.6260066032409668,1.9826679229736328,0.6724210381507874,1.1030125617980957
7.572434663772583,-1.438985824584961,-2.523662567138672,1.628159999847412,1.9835708141326904,0.67325758934021,1.1023000478744507
7.592538118362427,-1.4365954399108887,-2.523392677307129,1.6289141178131104,1.983415961265564,0.6739391684532166,1.1013460159301758
7.6125781536102295,-1.4349278211593628,-2.522905111312866,1.628913402557373,1.982723593711853,0.6737404465675354,1.1011850833892822
7.6328229904174805,-1.4322667121887207,-2.522380828857422,1.6309258937835693,1.9832918643951416,0.6745007634162903,1.100644588470459
7.652926445007324,-1.4280141592025757,-2.522691249847412,1.6327736377716064,1.982844352722168,0.6761508584022522,1.099178433418274
7.673011302947998,-1.4260742664337158,-2.5217227935791016,1.6342198848724365,1.982143521308899,0.6775228977203369,1.0986847877502441
7.693063497543335,-1.4227473735809326,-2.5216550827026367,1.6357372999191284,1.9825282096862793,0.6783110499382019,1.0972857475280762
7.71312403678894,-1.4220294952392578,-2.521458625793457,1.6365900039672852,1.9827479124069214,0.6793976426124573,1.096755862236023
7.7332048416137695,-1.4224886894226074,-2.520681858062744,1.634967565536499,1.9824682474136353,0.6784708499908447,1.097082495689392
7.753307342529297,-1.4216625690460205,-2.519780158996582,1.6363475322723389,1.9828085899353027,0.6792581081390381,1.0962830781936646
7.773353815078735,-1.4192842245101929,-2.518556594848633,1.638150930404663,1.9838461875915527,0.679790198802948,1.0959584712982178
7.793429136276245,-1.415367841720581,-2.517003059387207,1.6406145095825195,1.9836177825927734,0.6821266412734985,1.0947341918945312
7.813512086868286,-1.412687063217163,-2.516472578048706,1.6408731937408447,1.9835638999938965,0.6827108860015869,1.0942730903625488
7.83357834815979,-1.4109667539596558,-2.5167434215545654,1.6391942501068115,1.9830104112625122,0.6827510595321655,1.0934395790100098
7.853684902191162,-1.4101486206054688,-2.5175936222076416,1.6390807628631592,1.9819704294204712,0.6827357411384583,1.092250108718872
7.873723268508911,-1.409858226776123,-2.5178380012512207,1.6387660503387451,1.9818248748779297,0.6818832159042358,1.0919079780578613
7.893812894821167,-1.4086463451385498,-2.516871690750122,1.6421668529510498,1.9830132722854614,0.6836812496185303,1.0907697677612305
7.913888454437256,-1.4093705415725708,-2.515213966369629,1.638808250427246,1.9819207191467285,0.6818692684173584,1.091333031654358
7.934092044830322,-1.4064706563949585,-2.514042854309082,1.6422168016433716,1.9834996461868286,0.6827932596206665,1.0906898975372314
7.954065322875977,-1.4056432247161865,-2.5118589401245117,1.642765760421753,1.982898473739624,0.6835222244262695,1.090397834777832
7.974108457565308,-1.405731201171875,-2.5116801261901855,1.641008734703064,1.9826123714447021,0.6828269958496094,1.0904977321624756
7.994211673736572,-1.4021904468536377,-2.512981653213501,1.63999605178833,1.982516884803772,0.6831008195877075,1.0893820524215698
8.014260053634644,-1.3980613946914673,-2.513260841369629,1.64103102684021,1.982304334640503,0.6838276982307434,1.0885050296783447
8.034443140029907,-1.3959614038467407,-2.5131804943084717,1.642195701599121,1.9829206466674805,0.6843195557594299,1.0878772735595703
8.05453634262085,-1.3948802947998047,-2.512652635574341,1.6441644430160522,1.9830329418182373,0.684677004814148,1.0867018699645996
8.074628114700317,-1.3941667079925537,-2.5117404460906982,1.6453514099121094,1.9824810028076172,0.6853333711624146,1.085659384727478
8.094676494598389,-1.3937289714813232,-2.51066255569458,1.6439634561538696,1.9815963506698608,0.6845559477806091,1.0851351022720337
8.114742994308472,-1.3906489610671997,-2.5106582641601562,1.6458367109298706,1.9824621677398682,0.6857967376708984,1.083967685699463
8.134831666946411,-1.3862980604171753,-2.5100598335266113,1.648167371749878,1.9835693836212158,0.6870710253715515,1.0831279754638672
8.15489411354065,-1.3852406740188599,-2.5096116065979004,1.6456098556518555,1.9825962781906128,0.6859464645385742,1.0831137895584106
8.174947500228882,-1.3813620805740356,-2.5087058544158936,1.6490647792816162,1.9820384979248047,0.6880520582199097,1.0817453861236572
8.19505262374878,-1.3807594776153564,-2.508599281311035,1.649997353553772,1.9827865362167358,0.6889419555664062,1.0811028480529785
8.215136051177979,-1.3801952600479126,-2.506997585296631,1.652316927909851,1.9831466674804688,0.6903765201568604,1.0805472135543823
8.235183715820312,-1.3757102489471436,-2.506467342376709,1.6527879238128662,1.9828360080718994,0.6915093660354614,1.0793168544769287
8.255237579345703,-1.3744229078292847,-2.5044467449188232,1.652275562286377,1.9820841550827026,0.6918784976005554,1.0792118310928345
8.275315999984741,-1.3744442462921143,-2.5041654109954834,1.6510376930236816,1.9822272062301636,0.6907237768173218,1.0794011354446411
8.295383214950562,-1.3733959197998047,-2.504927158355713,1.649789571762085,1.9820492267608643,0.6898758411407471,1.0784668922424316
8.315450429916382,-1.3690435886383057,-2.506368637084961,1.6515229940414429,1.9808464050292969,0.6903574466705322,1.076932430267334
8.335582733154297,-1.3667051792144775,-2.506876230239868,1.6528477668762207,1.980471134185791,0.690861165523529,1.075908899307251
8.355629205703735,-1.3646571636199951,-2.506441593170166,1.6563818454742432,1.979919195175171,0.6924625635147095,1.0740833282470703
8.375726222991943,-1.3613755702972412,-2.5055534839630127,1.6573710441589355,1.9808108806610107,0.6936620473861694,1.073351502418518
8.395769834518433,-1.360675573348999,-2.502976417541504,1.6586415767669678,1.9803321361541748,0.695277214050293,1.0725561380386353
8.415900468826294,-1.3603830337524414,-2.502735137939453,1.6578991413116455,1.9804589748382568,0.6948981285095215,1.0725020170211792
8.435986757278442,-1.3604425191879272,-2.5021345615386963,1.656755805015564,1.9806361198425293,0.6946699023246765,1.072471022605896
8.456133365631104,-1.3603675365447998,-2.5028977394104004,1.6557674407958984,1.9799619913101196,0.693776547908783,1.0721657276153564
8.476135492324829,-1.3575811386108398,-2.5028796195983887,1.6562070846557617,1.9803757667541504,0.6946800351142883,1.071396827697754
8.496217489242554,-1.3582642078399658,-2.5018796920776367,1.6557215452194214,1.9805299043655396,0.6930342316627502,1.0720841884613037
8.516284227371216,-1.3547873497009277,-2.50168776512146,1.656799554824829,1.9808695316314697,0.6941512823104858,1.0709961652755737
8.536353588104248,-1.3510398864746094,-2.5019431114196777,1.6579484939575195,1.9808399677276611,0.6949737071990967,1.0700615644454956
8.556411743164062,-1.3487447500228882,-2.5011088848114014,1.661102533340454,1.9807260036468506,0.6961005926132202,1.068941354751587
8.576545000076294,-1.348610758781433,-2.500722646713257,1.6605236530303955,1.9799308776855469,0.6965906620025635,1.0684971809387207
8.59670639038086,-1.3477275371551514,-2.5005838871002197,1.6605716943740845,1.979326844215393,0.6964629888534546,1.0673956871032715
8.61683988571167,-1.3451547622680664,-2.5005786418914795,1.661038875579834,1.9797911643981934,0.6970033645629883,1.0663117170333862
8.636871337890625,-1.3401442766189575,-2.4997570514678955,1.664428472518921,1.9805560111999512,0.69822758436203,1.0652538537979126
8.656952619552612,-1.3406836986541748,-2.498687267303467,1.6635907888412476,1.9799659252166748,0.6977906823158264,1.0655654668807983
8.677016735076904,-1.3392035961151123,-2.4979395866394043,1.6636602878570557,1.9800646305084229,0.6981552839279175,1.064885139465332
8.697081327438354,-1.3339213132858276,-2.497985363006592,1.6661285161972046,1.9803895950317383,0.700458288192749,1.0636487007141113
8.717132329940796,-1.3303536176681519,-2.497302770614624,1.6685349941253662,1.9796104431152344,0.7013700604438782,1.06277596950531
8.737238883972168,-1.3302946090698242,-2.496973752975464,1.6691354513168335,1.9786570072174072,0.7013355493545532,1.0619099140167236
8.757367134094238,-1.3296338319778442,-2.496631383895874,1.6678869724273682,1.9777600765228271,0.7015601992607117,1.0612038373947144
8.777436971664429,-1.3287169933319092,-2.494993209838867,1.6696772575378418,1.9784908294677734,0.7029495239257812,1.060662031173706
8.797496795654297,-1.3261967897415161,-2.4947328567504883,1.670627474784851,1.9792585372924805,0.7029915452003479,1.0597388744354248
8.81757640838623,-1.3251533508300781,-2.493464708328247,1.673509120941162,1.9796626567840576,0.7047274708747864,1.0587940216064453
8.837647438049316,-1.3242851495742798,-2.492699384689331,1.6712908744812012,1.978377342224121,0.7036083936691284,1.0583839416503906
8.857864141464233,-1.3181425333023071,-2.4930944442749023,1.675545573234558,1.9797724485397339,0.7057937383651733,1.0565623044967651
8.877814054489136,-1.3163647651672363,-2.4928817749023438,1.674357533454895,1.9788355827331543,0.7059149742126465,1.0560989379882812
8.897900819778442,-1.314818024635315,-2.49224853515625,1.676008701324463,1.9787499904632568,0.7068885564804077,1.055373191833496
8.917968511581421,-1.3141913414001465,-2.491687536239624,1.6755385398864746,1.9783935546875,0.7073602676391602,1.054613471031189
8.938117027282715,-1.3141841888427734,-2.4908862113952637,1.6751185655593872,1.9785622358322144,0.7075991630554199,1.0546021461486816
8.958098888397217,-1.313401699066162,-2.489715576171875,1.6768944263458252,1.9794695377349854,0.7075011730194092,1.054048776626587
8.978186845779419,-1.3140039443969727,-2.4888696670532227,1.6749637126922607,1.9785715341567993,0.7071303129196167,1.0544553995132446
8.998278617858887,-1.3124552965164185,-2.4878244400024414,1.6766269207000732,1.979119062423706,0.7083430290222168,1.0534207820892334
9.018329858779907,-1.3110706806182861,-2.487600564956665,1.6759769916534424,1.9791984558105469,0.7087720036506653,1.0530613660812378
9.038408279418945,-1.3075617551803589,-2.4890990257263184,1.6755913496017456,1.977864146232605,0.7085311412811279,1.0517735481262207
9.058488368988037,-1.3054883480072021,-2.4887874126434326,1.6782013177871704,1.978655219078064,0.7097513675689697,1.050848126411438
9.078556537628174,-1.30072021484375,-2.4891791343688965,1.6796908378601074,1.9784785509109497,0.710984468460083,1.0492112636566162
9.098680973052979,-1.300771713256836,-2.4878623485565186,1.6789636611938477,1.9777264595031738,0.7105538845062256,1.0488207340240479
9.118737936019897,-1.298631191253662,-2.4868571758270264,1.6825168132781982,1.9791274070739746,0.7123619318008423,1.0474708080291748
9.13933801651001,-1.2972824573516846,-2.4848103523254395,1.6861302852630615,1.9796762466430664,0.7145359516143799,1.0466763973236084
9.159426212310791,-1.2973778247833252,-2.483898878097534,1.683022141456604,1.9776570796966553,0.7140049338340759,1.0470705032348633
9.179494380950928,-1.2917671203613281,-2.482573986053467,1.685994029045105,1.979129433631897,0.7163361310958862,1.0451319217681885
9.199583768844604,-1.2907648086547852,-2.482131242752075,1.6836923360824585,1.978301763534546,0.7154772281646729,1.0446633100509644
9.219619035720825,-1.288177251815796,-2.482780933380127,1.6834723949432373,1.9784116744995117,0.7154847383499146,1.0442471504211426
9.239707231521606,-1.2866960763931274,-2.4833645820617676,1.6842467784881592,1.9777843952178955,0.7155795693397522,1.043535590171814
9.259774208068848,-1.285857081413269,-2.4827394485473633,1.68653404712677,1.9785733222961426,0.7168576717376709,1.0427495241165161
9.279844760894775,-1.2840903997421265,-2.481229066848755,1.6862847805023193,1.9778697490692139,0.7172482013702393,1.0424724817276
9.299900531768799,-1.2797173261642456,-2.4808292388916016,1.688921570777893,1.9784406423568726,0.7186409831047058,1.0406372547149658
9.320100784301758,-1.2776544094085693,-2.479604959487915,1.689429521560669,1.9771567583084106,0.7194446325302124,1.0395530462265015
9.340195655822754,-1.2774009704589844,-2.4792983531951904,1.6888529062271118,1.9768586158752441,0.7192233800888062,1.0390561819076538
9.36029052734375,-1.2761938571929932,-2.4790267944335938,1.6880474090576172,1.9760949611663818,0.7195703983306885,1.0377668142318726
9.380463600158691,-1.2702444791793823,-2.4790523052215576,1.6896589994430542,1.9766424894332886,0.720634937286377,1.0367121696472168
9.400632619857788,-1.2703230381011963,-2.4788546562194824,1.6889376640319824,1.9761841297149658,0.7202216386795044,1.0362699031829834
9.420677661895752,-1.2670719623565674,-2.4792134761810303,1.6897921562194824,1.9765782356262207,0.720736026763916,1.035465955734253
9.440722227096558,-1.266304850578308,-2.478095054626465,1.6910276412963867,1.9764435291290283,0.721747875213623,1.0347659587860107
9.46088171005249,-1.2652525901794434,-2.47737455368042,1.6935925483703613,1.9774539470672607,0.7224370241165161,1.0343295335769653
9.480969190597534,-1.2654792070388794,-2.4765377044677734,1.6915322542190552,1.9768617153167725,0.7220103144645691,1.0341912508010864
9.50104808807373,-1.2646775245666504,-2.475720167160034,1.6919807195663452,1.9761443138122559,0.723030686378479,1.0336318016052246
9.521114110946655,-1.2620822191238403,-2.4746837615966797,1.6932470798492432,1.9766685962677002,0.723642110824585,1.0326769351959229
9.54120922088623,-1.2611916065216064,-2.4743621349334717,1.6925550699234009,1.9763953685760498,0.7229552268981934,1.0323586463928223
9.561295986175537,-1.25944185256958,-2.473803997039795,1.6923434734344482,1.9759984016418457,0.7240829467773438,1.031485676765442
9.581378936767578,-1.2559540271759033,-2.4740090370178223,1.6946771144866943,1.9762284755706787,0.7243360280990601,1.02988600730896
9.601513862609863,-1.2538708448410034,-2.4737117290496826,1.694693684577942,1.9757201671600342,0.7247980833053589,1.0292341709136963
9.621516942977905,-1.2496670484542847,-2.4726500511169434,1.6977885961532593,1.9762537479400635,0.7269343137741089,1.0277681350708008
9.641601085662842,-1.2494031190872192,-2.4714152812957764,1.698948860168457,1.9768235683441162,0.7278537750244141,1.0274593830108643
9.661673784255981,-1.2498875856399536,-2.470764398574829,1.697263240814209,1.976024866104126,0.7271066308021545,1.0272830724716187
9.681741714477539,-1.2480665445327759,-2.4714016914367676,1.696946144104004,1.976164698600769,0.7269810438156128,1.0269837379455566
9.701807737350464,-1.2436671257019043,-2.470902681350708,1.7001988887786865,1.9765198230743408,0.7292287945747375,1.0251983404159546
9.721986770629883,-1.2420958280563354,-2.4689571857452393,1.698868989944458,1.9763849973678589,0.727070152759552,1.0258957147598267
9.742086410522461,-1.2417263984680176,-2.467352867126465,1.700767993927002,1.977173924446106,0.7283865213394165,1.0254573822021484
9.762214660644531,-1.2365350723266602,-2.46743106842041,1.700972080230713,1.9763277769088745,0.7292925119400024,1.0240999460220337
9.782200574874878,-1.234706163406372,-2.466805934906006,1.703757405281067,1.974884271621704,0.7303049564361572,1.0224545001983643
9.802288293838501,-1.2332515716552734,-2.4667510986328125,1.703033685684204,1.97226083278656,0.7294024229049683,1.021038293838501
9.822370767593384,-1.229771614074707,-2.467102527618408,1.705193042755127,1.9735090732574463,0.7309654355049133,1.0194499492645264
9.842469692230225,-1.2285351753234863,-2.4659721851348877,1.7043044567108154,1.973755121231079,0.7302865982055664,1.0195550918579102
9.862501382827759,-1.2288873195648193,-2.4653091430664062,1.7030525207519531,1.973511815071106,0.7299187183380127,1.0193976163864136
9.882596492767334,-1.2290987968444824,-2.465341567993164,1.7026948928833008,1.9736497402191162,0.7295103073120117,1.0193113088607788
9.902686834335327,-1.2286577224731445,-2.4651434421539307,1.7026008367538452,1.9736692905426025,0.7297590970993042,1.0191590785980225
9.922774076461792,-1.2235404253005981,-2.4648380279541016,1.7051854133605957,1.973328709602356,0.7311735153198242,1.018039584159851
9.942845821380615,-1.219158411026001,-2.4631667137145996,1.7080374956130981,1.9741705656051636,0.7330371141433716,1.0169774293899536
9.962884902954102,-1.217781662940979,-2.4631335735321045,1.7052690982818604,1.9732557535171509,0.7326347827911377,1.016326904296875
9.982963800430298,-1.2178908586502075,-2.4631388187408447,1.7049089670181274,1.9731484651565552,0.7322378158569336,1.016215205192566
10.003063917160034,-1.2169346809387207,-2.462790012359619,1.7073447704315186,1.9734688997268677,0.7331655025482178,1.014952540397644
10.023123502731323,-1.2161414623260498,-2.4622557163238525,1.705686092376709,1.9721462726593018,0.7328926920890808,1.0141578912734985
10.04323148727417,-1.2154364585876465,-2.46121883392334,1.7054235935211182,1.9728180170059204,0.7321782112121582,1.0139671564102173
10.063317775726318,-1.212583303451538,-2.460658073425293,1.7066302299499512,1.9731602668762207,0.7332435846328735,1.0127465724945068
10.083401679992676,-1.2127065658569336,-2.4601476192474365,1.7056281566619873,1.9729220867156982,0.732475996017456,1.0131199359893799
10.103479385375977,-1.209839940071106,-2.459437370300293,1.7057400941848755,1.9720677137374878,0.7332982420921326,1.0122015476226807
10.12358570098877,-1.2054872512817383,-2.457706928253174,1.7092225551605225,1.9735097885131836,0.7357933521270752,1.0108531713485718
10.143738508224487,-1.19973623752594,-2.4562489986419678,1.7134512662887573,1.9738858938217163,0.7385836839675903,1.008880853652954
10.163812398910522,-1.2003084421157837,-2.4551546573638916,1.7126652002334595,1.9725303649902344,0.7383362054824829,1.0084683895111084
10.183882474899292,-1.2000980377197266,-2.4547088146209717,1.7121551036834717,1.9730494022369385,0.7386000156402588,1.0081439018249512
10.20394229888916,-1.1999642848968506,-2.455113172531128,1.710444688796997,1.9722872972488403,0.7377507090568542,1.0078279972076416
10.22398567199707,-1.198211908340454,-2.4562861919403076,1.7084587812423706,1.971252679824829,0.7361441850662231,1.0074726343154907
10.244067430496216,-1.1973650455474854,-2.4564876556396484,1.708796739578247,1.9710056781768799,0.7357220649719238,1.0069851875305176
10.264198303222656,-1.1923565864562988,-2.4567625522613525,1.709719181060791,1.9701805114746094,0.7357282638549805,1.0056593418121338
10.284282207489014,-1.1895955801010132,-2.4556784629821777,1.7126938104629517,1.97114896774292,0.7372320890426636,1.0041285753250122
10.304489374160767,-1.1885300874710083,-2.454343795776367,1.7164617776870728,1.9717615842819214,0.7391440272331238,1.0029690265655518
10.32460618019104,-1.186255931854248,-2.4527909755706787,1.7176841497421265,1.971570611000061,0.7404533624649048,1.002332091331482
10.344667434692383,-1.184055209159851,-2.451016902923584,1.7176777124404907,1.9710774421691895,0.7419357299804688,1.0012567043304443
10.364737033843994,-1.1823230981826782,-2.4505927562713623,1.7145799398422241,1.9702024459838867,0.7406545877456665,1.0010464191436768
10.384871482849121,-1.1807124614715576,-2.4509875774383545,1.714781641960144,1.970995545387268,0.7399930953979492,1.0008277893066406
10.40495491027832,-1.180103063583374,-2.451101303100586,1.7149972915649414,1.9706178903579712,0.740158200263977,1.0004246234893799
10.425036907196045,-1.179808259010315,-2.451371192932129,1.7139962911605835,1.9700900316238403,0.7397685050964355,0.9999542236328125
10.445117950439453,-1.1764178276062012,-2.4505364894866943,1.7161872386932373,1.9701114892959595,0.7413080930709839,0.9983935356140137
10.465176105499268,-1.1704723834991455,-2.4498705863952637,1.7202905416488647,1.9702634811401367,0.7433501482009888,0.9962931871414185
10.485262870788574,-1.1710442304611206,-2.4490418434143066,1.7192620038986206,1.9697678089141846,0.7435002326965332,0.9962064027786255
10.50536298751831,-1.1691327095031738,-2.447873592376709,1.719998836517334,1.9702305793762207,0.7444658279418945,0.99533611536026
10.525437593460083,-1.1656025648117065,-2.4478776454925537,1.720956802368164,1.970945119857788,0.7452237010002136,0.9946652054786682
10.545486450195312,-1.164594292640686,-2.445528268814087,1.7242330312728882,1.9709694385528564,0.7475571632385254,0.9937673807144165
10.565574645996094,-1.1644967794418335,-2.4450201988220215,1.7219409942626953,1.9700689315795898,0.7463935613632202,0.9939136505126953
10.585638046264648,-1.1627449989318848,-2.442972421646118,1.7247837781906128,1.970726728439331,0.7481530904769897,0.9924476146697998
10.605709552764893,-1.1622538566589355,-2.4420957565307617,1.7228550910949707,1.970557451248169,0.7477396130561829,0.9924219846725464
10.62577509880066,-1.1602811813354492,-2.439423084259033,1.7259403467178345,1.9714064598083496,0.7495517730712891,0.9918593168258667
10.645834922790527,-1.1576409339904785,-2.439115047454834,1.7265958786010742,1.9710333347320557,0.7502316236495972,0.9908627271652222
10.665999174118042,-1.156021237373352,-2.438706398010254,1.7245149612426758,1.9703325033187866,0.7502747774124146,0.9900818467140198
10.686075687408447,-1.153534173965454,-2.4399046897888184,1.7224212884902954,1.9700124263763428,0.749373197555542,0.9894985556602478
10.706157445907593,-1.1510977745056152,-2.4408822059631348,1.7229173183441162,1.969075083732605,0.7486636638641357,0.9884308576583862
10.726364612579346,-1.1504247188568115,-2.4418935775756836,1.7221523523330688,1.9678813219070435,0.7477618455886841,0.9872316122055054
10.746432065963745,-1.1472828388214111,-2.4418587684631348,1.726141333580017,1.968665599822998,0.7493546009063721,0.9858062267303467
10.766498327255249,-1.1452398300170898,-2.4401488304138184,1.7295300960540771,1.9679642915725708,0.7513988614082336,0.9846069812774658
10.786560297012329,-1.1426564455032349,-2.437537431716919,1.7315239906311035,1.9676982164382935,0.7530457973480225,0.983817458152771
10.806612014770508,-1.1407880783081055,-2.4356026649475098,1.7313573360443115,1.9676733016967773,0.7542165517807007,0.982972264289856
10.826704740524292,-1.14066481590271,-2.4356296062469482,1.7306456565856934,1.9675830602645874,0.753728985786438,0.9825623631477356
10.846805334091187,-1.1367290019989014,-2.4370665550231934,1.728857159614563,1.9669407606124878,0.7531347274780273,0.9818359613418579
10.866891145706177,-1.1346707344055176,-2.4377827644348145,1.7293792963027954,1.9669421911239624,0.7526243925094604,0.9808247089385986
10.886978387832642,-1.1329960823059082,-2.43774676322937,1.7295491695404053,1.9652552604675293,0.7529189586639404,0.9794355630874634
10.907145261764526,-1.1328692436218262,-2.4373321533203125,1.7298119068145752,1.9662010669708252,0.7529691457748413,0.9791513085365295
10.92713451385498,-1.1287879943847656,-2.4369988441467285,1.7321770191192627,1.9662730693817139,0.7545691728591919,0.9779456853866577
10.947195291519165,-1.127616286277771,-2.434122085571289,1.7355456352233887,1.9668248891830444,0.7571277022361755,0.9770799279212952
10.96724796295166,-1.1244728565216064,-2.431835651397705,1.7382563352584839,1.9677886962890625,0.7585424184799194,0.9755002856254578
10.987330436706543,-1.124585747718811,-2.43082332611084,1.73664128780365,1.9665048122406006,0.7582104206085205,0.9757726192474365
11.00740098953247,-1.119661808013916,-2.432084560394287,1.7355844974517822,1.9664894342422485,0.75770103931427,0.9749851226806641
11.027477741241455,-1.116096019744873,-2.432649850845337,1.7384834289550781,1.9650682210922241,0.7586139440536499,0.9731535315513611
11.04795241355896,-1.1154286861419678,-2.4306912422180176,1.738986611366272,1.9647223949432373,0.760041356086731,0.9728266000747681
11.068043947219849,-1.1143699884414673,-2.4300122261047363,1.7394108772277832,1.9640597105026245,0.7601936459541321,0.971656858921051
11.08812403678894,-1.112502098083496,-2.4281013011932373,1.7405157089233398,1.9644684791564941,0.7615015506744385,0.9705513715744019
11.108224630355835,-1.1106467247009277,-2.4271340370178223,1.7397079467773438,1.9643737077713013,0.7610481977462769,0.9696995615959167
11.128485441207886,-1.1101765632629395,-2.425865411758423,1.7402898073196411,1.9647220373153687,0.7617003917694092,0.9689306616783142
11.148605346679688,-1.1097781658172607,-2.4258813858032227,1.739111065864563,1.9637882709503174,0.761191725730896,0.96855229139328
11.168672561645508,-1.1088343858718872,-2.4254980087280273,1.7379920482635498,1.9646748304367065,0.7606045007705688,0.9684504270553589
11.188752174377441,-1.1066303253173828,-2.425388813018799,1.7374087572097778,1.9644219875335693,0.7606292963027954,0.9676990509033203
11.208814144134521,-1.1030125617980957,-2.426273822784424,1.7378947734832764,1.9642070531845093,0.7610083818435669,0.9668419361114502
11.228915214538574,-1.10219407081604,-2.42665958404541,1.7376739978790283,1.9640154838562012,0.7609525918960571,0.9666852951049805
11.248998880386353,-1.0979596376419067,-2.426126480102539,1.7411720752716064,1.9633365869522095,0.7629331350326538,0.9649018049240112
11.26906704902649,-1.0966761112213135,-2.4235665798187256,1.742221713066101,1.9632353782653809,0.7638883590698242,0.9637763500213623
11.289133310317993,-1.0959596633911133,-2.4235751628875732,1.7404754161834717,1.9627010822296143,0.7621667385101318,0.9627878665924072
11.309201002120972,-1.0942085981369019,-2.4238839149475098,1.7407454252243042,1.9634116888046265,0.762969970703125,0.9623045325279236
11.329285621643066,-1.093977928161621,-2.424309253692627,1.7406096458435059,1.9629912376403809,0.7622513771057129,0.9621261358261108
11.34935188293457,-1.089017629623413,-2.4229931831359863,1.7438874244689941,1.9632740020751953,0.7643225193023682,0.9610157012939453
11.369402647018433,-1.085871934890747,-2.4212231636047363,1.7452328205108643,1.9637038707733154,0.7647277116775513,0.9600354433059692
11.38948941230774,-1.0819482803344727,-2.4203433990478516,1.7456777095794678,1.9639248847961426,0.7660186290740967,0.9594982266426086
11.40955924987793,-1.0829297304153442,-2.419572353363037,1.7429218292236328,1.9628269672393799,0.7653911113739014,0.9591888785362244
11.429644346237183,-1.0813270807266235,-2.419039011001587,1.7457869052886963,1.9634323120117188,0.7671337723731995,0.9576203227043152
11.449697494506836,-1.080491065979004,-2.4172844886779785,1.7452518939971924,1.9625115394592285,0.7672739028930664,0.9573708772659302
11.469801902770996,-1.079209804534912,-2.415980100631714,1.7473232746124268,1.9632494449615479,0.768011212348938,0.9563562870025635
11.48985242843628,-1.0758832693099976,-2.415280818939209,1.7461920976638794,1.9620298147201538,0.7674776315689087,0.9547712802886963
11.50992226600647,-1.494504690170288,-2.96,2.331488609313965,-0.7869644165039062,0.4698471426963806,-0.9437114000320435
11.529974937438965,-1.4080785512924194,-2.96,2.334902763366699,-0.6908242702484131,0.4663133919239044,-0.978604793548584
11.550078630447388,-1.3970112800598145,-2.96,2.336214780807495,-0.6826893091201782,0.47235774993896484,-0.9801673293113708
11.57010793685913,-1.3940366506576538,-2.96,2.331589698791504,-0.6821767687797546,0.47119641304016113,-0.9804802536964417
11.5902578830719,-1.3899953365325928,-2.96,2.3295443058013916,-0.6812236905097961,0.473103404045105,-0.9812886714935303
11.610272407531738,-1.3807669878005981,-2.96,2.3329343795776367,-0.6778817176818848,0.4799309968948364,-0.9820981621742249
11.630336046218872,-1.3815487623214722,-2.96,2.334902286529541,-0.6772354245185852,0.4815472960472107,-0.98176109790802
11.650445222854614,-1.3758573532104492,-2.96,2.336178779602051,-0.674968421459198,0.48500698804855347,-0.981361448764801
11.670679807662964,-1.3686652183532715,-2.96,2.337754011154175,-0.6727734804153442,0.4887269139289856,-0.9808330535888672
11.690604448318481,-1.3634002208709717,-2.96,2.3380818367004395,-0.6717308163642883,0.4925144910812378,-0.9805410504341125
11.710666418075562,-1.3600776195526123,-2.96,2.335519790649414,-0.6714698076248169,0.4938916862010956,-0.9811897873878479
11.730750560760498,-1.3523930311203003,-2.96,2.3364784717559814,-0.6687610149383545,0.4977414608001709,-0.9819647669792175
11.750821828842163,-1.3478782176971436,-2.96,2.335768222808838,-0.666827380657196,0.4988722801208496,-0.9822777509689331
11.770879983901978,-1.3472797870635986,-2.96,2.333442211151123,-0.6676191687583923,0.49982544779777527,-0.9824563264846802
11.790956497192383,-1.343681812286377,-2.96,2.3359415531158447,-0.6652728319168091,0.5032806396484375,-0.9819775819778442
11.811042070388794,-1.3412158489227295,-2.96,2.3372457027435303,-0.6651050448417664,0.5060946941375732,-0.9819735288619995
11.831122398376465,-1.3356420993804932,-2.96,2.3376739025115967,-0.6629090309143066,0.5077470541000366,-0.9812142848968506
11.851187944412231,-1.329627513885498,-2.96,2.3373172283172607,-0.6613748073577881,0.51091468334198,-0.9813553690910339
11.871235847473145,-1.324450135231018,-2.96,2.3377997875213623,-0.6588261723518372,0.5134652853012085,-0.9813893437385559
11.8913254737854,-1.3169564008712769,-2.96,2.3393807411193848,-0.6561893820762634,0.518126368522644,-0.9820396900177002
11.911389827728271,-1.3113274574279785,-2.96,2.338569164276123,-0.6532188653945923,0.5203264951705933,-0.9821264147758484
11.931479692459106,-1.3070943355560303,-2.96,2.339151620864868,-0.6505604982376099,0.5239487886428833,-0.9815763235092163
11.951578378677368,-1.3011313676834106,-2.96,2.340834617614746,-0.648614764213562,0.5273302793502808,-0.9807790517807007
11.97162652015686,-1.2987194061279297,-2.96,2.3409483432769775,-0.6486623287200928,0.5289391279220581,-0.9805712699890137
11.99169921875,-1.2951691150665283,-2.96,2.33982253074646,-0.6469404101371765,0.5291886329650879,-0.9798874855041504
12.011762380599976,-1.2914175987243652,-2.96,2.3374571800231934,-0.6461477279663086,0.5312790870666504,-0.9803773164749146
12.031810283660889,-1.2873129844665527,-2.96,2.3367133140563965,-0.6445546746253967,0.533093273639679,-0.9803161025047302
12.051889657974243,-1.2845628261566162,-2.96,2.337839365005493,-0.6425191164016724,0.5340436100959778,-0.9799252152442932
12.07199764251709,-1.2770683765411377,-2.96,2.3385300636291504,-0.6403892040252686,0.538008451461792,-0.9802308082580566
12.092040538787842,-1.2734501361846924,-2.96,2.3383748531341553,-0.6381760239601135,0.5403212904930115,-0.9798740744590759
12.112118244171143,-1.2679345607757568,-2.96,2.3401036262512207,-0.635757565498352,0.5435357093811035,-0.979293704032898
12.132246494293213,-1.2610713243484497,-2.96,2.3416318893432617,-0.6326960921287537,0.5477659702301025,-0.9794567227363586
12.152340650558472,-1.253701090812683,-2.96,2.3412017822265625,-0.6310728788375854,0.550688624382019,-0.9796299934387207
12.172477960586548,-1.2509827613830566,-2.96,2.3414180278778076,-0.6302357912063599,0.5534104108810425,-0.9793251752853394
12.192537307739258,-1.2418103218078613,-2.96,2.34317684173584,-0.6264520883560181,0.5593965649604797,-0.9797281622886658
12.212561130523682,-1.2396202087402344,-2.96,2.343026638031006,-0.6257236003875732,0.5591179132461548,-0.9794061183929443
12.23268461227417,-1.2392449378967285,-2.96,2.3423662185668945,-0.6253361701965332,0.5605143308639526,-0.9787915349006653
12.252700567245483,-1.2359124422073364,-2.96,2.339977502822876,-0.6256665587425232,0.5619022846221924,-0.9790266752243042
12.272769689559937,-1.2316670417785645,-2.96,2.3396666049957275,-0.623607873916626,0.5641052722930908,-0.9787209033966064
12.292975902557373,-1.2250117063522339,-2.96,2.3397059440612793,-0.6206924915313721,0.5676102638244629,-0.9791380763053894
12.313061475753784,-1.2187457084655762,-2.96,2.3391127586364746,-0.6177167892456055,0.5698450803756714,-0.9788559675216675
12.333133697509766,-1.2156951427459717,-2.96,2.3401453495025635,-0.6176480054855347,0.57294762134552,-0.9782936573028564
12.35319972038269,-1.2068206071853638,-2.96,2.340801239013672,-0.6142199635505676,0.5774060487747192,-0.9785950183868408
12.373323678970337,-1.2025146484375,-2.96,2.3422865867614746,-0.6126510500907898,0.5804295539855957,-0.9788049459457397
12.393450736999512,-1.1961894035339355,-2.96,2.342416286468506,-0.6107305884361267,0.5850751399993896,-0.9790481328964233
12.413500308990479,-1.1931577920913696,-2.96,2.3423361778259277,-0.6099427938461304,0.5873904228210449,-0.978658139705658
12.433571100234985,-1.1851754188537598,-2.96,2.3426835536956787,-0.6075702905654907,0.5912433862686157,-0.9786057472229004
12.453876972198486,-1.1793839931488037,-2.96,2.3433890342712402,-0.6058618426322937,0.5937600135803223,-0.9788380861282349
12.473978519439697,-1.1781589984893799,-2.96,2.3423633575439453,-0.604172945022583,0.5948752164840698,-0.9782506227493286
12.494042873382568,-1.175931453704834,-2.96,2.3417062759399414,-0.6025044918060303,0.5955939292907715,-0.9772980809211731
12.514150619506836,-1.1690254211425781,-2.96,2.3409383296966553,-0.6003338098526001,0.5978485345840454,-0.9768394231796265
12.534503698348999,-1.1619126796722412,-2.96,2.3439736366271973,-0.5985211730003357,0.60265052318573,-0.9764524698257446
12.554598569869995,-1.1613655090332031,-2.96,2.3430063724517822,-0.5986270308494568,0.6033583879470825,-0.9764406681060791
12.57467269897461,-1.157329797744751,-2.96,2.3429625034332275,-0.5972076654434204,0.6071088910102844,-0.9764008522033691
12.594720602035522,-1.1511832475662231,-2.96,2.34143328666687,-0.5961515307426453,0.6091176271438599,-0.9764606952667236
12.61477780342102,-1.139254093170166,-2.96,2.343258857727051,-0.5923607349395752,0.6149996519088745,-0.9767845869064331
12.63487696647644,-1.1361759901046753,-2.96,2.3447914123535156,-0.5900981426239014,0.6188281178474426,-0.9770094752311707
12.65493893623352,-1.1287310123443604,-2.96,2.344191551208496,-0.5866146087646484,0.6223942637443542,-0.9766657948493958
12.67502236366272,-1.1232856512069702,-2.96,2.3463973999023438,-0.5847038626670837,0.6252129673957825,-0.9758403897285461
12.695619106292725,-1.1223609447479248,-2.96,2.3441176414489746,-0.586337149143219,0.6273465752601624,-0.9758538007736206
12.715728759765625,-1.1213690042495728,-2.96,2.342496871948242,-0.5866400003433228,0.6265116333961487,-0.9755836129188538
12.735792875289917,-1.1177020072937012,-2.96,2.34197998046875,-0.5850650072097778,0.6291589736938477,-0.9758309125900269
12.755873918533325,-1.1102818250656128,-2.96,2.3398499488830566,-0.5824538469314575,0.6307306289672852,-0.9756816029548645
12.776147365570068,-1.1026644706726074,-2.96,2.3435447216033936,-0.5792990922927856,0.6360774040222168,-0.9754495024681091
12.7962486743927,-1.1021668910980225,-2.96,2.3422160148620605,-0.5804248452186584,0.6360262632369995,-0.9751918315887451
12.816326141357422,-1.0964195728302002,-2.96,2.3418357372283936,-0.5792146325111389,0.6397826075553894,-0.97529536485672
12.83637261390686,-1.0849697589874268,-2.96,2.3431081771850586,-0.5755525827407837,0.6461539268493652,-0.9758268594741821
12.856529474258423,-1.0815349817276,-2.96,2.342374324798584,-0.5740214586257935,0.6482106447219849,-0.9755427837371826
12.876671314239502,-1.0794177055358887,-2.96,2.3423116207122803,-0.5738397836685181,0.6498124599456787,-0.9755512475967407
12.89671015739441,-1.0656492710113525,-2.96,2.3458476066589355,-0.5694445967674255,0.6581995487213135,-0.9758914709091187
12.916926622390747,-1.0640778541564941,-2.96,2.3443918228149414,-0.5687978267669678,0.6591044664382935,-0.9749742150306702
12.937017679214478,-1.061579704284668,-2.96,2.3453407287597656,-0.5680126547813416,0.6607990860939026,-0.9746314287185669
12.95708441734314,-1.0594632625579834,-2.96,2.3443803787231445,-0.567683219909668,0.6632181406021118,-0.9744263887405396
12.977203845977783,-1.057431697845459,-2.96,2.342543840408325,-0.5678787231445312,0.6642977595329285,-0.9739978909492493
12.9979727268219,-1.05096435546875,-2.96,2.343153953552246,-0.5657874941825867,0.6665148735046387,-0.9732787013053894
13.018062353134155,-1.0475118160247803,-2.96,2.3426272869110107,-0.5643397569656372,0.6679842472076416,-0.9731477499008179
13.038093090057373,-1.0409075021743774,-2.96,2.3429150581359863,-0.5618271231651306,0.6710714101791382,-0.9729204177856445
13.058145761489868,-1.034904956817627,-2.96,2.3443708419799805,-0.5591422319412231,0.6756418943405151,-0.9724551439285278
13.078232288360596,-1.0296356678009033,-2.96,2.3452653884887695,-0.5587412118911743,0.680068850517273,-0.9729814529418945
13.098302841186523,-1.020445704460144,-2.96,2.345736503601074,-0.5564247369766235,0.6855802536010742,-0.9731388688087463
13.11838960647583,-1.0159636735916138,-2.96,2.3481714725494385,-0.5554362535476685,0.6896472573280334,-0.9725908041000366
13.13854169845581,-1.0137228965759277,-2.96,2.3462634086608887,-0.5546466112136841,0.6911011934280396,-0.9720802903175354
13.158631563186646,-1.0138001441955566,-2.96,2.3467953205108643,-0.5555493235588074,0.6912969350814819,-0.9714995622634888
13.178704261779785,-1.0019752979278564,-2.96,2.349062919616699,-0.5513604879379272,0.6973906755447388,-0.9716638326644897
13.19874382019043,-0.9977972507476807,-2.96,2.346254825592041,-0.550439715385437,0.6978651285171509,-0.970840334892273
13.219082832336426,-0.9959312677383423,-2.96,2.347099781036377,-0.5494887828826904,0.7003718018531799,-0.9699742794036865
13.239179611206055,-0.9950472116470337,-2.96,2.3451426029205322,-0.5506174564361572,0.7016241550445557,-0.970268189907074
13.25925588607788,-0.9912752509117126,-2.96,2.3459889888763428,-0.5497602224349976,0.7038944959640503,-0.9695937633514404
13.279329299926758,-0.9853925704956055,-2.96,2.3495025634765625,-0.5479200482368469,0.7079133987426758,-0.968795657157898
13.299468278884888,-0.9803012609481812,-2.96,2.354383945465088,-0.5452784299850464,0.7134948968887329,-0.967991828918457
13.31959342956543,-0.9764479398727417,-2.96,2.3522796630859375,-0.5454748868942261,0.7146483659744263,-0.9679112434387207
13.339664459228516,-0.9702780246734619,-2.96,2.354386329650879,-0.5439378023147583,0.7207751870155334,-0.9679759740829468
13.35973334312439,-0.9615676403045654,-2.96,2.3571457862854004,-0.5406791567802429,0.7265595197677612,-0.9676326513290405
13.379794120788574,-0.9573475122451782,-2.96,2.356901168823242,-0.5382195711135864,0.72609543800354,-0.9660204648971558
13.399885177612305,-0.9513890147209167,-2.96,2.356886386871338,-0.537739634513855,0.7305407524108887,-0.9667142629623413
13.419942140579224,-0.9492931365966797,-2.96,2.3564982414245605,-0.5375381112098694,0.7325092554092407,-0.9665402173995972
13.440000534057617,-0.9428370594978333,-2.96,2.3588008880615234,-0.5355401039123535,0.7368876934051514,-0.9663217663764954
13.460049867630005,-0.9410646557807922,-2.96,2.3587114810943604,-0.5364197492599487,0.7391074895858765,-0.965674877166748
13.480142593383789,-0.9367159605026245,-2.96,2.360244035720825,-0.5356587767601013,0.7403833866119385,-0.9649595022201538
13.500199794769287,-0.9349194765090942,-2.96,2.358832836151123,-0.5362210273742676,0.7421978116035461,-0.9646623134613037
13.520272254943848,-0.9319882392883301,-2.96,2.3580222129821777,-0.534351646900177,0.7448275089263916,-0.964001476764679
13.54032301902771,-0.9274427890777588,-2.96,2.35835599899292,-0.5338817238807678,0.7487330436706543,-0.9638669490814209
13.560412645339966,-0.926347553730011,-2.96,2.3567333221435547,-0.534055233001709,0.7489537000656128,-0.9636983871459961
13.580474138259888,-0.9209234118461609,-2.96,2.3580939769744873,-0.5327922105789185,0.752650260925293,-0.9637647271156311
13.60053825378418,-0.9129844307899475,-2.96,2.3608357906341553,-0.5299452543258667,0.7579894065856934,-0.9638695120811462
13.620591402053833,-0.911699652671814,-2.96,2.3597054481506348,-0.5310239195823669,0.7588760852813721,-0.9635355472564697
13.640678405761719,-0.9111027717590332,-2.96,2.3596785068511963,-0.5310709476470947,0.7598199248313904,-0.9632904529571533
13.660743474960327,-0.9046763181686401,-2.96,2.361175537109375,-0.5292836427688599,0.7642601728439331,-0.9633368253707886
13.680851697921753,-0.9008421897888184,-2.96,2.3603086471557617,-0.5296867489814758,0.7671305537223816,-0.9632939100265503
13.700912475585938,-0.8940240144729614,-2.96,2.3624229431152344,-0.5276235938072205,0.7713437676429749,-0.9631487131118774
13.720992088317871,-0.8922111988067627,-2.96,2.361515760421753,-0.5274560451507568,0.7721679210662842,-0.9629166126251221
13.741065979003906,-0.8884752988815308,-2.96,2.3631739616394043,-0.5266284942626953,0.776098370552063,-0.9625545144081116
13.761142015457153,-0.8849174380302429,-2.96,2.3630714416503906,-0.5253787040710449,0.7773020267486572,-0.9616426229476929
13.781184196472168,-0.8824739456176758,-2.96,2.361149549484253,-0.5268373489379883,0.7791672945022583,-0.961478590965271
13.80124807357788,-0.8766636848449707,-2.96,2.3639395236968994,-0.5246373414993286,0.7850083112716675,-0.9616053104400635
13.821334600448608,-0.8734350204467773,-2.96,2.3633201122283936,-0.5245180130004883,0.785535454750061,-0.9614243507385254
13.84141206741333,-0.8679569363594055,-2.96,2.366476058959961,-0.5231572389602661,0.7907297015190125,-0.9612767696380615
13.861459016799927,-0.866273045539856,-2.96,2.365568161010742,-0.5229909420013428,0.7917671203613281,-0.9607236385345459
13.881762027740479,-0.8625631928443909,-2.96,2.3655552864074707,-0.5222529172897339,0.7945808172225952,-0.9602781534194946
13.901847839355469,-0.8608642816543579,-2.96,2.365225315093994,-0.5221440196037292,0.7945563793182373,-0.9595568776130676
13.921927452087402,-0.8563692569732666,-2.96,2.3666529655456543,-0.5207571387290955,0.7982406616210938,-0.9589678049087524
13.941962480545044,-0.852901816368103,-2.96,2.368608236312866,-0.5205651521682739,0.8008788228034973,-0.9583694934844971
13.962137222290039,-0.8470140695571899,-2.96,2.369511365890503,-0.5202650427818298,0.8057938814163208,-0.9584834575653076
13.982222318649292,-0.8439272046089172,-2.96,2.368654727935791,-0.5201238393783569,0.8068366050720215,-0.9582958817481995
14.002287864685059,-0.8432541489601135,-2.96,2.371138095855713,-0.5211696624755859,0.8106310367584229,-0.9580884575843811
14.022352457046509,-0.8358453512191772,-2.96,2.3700504302978516,-0.5195065140724182,0.8144447803497314,-0.9584786891937256
14.04317021369934,-0.827127993106842,-2.96,2.37015962600708,-0.5177261829376221,0.8197505474090576,-0.9587657451629639
14.063281297683716,-0.8269927501678467,-2.96,2.3719944953918457,-0.516913890838623,0.8194748163223267,-0.9580351710319519
14.083472490310669,-0.8250258564949036,-2.96,2.370222806930542,-0.5190047025680542,0.8206445574760437,-0.9575005173683167
14.10346794128418,-0.8220052719116211,-2.9580492973327637,2.3740594387054443,-0.5181386470794678,0.8250086903572083,-0.9570255875587463
14.123615503311157,-0.8154024481773376,-2.950570821762085,2.374307870864868,-0.5174433588981628,0.828460693359375,-0.9565925002098083
14.143697500228882,-0.8139719367027283,-2.944826126098633,2.3790135383605957,-0.5160084962844849,0.8341968655586243,-0.9569000601768494
14.163771152496338,-0.8071509599685669,-2.937603235244751,2.3828835487365723,-0.5149371027946472,0.8388099670410156,-0.9560121297836304
14.183833122253418,-0.8002972602844238,-2.928433895111084,2.3855032920837402,-0.5136342644691467,0.843531608581543,-0.9555538892745972
14.203932762145996,-0.7996739745140076,-2.918365955352783,2.3849453926086426,-0.5149548053741455,0.8452708721160889,-0.9550950527191162
14.224018812179565,-0.7984426021575928,-2.912619113922119,2.383690357208252,-0.5147563219070435,0.8480508327484131,-0.9555935859680176
14.244103908538818,-0.7964208126068115,-2.9048259258270264,2.3812897205352783,-0.5154449343681335,0.8486725687980652,-0.9555196762084961
14.264165878295898,-0.7920916080474854,-2.897134304046631,2.3805627822875977,-0.5150285959243774,0.8510947823524475,-0.9554167985916138
14.284240007400513,-0.789031982421875,-2.887025833129883,2.380936622619629,-0.5139259099960327,0.8514127731323242,-0.9542273283004761
14.304333686828613,-0.7880672216415405,-2.882127523422241,2.380812168121338,-0.5146207809448242,0.8509008884429932,-0.9536418914794922
14.32440710067749,-0.7839276790618896,-2.8748624324798584,2.3810272216796875,-0.5150057673454285,0.8545455932617188,-0.9535918235778809
14.344470739364624,-0.778762698173523,-2.8661489486694336,2.3829665184020996,-0.5151076316833496,0.8585872650146484,-0.9536271095275879
14.364603042602539,-0.7732606530189514,-2.8565731048583984,2.3851754665374756,-0.5143837928771973,0.8633574843406677,-0.9536381363868713
14.384680986404419,-0.771462082862854,-2.8531386852264404,2.384518623352051,-0.5151241421699524,0.8655880093574524,-0.9538606405258179
14.404749155044556,-0.7645449638366699,-2.8451485633850098,2.3846747875213623,-0.5142505168914795,0.8701784610748291,-0.9542677402496338
14.424824237823486,-0.7591515779495239,-2.83475661277771,2.383371591567993,-0.5134001970291138,0.873564600944519,-0.9541357755661011
14.444942235946655,-0.753092885017395,-2.828794479370117,2.3838582038879395,-0.5111480355262756,0.8792951703071594,-0.9548379778862
14.465033769607544,-0.7440069317817688,-2.8187599182128906,2.386605739593506,-0.5091785192489624,0.8818327188491821,-0.9538741111755371
14.485096216201782,-0.7415382266044617,-2.810469150543213,2.3857603073120117,-0.511646032333374,0.8843439817428589,-0.9536981582641602
14.50518012046814,-0.7404605150222778,-2.801621913909912,2.3861913681030273,-0.5119194984436035,0.8875843286514282,-0.9537622928619385
14.525325059890747,-0.7366827726364136,-2.792459011077881,2.385833263397217,-0.511703610420227,0.8903957605361938,-0.9540245532989502
14.545417547225952,-0.7327455878257751,-2.7894287109375,2.387051582336426,-0.5114691853523254,0.8914051651954651,-0.953576922416687
14.565479278564453,-0.7270983457565308,-2.77795672416687,2.3869481086730957,-0.509255051612854,0.8929117918014526,-0.9524602890014648
14.585537672042847,-0.7238975167274475,-2.769080638885498,2.388286590576172,-0.5111560821533203,0.8976940512657166,-0.952670693397522
14.60561728477478,-0.7190831303596497,-2.7608065605163574,2.3876099586486816,-0.5107501745223999,0.8999271392822266,-0.952576756477356
14.625744581222534,-0.7174615263938904,-2.756345510482788,2.385664939880371,-0.5114438533782959,0.9026979804039001,-0.9531438946723938
14.645799160003662,-0.7148247361183167,-2.7455997467041016,2.386263847351074,-0.5108135938644409,0.9057571291923523,-0.9527987837791443
14.665884017944336,-0.7095692157745361,-2.737361192703247,2.382972478866577,-0.5104104280471802,0.9073100090026855,-0.9526844024658203
14.686121463775635,-0.7087668180465698,-2.7330873012542725,2.384568452835083,-0.5113469362258911,0.9092860221862793,-0.9526872038841248
14.706171035766602,-0.7054083347320557,-2.72432804107666,2.3832831382751465,-0.5109047889709473,0.9105554819107056,-0.9526126384735107
14.726173639297485,-0.6989434957504272,-2.717564821243286,2.3827052116394043,-0.5114784836769104,0.914679229259491,-0.9532257914543152
14.746240854263306,-0.6973835825920105,-2.7127013206481934,2.381829023361206,-0.5115381479263306,0.916399359703064,-0.9535505771636963
14.766332387924194,-0.6908845901489258,-2.7039308547973633,2.3828039169311523,-0.5113465785980225,0.9213286638259888,-0.9539664387702942
14.786413431167603,-0.6875576376914978,-2.693984270095825,2.3833847045898438,-0.5121333003044128,0.9253669381141663,-0.954391360282898
14.806469678878784,-0.6831480860710144,-2.686720132827759,2.382324695587158,-0.5125108957290649,0.9269986152648926,-0.9542507529258728
14.826768636703491,-0.6743267774581909,-2.6807403564453125,2.380251884460449,-0.5102668404579163,0.9299266338348389,-0.9544239044189453
14.846884965896606,-0.6749311685562134,-2.6756036281585693,2.385852813720703,-0.509225606918335,0.9298752546310425,-0.9534716606140137
14.866949081420898,-0.667658805847168,-2.6690688133239746,2.384178400039673,-0.5091714262962341,0.932579517364502,-0.9535358548164368
14.887082576751709,-0.6669937968254089,-2.6617374420166016,2.386475086212158,-0.5106824040412903,0.9366501569747925,-0.9538124799728394
14.907137155532837,-0.663667619228363,-2.6545157432556152,2.3830718994140625,-0.5105851292610168,0.938172459602356,-0.9539403319358826
14.927215099334717,-0.6618761420249939,-2.6504812240600586,2.3828482627868652,-0.5101337432861328,0.9388151168823242,-0.9536638259887695
14.947290658950806,-0.6574801206588745,-2.643712043762207,2.3807241916656494,-0.5109764337539673,0.9423246383666992,-0.9545268416404724
14.967355489730835,-0.6525413990020752,-2.637047529220581,2.3795785903930664,-0.5106425285339355,0.9448206424713135,-0.9549584984779358
14.98751974105835,-0.6469247341156006,-2.629520893096924,2.3774964809417725,-0.5091173648834229,0.9460142850875854,-0.9547149538993835
15.007653951644897,-0.6458261013031006,-2.625339984893799,2.377295970916748,-0.5090097188949585,0.9474523067474365,-0.9548372626304626
15.027722597122192,-0.6372193694114685,-2.6188697814941406,2.3803114891052246,-0.5081920623779297,0.9532243609428406,-0.9553482532501221
15.047805786132812,-0.6355938911437988,-2.6101250648498535,2.3785324096679688,-0.5103772878646851,0.9557523727416992,-0.9558479189872742
15.067852258682251,-0.634431004524231,-2.6016533374786377,2.380558967590332,-0.51005619764328,0.9572536945343018,-0.9556726813316345
15.08800458908081,-0.6327615976333618,-2.597726345062256,2.378424882888794,-0.5113610029220581,0.9597660899162292,-0.9561727046966553
15.107993841171265,-0.6298929452896118,-2.591144561767578,2.3751447200775146,-0.5115657448768616,0.9595365524291992,-0.9563679099082947
15.128043413162231,-0.6224926710128784,-2.584958553314209,2.3723483085632324,-0.5109224319458008,0.9605026245117188,-0.9566765427589417
15.148095607757568,-0.6202739477157593,-2.5779566764831543,2.370650053024292,-0.5101665258407593,0.9615356922149658,-0.9567698836326599
15.168206453323364,-0.6190845370292664,-2.573024272918701,2.3684115409851074,-0.5113080739974976,0.9634056091308594,-0.9573075771331787
15.188281774520874,-0.6133247017860413,-2.5646743774414062,2.3648812770843506,-0.5104186534881592,0.9649606347084045,-0.9573360085487366
15.208354711532593,-0.6102700233459473,-2.5575122833251953,2.3635382652282715,-0.5115534067153931,0.9676299691200256,-0.9578295350074768
