liuyurong129/humanoid-gym/humanoid/data/target_q_20250522-040632.csv
timestamp,joint_1,joint_2,joint_3,joint_4,joint_5,joint_6
5.3882598876953125e-05,0.0,0.0,0.0,0.0,0.0,0.0
0.020138025283813477,0.0,0.0,0.0,0.0,0.0,0.0
0.04021310806274414,0.0,0.0,0.0,0.0,0.0,0.0
0.060294389724731445,0.0,0.0,0.0,0.0,0.0,0.0
0.08036398887634277,0.0,0.0,0.0,0.0,0.0,0.0
0.10042428970336914,0.060187701135873795,-0.8644127249717712,0.8352475762367249,-0.07353811711072922,-0.13904361426830292,-0.43994301557540894
0.12059211730957031,0.05914175137877464,-0.8675363063812256,0.8365954756736755,-0.07201093435287476,-0.1387205570936203,-0.4401267468929291
0.14061498641967773,0.05712518468499184,-0.8740547299385071,0.8384579420089722,-0.06898263096809387,-0.13836029171943665,-0.440358966588974
0.1609201431274414,0.05505436286330223,-0.8802410960197449,0.8407551050186157,-0.06606484949588776,-0.1378278285264969,-0.44074109196662903
0.1810293197631836,0.05421510338783264,-0.8834208250045776,0.8417965769767761,-0.06465165317058563,-0.13765260577201843,-0.44086310267448425
0.20117568969726562,0.052413467317819595,-0.8893545866012573,0.8446263074874878,-0.06191243231296539,-0.13714182376861572,-0.44125938415527344
0.22122931480407715,0.0515546053647995,-0.8919623494148254,0.8467260599136353,-0.06062192842364311,-0.13671867549419403,-0.44155675172805786
0.2413780689239502,0.04988628998398781,-0.8976859450340271,0.8496794700622559,-0.0580739788711071,-0.13621215522289276,-0.4420090317726135
0.26138806343078613,0.04817550256848335,-0.9032620787620544,0.8528419733047485,-0.055594317615032196,-0.13575954735279083,-0.44249001145362854
0.28153061866760254,0.04741234332323074,-0.9061947464942932,0.8540953993797302,-0.05436943843960762,-0.1355973184108734,-0.44268515706062317
0.3016176223754883,0.04590315744280815,-0.9114301204681396,0.8580058217048645,-0.052050404250621796,-0.13515758514404297,-0.44319286942481995
0.3221876621246338,0.04445065185427666,-0.9162445664405823,0.8623368740081787,-0.04991849511861801,-0.13458378612995148,-0.4438139796257019
0.34230804443359375,0.04341845214366913,-0.9185326099395752,0.8647497296333313,-0.048869337886571884,-0.13434253633022308,-0.4441952705383301
0.36235499382019043,0.041624683886766434,-0.9235252141952515,0.8683793544769287,-0.04675733670592308,-0.1340164840221405,-0.44487011432647705
0.38254880905151367,0.040756456553936005,-0.9263182878494263,0.8692517876625061,-0.04574985429644585,-0.13391241431236267,-0.44516870379447937
0.40264296531677246,0.03922395035624504,-0.931215226650238,0.8726058006286621,-0.04375644028186798,-0.13370852172374725,-0.44585591554641724
0.4227275848388672,0.03761866316199303,-0.9358486533164978,0.8761664032936096,-0.04189634695649147,-0.1334436535835266,-0.44662177562713623
0.44286465644836426,0.03703548014163971,-0.9376142024993896,0.879007875919342,-0.04104252904653549,-0.13312560319900513,-0.4470840394496918
0.4629232883453369,0.03581836447119713,-0.9421222805976868,0.8831776976585388,-0.03929269313812256,-0.1329568475484848,-0.4478279948234558
0.4830622673034668,0.034610215574502945,-0.9465519785881042,0.8870283365249634,-0.03764218091964722,-0.13274553418159485,-0.4486522972583771
0.5031759738922119,0.03391456976532936,-0.9490392208099365,0.8882750272750854,-0.036822687834501266,-0.13282938301563263,-0.44902268052101135
0.5232598781585693,0.032696183770895004,-0.953382134437561,0.8921353816986084,-0.035251107066869736,-0.1328708976507187,-0.4498419761657715
0.5433330535888672,0.03216109797358513,-0.9551151990890503,0.8948864936828613,-0.034539707005023956,-0.13276326656341553,-0.45031747221946716
0.56343674659729,0.030831148847937584,-0.9591063261032104,0.8987870216369629,-0.033116839826107025,-0.1327880620956421,-0.4512513279914856
0.5838453769683838,0.029705489054322243,-0.9630034565925598,0.9026636481285095,-0.031813956797122955,-0.13276688754558563,-0.45220863819122314
0.6039538383483887,0.028912290930747986,-0.9653823375701904,0.9034625291824341,-0.03115430288016796,-0.1329735666513443,-0.45266735553741455
0.6240460872650146,0.027713654562830925,-0.969257116317749,0.9070040583610535,-0.029984738677740097,-0.13320676982402802,-0.45364105701446533
0.6441853046417236,0.02742411196231842,-0.9708731770515442,0.909792423248291,-0.029451115056872368,-0.13323654234409332,-0.45413339138031006
0.6643128395080566,0.026150250807404518,-0.9748508930206299,0.9127914905548096,-0.028397534042596817,-0.13355451822280884,-0.45516929030418396
0.6852436065673828,0.025047972798347473,-0.9784330129623413,0.916287899017334,-0.027449216693639755,-0.13380217552185059,-0.4562644362449646
0.705322265625,0.02429397590458393,-0.9806138277053833,0.9170051217079163,-0.02698853611946106,-0.13405676186084747,-0.4568125605583191
0.7253811359405518,0.02300342731177807,-0.9839575886726379,0.9203207492828369,-0.0262505654245615,-0.13438475131988525,-0.45803436636924744
0.7455027103424072,0.022720661014318466,-0.984979510307312,0.9234161972999573,-0.025921696797013283,-0.13444921374320984,-0.4586578607559204
0.7656216621398926,0.021334365010261536,-0.9884528517723083,0.9262622594833374,-0.02521475777029991,-0.1350022703409195,-0.45991361141204834
0.785696268081665,0.019908757880330086,-0.9918063879013062,0.9291203618049622,-0.02466965839266777,-0.13557647168636322,-0.461274117231369
0.8057899475097656,0.019001709297299385,-0.9937760829925537,0.9296876788139343,-0.024443721398711205,-0.1359793096780777,-0.4619745910167694
0.8259377479553223,0.017319800332188606,-0.9971929788589478,0.9316800236701965,-0.02416379190981388,-0.1366342157125473,-0.46347227692604065
0.8459880352020264,0.016737639904022217,-0.9983563423156738,0.933746337890625,-0.024076571688055992,-0.13682760298252106,-0.46424660086631775
0.8661854267120361,0.014877038076519966,-1.0012950897216797,0.9357485771179199,-0.024037355557084084,-0.1374157816171646,-0.46589216589927673
0.8862442970275879,0.012991624884307384,-1.0042533874511719,0.9375385642051697,-0.02411559224128723,-0.13813382387161255,-0.46757611632347107
0.9063417911529541,0.012022295966744423,-1.005942463874817,0.9377429485321045,-0.024267153814435005,-0.13835075497627258,-0.4684811234474182
0.9264214038848877,0.011041021905839443,-1.00871741771698,0.940610408782959,-0.024401305243372917,-0.13907171785831451,-0.4701305031776428
0.9465305805206299,0.010566212236881256,-1.009814739227295,0.9423441290855408,-0.024534741416573524,-0.1393619328737259,-0.4710032045841217
0.9666125774383545,0.009678438305854797,-1.012002944946289,0.9455310702323914,-0.024922188371419907,-0.1399916410446167,-0.4727412164211273
0.9868309497833252,0.008668637834489346,-1.0140454769134521,0.9485170245170593,-0.02540375106036663,-0.14076389372348785,-0.4745365083217621
1.0069308280944824,0.008015320636332035,-1.015339970588684,0.9494688510894775,-0.025685079395771027,-0.14122465252876282,-0.47548311948776245
1.0270485877990723,0.007321442011743784,-1.0172818899154663,0.9527636766433716,-0.026331089437007904,-0.14202919602394104,-0.4773380160331726
1.047126293182373,0.007184414193034172,-1.0179336071014404,0.9549752473831177,-0.026669412851333618,-0.14240002632141113,-0.47824111580848694
1.0672218799591064,0.006507735699415207,-1.0193678140640259,0.9584877490997314,-0.027510343119502068,-0.14326636493206024,-0.4801420271396637
1.0874717235565186,0.0060686515644192696,-1.0207147598266602,0.962417721748352,-0.02827567420899868,-0.14435280859470367,-0.4819897413253784
1.107536792755127,0.0061152721755206585,-1.0214412212371826,0.9644826650619507,-0.028729530051350594,-0.14474952220916748,-0.48291128873825073
1.1276161670684814,0.006340625695884228,-1.022382378578186,0.9691894054412842,-0.029678916558623314,-0.1456986963748932,-0.4847368001937866
1.1477346420288086,0.006800512783229351,-1.022441029548645,0.9722528457641602,-0.030175646767020226,-0.14614787697792053,-0.4855968654155731
1.1678040027618408,0.007620193064212799,-1.02264404296875,0.9780848622322083,-0.03119313344359398,-0.14718486368656158,-0.48733270168304443
1.1882596015930176,0.008911961689591408,-1.0224870443344116,0.9847351908683777,-0.03221236169338226,-0.14820584654808044,-0.4890064597129822
1.2084412574768066,0.00962298084050417,-1.0223560333251953,0.9881029725074768,-0.03273962810635567,-0.14868858456611633,-0.48983046412467957
1.228468418121338,0.011156846769154072,-1.0220921039581299,0.9952405095100403,-0.03367912396788597,-0.14995594322681427,-0.4913850426673889
1.2485251426696777,0.01193300075829029,-1.0219175815582275,0.998830258846283,-0.034166064113378525,-0.1505991816520691,-0.4921446144580841
1.2686347961425781,0.01379438303411007,-1.0215517282485962,1.0063022375106812,-0.03519738093018532,-0.1515752524137497,-0.493617981672287
1.2888214588165283,0.01591854728758335,-1.021146297454834,1.0143271684646606,-0.03618047013878822,-0.15251019597053528,-0.49495843052864075
1.3089165687561035,0.0169546976685524,-1.0210702419281006,1.0183359384536743,-0.0366520993411541,-0.15285788476467133,-0.49554741382598877
1.329075574874878,0.018888212740421295,-1.020860195159912,1.0261588096618652,-0.03761140629649162,-0.15369153022766113,-0.49670153856277466
1.3491687774658203,0.020517434924840927,-1.0207598209381104,1.0331370830535889,-0.038841769099235535,-0.1541191041469574,-0.4977039694786072
1.3692994117736816,0.021167943254113197,-1.0206784009933472,1.036082148551941,-0.03958633914589882,-0.15416193008422852,-0.4981420338153839
1.3893709182739258,0.02199566178023815,-1.0205252170562744,1.0408692359924316,-0.041236668825149536,-0.15422818064689636,-0.4990684688091278
1.409461498260498,0.022180816158652306,-1.0204209089279175,1.042583703994751,-0.042120154947042465,-0.15418289601802826,-0.49955159425735474
1.4295330047607422,0.022077295929193497,-1.020169734954834,1.0448025465011597,-0.044010382145643234,-0.15411005914211273,-0.5005900859832764
1.4496593475341797,0.021940156817436218,-1.0199978351593018,1.0454727411270142,-0.04500056803226471,-0.1540137529373169,-0.5011031031608582
1.4697661399841309,0.02164522372186184,-1.0196353197097778,1.046633005142212,-0.047024935483932495,-0.15382207930088043,-0.5021989345550537
1.489818811416626,0.021208006888628006,-1.0192571878433228,1.0471751689910889,-0.049045003950595856,-0.15366113185882568,-0.503345251083374
1.509896993637085,0.02097376435995102,-1.018994927406311,1.047078013420105,-0.0501520037651062,-0.15337833762168884,-0.5039176344871521
1.5300705432891846,0.02024710550904274,-1.0185306072235107,1.0463156700134277,-0.05225845053792,-0.15303461253643036,-0.505145788192749
1.5500948429107666,0.01931336335837841,-1.0180797576904297,1.0448503494262695,-0.054379504173994064,-0.1527194231748581,-0.5064613223075867
1.5702192783355713,0.018686717376112938,-1.0178638696670532,1.043619990348816,-0.05548154562711716,-0.15255068242549896,-0.5071442723274231
1.5902621746063232,0.017670923843979836,-1.017448902130127,1.041340947151184,-0.05753635987639427,-0.15211264789104462,-0.5086168646812439
1.6103217601776123,0.015962479636073112,-1.0170373916625977,1.0372180938720703,-0.05983888730406761,-0.15166616439819336,-0.5101302862167358
1.6304454803466797,0.015082602389156818,-1.0168401002883911,1.0349699258804321,-0.06097124516963959,-0.15140432119369507,-0.5109263062477112
1.6505463123321533,0.01308546680957079,-1.0164872407913208,1.0297054052352905,-0.06317780911922455,-0.1509147584438324,-0.5125952363014221
1.6708078384399414,0.012304858304560184,-1.016294240951538,1.027307391166687,-0.06422131508588791,-0.1505577564239502,-0.5134947299957275
1.6909294128417969,0.011034351773560047,-1.0159566402435303,1.0229840278625488,-0.06597241014242172,-0.14993393421173096,-0.5154392719268799
1.7110188007354736,0.00989810936152935,-1.0155900716781616,1.0185669660568237,-0.06762238591909409,-0.14916537702083588,-0.5175200700759888
1.7310702800750732,0.009707869961857796,-1.0154109001159668,1.0169658660888672,-0.06828642636537552,-0.1486690193414688,-0.5186431407928467
1.751197338104248,0.009792260825634003,-1.0151818990707397,1.0149462223052979,-0.06910065561532974,-0.1479514241218567,-0.5210704803466797
1.7712655067443848,0.01010632049292326,-1.0150620937347412,1.0144537687301636,-0.06943101435899734,-0.1475352793931961,-0.5223586559295654
1.7913875579833984,0.010958937928080559,-1.0148098468780518,1.0140209197998047,-0.06987469643354416,-0.1468779295682907,-0.5250083804130554
1.8114192485809326,0.012017900124192238,-1.0144532918930054,1.0141208171844482,-0.07024399936199188,-0.14629480242729187,-0.5277202129364014
1.8315093517303467,0.012589695863425732,-1.0142273902893066,1.0143020153045654,-0.0704178661108017,-0.1459854543209076,-0.5291076302528381
1.8516499996185303,0.013664825819432735,-1.013679027557373,1.01451575756073,-0.07075817883014679,-0.14532506465911865,-0.5319112539291382
1.8717865943908691,0.014436271041631699,-1.0130672454833984,1.0143141746520996,-0.07101212441921234,-0.14483805000782013,-0.534794270992279
1.8919146060943604,0.014757690019905567,-1.0127168893814087,1.013929009437561,-0.07116147130727768,-0.14452598989009857,-0.5362630486488342
1.9119367599487305,0.015113168396055698,-1.0119237899780273,1.013056993484497,-0.0715150311589241,-0.1441350132226944,-0.5392370223999023
1.9320018291473389,0.015382163226604462,-1.0114808082580566,1.0124566555023193,-0.07169464230537415,-0.1437506079673767,-0.540757954120636
1.9521667957305908,0.015761468559503555,-1.0105396509170532,1.011271595954895,-0.0719989687204361,-0.14319713413715363,-0.5438397526741028
1.9726130962371826,0.016198696568608284,-1.009545087814331,1.009975552558899,-0.07227232307195663,-0.14260801672935486,-0.5469796657562256
1.9927105903625488,0.016488220542669296,-1.0090066194534302,1.0093762874603271,-0.0724460631608963,-0.14227668941020966,-0.5485742092132568
2.0128173828125,0.017157122492790222,-1.00784170627594,1.0081173181533813,-0.07281406968832016,-0.14137887954711914,-0.5517604351043701
2.032935380935669,0.017412865534424782,-1.0072277784347534,1.007310390472412,-0.07299179583787918,-0.14087314903736115,-0.5533706545829773
2.053036689758301,0.01797345280647278,-1.0059610605239868,1.0057049989700317,-0.07337892800569534,-0.13988298177719116,-0.5566193461418152
2.0731518268585205,0.018441813066601753,-1.0047014951705933,1.0038093328475952,-0.07374082505702972,-0.13897259533405304,-0.5598641037940979
2.093205213546753,0.018557233735919,-1.0040678977966309,1.0027756690979004,-0.07390732318162918,-0.1386183202266693,-0.5614880919456482
2.113306999206543,0.018902253359556198,-1.0027761459350586,1.0007833242416382,-0.07417453825473785,-0.1378488540649414,-0.5647495985031128
2.1334421634674072,0.01907849870622158,-1.0021488666534424,0.9997578263282776,-0.07429700344800949,-0.1375354677438736,-0.5663688778877258
2.1535866260528564,0.019455265253782272,-1.0008379220962524,0.9978497624397278,-0.07462253421545029,-0.13684259355068207,-0.5696098804473877
2.173625946044922,0.019841715693473816,-0.9995021820068359,0.995822012424469,-0.07486950606107712,-0.13602684438228607,-0.5728516578674316
2.193713903427124,0.01997889019548893,-0.9988301992416382,0.9947140216827393,-0.07501459866762161,-0.1356264352798462,-0.5744764804840088
2.213808536529541,0.02034766413271427,-0.9974233508110046,0.992697536945343,-0.07537735253572464,-0.13473588228225708,-0.5777192711830139
2.2338812351226807,0.02051038108766079,-0.9967321753501892,0.9914989471435547,-0.07551926374435425,-0.13425175845623016,-0.5793213844299316
2.2539801597595215,0.020881114527583122,-0.9953327775001526,0.9893054366111755,-0.07578900456428528,-0.13332423567771912,-0.582535982131958
2.2741003036499023,0.021071797236800194,-0.9946513175964355,0.988248884677887,-0.07589096575975418,-0.13291695713996887,-0.5841500759124756
2.2942323684692383,0.02144939824938774,-0.993284285068512,0.9860706329345703,-0.07599958777427673,-0.1320650428533554,-0.5873763561248779
2.314274311065674,0.021577954292297363,-0.9925838112831116,0.9850816130638123,-0.07608886808156967,-0.1317254900932312,-0.5889831185340881
2.3344199657440186,0.02191254496574402,-0.9911772012710571,0.9830297827720642,-0.07628457993268967,-0.1309237778186798,-0.5921809673309326
2.3547158241271973,0.022322654724121094,-0.9898311495780945,0.9810136556625366,-0.07637879997491837,-0.13016536831855774,-0.595352053642273
2.37481689453125,0.022514402866363525,-0.9891468286514282,0.9799920916557312,-0.07639894634485245,-0.129752054810524,-0.5969222784042358
2.3949015140533447,0.022933214902877808,-0.9877729415893555,0.9778810739517212,-0.07641327381134033,-0.12883993983268738,-0.6000257134437561
2.4150142669677734,0.02306842990219593,-0.9870814681053162,0.9766572713851929,-0.07644907385110855,-0.1283382624387741,-0.6015679836273193
2.4350621700286865,0.023377757519483566,-0.9856769442558289,0.9744558930397034,-0.07652278989553452,-0.1273820996284485,-0.6046562194824219
2.455143451690674,0.023709654808044434,-0.9842932224273682,0.9722760915756226,-0.07658155262470245,-0.1264437735080719,-0.607729434967041
2.475231885910034,0.02384972758591175,-0.9836004972457886,0.9711777567863464,-0.07657553255558014,-0.12598168849945068,-0.609254002571106
2.495332717895508,0.024061765521764755,-0.9822905659675598,0.9689740538597107,-0.07649429887533188,-0.12529833614826202,-0.61228346824646
2.5153896808624268,0.0241386778652668,-0.9816346168518066,0.9678053855895996,-0.07646984606981277,-0.12492764741182327,-0.6137771010398865
2.535517454147339,0.024379916489124298,-0.9803250432014465,0.9655972719192505,-0.07638455927371979,-0.12409331649541855,-0.6167858839035034
2.555633783340454,0.0246267206966877,-0.9790291786193848,0.9635116457939148,-0.07630489021539688,-0.12328767031431198,-0.6197947859764099
2.5756995677948,0.02471308782696724,-0.9783613681793213,0.9623779058456421,-0.07629157602787018,-0.12278971076011658,-0.621281623840332
2.595841646194458,0.02500481903553009,-0.9770341515541077,0.9602235555648804,-0.07611940801143646,-0.12179261445999146,-0.624234676361084
2.6160995960235596,0.025197764858603477,-0.9757415652275085,0.9579173922538757,-0.07599738240242004,-0.12084391713142395,-0.6271933317184448
2.636237859725952,0.025240376591682434,-0.9750963449478149,0.9568120241165161,-0.07592862844467163,-0.12044281512498856,-0.628660261631012
2.656278610229492,0.02540372684597969,-0.9737973809242249,0.9545919895172119,-0.07570558041334152,-0.11952963471412659,-0.6315772533416748
2.676347255706787,0.025510599836707115,-0.9731608033180237,0.9534997940063477,-0.07559625804424286,-0.11910733580589294,-0.6330109238624573
2.696436882019043,0.025589166209101677,-0.9719457030296326,0.9512059092521667,-0.07535344362258911,-0.11836603283882141,-0.6358515024185181
2.7165138721466064,0.02564048394560814,-0.9706729650497437,0.9488305449485779,-0.07513584941625595,-0.11739026755094528,-0.6386730074882507
2.7365808486938477,0.025736797600984573,-0.9700770974159241,0.9478219151496887,-0.07498601824045181,-0.11703810840845108,-0.6400830745697021
2.7567191123962402,0.025883417576551437,-0.9688928723335266,0.9456325173377991,-0.0746692642569542,-0.11621656268835068,-0.6428554058074951
2.776759624481201,0.02606264501810074,-0.967705249786377,0.9435669183731079,-0.07428530603647232,-0.11534702777862549,-0.645589292049408
2.796837091445923,0.026200441643595695,-0.9670920968055725,0.9425937533378601,-0.07406704872846603,-0.11483393609523773,-0.64695805311203
2.8169333934783936,0.026393139734864235,-0.9658812880516052,0.9405132532119751,-0.07364159822463989,-0.11383208632469177,-0.6496711373329163
2.83717942237854,0.02658933959901333,-0.9646912813186646,0.9384753108024597,-0.073215052485466,-0.11283352226018906,-0.6524122953414917
2.857271671295166,0.02670152485370636,-0.9640814661979675,0.9374657869338989,-0.07298662513494492,-0.11230392009019852,-0.6537603735923767
2.877347707748413,0.026827426627278328,-0.9629330039024353,0.935282826423645,-0.07253233343362808,-0.11137708276510239,-0.6564509272575378
2.8976969718933105,0.02701355144381523,-0.961768388748169,0.9331822991371155,-0.07205960154533386,-0.11036740243434906,-0.6590663194656372
2.9177937507629395,0.027112092822790146,-0.9612058401107788,0.9322044253349304,-0.07180620729923248,-0.10990814864635468,-0.6603760719299316
2.937854290008545,0.027096709236502647,-0.9600955247879028,0.9300606846809387,-0.0713241696357727,-0.10904152691364288,-0.6629932522773743
2.9580702781677246,0.027165057137608528,-0.9595258235931396,0.9291099309921265,-0.07105911523103714,-0.10855839401483536,-0.6643000245094299
2.978071928024292,0.027413010597229004,-0.9584125280380249,0.9274669289588928,-0.07045291364192963,-0.10772980749607086,-0.6668494939804077
2.998168706893921,0.02737988717854023,-0.9573756456375122,0.925390899181366,-0.0698612779378891,-0.10697009414434433,-0.6693648099899292
3.018265724182129,0.027348028495907784,-0.9568578600883484,0.9244261384010315,-0.06957580149173737,-0.10661265254020691,-0.6706278324127197
3.038341522216797,0.02729693055152893,-0.9558438062667847,0.9223558902740479,-0.06894031912088394,-0.10577946901321411,-0.6731664538383484
3.0584945678710938,0.027167173102498055,-0.9553332924842834,0.9211779236793518,-0.06868402659893036,-0.1053704023361206,-0.6744018197059631
3.0785388946533203,0.027052300050854683,-0.9543118476867676,0.9188994765281677,-0.06812477111816406,-0.10442741960287094,-0.6768370866775513
3.098583698272705,0.027028566226363182,-0.9532608389854431,0.9167583584785461,-0.0674804225564003,-0.1034502312541008,-0.6791727542877197
3.118694543838501,0.02695065177977085,-0.9527760744094849,0.9155865907669067,-0.06716020405292511,-0.10297337174415588,-0.6803905367851257
3.138777494430542,0.026990629732608795,-0.9517819285392761,0.9136106371879578,-0.06652389466762543,-0.10198482871055603,-0.6828247904777527
3.1588659286499023,0.027068879455327988,-0.951288640499115,0.9127747416496277,-0.06615444272756577,-0.10151291638612747,-0.684033989906311
3.178959608078003,0.027269093319773674,-0.9502690434455872,0.9111778736114502,-0.06545111536979675,-0.10049927234649658,-0.6863918900489807
3.1991183757781982,0.02762823924422264,-0.9492042064666748,0.9098711609840393,-0.06464917212724686,-0.09939470887184143,-0.688705563545227
3.2191362380981445,0.027783991768956184,-0.9486825466156006,0.9092661142349243,-0.06425634026527405,-0.09891249984502792,-0.6898532509803772
3.2392070293426514,0.02777881734073162,-0.9477284550666809,0.9074771404266357,-0.06354201585054398,-0.09802190214395523,-0.6921680569648743
3.2593235969543457,0.02772344835102558,-0.947260856628418,0.9066014289855957,-0.06321047246456146,-0.09759865701198578,-0.693345844745636
3.279337167739868,0.027525564655661583,-0.9463350176811218,0.9044749140739441,-0.06250347197055817,-0.0966232419013977,-0.6956768035888672
3.2994260787963867,0.027311723679304123,-0.94588303565979,0.9031283855438232,-0.06219439208507538,-0.09609638154506683,-0.6968092322349548
3.3195314407348633,0.027064139023423195,-0.9449727535247803,0.9007591009140015,-0.06142670661211014,-0.09505091607570648,-0.6990815997123718
3.3401126861572266,0.026961704716086388,-0.9440536499023438,0.8987089395523071,-0.0606083981692791,-0.09402290731668472,-0.7013562321662903
3.360210418701172,0.027002474293112755,-0.943570613861084,0.8978354930877686,-0.06018822640180588,-0.09345352649688721,-0.7024874687194824
3.3802809715270996,0.02719251997768879,-0.9426068663597107,0.8963983654975891,-0.05930867791175842,-0.09240095317363739,-0.7047155499458313
3.4003918170928955,0.02735210582613945,-0.9421133995056152,0.8958386182785034,-0.05882168188691139,-0.09189090132713318,-0.7058053016662598
3.4205379486083984,0.027698466554284096,-0.9411268830299377,0.8947678804397583,-0.05788716673851013,-0.09083329141139984,-0.7079741358757019
3.44059157371521,0.02793295681476593,-0.9401828050613403,0.8935582041740417,-0.056959010660648346,-0.0898018628358841,-0.710115909576416
3.4606595039367676,0.027979394420981407,-0.9397237300872803,0.8929613828659058,-0.05652832239866257,-0.0893455445766449,-0.7111813426017761
3.480782985687256,0.02787325344979763,-0.9388594031333923,0.8913307785987854,-0.055629245936870575,-0.08842498064041138,-0.7133002281188965
3.5008316040039062,0.027591191232204437,-0.9380178451538086,0.8892775177955627,-0.05478329584002495,-0.08737514913082123,-0.7154110074043274
3.5209295749664307,0.027416188269853592,-0.9375981092453003,0.888163149356842,-0.05440067872405052,-0.0868317261338234,-0.7164440155029297
3.5410044193267822,0.02709529548883438,-0.9368168115615845,0.8861809372901917,-0.053489334881305695,-0.08595187216997147,-0.718536913394928
3.5611114501953125,0.026667675003409386,-0.936029851436615,0.8838359117507935,-0.052585020661354065,-0.08489967882633209,-0.7205814719200134
3.5812413692474365,0.02656656689941883,-0.9356281757354736,0.8828845620155334,-0.05207540839910507,-0.08439040929079056,-0.7216061353683472
3.601496934890747,0.026556963101029396,-0.9347878098487854,0.8814170956611633,-0.05102725699543953,-0.08334460109472275,-0.723651647567749
3.6217057704925537,0.026533076539635658,-0.9339646697044373,0.8800126314163208,-0.05002916231751442,-0.08234573900699615,-0.7256715893745422
3.6418044567108154,0.02645675651729107,-0.9335657954216003,0.8792684674263,-0.049537017941474915,-0.08185518532991409,-0.7266964316368103
3.6618809700012207,0.026450958102941513,-0.9327178597450256,0.8778307437896729,-0.04844769462943077,-0.08070861548185349,-0.7286775708198547
3.681962251663208,0.026386963203549385,-0.9323194622993469,0.8770434260368347,-0.047901131212711334,-0.08020376414060593,-0.7296613454818726
3.70202898979187,0.02629529871046543,-0.9315105080604553,0.8754905462265015,-0.04690712317824364,-0.07907045632600784,-0.7316601872444153
3.7220945358276367,0.026193756610155106,-0.9307425618171692,0.8740543723106384,-0.04589380323886871,-0.07804381102323532,-0.7336551547050476
3.742187023162842,0.026080051437020302,-0.9303893446922302,0.8731972575187683,-0.0453181155025959,-0.07756319642066956,-0.7346315979957581
3.7622601985931396,0.025778695940971375,-0.9296854734420776,0.8714991211891174,-0.04419569671154022,-0.07663960009813309,-0.7365366220474243
3.7823026180267334,0.025660399347543716,-0.9289358854293823,0.8701403737068176,-0.0430334210395813,-0.07564599812030792,-0.7383949756622314
3.8024208545684814,0.02551562897861004,-0.9286052584648132,0.8694067597389221,-0.04243135079741478,-0.07528358697891235,-0.739310622215271
3.8225109577178955,0.02531019225716591,-0.9279063940048218,0.867989718914032,-0.04135097563266754,-0.07432401180267334,-0.7411741614341736
3.842617988586426,0.02502281591296196,-0.927262544631958,0.866646409034729,-0.04016774147748947,-0.07351275533437729,-0.7430422902107239
3.862658739089966,0.024820392951369286,-0.9269692897796631,0.8658875226974487,-0.03954995423555374,-0.07314398884773254,-0.7439707517623901
3.882763624191284,0.02454766072332859,-0.9263089299201965,0.8643582463264465,-0.03840695694088936,-0.07207996398210526,-0.7457917332649231
3.9030301570892334,0.02425321936607361,-0.9256589412689209,0.8626946210861206,-0.03735104948282242,-0.0708957314491272,-0.7476106882095337
3.923068046569824,0.024124307557940483,-0.9253396987915039,0.861868143081665,-0.03672749921679497,-0.07030946761369705,-0.7485178112983704
3.9432036876678467,0.023882467299699783,-0.9246935248374939,0.8602651953697205,-0.035557277500629425,-0.06911806762218475,-0.7503046989440918
3.9632298946380615,0.02376089245080948,-0.9240301847457886,0.858744204044342,-0.03440135717391968,-0.06777288019657135,-0.7520684003829956
3.9833643436431885,0.02364383265376091,-0.9237217307090759,0.8579486608505249,-0.03376516327261925,-0.06719737499952316,-0.7529506087303162
4.003441095352173,0.023478202521800995,-0.9230471849441528,0.8565243482589722,-0.032512858510017395,-0.06593118607997894,-0.7547191381454468
4.023514986038208,0.023384932428598404,-0.922709584236145,0.8558034300804138,-0.03193129971623421,-0.06528831273317337,-0.7555995583534241
4.043655633926392,0.023252541199326515,-0.9220550656318665,0.8545743823051453,-0.030711118131875992,-0.06408923864364624,-0.7573683857917786
4.0639777183532715,0.022919705137610435,-0.9214485287666321,0.8530541658401489,-0.02950565703213215,-0.06298144161701202,-0.7590767741203308
4.084069728851318,0.0227336622774601,-0.9211647510528564,0.8523283004760742,-0.028832485899329185,-0.06250263005495071,-0.7599272727966309
4.104175806045532,0.02246982790529728,-0.9205613136291504,0.8510668277740479,-0.027554979547858238,-0.06144413724541664,-0.7616373300552368
4.124499797821045,0.02215903252363205,-0.920005202293396,0.8498495817184448,-0.026310650631785393,-0.060481954365968704,-0.7633514404296875
4.144661903381348,0.02205895446240902,-0.9197261929512024,0.8492494821548462,-0.02563980035483837,-0.05992636829614639,-0.7641947269439697
4.1647539138793945,0.02183157205581665,-0.9191665649414062,0.8479548096656799,-0.024323608726263046,-0.05873178318142891,-0.765836775302887
4.184803485870361,0.021652458235621452,-0.9189042448997498,0.8472307324409485,-0.02368760108947754,-0.05815204232931137,-0.7666593790054321
4.204958200454712,0.021354159340262413,-0.9183471202850342,0.8458411693572998,-0.022358719259500504,-0.056911565363407135,-0.7682912349700928
4.225093364715576,0.02112562395632267,-0.9178076982498169,0.8444162011146545,-0.02094738371670246,-0.05561065673828125,-0.7699426412582397
4.245267868041992,0.02095804177224636,-0.9175393581390381,0.8436692953109741,-0.0202884953469038,-0.05497961491346359,-0.7707546949386597
4.265295505523682,0.020715080201625824,-0.9169676899909973,0.842402994632721,-0.018981849774718285,-0.053717486560344696,-0.7723366022109985
4.2856385707855225,0.020574508234858513,-0.9166731238365173,0.8418627977371216,-0.018379798159003258,-0.053096674382686615,-0.7731419205665588
4.3057615756988525,0.020489033311605453,-0.91607666015625,0.8409876227378845,-0.01699643023312092,-0.05183416232466698,-0.77472984790802
4.325840711593628,0.020344378426671028,-0.9154899716377258,0.8401416540145874,-0.01561385951936245,-0.050630755722522736,-0.776304304599762
4.345970869064331,0.02017398364841938,-0.9152209162712097,0.8395437002182007,-0.01493090484291315,-0.0500607006251812,-0.7770797610282898
4.366008996963501,0.019876999780535698,-0.9147611260414124,0.8384048342704773,-0.013442305848002434,-0.04905238002538681,-0.7786542773246765
4.386067152023315,0.019394051283597946,-0.9143506288528442,0.8371443152427673,-0.012004263699054718,-0.04815990477800369,-0.7801899313926697
4.406156539916992,0.019207585602998734,-0.9141134023666382,0.8365663886070251,-0.011338899843394756,-0.04758736491203308,-0.7809516191482544
4.42625617980957,0.01880987547338009,-0.913626492023468,0.8353657722473145,-0.010014853440225124,-0.046373117715120316,-0.7824521064758301
4.446416616439819,0.01839163526892662,-0.9132384657859802,0.834132969379425,-0.00854642316699028,-0.045358020812273026,-0.7839369177818298
4.466562747955322,0.018231363967061043,-0.913037896156311,0.833620548248291,-0.007813306525349617,-0.04482408985495567,-0.7846667170524597
4.4866180419921875,0.018009066581726074,-0.9126124382019043,0.8326461315155029,-0.006350350100547075,-0.04355841875076294,-0.7861515283584595
4.506747007369995,0.01783050037920475,-0.912180483341217,0.8316660523414612,-0.004835600033402443,-0.04223637282848358,-0.7876047492027283
4.526871204376221,0.017650779336690903,-0.9119517207145691,0.8310689330101013,-0.004141772631555796,-0.04155480116605759,-0.7883210182189941
4.546911954879761,0.017330819740891457,-0.9115038514137268,0.8300351500511169,-0.002742623910307884,-0.040253203362226486,-0.789755642414093
4.567032098770142,0.017142433673143387,-0.9112909436225891,0.8294737339019775,-0.002031763782724738,-0.03961671516299248,-0.7904708981513977
4.587137699127197,0.016767775639891624,-0.9108689427375793,0.8284605145454407,-0.000608992762863636,-0.03839247301220894,-0.7918998003005981
4.6071937084198,0.016307031735777855,-0.9104554057121277,0.8273426294326782,0.000788999954238534,-0.03719771280884743,-0.79329514503479
4.627283096313477,0.016141697764396667,-0.9102351069450378,0.8269153237342834,0.0015231125289574265,-0.036581821739673615,-0.7940071821212769
4.647380352020264,0.015726372599601746,-0.9098598957061768,0.8258562088012695,0.003059640061110258,-0.03543630987405777,-0.7954325079917908
4.667428731918335,0.015339414589107037,-0.9094763994216919,0.8248456120491028,0.004559253342449665,-0.034229520708322525,-0.7968311309814453
4.687514543533325,0.015124741941690445,-0.9093048572540283,0.8243138790130615,0.005300361197441816,-0.03365292400121689,-0.797527015209198
4.70758056640625,0.014811497181653976,-0.9089815616607666,0.8232868313789368,0.006857752334326506,-0.032425567507743835,-0.7988880276679993
4.727719306945801,0.014317105524241924,-0.9086532592773438,0.8223522901535034,0.008360195904970169,-0.03133310377597809,-0.8002580404281616
4.747809886932373,0.014101830311119556,-0.908456027507782,0.8218660354614258,0.009082265198230743,-0.03067602962255478,-0.8009437918663025
4.767876625061035,0.013740599155426025,-0.9080390930175781,0.8209782242774963,0.01056218333542347,-0.02934080921113491,-0.8022646903991699
4.787975549697876,0.01353511493653059,-0.907839298248291,0.8204849362373352,0.011282036080956459,-0.028674043715000153,-0.8029322028160095
4.808034658432007,0.01317291148006916,-0.9074759483337402,0.8195773363113403,0.012760001234710217,-0.027380505576729774,-0.8042840957641602
4.828092813491821,0.012754622846841812,-0.907135546207428,0.81867516040802,0.014292575418949127,-0.02616218477487564,-0.8056259751319885
4.848191022872925,0.012545999139547348,-0.9069594740867615,0.8182314038276672,0.01505346316844225,-0.02554207108914852,-0.8062782883644104
4.868256330490112,0.011916160583496094,-0.9066307544708252,0.816991925239563,0.01650669239461422,-0.02431452088057995,-0.807542622089386
4.888312101364136,0.011401079595088959,-0.9063341617584229,0.8160691261291504,0.018072232604026794,-0.023230787366628647,-0.8088188171386719
4.908398151397705,0.011073827743530273,-0.9062030911445618,0.8155192732810974,0.01886122114956379,-0.02271968312561512,-0.8094533681869507
4.928480863571167,0.010534013621509075,-0.9059314131736755,0.8145642876625061,0.020408283919095993,-0.0216280035674572,-0.810700535774231
4.949761390686035,0.010093173012137413,-0.9056742191314697,0.8136395215988159,0.021972663700580597,-0.020414045080542564,-0.8119539618492126
4.969852924346924,0.0098648089915514,-0.9055950045585632,0.8131910562515259,0.022815771400928497,-0.019907666370272636,-0.8125781416893005
4.9899208545684814,0.009374036453664303,-0.9053915143013,0.8124277591705322,0.024441901594400406,-0.018832501024007797,-0.8138168454170227
5.010055303573608,0.009137173183262348,-0.9052461981773376,0.8120414614677429,0.02518206089735031,-0.018163494765758514,-0.814446747303009
5.030147552490234,0.008670534007251263,-0.9049696922302246,0.8112380504608154,0.02673226408660412,-0.01684868335723877,-0.8156943917274475
5.05022406578064,0.00830089207738638,-0.9046998620033264,0.8104286193847656,0.028326982632279396,-0.015450142323970795,-0.8169277906417847
5.070409297943115,0.008166885934770107,-0.9045560359954834,0.810088574886322,0.029042240232229233,-0.014710899442434311,-0.8175498843193054
5.0904271602630615,0.007915865629911423,-0.9042834639549255,0.8093758225440979,0.030655205249786377,-0.01322514284402132,-0.8187645673751831
5.111292600631714,0.007788858842104673,-0.9041446447372437,0.8090164661407471,0.03144211322069168,-0.012460339814424515,-0.8193719983100891
5.131390810012817,0.007658449467271566,-0.9038586616516113,0.808447539806366,0.03306037187576294,-0.010877249762415886,-0.8205622434616089
5.151463985443115,0.0074543128721416,-0.9035639762878418,0.8079339265823364,0.03470727428793907,-0.009374845772981644,-0.8217402100563049
5.171549081802368,0.00726132420822978,-0.9034215807914734,0.8076076507568359,0.03545408323407173,-0.008669850416481495,-0.8223364949226379
5.19165825843811,0.006897953804582357,-0.9031375050544739,0.8070239424705505,0.036996662616729736,-0.007273922208696604,-0.8235241174697876
5.2118000984191895,0.006477609276771545,-0.9028701782226562,0.8065089583396912,0.03854331746697426,-0.005987186916172504,-0.8246889710426331
5.2319018840789795,0.006137025076895952,-0.9027580618858337,0.8060125112533569,0.03931359946727753,-0.005356850568205118,-0.8252530097961426
5.251982927322388,0.005442334339022636,-0.9025987982749939,0.8051613569259644,0.0409625768661499,-0.004326475318521261,-0.8263915777206421
5.272074460983276,0.004732431378215551,-0.9024524688720703,0.8043268322944641,0.0425729900598526,-0.003285192186012864,-0.8275299668312073
5.29216456413269,0.004448621068149805,-0.9023569822311401,0.8039910197257996,0.043359797447919846,-0.002674451097846031,-0.8280964493751526
5.312279224395752,0.0039651645347476006,-0.902174711227417,0.8034698367118835,0.044960055500268936,-0.0014641841407865286,-0.8292111754417419
5.333125829696655,0.0037331590428948402,-0.9020811319351196,0.8031997084617615,0.04575273394584656,-0.0008090981864370406,-0.8297659754753113
5.353260517120361,0.0033849524334073067,-0.9018926024436951,0.8027521371841431,0.04739981144666672,0.0005559521960094571,-0.830849826335907
5.373363494873047,0.0027808789163827896,-0.9017614722251892,0.8021566867828369,0.049071054905653,0.0016862301854416728,-0.8319329619407654
5.393512487411499,0.0025286218151450157,-0.9016672372817993,0.8018428683280945,0.04986992105841637,0.0023936983197927475,-0.832482099533081
5.413553237915039,0.002024275716394186,-0.9015094637870789,0.8011502027511597,0.05147235840559006,0.003768505062907934,-0.8335658311843872
5.433586597442627,0.0014003562973812222,-0.9013959169387817,0.8001300692558289,0.05311040207743645,0.0051523675210773945,-0.8346033692359924
5.453697204589844,0.0010611533652991056,-0.9013537168502808,0.7997311353683472,0.053952742367982864,0.005727268289774656,-0.8351249098777771
5.473758697509766,0.0005478037055581808,-0.901195228099823,0.7992611527442932,0.05550931766629219,0.007019320037215948,-0.83619225025177
5.49383807182312,0.0003002170706167817,-0.9011213779449463,0.7989956140518188,0.05634740740060806,0.007681997958570719,-0.8367136120796204
5.5139360427856445,-0.0001778251025825739,-0.9010041356086731,0.798523485660553,0.0579906702041626,0.00896566640585661,-0.8377468585968018
5.534046411514282,-0.00046995264710858464,-0.900895893573761,0.7981789708137512,0.059723325073719025,0.010377557016909122,-0.8387446403503418
5.554133176803589,-0.0006891413941048086,-0.9009091258049011,0.7979468107223511,0.06064414232969284,0.01092784944921732,-0.839235782623291
5.574242830276489,-0.0010508818086236715,-0.9008100628852844,0.7975894808769226,0.06238064542412758,0.012348338030278683,-0.8402319550514221
5.594672203063965,-0.0015834658406674862,-0.9006897211074829,0.7970478534698486,0.06405734270811081,0.0137680284678936,-0.8412657380104065
5.614788770675659,-0.0018077042186632752,-0.9006382822990417,0.796759843826294,0.06490492075681686,0.0145017234608531,-0.8417829871177673
5.634943962097168,-0.002385309198871255,-0.9005247354507446,0.7961373925209045,0.06655438244342804,0.015887675806879997,-0.842799961566925
5.654962062835693,-0.002665566047653556,-0.9004570245742798,0.7958831787109375,0.06733842939138412,0.01658741757273674,-0.8433106541633606
5.675048589706421,-0.0033064251765608788,-0.9003696441650391,0.7954185605049133,0.06892014294862747,0.017795836552977562,-0.8443185687065125
5.6951210498809814,-0.0039762575179338455,-0.9002988934516907,0.7949249148368835,0.07055152952671051,0.018980281427502632,-0.8453138470649719
5.7152299880981445,-0.004281933419406414,-0.9002499580383301,0.7947587966918945,0.07131125032901764,0.01959979720413685,-0.8458084464073181
5.73531699180603,-0.004921797197312117,-0.9002036452293396,0.7944017052650452,0.07297251373529434,0.020727751776576042,-0.846762478351593
5.755592346191406,-0.005208505783230066,-0.9001619219779968,0.794154167175293,0.07378639280796051,0.021430231630802155,-0.8472436666488647
5.775664567947388,-0.005682177376002073,-0.9000937342643738,0.7937708497047424,0.07545316219329834,0.022847319021821022,-0.8481892943382263
5.795725584030151,-0.006155975628644228,-0.9000306129455566,0.7933380603790283,0.07714268565177917,0.024293236434459686,-0.8491261601448059
5.8158180713653564,-0.00642972718924284,-0.8999785780906677,0.793134331703186,0.07795116305351257,0.02501106821000576,-0.8496012091636658
5.835941314697266,-0.006891636177897453,-0.8998763561248779,0.7927963137626648,0.07954797893762589,0.02649563178420067,-0.8505445122718811
5.856313705444336,-0.007375418208539486,-0.8998466730117798,0.7922536134719849,0.08127877116203308,0.02794862538576126,-0.8514726758003235
5.876412630081177,-0.007674484048038721,-0.8998394012451172,0.7920123338699341,0.08213034272193909,0.028589721769094467,-0.8519377112388611
5.8965349197387695,-0.008303831331431866,-0.8997846245765686,0.7916800379753113,0.08366361260414124,0.02986898459494114,-0.8528696894645691
5.916634559631348,-0.008575781248509884,-0.8997533321380615,0.7915699481964111,0.08447211980819702,0.030520334839820862,-0.8533148169517517
5.936681509017944,-0.009178838692605495,-0.8996679782867432,0.7911446690559387,0.08602028340101242,0.03195193037390709,-0.854164719581604
5.956943511962891,-0.009763660840690136,-0.8996381163597107,0.7908967733383179,0.08770828694105148,0.033181048929691315,-0.8549922704696655
5.9770426750183105,-0.010114844888448715,-0.8996485471725464,0.7907464504241943,0.08852880448102951,0.03373602777719498,-0.8554314970970154
5.997119426727295,-0.010762747377157211,-0.8996425271034241,0.7904188632965088,0.09015818685293198,0.03500204160809517,-0.856319785118103
6.017201662063599,-0.011512286961078644,-0.8997036814689636,0.7900299429893494,0.09183347225189209,0.03609900176525116,-0.8571926355361938
6.037330389022827,-0.01185621228069067,-0.8997360467910767,0.7898163795471191,0.09266657382249832,0.03670385852456093,-0.8576242923736572
6.057420015335083,-0.012536467052996159,-0.8997878432273865,0.7894084453582764,0.09429261833429337,0.037969592958688736,-0.8584932088851929
6.077489137649536,-0.012848074547946453,-0.8997746706008911,0.7892022728919983,0.09510160237550735,0.038717083632946014,-0.8589276075363159
6.097570896148682,-0.013400129973888397,-0.8997632265090942,0.7887991070747375,0.09671369194984436,0.04024354740977287,-0.8597966432571411
6.117631196975708,-0.013717281632125378,-0.8997703194618225,0.7886168956756592,0.09751684963703156,0.04092617705464363,-0.8602269887924194
6.137703895568848,-0.014282461255788803,-0.899804413318634,0.7881940603256226,0.09919832646846771,0.042370714247226715,-0.8610742688179016
6.157935619354248,-0.01494116336107254,-0.8998790383338928,0.7878463864326477,0.1008758395910263,0.04361080378293991,-0.8619072437286377
6.178032398223877,-0.01524830050766468,-0.8998910188674927,0.7876802682876587,0.10171809047460556,0.04431350156664848,-0.8623183965682983
6.1981117725372314,-0.015845555812120438,-0.8998983502388,0.7873741388320923,0.10341070592403412,0.04575348272919655,-0.8631350994110107
6.21818208694458,-0.016125306487083435,-0.8998937606811523,0.7872183918952942,0.1042519062757492,0.04650825634598732,-0.8635455965995789
6.238265514373779,-0.01672128029167652,-0.8999345302581787,0.7868936061859131,0.1059529185295105,0.04788781329989433,-0.8643695712089539
6.258337736129761,-0.017365626990795135,-0.8999661803245544,0.7865773439407349,0.10756760835647583,0.049238063395023346,-0.8652089238166809
6.278410196304321,-0.017680183053016663,-0.8999598622322083,0.7864174246788025,0.10834933072328568,0.04997202381491661,-0.8656301498413086
6.298526763916016,-0.018344556912779808,-0.899969220161438,0.7861080169677734,0.1099109798669815,0.051361218094825745,-0.8664738535881042
6.31931734085083,-0.01895429566502571,-0.9000375270843506,0.7857449650764465,0.11158516258001328,0.05273209512233734,-0.8672924041748047
6.339402675628662,-0.019152840599417686,-0.9000529646873474,0.785689651966095,0.11238653212785721,0.05350058898329735,-0.8676929473876953
6.359499931335449,-0.019769901409745216,-0.9001551866531372,0.7854583859443665,0.11407673358917236,0.05478185415267944,-0.8684797883033752
6.379876136779785,-0.02033017948269844,-0.9002580642700195,0.7853633761405945,0.11573868244886398,0.05608943849802017,-0.869271993637085
6.400005578994751,-0.020639928057789803,-0.9003109931945801,0.7851900458335876,0.11659929156303406,0.05680953338742256,-0.8696659207344055
6.420044898986816,-0.02126752957701683,-0.9003699421882629,0.784957230091095,0.11818478256464005,0.05827891081571579,-0.8704488277435303
6.440135955810547,-0.021595727652311325,-0.9003912806510925,0.7848460078239441,0.11897531896829605,0.059009093791246414,-0.870837926864624
6.460324287414551,-0.022279173135757446,-0.900458812713623,0.7845874428749084,0.12060002982616425,0.06041869893670082,-0.871605634689331
6.480309247970581,-0.023003781214356422,-0.9005584120750427,0.7843543887138367,0.1222812607884407,0.061709094792604446,-0.8723670244216919
6.5004048347473145,-0.023380832746624947,-0.900611937046051,0.7842174172401428,0.12312500178813934,0.06235658377408981,-0.8727417588233948
6.520469665527344,-0.024120088666677475,-0.900780200958252,0.7839217185974121,0.1248592808842659,0.06355702131986618,-0.8734800815582275
6.540765047073364,-0.024739190936088562,-0.9009184837341309,0.7837580442428589,0.12657207250595093,0.06489153206348419,-0.8742005228996277
6.560858249664307,-0.025050850585103035,-0.9009426832199097,0.7837089896202087,0.12738609313964844,0.06563922762870789,-0.8745652437210083
6.581028461456299,-0.02569715864956379,-0.9010329842567444,0.7834929823875427,0.12901659309864044,0.06708341091871262,-0.8753078579902649
6.602391958236694,-0.0263108741492033,-0.9011504054069519,0.7832314968109131,0.13064640760421753,0.06855238229036331,-0.8760416507720947
6.622562646865845,-0.02665887586772442,-0.9012354612350464,0.7831180691719055,0.13145999610424042,0.06919315457344055,-0.8764040470123291
6.642577886581421,-0.027321338653564453,-0.901366114616394,0.7828987836837769,0.1330735683441162,0.0705912634730339,-0.8771242499351501
6.662905216217041,-0.02801208384335041,-0.9014946818351746,0.7827063202857971,0.13467711210250854,0.07198279350996017,-0.8778361678123474
6.6829962730407715,-0.028328528627753258,-0.9015917778015137,0.7825588583946228,0.13553021848201752,0.07268228381872177,-0.8781846165657043
6.703073501586914,-0.029034746810793877,-0.9017297625541687,0.7824163436889648,0.1371278464794159,0.07404368370771408,-0.8788883686065674
6.723181247711182,-0.029433004558086395,-0.9018107652664185,0.782357931137085,0.1379081904888153,0.0746515616774559,-0.8792356252670288
6.743292570114136,-0.03014272078871727,-0.9019989371299744,0.78211909532547,0.13957451283931732,0.07599776238203049,-0.8799146413803101
6.763396501541138,-0.03087734244763851,-0.9021329283714294,0.7819637656211853,0.14114703238010406,0.07739456743001938,-0.8805993795394897
6.783478736877441,-0.031224440783262253,-0.902206301689148,0.7818602919578552,0.14198191463947296,0.07811129838228226,-0.8809364438056946
6.803538084030151,-0.03168310597538948,-0.9023903608322144,0.7818341255187988,0.14374147355556488,0.07961960136890411,-0.881624162197113
6.823630332946777,-0.03233876824378967,-0.9025514125823975,0.7819254994392395,0.14535775780677795,0.08092279732227325,-0.8822989463806152
6.843691110610962,-0.032608453184366226,-0.9026122689247131,0.7819409966468811,0.14620493352413177,0.08169218897819519,-0.8826369643211365
6.8639442920684814,-0.03319453075528145,-0.9027649164199829,0.7818877696990967,0.1479000300168991,0.08317528665065765,-0.8833093643188477
6.883918523788452,-0.03380576893687248,-0.902929425239563,0.7818225026130676,0.14949658513069153,0.08461985737085342,-0.883971095085144
6.904052257537842,-0.0341620035469532,-0.9030043482780457,0.7817382216453552,0.15031173825263977,0.08534418046474457,-0.8842975497245789
6.924160718917847,-0.034867219626903534,-0.9031369686126709,0.781641960144043,0.15187600255012512,0.08679146319627762,-0.8849514722824097
6.944289684295654,-0.03518783673644066,-0.9032186269760132,0.7815625667572021,0.15268617868423462,0.0875433012843132,-0.8852732181549072
6.964440107345581,-0.03584263101220131,-0.9034595489501953,0.781338632106781,0.1543852984905243,0.08893264085054398,-0.8859032392501831
6.984948635101318,-0.03643829748034477,-0.9037309288978577,0.7811766862869263,0.15612070262432098,0.09032917767763138,-0.8865262269973755
7.005047082901001,-0.0367252416908741,-0.9038423299789429,0.7811360359191895,0.15693849325180054,0.09108597040176392,-0.8868440389633179
7.025104284286499,-0.037325404584407806,-0.9039990901947021,0.7811430096626282,0.15854914486408234,0.09264826774597168,-0.8874927163124084
7.045184373855591,-0.0375966876745224,-0.9040661454200745,0.781196653842926,0.15934325754642487,0.09344597160816193,-0.887824296951294
7.065294504165649,-0.03826073929667473,-0.9042386412620544,0.7811598777770996,0.16098809242248535,0.09489758312702179,-0.8884559273719788
7.085359334945679,-0.039020832628011703,-0.9044196605682373,0.7811211943626404,0.16259071230888367,0.09624756127595901,-0.8890800476074219
7.105438232421875,-0.03941694274544716,-0.9045245051383972,0.7811145186424255,0.1634163111448288,0.09687237441539764,-0.8893930315971375
7.125543832778931,-0.04027611017227173,-0.9047775268554688,0.7810475826263428,0.16504356265068054,0.09803615510463715,-0.8900115489959717
7.146218776702881,-0.041080087423324585,-0.9050366878509521,0.7809332013130188,0.1666748970746994,0.09930496662855148,-0.8906144499778748
7.166332960128784,-0.04147639870643616,-0.9051423668861389,0.7808530330657959,0.16750739514827728,0.10001716762781143,-0.8909115195274353
7.18639063835144,-0.0421447716653347,-0.9053331613540649,0.7808457016944885,0.16916251182556152,0.10149886459112167,-0.8915166854858398
7.206466436386108,-0.04245981574058533,-0.9054296612739563,0.7808989882469177,0.16998238861560822,0.10222146660089493,-0.8918209671974182
7.226572751998901,-0.04296915978193283,-0.9055955410003662,0.7810198664665222,0.17158859968185425,0.10382580012083054,-0.8924070596694946
7.246634483337402,-0.043574485927820206,-0.9057941436767578,0.780983567237854,0.17323558032512665,0.10537894815206528,-0.8929892182350159
7.266735553741455,-0.04392114281654358,-0.9058874845504761,0.7810042500495911,0.1740090250968933,0.10608735680580139,-0.8932911157608032
7.286840915679932,-0.04458266869187355,-0.9060739278793335,0.7811388373374939,0.17560748755931854,0.10748623311519623,-0.8938978910446167
7.306920289993286,-0.0453498475253582,-0.9063007831573486,0.7812638282775879,0.17717722058296204,0.10873176157474518,-0.8944854140281677
7.327003002166748,-0.04576029255986214,-0.9064332842826843,0.7812748551368713,0.17798161506652832,0.10933614522218704,-0.8947685956954956
7.34709906578064,-0.046591393649578094,-0.9067283868789673,0.781173825263977,0.1796749085187912,0.11057837307453156,-0.8953108191490173
7.367200136184692,-0.04731815680861473,-0.9070849418640137,0.7811799049377441,0.18138958513736725,0.11178337782621384,-0.8958565592765808
7.387287855148315,-0.04776361212134361,-0.907244861125946,0.7811546325683594,0.18217618763446808,0.11237680912017822,-0.8961241841316223
7.407365560531616,-0.04847119376063347,-0.9074515104293823,0.7811310291290283,0.18371957540512085,0.11394128948450089,-0.8966616988182068
7.427462816238403,-0.04877891391515732,-0.9075692892074585,0.7810651659965515,0.18453097343444824,0.11478439718484879,-0.8969294428825378
7.44755220413208,-0.049482814967632294,-0.9077974557876587,0.7809662818908691,0.18608874082565308,0.11635230481624603,-0.8974850177764893
7.467607498168945,-0.05019504204392433,-0.9080069661140442,0.7809099555015564,0.1876349300146103,0.11788593232631683,-0.8980382084846497
7.487828254699707,-0.05051598325371742,-0.908128559589386,0.7808641791343689,0.18843504786491394,0.1186729222536087,-0.8983092904090881
7.507810831069946,-0.05123724788427353,-0.9083727598190308,0.7807691693305969,0.1900259405374527,0.12016278505325317,-0.8988582491874695
7.527900457382202,-0.05191097781062126,-0.9086532592773438,0.7807698249816895,0.19167572259902954,0.12156122922897339,-0.899412214756012
7.547961235046387,-0.05227161943912506,-0.9087705612182617,0.7808482050895691,0.19243738055229187,0.12223613262176514,-0.8996928930282593
7.568048000335693,-0.052933551371097565,-0.9089744091033936,0.7809807658195496,0.19397121667861938,0.12371477484703064,-0.9002476930618286
7.588100910186768,-0.05363473668694496,-0.9092323184013367,0.7809203267097473,0.19557547569274902,0.1251702606678009,-0.9007754921913147
7.608205795288086,-0.05398489907383919,-0.9093666672706604,0.7808693647384644,0.19639305770397186,0.12590962648391724,-0.9010351896286011
7.628282785415649,-0.05482238531112671,-0.909677267074585,0.7808054089546204,0.19802403450012207,0.12713627517223358,-0.901544988155365
7.6483314037323,-0.055221304297447205,-0.9098098874092102,0.7807829976081848,0.19881653785705566,0.12781167030334473,-0.9018003940582275
7.668425559997559,-0.05594176426529884,-0.9100865125656128,0.7808606028556824,0.2004084438085556,0.1291554719209671,-0.9023177027702332
7.68848180770874,-0.05655752867460251,-0.9103527665138245,0.7810951471328735,0.20197732746601105,0.13055916130542755,-0.9028422236442566
7.708649158477783,-0.05684256553649902,-0.9104911684989929,0.781218409538269,0.20279373228549957,0.13127487897872925,-0.9031013250350952
7.728787183761597,-0.05756647512316704,-0.9108225703239441,0.7812983393669128,0.20437897741794586,0.13257215917110443,-0.9035922884941101
7.748758792877197,-0.058234624564647675,-0.9110785722732544,0.78130704164505,0.2059108465909958,0.13411498069763184,-0.9040772318840027
7.768844366073608,-0.05856844782829285,-0.9112008213996887,0.7813018560409546,0.20668157935142517,0.1349039226770401,-0.9043190479278564
7.788922071456909,-0.059229351580142975,-0.9115310311317444,0.7812720537185669,0.20825663208961487,0.1363443285226822,-0.9047988057136536
7.80905556678772,-0.059628937393426895,-0.9116765260696411,0.7812951803207397,0.2090170979499817,0.13701002299785614,-0.9050408601760864
7.829158782958984,-0.06035703793168068,-0.9119377136230469,0.7813194990158081,0.21060441434383392,0.1384761780500412,-0.9055282473564148
7.849210262298584,-0.06097947806119919,-0.9122384786605835,0.7814134359359741,0.21218465268611908,0.1399267017841339,-0.906023383140564
7.86934757232666,-0.06136078014969826,-0.9123886227607727,0.7814486026763916,0.2129613757133484,0.1405896544456482,-0.9062687754631042
7.889571666717529,-0.06214971840381622,-0.9126864671707153,0.7814657688140869,0.21456170082092285,0.14192049205303192,-0.9067537784576416
7.909528970718384,-0.06279353052377701,-0.912949800491333,0.7817146182060242,0.2160884141921997,0.1433200091123581,-0.9072564244270325
7.929620742797852,-0.06313648074865341,-0.9131031632423401,0.7817426323890686,0.2168428897857666,0.1440228968858719,-0.9074992537498474
7.949703693389893,-0.06382692605257034,-0.9134290218353271,0.7818711996078491,0.21841318905353546,0.14537052810192108,-0.9079734683036804
7.96976113319397,-0.06448546797037125,-0.913693904876709,0.7820128202438354,0.21992908418178558,0.146845743060112,-0.9084467887878418
7.989966630935669,-0.06483078002929688,-0.9138557314872742,0.7819986939430237,0.2207009196281433,0.14757663011550903,-0.9086753726005554
8.009968280792236,-0.06550039350986481,-0.9141697883605957,0.7819900512695312,0.2222643494606018,0.1490604430437088,-0.9091242551803589
8.030136585235596,-0.06621526181697845,-0.9144943952560425,0.7819686532020569,0.22378040850162506,0.15049898624420166,-0.9095788598060608
8.050284147262573,-0.06664975732564926,-0.9146647453308105,0.7818413376808167,0.22455649077892303,0.1512049436569214,-0.9098104238510132
8.07034945487976,-0.06733711808919907,-0.9150098562240601,0.7818320989608765,0.22609549760818481,0.15263260900974274,-0.9102689027786255
8.09042501449585,-0.06770268082618713,-0.9151763916015625,0.781917929649353,0.2268311083316803,0.15328218042850494,-0.9104942083358765
8.110574007034302,-0.06838025897741318,-0.9154771566390991,0.7821409106254578,0.2283569872379303,0.15467213094234467,-0.9109443426132202
8.130611181259155,-0.06910008192062378,-0.91578209400177,0.7824360728263855,0.22981920838356018,0.15596884489059448,-0.9113942980766296
8.15069842338562,-0.06944825500249863,-0.9159541130065918,0.7825701236724854,0.2306196242570877,0.15660938620567322,-0.9116128087043762
8.170818328857422,-0.07021865993738174,-0.9162670969963074,0.782754123210907,0.23215225338935852,0.1579347550868988,-0.9120470285415649
8.190916061401367,-0.0710742324590683,-0.9166567921638489,0.7828166484832764,0.23370543122291565,0.1591004878282547,-0.9124646186828613
8.21101427078247,-0.07147272676229477,-0.9168535470962524,0.7828192114830017,0.2344868928194046,0.15973490476608276,-0.9126676917076111
8.231119155883789,-0.07219944894313812,-0.9172433018684387,0.7827866673469543,0.2360658347606659,0.1611277312040329,-0.913069486618042
8.251208782196045,-0.07285843044519424,-0.9175688624382019,0.7828291654586792,0.23758959770202637,0.1626652479171753,-0.9134794473648071
8.271295070648193,-0.07308680564165115,-0.9177332520484924,0.7829210162162781,0.23838616907596588,0.16349312663078308,-0.9136946201324463
8.291401386260986,-0.07360119372606277,-0.9180565476417542,0.7831705212593079,0.2399711012840271,0.16505886614322662,-0.9141343235969543
8.312033414840698,-0.07413274049758911,-0.9183881282806396,0.7832770347595215,0.241498664021492,0.16666214168071747,-0.9145606160163879
8.332129716873169,-0.07446690648794174,-0.9185269474983215,0.783308744430542,0.24225184321403503,0.16744780540466309,-0.9147663116455078
8.352197885513306,-0.07519572228193283,-0.9188269972801208,0.7834146618843079,0.24372977018356323,0.16887091100215912,-0.9151777029037476
8.372270822525024,-0.07556688040494919,-0.9189799427986145,0.7834814190864563,0.2444533258676529,0.16955502331256866,-0.9153830409049988
8.392391681671143,-0.07634507119655609,-0.9193140864372253,0.7836020588874817,0.2459142655134201,0.17085640132427216,-0.9157859683036804
8.412584066390991,-0.07702979445457458,-0.9197008013725281,0.7838303446769714,0.24746675789356232,0.17213241755962372,-0.9162032604217529
8.432693004608154,-0.077455073595047,-0.9199031591415405,0.783868134021759,0.24820896983146667,0.17272159457206726,-0.9164038300514221
8.452791690826416,-0.07809288054704666,-0.9202665686607361,0.7840466499328613,0.24971948564052582,0.17414294183254242,-0.9168039560317993
8.472868204116821,-0.07842099666595459,-0.9204422831535339,0.7840824723243713,0.2504968047142029,0.1748953014612198,-0.9169926643371582
8.49295949935913,-0.07896549254655838,-0.9207910895347595,0.7840616703033447,0.25204432010650635,0.17655973136425018,-0.9173651933670044
8.513060092926025,-0.07949715107679367,-0.9211495518684387,0.784058690071106,0.2535773813724518,0.1782006472349167,-0.9177408218383789
8.533133506774902,-0.0797840803861618,-0.9212948083877563,0.7841321229934692,0.2543088495731354,0.17900991439819336,-0.917937159538269
8.553282976150513,-0.08031214773654938,-0.9216045141220093,0.7843587398529053,0.2557632029056549,0.18057550489902496,-0.9183382391929626
8.57329773902893,-0.0810268223285675,-0.9219381809234619,0.7846487760543823,0.2571955919265747,0.1818622499704361,-0.9187507629394531
8.593406915664673,-0.0814276933670044,-0.9221099019050598,0.7846469879150391,0.2579319179058075,0.1825457513332367,-0.9189516305923462
8.613461971282959,-0.08232950419187546,-0.922524631023407,0.7846671342849731,0.2594468593597412,0.18365679681301117,-0.9193298816680908
8.63355565071106,-0.08275174349546432,-0.9227205514907837,0.7846821546554565,0.2601926028728485,0.18426325917243958,-0.9195138812065125
8.653666019439697,-0.08357806503772736,-0.9231293201446533,0.7848707437515259,0.26162636280059814,0.18539959192276,-0.9198979139328003
8.673727989196777,-0.0842960998415947,-0.9235687255859375,0.7850792407989502,0.26313817501068115,0.18661163747310638,-0.9202719926834106
8.693854331970215,-0.08451095968484879,-0.9237514138221741,0.7852379083633423,0.2638624310493469,0.18742112815380096,-0.9204618334770203
8.713961124420166,-0.08489251881837845,-0.9241628646850586,0.785556435585022,0.26544103026390076,0.18902601301670074,-0.9208328723907471
8.734592199325562,-0.08506560325622559,-0.9243554472923279,0.7857334613800049,0.26626643538475037,0.1898728758096695,-0.9210201501846313
8.754735469818115,-0.08553218841552734,-0.924687385559082,0.7858534455299377,0.26777058839797974,0.1916428953409195,-0.9213899374008179
8.77480697631836,-0.08579501509666443,-0.9247996211051941,0.785940945148468,0.26845306158065796,0.19254520535469055,-0.9215772151947021
8.795016050338745,-0.08648709952831268,-0.9251088500022888,0.7860833406448364,0.26987361907958984,0.1940242350101471,-0.9219460487365723
8.815322160720825,-0.08688067644834518,-0.9252769947052002,0.7861597537994385,0.2705480456352234,0.1946815401315689,-0.9221365451812744
8.83544635772705,-0.0879085585474968,-0.9257449507713318,0.7860974669456482,0.2720194458961487,0.19569270312786102,-0.9224998950958252
8.856026411056519,-0.08886091411113739,-0.926198422908783,0.7861902713775635,0.2734737992286682,0.1967267245054245,-0.9228417873382568
8.876143217086792,-0.08929936587810516,-0.9264019131660461,0.7862426042556763,0.2741803526878357,0.1973365694284439,-0.9230132699012756
8.896262407302856,-0.09011799842119217,-0.9268120527267456,0.7864275574684143,0.2756531536579132,0.1985669583082199,-0.9233502149581909
8.916393041610718,-0.09047519415616989,-0.9269779324531555,0.7865682244300842,0.2763388156890869,0.19927828013896942,-0.9235262870788574
8.936481952667236,-0.09115157276391983,-0.927313506603241,0.7867753505706787,0.27775663137435913,0.2007506787776947,-0.9238671660423279
8.956561803817749,-0.09184879064559937,-0.927665114402771,0.7869150042533875,0.2792074382305145,0.20219004154205322,-0.9242011308670044
8.976647853851318,-0.09212551265954971,-0.9278478026390076,0.7870999574661255,0.2799455523490906,0.2029045671224594,-0.9243788719177246
8.996754884719849,-0.09284484386444092,-0.9282127618789673,0.7873845100402832,0.2813394367694855,0.20420071482658386,-0.9247176647186279
9.016900300979614,-0.0935862809419632,-0.9286207556724548,0.7875063419342041,0.2828080356121063,0.2054978758096695,-0.9250305891036987
9.036996364593506,-0.09396779537200928,-0.928833544254303,0.787536084651947,0.2835654616355896,0.20613816380500793,-0.9251801371574402
9.057086944580078,-0.0946178287267685,-0.9292206764221191,0.7877609133720398,0.28498759865760803,0.20751073956489563,-0.9255037307739258
9.077300071716309,-0.09522775560617447,-0.9296318292617798,0.7879033088684082,0.28645166754722595,0.20893564820289612,-0.9258178472518921
9.097397804260254,-0.09548825025558472,-0.9298312067985535,0.7879172563552856,0.2872094213962555,0.20974788069725037,-0.925969660282135
9.117475748062134,-0.09602396190166473,-0.9302265048027039,0.7881142497062683,0.2886715829372406,0.21122878789901733,-0.9262821674346924
9.13757586479187,-0.09631422162055969,-0.930419921875,0.7882623076438904,0.28939926624298096,0.21192236244678497,-0.9264470338821411
9.157694101333618,-0.09684372693300247,-0.9307682514190674,0.7886697053909302,0.29077136516571045,0.21335484087467194,-0.9267871975898743
9.177807569503784,-0.0972466766834259,-0.9311413764953613,0.7890689969062805,0.29221710562705994,0.2148927003145218,-0.9271156191825867
9.197867631912231,-0.09748328477144241,-0.9313464760780334,0.789309561252594,0.292947381734848,0.21556952595710754,-0.927280604839325
9.217938423156738,-0.09822946041822433,-0.9317452907562256,0.7895488739013672,0.2943078279495239,0.2168155312538147,-0.9275829792022705
9.23799204826355,-0.09856554120779037,-0.9319234490394592,0.7896401286125183,0.2950068712234497,0.2175281047821045,-0.9277245402336121
9.258060693740845,-0.09924191236495972,-0.9322696328163147,0.7898029088973999,0.2963833212852478,0.21896497905254364,-0.9280126690864563
9.279114007949829,-0.09993548691272736,-0.9326713681221008,0.7898949980735779,0.29772165417671204,0.22033120691776276,-0.9283145070075989
9.299277067184448,-0.10031726956367493,-0.9328781366348267,0.789884626865387,0.2984195351600647,0.22100670635700226,-0.9284632802009583
9.319274663925171,-0.10098525136709213,-0.9332250356674194,0.7901328802108765,0.29972538352012634,0.22238782048225403,-0.9287672638893127
9.340067625045776,-0.10171864926815033,-0.9336068630218506,0.7902523279190063,0.30110475420951843,0.22371965646743774,-0.9290667176246643
9.36018443107605,-0.10203313827514648,-0.9338119029998779,0.7903268933296204,0.30182915925979614,0.22440730035305023,-0.9292164444923401
9.380258798599243,-0.10276199877262115,-0.9342656135559082,0.7906481027603149,0.3032613694667816,0.22548799216747284,-0.9295202493667603
9.400360822677612,-0.10305189341306686,-0.9344643950462341,0.7909230589866638,0.30395376682281494,0.22608594596385956,-0.9296783208847046
9.42043948173523,-0.10371600091457367,-0.9348636269569397,0.7912663221359253,0.3053513765335083,0.22733163833618164,-0.9299696683883667
9.440601348876953,-0.10434550791978836,-0.9352315664291382,0.7917091250419617,0.30670198798179626,0.22859986126422882,-0.9302670955657959
9.460741996765137,-0.10469131916761398,-0.9354183077812195,0.7918710112571716,0.3073824346065521,0.22923195362091064,-0.9304060935974121
9.480801820755005,-0.10538903623819351,-0.9358353018760681,0.7922268509864807,0.3087950646877289,0.2303960770368576,-0.930675208568573
9.501025676727295,-0.10615747421979904,-0.9362397789955139,0.7923999428749084,0.3101634681224823,0.23163823783397675,-0.9309394955635071
9.52111268043518,-0.1065252497792244,-0.9364513754844666,0.7924235463142395,0.3108634948730469,0.23230253159999847,-0.9310728907585144
9.541173458099365,-0.1072375550866127,-0.9368979930877686,0.7926785945892334,0.3122299611568451,0.23350611329078674,-0.9313624501228333
9.561259269714355,-0.10767148435115814,-0.9371092915534973,0.7926822900772095,0.3128953278064728,0.23411983251571655,-0.9314992427825928
9.581350564956665,-0.10831322520971298,-0.9374679327011108,0.7928677797317505,0.3141559660434723,0.2355598509311676,-0.9317685961723328
9.602075576782227,-0.10897048562765121,-0.9378916621208191,0.7929978370666504,0.31551188230514526,0.23690533638000488,-0.9320233464241028
9.622276782989502,-0.1092410460114479,-0.9380882978439331,0.7930381298065186,0.3161967992782593,0.23768623173236847,-0.9321514368057251
9.642281293869019,-0.10983078181743622,-0.938546359539032,0.7931523323059082,0.3175869286060333,0.23905521631240845,-0.9324080944061279
9.662424802780151,-0.11015407741069794,-0.9387364983558655,0.7932509183883667,0.3182733952999115,0.2397504448890686,-0.9325365424156189
9.682557106018066,-0.11083487421274185,-0.9390978813171387,0.7934560775756836,0.31956997513771057,0.24111586809158325,-0.9328059554100037
9.702849388122559,-0.11153070628643036,-0.9394760131835938,0.7936826944351196,0.32087305188179016,0.24241074919700623,-0.9330809712409973
9.723031759262085,-0.11192282289266586,-0.9396800398826599,0.7937042713165283,0.32156190276145935,0.243045836687088,-0.9332184791564941
9.74306035041809,-0.1126432791352272,-0.9401124715805054,0.7939572334289551,0.3229597210884094,0.24419379234313965,-0.9334834814071655
9.763149976730347,-0.11342523247003555,-0.9405797123908997,0.7941141128540039,0.32432836294174194,0.24528048932552338,-0.9337291121482849
9.783235788345337,-0.1137566864490509,-0.9407876133918762,0.7941893339157104,0.32497575879096985,0.2459326535463333,-0.933847963809967
9.80331802368164,-0.11441671848297119,-0.9412295818328857,0.794312596321106,0.3263014256954193,0.247223362326622,-0.9340783357620239
9.823407888412476,-0.11470690369606018,-0.9414363503456116,0.7943846583366394,0.3269812762737274,0.24793247878551483,-0.9341941475868225
9.843480587005615,-0.1152438074350357,-0.9418600797653198,0.7945377230644226,0.3283354341983795,0.2493659108877182,-0.9344332218170166
9.863543033599854,-0.11575286835432053,-0.9422360062599182,0.7947901487350464,0.3296523094177246,0.2508271336555481,-0.9346775412559509
9.883681058883667,-0.11607712507247925,-0.9424415230751038,0.7948779463768005,0.3303106725215912,0.25146642327308655,-0.934798538684845
9.903773307800293,-0.1166202574968338,-0.9428178071975708,0.7952169179916382,0.3316481411457062,0.2528025209903717,-0.9350476861000061
9.9237961769104,-0.11727515608072281,-0.9432274103164673,0.7955145239830017,0.33293095231056213,0.25399166345596313,-0.9353154897689819
9.94394326210022,-0.11759822815656662,-0.943467378616333,0.7956175804138184,0.3335965871810913,0.25456809997558594,-0.9354478716850281
9.964031457901001,-0.1183130294084549,-0.9439791440963745,0.7959210872650146,0.33496996760368347,0.255547434091568,-0.9356831908226013
9.984059810638428,-0.11859406530857086,-0.9441909790039062,0.7961719036102295,0.3356276750564575,0.25614482164382935,-0.9358116984367371
10.004158973693848,-0.11918549239635468,-0.9445888996124268,0.7966209053993225,0.3369157016277313,0.25737667083740234,-0.9360712170600891
10.024294376373291,-0.11971508711576462,-0.9449777603149414,0.7970642447471619,0.3382568657398224,0.2586795389652252,-0.9363083243370056
10.044439554214478,-0.1199994683265686,-0.9451596736907959,0.7971689105033875,0.3389096260070801,0.2593950927257538,-0.9364171028137207
10.064549684524536,-0.12050497531890869,-0.9455500245094299,0.7973317503929138,0.34023359417915344,0.2608729600906372,-0.9366357922554016
10.08463168144226,-0.1210557371377945,-0.9459673166275024,0.7975159883499146,0.34152501821517944,0.2622291147708893,-0.936863362789154
10.104723453521729,-0.12142378091812134,-0.9461902976036072,0.7975478768348694,0.34215492010116577,0.26282623410224915,-0.9369792938232422
10.124862909317017,-0.12208719551563263,-0.9465411901473999,0.797667920589447,0.34336230158805847,0.26420560479164124,-0.9372165203094482
10.144877910614014,-0.12241611629724503,-0.9467283487319946,0.7977386713027954,0.3439944088459015,0.264863520860672,-0.9373282194137573
10.164958715438843,-0.12311218678951263,-0.9471887946128845,0.7978414297103882,0.3453391492366791,0.26602208614349365,-0.9375349879264832
10.185038328170776,-0.12387951463460922,-0.9476372003555298,0.7980315685272217,0.3466668725013733,0.26707178354263306,-0.9377496838569641
10.205182552337646,-0.12425946444272995,-0.9478628635406494,0.7981300950050354,0.34731972217559814,0.26759204268455505,-0.9378573298454285
10.225319623947144,-0.12503337860107422,-0.9483181834220886,0.7983022332191467,0.3485637307167053,0.2686298191547394,-0.9380678534507751
10.24535846710205,-0.12571796774864197,-0.9487811326980591,0.7984717488288879,0.34981080889701843,0.2697654068470001,-0.9382782578468323
10.265487909317017,-0.12601818144321442,-0.949009358882904,0.7985198497772217,0.35045427083969116,0.27041590213775635,-0.9383836984634399
10.285591125488281,-0.12656551599502563,-0.9493895173072815,0.7988764643669128,0.35167840123176575,0.27173057198524475,-0.9386155009269714
10.305624961853027,-0.12679071724414825,-0.9495880007743835,0.7991576790809631,0.35232827067375183,0.27236407995224,-0.9387428164482117
10.325783729553223,-0.12735490500926971,-0.9499840140342712,0.7994576692581177,0.3535897433757782,0.2736671566963196,-0.9389805793762207
10.345793724060059,-0.1278618574142456,-0.9503822922706604,0.7997506260871887,0.354897677898407,0.27501702308654785,-0.9391956329345703
10.365875720977783,-0.1281297504901886,-0.9505894780158997,0.7998092770576477,0.35552799701690674,0.2757061719894409,-0.9392920136451721
10.385947942733765,-0.12882143259048462,-0.9509885311126709,0.7999951839447021,0.3566972017288208,0.2768835127353668,-0.9394902586936951
10.406039953231812,-0.12947304546833038,-0.9513874053955078,0.8001867532730103,0.3578246831893921,0.2781079113483429,-0.939699113368988
10.426154136657715,-0.1298505961894989,-0.9516206979751587,0.8001985549926758,0.35845690965652466,0.2786710262298584,-0.9397959113121033
10.446228981018066,-0.13051928579807281,-0.9520871043205261,0.800264298915863,0.3597433865070343,0.27986395359039307,-0.9399790167808533
10.466314792633057,-0.13115496933460236,-0.9524789452552795,0.8004578948020935,0.36097365617752075,0.28110605478286743,-0.9401578307151794
10.48642110824585,-0.13142849504947662,-0.9526720643043518,0.800550639629364,0.361600399017334,0.2817736864089966,-0.9402509331703186
10.506500959396362,-0.13200603425502777,-0.9530767798423767,0.8007821440696716,0.3628070652484894,0.2830132842063904,-0.9404402375221252
10.526556015014648,-0.1323227733373642,-0.9532912969589233,0.8009423613548279,0.36342674493789673,0.2835578918457031,-0.940538227558136
10.546625137329102,-0.13293667137622833,-0.9536969661712646,0.8012740612030029,0.3646162748336792,0.28469324111938477,-0.9407274127006531
10.566879749298096,-0.13349522650241852,-0.9541329741477966,0.8014086484909058,0.36589404940605164,0.28596433997154236,-0.9409003853797913
10.586973190307617,-0.13381339609622955,-0.9543620347976685,0.8015164732933044,0.3665262460708618,0.28650766611099243,-0.9409894943237305
10.60706114768982,-0.1343894600868225,-0.9548149704933167,0.8017389178276062,0.3677975833415985,0.2876853048801422,-0.9411911964416504
10.627129077911377,-0.13463634252548218,-0.9550442695617676,0.8019428253173828,0.36842817068099976,0.2882618010044098,-0.9413028955459595
10.647249937057495,-0.13523204624652863,-0.9555190801620483,0.8022079467773438,0.3696444630622864,0.28935950994491577,-0.9414944648742676
10.667449474334717,-0.1358305662870407,-0.9559521079063416,0.8024094104766846,0.3708513081073761,0.29055631160736084,-0.9416547417640686
10.687560081481934,-0.13612382113933563,-0.9561426639556885,0.8025037050247192,0.3714619576931,0.2912018597126007,-0.9417318105697632
10.707918167114258,-0.13671356439590454,-0.9565402269363403,0.8027902245521545,0.37265586853027344,0.29238298535346985,-0.9418999552726746
10.728023290634155,-0.13702553510665894,-0.9567413330078125,0.8029125928878784,0.3732433021068573,0.292957603931427,-0.9419867396354675
10.748095989227295,-0.13757538795471191,-0.9572137594223022,0.8032752871513367,0.3744990825653076,0.29401278495788574,-0.9421652555465698
10.768373966217041,-0.13779331743717194,-0.9574500322341919,0.8034656047821045,0.3751380145549774,0.294607549905777,-0.9422551393508911
10.788475275039673,-0.13834919035434723,-0.95793217420578,0.803726077079773,0.37640121579170227,0.29572466015815735,-0.9424147605895996
10.808543682098389,-0.13883589208126068,-0.9582908153533936,0.8040289282798767,0.37757623195648193,0.2970537543296814,-0.9425820112228394
10.828617572784424,-0.13903653621673584,-0.958479106426239,0.804222822189331,0.37815019488334656,0.2977202832698822,-0.94267737865448
10.848681688308716,-0.13962838053703308,-0.9588938355445862,0.8043624758720398,0.37931138277053833,0.2989404797554016,-0.9428576231002808
10.868739604949951,-0.14022278785705566,-0.9592970013618469,0.8044814467430115,0.3804788589477539,0.3001748323440552,-0.9430380463600159
10.888843297958374,-0.14050118625164032,-0.9594784379005432,0.8046292662620544,0.3810309171676636,0.30078116059303284,-0.943135142326355
10.908916234970093,-0.14109908044338226,-0.9598572850227356,0.8048608899116516,0.38216450810432434,0.30194327235221863,-0.9432978630065918
10.928972482681274,-0.14169025421142578,-0.9602413773536682,0.8050402402877808,0.38332808017730713,0.30311524868011475,-0.9434500336647034
10.949067115783691,-0.1419515162706375,-0.9604292511940002,0.8051583170890808,0.38390111923217773,0.3037237823009491,-0.9435306191444397
10.969175815582275,-0.14246979355812073,-0.9608514904975891,0.805368959903717,0.3850610852241516,0.3048892915248871,-0.9436903595924377
10.989388942718506,-0.14292725920677185,-0.9613192081451416,0.805713951587677,0.3862772583961487,0.3059835731983185,-0.9438570141792297
11.009480714797974,-0.14317791163921356,-0.961527943611145,0.8058446049690247,0.3868458867073059,0.30656903982162476,-0.9439393877983093
11.029658555984497,-0.14349356293678284,-0.9619401693344116,0.8060681223869324,0.3880464732646942,0.3080003261566162,-0.9441051483154297
11.050269603729248,-0.14391030371189117,-0.9623555541038513,0.8061886429786682,0.3892134726047516,0.3093737065792084,-0.9442845582962036
11.070370197296143,-0.14413727819919586,-0.9625561833381653,0.8063620924949646,0.3898177146911621,0.30997228622436523,-0.9443721175193787
11.090490818023682,-0.14466512203216553,-0.9629178047180176,0.8065941333770752,0.3909645080566406,0.31119123101234436,-0.9445471167564392
11.110612392425537,-0.14518681168556213,-0.9632412791252136,0.8068258762359619,0.39203527569770813,0.3124396800994873,-0.9447326064109802
11.130701780319214,-0.14551468193531036,-0.9634454250335693,0.806908905506134,0.3925968110561371,0.31294187903404236,-0.9448162913322449
11.150761604309082,-0.14619605243206024,-0.9638774991035461,0.8070816397666931,0.3937332332134247,0.31388136744499207,-0.9449753165245056
11.170881986618042,-0.14654545485973358,-0.9640997648239136,0.8072012066841125,0.3942739963531494,0.3143104910850525,-0.9450539350509644
11.190985918045044,-0.14723069965839386,-0.9645711183547974,0.8074707388877869,0.39541029930114746,0.3151542842388153,-0.9452050924301147
11.211030721664429,-0.1478397399187088,-0.9650158882141113,0.8077568411827087,0.39658063650131226,0.31613120436668396,-0.9453442692756653
11.231141567230225,-0.14812150597572327,-0.9652118682861328,0.8078683018684387,0.3971523940563202,0.3167017996311188,-0.9454105496406555
11.251243114471436,-0.14865154027938843,-0.9656105041503906,0.8081322312355042,0.39832398295402527,0.31782665848731995,-0.9455440640449524
11.271265029907227,-0.14915205538272858,-0.9660031795501709,0.8084985613822937,0.39945393800735474,0.3189146816730499,-0.9456920027732849
11.291359186172485,-0.14939337968826294,-0.9661818146705627,0.8086875677108765,0.39997372031211853,0.3194834291934967,-0.9457700848579407
11.311434745788574,-0.1499803364276886,-0.9665828943252563,0.8088815212249756,0.40106213092803955,0.320555716753006,-0.9459208250045776
11.331995487213135,-0.15048198401927948,-0.9670325517654419,0.8090713620185852,0.4022156894207001,0.32166868448257446,-0.9460784196853638
11.352158308029175,-0.15077024698257446,-0.9672856330871582,0.8091752529144287,0.40278592705726624,0.32213300466537476,-0.946156919002533
11.372142314910889,-0.15134787559509277,-0.9677360653877258,0.8093427419662476,0.4038669466972351,0.32319176197052,-0.9463068842887878
11.392657279968262,-0.15187539160251617,-0.9681603312492371,0.8093901872634888,0.40499982237815857,0.32441794872283936,-0.9464491009712219
11.412757158279419,-0.1521054059267044,-0.968359649181366,0.8094487190246582,0.4055405855178833,0.32505348324775696,-0.9465170502662659
11.43286681175232,-0.15251757204532623,-0.9687837958335876,0.8095974326133728,0.406674861907959,0.32630643248558044,-0.9466404318809509
11.452942848205566,-0.15284103155136108,-0.9691672921180725,0.8099876046180725,0.4077724516391754,0.32755428552627563,-0.9467849731445312
11.473066091537476,-0.15309670567512512,-0.9693533182144165,0.8101363182067871,0.4082925319671631,0.32810109853744507,-0.9468506574630737
11.493187427520752,-0.1535574346780777,-0.9696968197822571,0.8104056119918823,0.4093537926673889,0.3293003737926483,-0.9469777345657349
11.513246297836304,-0.1538061648607254,-0.9698785543441772,0.8105300068855286,0.40989431738853455,0.3298669457435608,-0.9470400810241699
11.533324480056763,-0.15433494746685028,-0.9702807664871216,0.810890793800354,0.410950243473053,0.330826073884964,-0.9471752047538757
11.553380489349365,-0.15497910976409912,-0.9707221388816833,0.8110640645027161,0.41204580664634705,0.33172181248664856,-0.9472826719284058
11.57347321510315,-0.1552736908197403,-0.9709368348121643,0.8111452460289001,0.41259944438934326,0.33221185207366943,-0.9473330974578857
11.593551397323608,-0.15587282180786133,-0.9713633060455322,0.8113694787025452,0.41367006301879883,0.33314526081085205,-0.9474376440048218
11.61360764503479,-0.1561359018087387,-0.9715451002120972,0.8114802837371826,0.4141750633716583,0.3336940109729767,-0.947491466999054
11.633756160736084,-0.15667863190174103,-0.9719350337982178,0.8116457462310791,0.41524559259414673,0.3347610831260681,-0.9475905895233154
11.653815984725952,-0.15704470872879028,-0.9723197817802429,0.8120326399803162,0.4163082540035248,0.33588358759880066,-0.9477145671844482
11.67390489578247,-0.1572498083114624,-0.9725167155265808,0.812231719493866,0.41683560609817505,0.3364168405532837,-0.9477929472923279
11.693998575210571,-0.15756700932979584,-0.9729453325271606,0.8126475214958191,0.4179331362247467,0.33753547072410583,-0.9479430913925171
11.714110136032104,-0.15802285075187683,-0.9733395576477051,0.8129541873931885,0.4189831018447876,0.3385969400405884,-0.9480594992637634
11.734283447265625,-0.15822382271289825,-0.9735074043273926,0.8131287097930908,0.41949453949928284,0.3391786217689514,-0.948114275932312
11.754313945770264,-0.15860536694526672,-0.973881721496582,0.8132382035255432,0.4205610752105713,0.34045711159706116,-0.9482154250144958
11.774450063705444,-0.1591038554906845,-0.9742138981819153,0.8134562373161316,0.4215221405029297,0.34156227111816406,-0.9483326077461243
11.794538259506226,-0.1593608260154724,-0.9743747711181641,0.813572347164154,0.42199018597602844,0.34210219979286194,-0.9483945965766907
11.814605474472046,-0.15996745228767395,-0.9747713804244995,0.813763439655304,0.4229969084262848,0.3429984450340271,-0.948505699634552
11.83506464958191,-0.16030067205429077,-0.974990963935852,0.813879132270813,0.4235003888607025,0.3433678150177002,-0.9485583901405334
11.855248928070068,-0.16098400950431824,-0.9754595160484314,0.8140652179718018,0.42455029487609863,0.3440926969051361,-0.9486569166183472
11.875311374664307,-0.1616756021976471,-0.9759004712104797,0.8140801787376404,0.425600528717041,0.3449765145778656,-0.948758602142334
11.895461559295654,-0.1619839370250702,-0.9761328101158142,0.8141695261001587,0.4261208772659302,0.3453845977783203,-0.9488070011138916
11.915493726730347,-0.16253796219825745,-0.9766219854354858,0.8143525719642639,0.42718300223350525,0.34623923897743225,-0.9488950967788696
11.935738801956177,-0.16286323964595795,-0.9770452380180359,0.81471186876297,0.4282664656639099,0.3473629355430603,-0.9489948749542236
11.955843925476074,-0.1629919856786728,-0.9772454500198364,0.8149862885475159,0.42881566286087036,0.3479200601577759,-0.9490469694137573
11.975891351699829,-0.1631218045949936,-0.9776737689971924,0.815586268901825,0.4299924969673157,0.34910401701927185,-0.9491502642631531
11.995979309082031,-0.16324666142463684,-0.9778852462768555,0.815829873085022,0.43055376410484314,0.3496567904949188,-0.9491965770721436
12.016064167022705,-0.1634647399187088,-0.9782664179801941,0.8162797093391418,0.4316522181034088,0.3508831858634949,-0.9492865204811096
12.036166191101074,-0.16382543742656708,-0.978630006313324,0.8164768218994141,0.43269848823547363,0.35209977626800537,-0.9493675827980042
12.056312799453735,-0.16408754885196686,-0.978796124458313,0.8165625333786011,0.43315890431404114,0.35263288021087646,-0.9494185447692871
12.076390504837036,-0.16474737226963043,-0.9791571497917175,0.8165485858917236,0.434054970741272,0.3536214232444763,-0.9495432376861572
12.09647011756897,-0.1650555580854416,-0.9793396592140198,0.8165885210037231,0.4345130920410156,0.35410037636756897,-0.9495937824249268
12.116547346115112,-0.16571427881717682,-0.9797683358192444,0.8167919516563416,0.43543094396591187,0.35484060645103455,-0.9496779441833496
12.136627197265625,-0.16631117463111877,-0.9802196621894836,0.8170049786567688,0.4364868700504303,0.3556409478187561,-0.9497358798980713
12.15672254562378,-0.1665598303079605,-0.9804250001907349,0.8171500563621521,0.4370025396347046,0.3560982346534729,-0.9497667551040649
12.176796436309814,-0.1670548915863037,-0.9808206558227539,0.8173825144767761,0.4380303919315338,0.35706382989883423,-0.9498330950737
12.196916818618774,-0.16753153502941132,-0.9811995029449463,0.8175562024116516,0.4389875829219818,0.3580838739871979,-0.9499074816703796
12.217029809951782,-0.1677556186914444,-0.9813932776451111,0.8176592588424683,0.43944811820983887,0.3585887849330902,-0.9499467611312866
12.237104177474976,-0.16819708049297333,-0.9817997217178345,0.8177371025085449,0.440436989068985,0.35966455936431885,-0.9500219225883484
12.257175207138062,-0.16839203238487244,-0.9819977879524231,0.8177192807197571,0.4409392178058624,0.36027783155441284,-0.9500631093978882
12.277264833450317,-0.1688220351934433,-0.982356607913971,0.8178818225860596,0.4419254958629608,0.36136317253112793,-0.9501458406448364
12.297347784042358,-0.16919419169425964,-0.9827187061309814,0.818247377872467,0.4429110288619995,0.3623541593551636,-0.950232744216919
12.317458629608154,-0.1693805605173111,-0.9829097390174866,0.8184317946434021,0.44341063499450684,0.36283087730407715,-0.9502800703048706
12.337557554244995,-0.1698131412267685,-0.9832955002784729,0.8186812996864319,0.4443933367729187,0.36378201842308044,-0.9503573775291443
12.35784125328064,-0.17026427388191223,-0.9837142825126648,0.8189586997032166,0.44540897011756897,0.36464887857437134,-0.9504274129867554
12.37793254852295,-0.1705007404088974,-0.9839156270027161,0.819124698638916,0.44588524103164673,0.36505767703056335,-0.9504654407501221
12.39800214767456,-0.17093488574028015,-0.9843106269836426,0.8194133043289185,0.44683539867401123,0.3659668266773224,-0.950535774230957
12.418083429336548,-0.1711457222700119,-0.9845283627510071,0.8195037841796875,0.4473297894001007,0.36643552780151367,-0.9505733847618103
12.438242435455322,-0.17158129811286926,-0.9849062561988831,0.8198167681694031,0.4482668936252594,0.367359459400177,-0.9506569504737854
12.458290576934814,-0.17176634073257446,-0.9850852489471436,0.8200191855430603,0.4487367272377014,0.3678358793258667,-0.9506930708885193
12.47838807106018,-0.17216385900974274,-0.9854894280433655,0.8204107880592346,0.4497486650943756,0.3687048554420471,-0.9507542252540588
12.498444318771362,-0.17238295078277588,-0.9859137535095215,0.8208253979682922,0.4510798752307892,0.36952826380729675,-0.9506906867027283
12.518566131591797,-0.1724778413772583,-0.9861322641372681,0.8209412693977356,0.4519047439098358,0.369911789894104,-0.9505876898765564
12.5386483669281,-0.17267829179763794,-0.9865399599075317,0.8210371732711792,0.4534965753555298,0.3707842528820038,-0.9503782391548157
12.558725833892822,-0.17280219495296478,-0.9867371916770935,0.8210444450378418,0.45427608489990234,0.3712250292301178,-0.9502734541893005
12.578798770904541,-0.17298665642738342,-0.9871239066123962,0.821061909198761,0.45580044388771057,0.3721769452095032,-0.9500727653503418
12.598875284194946,-0.17312674224376678,-0.9873394966125488,0.8210573196411133,0.45656058192253113,0.3725700378417969,-0.9499772787094116
12.618946552276611,-0.17338639497756958,-0.9877151846885681,0.8210233449935913,0.4580787718296051,0.3734784722328186,-0.9497893452644348
12.638992071151733,-0.17366375029087067,-0.9881023168563843,0.8210939168930054,0.45959222316741943,0.3742741048336029,-0.9496226906776428
12.659092664718628,-0.17378591001033783,-0.9882924556732178,0.8212352991104126,0.46028828620910645,0.37461763620376587,-0.9495456218719482
12.67922306060791,-0.17408473789691925,-0.9887032508850098,0.8214590549468994,0.4617203176021576,0.3752593696117401,-0.9493910670280457
12.699387788772583,-0.17437326908111572,-0.9890754222869873,0.821613073348999,0.46313419938087463,0.3760138154029846,-0.9492180943489075
12.719482898712158,-0.1745033711194992,-0.989239513874054,0.8216801881790161,0.4638163447380066,0.3764398694038391,-0.9491325616836548
12.739625930786133,-0.17483362555503845,-0.9896268248558044,0.8217946290969849,0.46521851420402527,0.3771449029445648,-0.9489597082138062
12.759673118591309,-0.17497819662094116,-0.9898058176040649,0.8218575119972229,0.4659145474433899,0.37753841280937195,-0.9488769769668579
12.779732704162598,-0.17525464296340942,-0.990157425403595,0.8220071792602539,0.467293381690979,0.37832632660865784,-0.9487128853797913
12.800078868865967,-0.17543229460716248,-0.9905229210853577,0.8223721385002136,0.4687051475048065,0.3790819048881531,-0.9485628604888916
12.82017469406128,-0.17555780708789825,-0.9907118082046509,0.822532057762146,0.4693942070007324,0.3794293999671936,-0.9484990239143372
12.840244054794312,-0.1757829338312149,-0.9910734295845032,0.8228171467781067,0.4708048701286316,0.38020214438438416,-0.9483630657196045
12.860572099685669,-0.17594830691814423,-0.9912506937980652,0.8228681087493896,0.4714895188808441,0.38058537244796753,-0.9482825994491577
12.880669116973877,-0.1762496531009674,-0.9915937185287476,0.8229902982711792,0.4728434681892395,0.3813757300376892,-0.9481204748153687
12.900727033615112,-0.17659930884838104,-0.9919574856758118,0.8230866193771362,0.4741443395614624,0.38208267092704773,-0.9479684829711914
12.920817375183105,-0.1767357885837555,-0.9921536445617676,0.8231251835823059,0.4748198390007019,0.3824746906757355,-0.9478855729103088
12.940898656845093,-0.17702095210552216,-0.9925302863121033,0.8232266306877136,0.4761509895324707,0.38325369358062744,-0.9477225542068481
12.961044311523438,-0.17733410000801086,-0.992883563041687,0.82334303855896,0.4774913191795349,0.38402003049850464,-0.9475645422935486
12.981153011322021,-0.17746299505233765,-0.9930551648139954,0.823413074016571,0.47817477583885193,0.3844318985939026,-0.9474838972091675
13.001267194747925,-0.1777075082063675,-0.9934427738189697,0.8236957788467407,0.4795680642127991,0.38512012362480164,-0.9473302364349365
13.02132248878479,-0.17786630988121033,-0.9936348795890808,0.8237834572792053,0.48023977875709534,0.3854539692401886,-0.9472551345825195
13.041441440582275,-0.1781553477048874,-0.994015097618103,0.8239599466323853,0.4816073477268219,0.3861674666404724,-0.9471071362495422
13.0620276927948,-0.17848600447177887,-0.9943704009056091,0.8240706920623779,0.48290130496025085,0.38689476251602173,-0.9469595551490784
13.082077741622925,-0.17864230275154114,-0.9945347309112549,0.8241190314292908,0.483516663312912,0.3872818350791931,-0.9468886256217957
13.102153778076172,-0.17897304892539978,-0.9949203729629517,0.8241592049598694,0.48479050397872925,0.387996643781662,-0.946742832660675
13.122419834136963,-0.17929066717624664,-0.9953084588050842,0.8242622017860413,0.4860222041606903,0.38867491483688354,-0.9466066956520081
13.142550706863403,-0.17944692075252533,-0.9954919219017029,0.8242994546890259,0.48667100071907043,0.38905370235443115,-0.9465281963348389
13.162641763687134,-0.17971059679985046,-0.9958351850509644,0.8244638442993164,0.487946093082428,0.38983041048049927,-0.9463851451873779
13.182708978652954,-0.17980480194091797,-0.9960238337516785,0.824631929397583,0.48860740661621094,0.39018335938453674,-0.9463191032409668
13.202789068222046,-0.1800193041563034,-0.9963988065719604,0.8250008821487427,0.4898855984210968,0.39084476232528687,-0.946191668510437
13.222933292388916,-0.1803160160779953,-0.9967889785766602,0.8253191709518433,0.4911167323589325,0.3914142847061157,-0.9460566639900208
13.243007898330688,-0.1804487705230713,-0.9969792366027832,0.8254575133323669,0.4917683005332947,0.3917475640773773,-0.9459816813468933
13.263098239898682,-0.18072064220905304,-0.997325599193573,0.8255934715270996,0.49297505617141724,0.39252373576164246,-0.9458379149436951
13.283276319503784,-0.18087051808834076,-0.9974958896636963,0.8256475329399109,0.4935637414455414,0.39289993047714233,-0.9457697868347168
13.303399801254272,-0.18120995163917542,-0.9978185892105103,0.8257060050964355,0.4947260916233063,0.39366331696510315,-0.9456408619880676
13.323420763015747,-0.18152041733264923,-0.9981592297554016,0.8256963491439819,0.49590620398521423,0.39447957277297974,-0.9455339908599854
13.3435959815979,-0.18162241578102112,-0.9983336329460144,0.8257926106452942,0.49649596214294434,0.3948791027069092,-0.9454850554466248
13.363612651824951,-0.18190066516399384,-0.998725950717926,0.8259857296943665,0.49770939350128174,0.3955329656600952,-0.9453647136688232
13.383670568466187,-0.18198110163211823,-0.9988837242126465,0.8261913657188416,0.4982830584049225,0.39590805768966675,-0.9453085064888
13.403790950775146,-0.18221139907836914,-0.9992230534553528,0.8264418840408325,0.49951738119125366,0.3966575860977173,-0.9451700448989868
13.423842191696167,-0.18246585130691528,-0.9995438456535339,0.8266357779502869,0.5007145404815674,0.3974211513996124,-0.9450351595878601
13.443997859954834,-0.18264088034629822,-0.9997230172157288,0.826698362827301,0.501308798789978,0.3977380692958832,-0.9449670910835266
13.464029788970947,-0.18300122022628784,-1.0000977516174316,0.8268747925758362,0.5024682283401489,0.3983016610145569,-0.9448350071907043
13.484183073043823,-0.18326181173324585,-1.000465750694275,0.8272131681442261,0.5036125183105469,0.3988974988460541,-0.9447125792503357
13.504300832748413,-0.18335115909576416,-1.0006390810012817,0.8274093270301819,0.5041948556900024,0.3992452323436737,-0.9446509480476379
13.524438619613647,-0.18349997699260712,-1.0009726285934448,0.8276970386505127,0.5053861737251282,0.40006038546562195,-0.9445138573646545
13.544610023498535,-0.18359053134918213,-1.0011322498321533,0.8277781009674072,0.5059860944747925,0.40049633383750916,-0.9444419145584106
13.564774513244629,-0.18380707502365112,-1.0014443397521973,0.8279204964637756,0.5071058869361877,0.4013212025165558,-0.9443113803863525
13.584842920303345,-0.18406596779823303,-1.001752495765686,0.8280959725379944,0.5081800818443298,0.4020618200302124,-0.9441879987716675
13.604907512664795,-0.1842399388551712,-1.001906394958496,0.828140377998352,0.5087068676948547,0.4024102985858917,-0.9441328644752502
13.625071287155151,-0.18456843495368958,-1.0022238492965698,0.8282166719436646,0.5097876787185669,0.4031209945678711,-0.9440199732780457
13.645194292068481,-0.1847791075706482,-1.0025802850723267,0.8285923004150391,0.5109310150146484,0.40373334288597107,-0.9438953995704651
13.665331840515137,-0.18487608432769775,-1.0027767419815063,0.8288587331771851,0.5115078687667847,0.4039842188358307,-0.9438352584838867
13.685430765151978,-0.1849953830242157,-1.0031496286392212,0.8294333219528198,0.5126988291740417,0.40459030866622925,-0.9437063336372375
13.705718755722046,-0.18507085740566254,-1.0035096406936646,0.8300394415855408,0.5139023065567017,0.40525275468826294,-0.9435720443725586
13.72595739364624,-0.1851363480091095,-1.0036742687225342,0.8302475214004517,0.5144777297973633,0.40562909841537476,-0.9435012936592102
13.745957612991333,-0.18533529341220856,-1.0039747953414917,0.8304085731506348,0.5155880451202393,0.4064807891845703,-0.9433509707450867
13.766074657440186,-0.18543274700641632,-1.0041369199752808,0.8304392099380493,0.516156792640686,0.40691423416137695,-0.9432737827301025
13.786175012588501,-0.18569070100784302,-1.0044664144515991,0.8305565118789673,0.517219066619873,0.40765103697776794,-0.9431396722793579
13.806210041046143,-0.18609541654586792,-1.0048112869262695,0.8305743336677551,0.5182126760482788,0.4082530438899994,-0.9430313110351562
13.826384544372559,-0.18632923066616058,-1.004988670349121,0.8305444717407227,0.5187074542045593,0.4085392951965332,-0.9429836869239807
13.846410512924194,-0.18669986724853516,-1.0053093433380127,0.8306072354316711,0.5196897983551025,0.40918585658073425,-0.9428780674934387
13.866469621658325,-0.18685279786586761,-1.005473017692566,0.8307150602340698,0.5201942324638367,0.40949326753616333,-0.9428154826164246
13.886553525924683,-0.18719486892223358,-1.005847692489624,0.8308913111686707,0.5212650299072266,0.4100392460823059,-0.9426745772361755
13.906614780426025,-0.18749243021011353,-1.006187081336975,0.8310621380805969,0.5223191380500793,0.4106827676296234,-0.9425361156463623
13.926702737808228,-0.18762566149234772,-1.0063469409942627,0.8311417698860168,0.5228463411331177,0.41103389859199524,-0.942467212677002
13.94678544998169,-0.1878557801246643,-1.0066561698913574,0.8312970995903015,0.5238738656044006,0.41178077459335327,-0.9423354864120483
13.966846466064453,-0.18803350627422333,-1.0069950819015503,0.8313956260681152,0.5249274969100952,0.4125722646713257,-0.942205011844635
13.98694920539856,-0.18814778327941895,-1.0071688890457153,0.8314743041992188,0.5254279375076294,0.41290268301963806,-0.9421436190605164
14.00704312324524,-0.18834877014160156,-1.0074501037597656,0.831735372543335,0.5263448357582092,0.41360360383987427,-0.942035973072052
14.027251243591309,-0.18846021592617035,-1.00775146484375,0.8321318030357361,0.5273222327232361,0.4142988622188568,-0.9419229030609131
14.047342300415039,-0.18856267631053925,-1.0079052448272705,0.8322846293449402,0.5277994871139526,0.4146197736263275,-0.9418678879737854
14.067403554916382,-0.1887616068124771,-1.0082341432571411,0.8325988054275513,0.5288137793540955,0.4152432084083557,-0.9417412281036377
14.087495803833008,-0.18889494240283966,-1.0084079504013062,0.8327274918556213,0.5293164253234863,0.41551730036735535,-0.9416763782501221
14.107568740844727,-0.1892223358154297,-1.0088294744491577,0.8330614566802979,0.5303264856338501,0.41585591435432434,-0.9415541887283325
14.127753973007202,-0.18959039449691772,-1.0091814994812012,0.8331141471862793,0.5313129425048828,0.4164290130138397,-0.941432774066925
14.14786148071289,-0.1897730529308319,-1.0093625783920288,0.8331663012504578,0.5317994356155396,0.4166859984397888,-0.9413692951202393
14.167931318283081,-0.19014108180999756,-1.0097017288208008,0.8332405686378479,0.5327287316322327,0.4172385632991791,-0.9412555694580078
14.188005447387695,-0.19030484557151794,-1.0098680257797241,0.8333261013031006,0.5331817269325256,0.4175073504447937,-0.9411973357200623
14.208205699920654,-0.19062834978103638,-1.0102499723434448,0.8335152268409729,0.5341620445251465,0.4179801642894745,-0.9410648345947266
14.228188753128052,-0.19079233705997467,-1.010593056678772,0.833875298500061,0.5351464748382568,0.4185906946659088,-0.9409443736076355
14.248262166976929,-0.19090338051319122,-1.0107675790786743,0.8340184092521667,0.5356314778327942,0.4188779294490814,-0.9408812522888184
14.268371343612671,-0.19102655351161957,-1.0111172199249268,0.8343555331230164,0.5366364121437073,0.419535756111145,-0.9407562613487244
14.288408756256104,-0.1912827491760254,-1.011443018913269,0.8345755338668823,0.5375406742095947,0.42011991143226624,-0.9406416416168213
14.308500051498413,-0.1914328932762146,-1.0116102695465088,0.8346109390258789,0.5380182862281799,0.42042967677116394,-0.9405804872512817
14.328577756881714,-0.19174906611442566,-1.0119794607162476,0.8346536159515381,0.5389614701271057,0.4209975600242615,-0.9404798746109009
14.34878659248352,-0.19207128882408142,-1.012296199798584,0.834830105304718,0.5397824645042419,0.4215240478515625,-0.9403893947601318
14.368993997573853,-0.19221468269824982,-1.0124638080596924,0.8349324464797974,0.5402349829673767,0.4217957854270935,-0.9403323531150818
14.38904881477356,-0.19248323142528534,-1.0127925872802734,0.8351518511772156,0.5411425232887268,0.4223553538322449,-0.9402162432670593
14.409396886825562,-0.19268086552619934,-1.0131421089172363,0.8355160355567932,0.5420931577682495,0.4228823482990265,-0.9401006698608398
14.429491758346558,-0.19277052581310272,-1.0133367776870728,0.8357696533203125,0.5425796508789062,0.42308926582336426,-0.940045177936554
14.44957184791565,-0.19293279945850372,-1.013686180114746,0.8362263441085815,0.5435105562210083,0.4236140847206116,-0.9399337768554688
14.469654560089111,-0.19298091530799866,-1.013844609260559,0.8364250659942627,0.5439902544021606,0.42395642399787903,-0.9398717880249023
14.489768743515015,-0.1930811107158661,-1.0141383409500122,0.8366236686706543,0.5449200868606567,0.42477360367774963,-0.9397425651550293
