liuyurong129/humanoid-gym/humanoid/data/target_q_20250523-025946.csv
timestamp,joint_1,joint_2,joint_3,joint_4,joint_5,joint_6
5.3882598876953125e-05,0.0,0.0,0.0,0.0,0.0,0.0
0.020117759704589844,0.0,0.0,0.0,0.0,0.0,0.0
0.04018545150756836,0.0,0.0,0.0,0.0,0.0,0.0
0.060245513916015625,-0.014809077605605125,0.09104833006858826,0.31452780961990356,0.15650254487991333,0.2887127995491028,0.19167643785476685
0.08029723167419434,0.004543349612504244,-0.03388824686408043,0.24492551386356354,0.0850459486246109,0.1295134276151657,0.1807112693786621
0.10038948059082031,-0.00033263443037867546,-0.024724487215280533,0.19914087653160095,0.08734773099422455,0.1318322867155075,0.1870630979537964
0.12046241760253906,0.0008009192533791065,-0.07523234933614731,0.1474839299917221,0.0797891616821289,0.08861963450908661,0.18521346151828766
0.14052653312683105,0.0013364297337830067,-0.11286896467208862,0.1370393931865692,0.07636673748493195,0.07154233753681183,0.18202607333660126
0.16063690185546875,-0.003694306593388319,-0.12671400606632233,0.14855095744132996,0.0732557475566864,0.06555117666721344,0.17843368649482727
0.1807699203491211,0.0019806516356766224,-0.1584433615207672,0.1548970341682434,0.07436424493789673,0.0638580396771431,0.17791061103343964
0.20077252388000488,-0.00637544272467494,-0.15878939628601074,0.21700993180274963,0.08101789653301239,0.07137420028448105,0.1748266965150833
0.22087883949279785,-0.003355863969773054,-0.17965993285179138,0.23695535957813263,0.08537513017654419,0.07288596779108047,0.17934104800224304
0.24095821380615234,0.0068244230933487415,-0.1954510658979416,0.2169232964515686,0.08846671879291534,0.08279500901699066,0.18539531528949738
0.2610323429107666,-0.006215910892933607,-0.1967913955450058,0.26760825514793396,0.09989647567272186,0.052553266286849976,0.1854325383901596
0.2810847759246826,0.001355514395982027,-0.217416450381279,0.2765926122665405,0.09932692348957062,0.06683299690485,0.18826405704021454
0.30118656158447266,0.0009071980603039265,-0.20602034032344818,0.31430715322494507,0.10612060129642487,0.09047158062458038,0.19075539708137512
0.3212714195251465,0.0061782789416611195,-0.2522279620170593,0.2678896188735962,0.11145789921283722,0.027895070612430573,0.19786261022090912
0.3414478302001953,0.007915239781141281,-0.23475845158100128,0.3198305666446686,0.11022661626338959,0.09729278087615967,0.19747988879680634
0.36153554916381836,0.002201263327151537,-0.26319098472595215,0.28803181648254395,0.12189939618110657,0.018568240106105804,0.20827950537204742
0.3816263675689697,0.004967976827174425,-0.2837010622024536,0.2737106680870056,0.11787547171115875,0.011966787278652191,0.20631620287895203
0.40169334411621094,-0.00042980490252375603,-0.24395374953746796,0.3482547104358673,0.12573809921741486,0.08754430711269379,0.21087191998958588
0.42175960540771484,-0.0016460600309073925,-0.26994824409484863,0.31637507677078247,0.12967662513256073,0.033110879361629486,0.21708548069000244
0.44199657440185547,-0.001007291954010725,-0.26859644055366516,0.3428429663181305,0.12884201109409332,0.066676564514637,0.21665026247501373
0.4620838165283203,0.003347091842442751,-0.24372069537639618,0.38234031200408936,0.13448403775691986,0.11360345780849457,0.22197793424129486
0.4821784496307373,0.007283542770892382,-0.30252835154533386,0.2943201959133148,0.13216523826122284,0.02460157871246338,0.22433780133724213
0.5021989345550537,-0.00048302067443728447,-0.25678369402885437,0.3822052478790283,0.13900111615657806,0.10503903031349182,0.22612814605236053
0.522284746170044,-0.0013427692465484142,-0.28123214840888977,0.34757593274116516,0.14666451513767242,0.042665913701057434,0.23177506029605865
0.5424320697784424,0.0054654222913086414,-0.30444052815437317,0.3270967900753021,0.13711470365524292,0.06131261587142944,0.22690659761428833
0.5624501705169678,-0.0016906666569411755,-0.27615001797676086,0.379121333360672,0.15541571378707886,0.0677385926246643,0.23937703669071198
0.5824987888336182,0.011366192251443863,-0.34748563170433044,0.2833271622657776,0.1438138335943222,0.0010285675525665283,0.23359288275241852
0.6025936603546143,0.003376175183802843,-0.25742560625076294,0.4446905255317688,0.14021897315979004,0.16489043831825256,0.22630685567855835
0.6226565837860107,0.0069257658906280994,-0.31171438097953796,0.3274078071117401,0.1539439707994461,0.030399873852729797,0.2426784187555313
0.6427254676818848,0.008739575743675232,-0.28653189539909363,0.4040326476097107,0.14883388578891754,0.1302497833967209,0.23658767342567444
0.6629998683929443,-0.009519658982753754,-0.26772311329841614,0.4332425594329834,0.16489394009113312,0.0947108268737793,0.24465389549732208
0.6829988956451416,0.019996169954538345,-0.34306296706199646,0.3275034427642822,0.1444299966096878,0.07572631537914276,0.24001936614513397
0.7030799388885498,-0.0017534377984702587,-0.30029740929603577,0.39438605308532715,0.16684477031230927,0.0540173202753067,0.247273787856102
0.7232029438018799,0.010073501616716385,-0.35085850954055786,0.3122189939022064,0.16019244492053986,0.004653625190258026,0.24598266184329987
0.7432739734649658,0.006106287706643343,-0.27003178000450134,0.48210251331329346,0.15579192340373993,0.18065840005874634,0.23735015094280243
0.7633812427520752,0.002034973818808794,-0.3388318121433258,0.3433711528778076,0.1669156551361084,0.0037421807646751404,0.24786987900733948
0.7835001945495605,0.007548016030341387,-0.31596246361732483,0.4041706621646881,0.16160501539707184,0.11404186487197876,0.24442502856254578
0.8035783767700195,0.004183073062449694,-0.28570589423179626,0.44934549927711487,0.17049239575862885,0.13828600943088531,0.25222334265708923
0.8237183094024658,0.009020011872053146,-0.3272939920425415,0.36518728733062744,0.16478054225444794,0.06503096222877502,0.2512117922306061
0.8437919616699219,0.0028043356724083424,-0.32133907079696655,0.40336889028549194,0.17023329436779022,0.08655357360839844,0.2517378032207489
0.8639426231384277,0.00568391801789403,-0.33296239376068115,0.38240087032318115,0.1732603758573532,0.0579332560300827,0.2539210617542267
0.884066104888916,0.010562475770711899,-0.3616703748703003,0.3470132350921631,0.1661280244588852,0.04449894279241562,0.24682919681072235
0.9041709899902344,0.0007258174009621143,-0.32385557889938354,0.402068555355072,0.1822962909936905,0.06276033073663712,0.2570067048072815
0.9241867065429688,0.013793569058179855,-0.3713253438472748,0.3433687090873718,0.16854436695575714,0.04402726888656616,0.24812082946300507
0.944270133972168,0.006624676752835512,-0.294534295797348,0.48669707775115967,0.1708640307188034,0.17137546837329865,0.2493506371974945
0.9643411636352539,7.727416232228279e-05,-0.32148173451423645,0.4142579734325409,0.18215657770633698,0.05225718021392822,0.26120078563690186
0.9844424724578857,0.024031586945056915,-0.3449205458164215,0.38807347416877747,0.16504912078380585,0.11636035144329071,0.255012184381485
1.0045080184936523,-0.0007922234944999218,-0.3132178485393524,0.4372931122779846,0.18788959085941315,0.0714065209031105,0.2644946277141571
1.0245916843414307,0.01664041355252266,-0.3775644302368164,0.32525718212127686,0.17547783255577087,0.009703248739242554,0.2606123089790344
1.0446827411651611,0.00010642828419804573,-0.31366536021232605,0.4624980688095093,0.17888562381267548,0.12062077224254608,0.25383713841438293
1.0648181438446045,0.008811179548501968,-0.3865894377231598,0.32545995712280273,0.18441833555698395,-0.03298602253198624,0.25640955567359924
1.084834098815918,0.011803355067968369,-0.3294883072376251,0.45644432306289673,0.1646444946527481,0.1720365732908249,0.24058599770069122
1.105046033859253,-0.00463245389983058,-0.33345118165016174,0.41987717151641846,0.2043626755475998,0.06609408557415009,0.27079278230667114
1.1251304149627686,0.0014025983400642872,-0.3467375338077545,0.4035346508026123,0.1876264363527298,0.06070516258478165,0.25967514514923096
1.1451706886291504,0.004052576143294573,-0.33374106884002686,0.43338102102279663,0.18389195203781128,0.10798488557338715,0.25857114791870117
1.165353775024414,0.003634136635810137,-0.33357587456703186,0.42797034978866577,0.190352663397789,0.0814216285943985,0.26378312706947327
1.1854681968688965,0.007554259616881609,-0.34387025237083435,0.4140576720237732,0.18511317670345306,0.0844673216342926,0.26188358664512634
1.2056212425231934,0.002979461569339037,-0.36568182706832886,0.38541296124458313,0.18986910581588745,0.033334702253341675,0.2620376646518707
1.2256155014038086,0.007801067549735308,-0.3587433993816376,0.39844200015068054,0.18638011813163757,0.06861482560634613,0.25771424174308777
1.2456796169281006,0.009444508701562881,-0.35995692014694214,0.39679640531539917,0.18769200146198273,0.069597989320755,0.25849291682243347
1.265817642211914,0.00934627279639244,-0.355698823928833,0.407317578792572,0.18841201066970825,0.07706232368946075,0.2578595280647278
1.2858846187591553,0.008658941835165024,-0.35023033618927,0.41627541184425354,0.18977339565753937,0.08840025961399078,0.2592657208442688
1.3060359954833984,0.0043830242939293385,-0.34862852096557617,0.41913124918937683,0.19217954576015472,0.07879091054201126,0.26241591572761536
1.3260605335235596,0.008183900266885757,-0.3374975919723511,0.4370151460170746,0.18864883482456207,0.1047193855047226,0.26097381114959717
1.3461332321166992,0.007135708350688219,-0.3559233844280243,0.4085999131202698,0.19101861119270325,0.07198303937911987,0.26250359416007996
1.3661820888519287,0.00562869431450963,-0.3634266257286072,0.4058997631072998,0.19214241206645966,0.0589861199259758,0.26020297408103943
1.386261224746704,0.00718053849413991,-0.36520230770111084,0.4025344252586365,0.19233821332454681,0.06134338676929474,0.2603970170021057
1.4063310623168945,0.008292000740766525,-0.3749721944332123,0.388704776763916,0.1916959136724472,0.04984286427497864,0.25822246074676514
1.4264500141143799,0.007200669962912798,-0.35659101605415344,0.41936999559402466,0.1950768679380417,0.07851971685886383,0.26107507944107056
1.4464795589447021,0.010027486830949783,-0.3573962152004242,0.41568654775619507,0.19281136989593506,0.0849568098783493,0.2621225416660309
1.4665603637695312,0.004678618628531694,-0.3527531921863556,0.426504909992218,0.19500693678855896,0.08292002975940704,0.26277947425842285
1.486670970916748,0.007816221565008163,-0.3484819531440735,0.42502257227897644,0.19421954452991486,0.0901205986738205,0.26466768980026245
1.5068347454071045,0.0068128970451653,-0.3562557101249695,0.4234669804573059,0.19380156695842743,0.08029869198799133,0.262195348739624
1.5268495082855225,0.010189790278673172,-0.37310418486595154,0.39863452315330505,0.1937381476163864,0.05938349664211273,0.2616989016532898
1.5470075607299805,0.006338235456496477,-0.36992815136909485,0.405448317527771,0.19333720207214355,0.0636417344212532,0.2599021792411804
1.567011833190918,0.005772319156676531,-0.36375224590301514,0.41416245698928833,0.1961396187543869,0.06846769154071808,0.2599310278892517
1.5871071815490723,0.009137611836194992,-0.3688848316669464,0.41023457050323486,0.19539357721805573,0.07198135554790497,0.2609011232852936
1.6071562767028809,0.006044444162398577,-0.3574528396129608,0.42738133668899536,0.1968487799167633,0.08396436274051666,0.2622068524360657
1.627244234085083,0.006793652195483446,-0.3567025661468506,0.42378783226013184,0.1965721994638443,0.08022940158843994,0.262651264667511
1.6473846435546875,0.0051308912225067616,-0.34765708446502686,0.43545860052108765,0.1988905519247055,0.08859352767467499,0.26475030183792114
1.667421817779541,0.007213611621409655,-0.3621281683444977,0.4212351441383362,0.1934686005115509,0.07942993938922882,0.26033008098602295
1.6875286102294922,0.006259810645133257,-0.36344924569129944,0.41807296872138977,0.19840481877326965,0.07027552276849747,0.26257091760635376
1.7075965404510498,0.006865229923278093,-0.37442317605018616,0.4012439250946045,0.19649843871593475,0.057275258004665375,0.2610878646373749
1.727661371231079,0.006604139227420092,-0.36620429158210754,0.410165399312973,0.19793634116649628,0.06689982861280441,0.2620610296726227
1.7477295398712158,0.007171821314841509,-0.36415964365005493,0.4183197021484375,0.19658790528774261,0.07756319642066956,0.2617306113243103
1.7678494453430176,0.007368159014731646,-0.36069515347480774,0.42474234104156494,0.19657644629478455,0.08144955337047577,0.26199638843536377
1.7879619598388672,0.007492024917155504,-0.3546002507209778,0.43091848492622375,0.19523191452026367,0.08888950943946838,0.26206496357917786
1.8080286979675293,0.007725235540419817,-0.36317047476768494,0.41890162229537964,0.1959770768880844,0.07455375790596008,0.26197099685668945
1.828200340270996,0.006613385397940874,-0.36401480436325073,0.4184718728065491,0.19719760119915009,0.07221074402332306,0.26222479343414307
1.8483366966247559,0.006824698764830828,-0.37043118476867676,0.4070085287094116,0.19699548184871674,0.05976569652557373,0.2622927129268646
1.8684163093566895,0.005838487762957811,-0.3690328896045685,0.4100179970264435,0.19771717488765717,0.06257402151823044,0.2618441581726074
1.888523817062378,0.006887536961585283,-0.3657423257827759,0.41830867528915405,0.19755078852176666,0.07393725961446762,0.26153048872947693
1.9086174964904785,0.008502703160047531,-0.36530327796936035,0.41967684030532837,0.1970738023519516,0.07988937199115753,0.26234209537506104
1.9286959171295166,0.006132927257567644,-0.36340945959091187,0.42193111777305603,0.1982925981283188,0.07519856095314026,0.26247450709342957
1.9487583637237549,0.006627981085330248,-0.35817915201187134,0.4302219748497009,0.19781480729579926,0.08485420048236847,0.26286980509757996
1.9688217639923096,0.00792892649769783,-0.36515262722969055,0.42081063985824585,0.19798792898654938,0.07572722434997559,0.26292040944099426
1.9889216423034668,0.007796902675181627,-0.36492422223091125,0.4207039177417755,0.1975148469209671,0.07755111902952194,0.26234304904937744
2.0090155601501465,0.007359844166785479,-0.36650028824806213,0.4180868864059448,0.19813098013401031,0.07313836365938187,0.2625162601470947
2.0290894508361816,0.00806240364909172,-0.3683755695819855,0.4170536994934082,0.1978985071182251,0.07335058599710464,0.2622692584991455
2.049145460128784,0.007155772764235735,-0.36535099148750305,0.4219406247138977,0.19891761243343353,0.07621090114116669,0.2627420723438263
2.0696053504943848,0.0076532852835953236,-0.3658880293369293,0.42070457339286804,0.19846518337726593,0.07535501569509506,0.26256024837493896
2.089690685272217,0.007091481704264879,-0.36461541056632996,0.42234787344932556,0.19831044971942902,0.07678888738155365,0.2622414231300354
2.1097776889801025,0.007105786819010973,-0.36346033215522766,0.4244440495967865,0.19901806116104126,0.07773230969905853,0.2629147469997406
2.1298298835754395,0.0067055863328278065,-0.36573341488838196,0.4211905896663666,0.19895364344120026,0.0732293352484703,0.26260027289390564
2.149907350540161,0.007868010550737381,-0.3661346137523651,0.42116808891296387,0.19859378039836884,0.07563529908657074,0.26227712631225586
2.1699845790863037,0.007522393483668566,-0.3663668930530548,0.41995468735694885,0.19871260225772858,0.0743178129196167,0.2622545659542084
2.1900620460510254,0.007081848103553057,-0.36279770731925964,0.42607221007347107,0.1984630674123764,0.0804106742143631,0.26160573959350586
2.210125207901001,0.007639352697879076,-0.3661145865917206,0.4235285222530365,0.19854424893856049,0.07760947197675705,0.2615213096141815
2.2301979064941406,0.0066927713342010975,-0.3606176972389221,0.4299691915512085,0.19878418743610382,0.08365212380886078,0.2615510821342468
2.2502617835998535,0.008088875561952591,-0.37187060713768005,0.41249722242355347,0.19920523464679718,0.06662843376398087,0.2619382441043854
2.2703208923339844,0.006049115676432848,-0.3655470013618469,0.4236097037792206,0.20273089408874512,0.07156793773174286,0.26369619369506836
2.290494203567505,0.008801724761724472,-0.3690490126609802,0.4220823645591736,0.19799821078777313,0.07493742555379868,0.2607177793979645
2.310556173324585,0.008765008300542831,-0.36715611815452576,0.424552857875824,0.19990910589694977,0.07756510376930237,0.26203078031539917
2.3308446407318115,0.007876541465520859,-0.3668859302997589,0.429182231426239,0.19986633956432343,0.07982585579156876,0.2613307535648346
2.350808620452881,0.0071618822403252125,-0.3675355017185211,0.42518261075019836,0.20034779608249664,0.07561798393726349,0.2618022561073303
2.370871067047119,0.008768435567617416,-0.36850741505622864,0.4242921471595764,0.19932617247104645,0.077863909304142,0.2613726556301117
2.3909389972686768,0.008288946002721786,-0.36858102679252625,0.424834668636322,0.20014004409313202,0.07620764523744583,0.2619255781173706
2.411156415939331,0.007714186329394579,-0.3679734766483307,0.4253584146499634,0.2001361846923828,0.07616879045963287,0.2616308331489563
2.431244373321533,0.007531252223998308,-0.3680828809738159,0.42560645937919617,0.19998790323734283,0.0763191282749176,0.2615415155887604
2.451421022415161,0.007166292984038591,-0.3674508333206177,0.4256974458694458,0.1998552531003952,0.07603238523006439,0.2611808776855469
2.471435546875,0.0074699935503304005,-0.3678237795829773,0.4253581762313843,0.199716255068779,0.07619091123342514,0.261186420917511
2.4916093349456787,0.0076690432615578175,-0.36808204650878906,0.4255039691925049,0.19998091459274292,0.0763477236032486,0.2614806592464447
2.511725902557373,0.008316833525896072,-0.36885499954223633,0.423828661441803,0.1996162384748459,0.07701355218887329,0.26147741079330444
2.5317540168762207,0.009075280278921127,-0.3717620372772217,0.41835638880729675,0.19926364719867706,0.07290332019329071,0.26119694113731384
2.5518391132354736,0.00690125348046422,-0.36776816844940186,0.4265734851360321,0.20050455629825592,0.07521909475326538,0.2615553140640259
2.571929931640625,0.008011896163225174,-0.368730753660202,0.42468708753585815,0.20005612075328827,0.07563918828964233,0.2614562511444092
2.591998815536499,0.008955631405115128,-0.37136492133140564,0.4213060736656189,0.1997552365064621,0.07472500950098038,0.26115497946739197
2.6120498180389404,0.008602771908044815,-0.36947378516197205,0.42360854148864746,0.20002810657024384,0.07656951248645782,0.26144179701805115
2.6321375370025635,0.006519470829516649,-0.36795300245285034,0.4265279173851013,0.2005767673254013,0.07308519631624222,0.26124536991119385
2.652211904525757,0.01088118925690651,-0.36977455019950867,0.4228350520133972,0.19891346991062164,0.07831990718841553,0.26112329959869385
2.672300338745117,0.009265374392271042,-0.3697420656681061,0.4221562147140503,0.19998082518577576,0.07513817399740219,0.2610582709312439
2.6923317909240723,0.007877226918935776,-0.36843857169151306,0.42606067657470703,0.199965700507164,0.07549108564853668,0.2608977258205414
2.7124204635620117,0.008945148438215256,-0.36907273530960083,0.424066960811615,0.19971764087677002,0.07489579916000366,0.2607634663581848
2.7325692176818848,0.008701171725988388,-0.36839303374290466,0.4250936508178711,0.2001001387834549,0.07662022113800049,0.2611527442932129
2.75258469581604,0.008375357836484909,-0.36855748295783997,0.42479217052459717,0.2001955360174179,0.07496769726276398,0.26104238629341125
2.772722005844116,0.008876767009496689,-0.36948034167289734,0.423520028591156,0.2001500278711319,0.07551411539316177,0.2612383961677551
2.7928810119628906,0.00869409367442131,-0.3696713447570801,0.42253410816192627,0.20015792548656464,0.0730828046798706,0.2611538767814636
2.8129615783691406,0.008699048310518265,-0.36922332644462585,0.4248378872871399,0.20044218003749847,0.0751684159040451,0.26105043292045593
2.8329665660858154,0.008706126362085342,-0.37003248929977417,0.42318880558013916,0.2007676213979721,0.07345619797706604,0.261263370513916
2.85305118560791,0.007493842858821154,-0.36815187335014343,0.4271819591522217,0.20051930844783783,0.07471850514411926,0.26066139340400696
2.873196601867676,0.008161123842000961,-0.3684888780117035,0.4273476004600525,0.20057092607021332,0.07673658430576324,0.26065725088119507
2.8932414054870605,0.008689161390066147,-0.3693747818470001,0.42391887307167053,0.20068146288394928,0.0736924335360527,0.26105043292045593
2.9133002758026123,0.007783253211528063,-0.36737123131752014,0.4276908040046692,0.2004386931657791,0.0733017697930336,0.2606600522994995
2.9334282875061035,0.00864378735423088,-0.3701191246509552,0.4229813814163208,0.20037946105003357,0.0713212788105011,0.2604496479034424
2.953469753265381,0.008697886019945145,-0.3698378801345825,0.4239954352378845,0.20112629234790802,0.07338085770606995,0.26114946603775024
2.97353196144104,0.008548792451620102,-0.3686984181404114,0.42536067962646484,0.20095224678516388,0.07447870820760727,0.26046624779701233
2.993626117706299,0.008778024464845657,-0.36923888325691223,0.4257148206233978,0.20116157829761505,0.0748201459646225,0.2607816457748413
3.0137126445770264,0.009293343871831894,-0.3686860203742981,0.424965500831604,0.20034508407115936,0.07621605694293976,0.2600788474082947
3.03383207321167,0.008220423012971878,-0.3690345585346222,0.425453245639801,0.2012420892715454,0.07275895774364471,0.26043465733528137
3.0538601875305176,0.007956523448228836,-0.3691644072532654,0.4259030818939209,0.20137572288513184,0.07278352230787277,0.2604815661907196
3.0740034580230713,0.009879838675260544,-0.3696681559085846,0.4245682954788208,0.20028568804264069,0.07608652859926224,0.2601412832736969
3.094045877456665,0.008768383413553238,-0.36948010325431824,0.4248013496398926,0.20130448043346405,0.07249542325735092,0.26001259684562683
3.1141741275787354,0.009073976427316666,-0.36942341923713684,0.4251915216445923,0.20103836059570312,0.07458598911762238,0.2597305178642273
3.134396553039551,0.009213533252477646,-0.36979544162750244,0.42527318000793457,0.20124182105064392,0.07449720799922943,0.25995123386383057
3.1546154022216797,0.00855289027094841,-0.3692617416381836,0.4259535074234009,0.20121286809444427,0.07465437054634094,0.2593502104282379
3.174607515335083,0.009049352258443832,-0.3695842921733856,0.4251655340194702,0.20097129046916962,0.07448357343673706,0.2593403160572052
3.194681167602539,0.009476792067289352,-0.36942699551582336,0.4255453646183014,0.2009051889181137,0.07638490945100784,0.2592122256755829
3.214871406555176,0.008409734815359116,-0.36920633912086487,0.4265390634536743,0.2015150636434555,0.07487282156944275,0.25938549637794495
3.234915256500244,0.007884267717599869,-0.3687719404697418,0.4268984794616699,0.20123246312141418,0.07365888357162476,0.25891751050949097
3.2549731731414795,0.00862046703696251,-0.36939701437950134,0.42620909214019775,0.2007938176393509,0.07516175508499146,0.2589038014411926
3.275023937225342,0.008887466043233871,-0.36985960602760315,0.42579740285873413,0.20130708813667297,0.07438527047634125,0.2594432234764099
3.2950940132141113,0.008159290999174118,-0.3695271611213684,0.4259118437767029,0.2015181928873062,0.07278619706630707,0.259291410446167
3.315206289291382,0.00870848074555397,-0.37044134736061096,0.42467156052589417,0.20145033299922943,0.07347610592842102,0.25934433937072754
3.3352763652801514,0.00942092016339302,-0.3704187572002411,0.4244362711906433,0.2013711929321289,0.07527481019496918,0.2591082751750946
3.3554649353027344,0.00909021869301796,-0.36965852975845337,0.4259992837905884,0.20144154131412506,0.07454642653465271,0.2591720223426819
3.375614881515503,0.007725935894995928,-0.3702460825443268,0.4248255491256714,0.20217503607273102,0.06960262358188629,0.25937551259994507
3.3957881927490234,0.008945535868406296,-0.3700023591518402,0.4252464175224304,0.20072990655899048,0.07531894743442535,0.25846049189567566
3.415814161300659,0.009119588881731033,-0.3707478940486908,0.4241792857646942,0.20140768587589264,0.07277584075927734,0.2593458294868469
3.4358468055725098,0.008995112031698227,-0.36912038922309875,0.4275484085083008,0.2013000100851059,0.07569925487041473,0.2590484917163849
3.455977439880371,0.009157437831163406,-0.3700260818004608,0.4259355068206787,0.20125150680541992,0.07449781149625778,0.25889843702316284
3.4760923385620117,0.010793764144182205,-0.3702761232852936,0.42471468448638916,0.20039166510105133,0.07763543725013733,0.25890493392944336
3.4961085319519043,0.007410686928778887,-0.36907538771629333,0.42733287811279297,0.20207254588603973,0.07283346354961395,0.25892719626426697
3.5162265300750732,0.008321847766637802,-0.36858850717544556,0.4284774661064148,0.2013135701417923,0.07614486664533615,0.2588563859462738
3.5362601280212402,0.009010430425405502,-0.3693773150444031,0.42778587341308594,0.20112304389476776,0.0758390724658966,0.2588382363319397
3.556361675262451,0.009229104965925217,-0.3701198697090149,0.42605602741241455,0.20120061933994293,0.0746966004371643,0.25882309675216675
3.5765178203582764,0.008248236030340195,-0.3695298433303833,0.42602670192718506,0.20177389681339264,0.07259698957204819,0.25885719060897827
3.596561908721924,0.00959569588303566,-0.3697589039802551,0.4261515140533447,0.20085811614990234,0.07656314969062805,0.259096622467041
3.6166892051696777,0.008054185658693314,-0.3689578175544739,0.4266241192817688,0.20204605162143707,0.0669313371181488,0.25917497277259827
3.6369011402130127,0.008883532136678696,-0.37122592329978943,0.42096778750419617,0.20235829055309296,0.06700395047664642,0.25960907340049744
3.657076835632324,0.009916048496961594,-0.36808422207832336,0.4322100281715393,0.20082993805408478,0.07900749146938324,0.2584152817726135
3.6771302223205566,0.010009374469518661,-0.37327316403388977,0.4190313518047333,0.20256003737449646,0.06585647910833359,0.25980132818222046
3.697153091430664,0.008472342044115067,-0.36885514855384827,0.42733317613601685,0.2031441181898117,0.07289665937423706,0.2595922350883484
3.717268705368042,0.0114971362054348,-0.37171101570129395,0.4249286949634552,0.2006251960992813,0.07606838643550873,0.25871556997299194
3.7373175621032715,0.009911593049764633,-0.3693896532058716,0.428498774766922,0.20162485539913177,0.07537507265806198,0.2587350308895111
3.757384777069092,0.009121965616941452,-0.3705168664455414,0.427826851606369,0.20172111690044403,0.0727943629026413,0.25856009125709534
3.777479410171509,0.010082688182592392,-0.3708367943763733,0.42538952827453613,0.20102109014987946,0.07437413930892944,0.258378803730011
3.7975564002990723,0.009094063192605972,-0.36940664052963257,0.4293924570083618,0.20192769169807434,0.07524850219488144,0.2588776648044586
3.817737340927124,0.008523169904947281,-0.3713240921497345,0.42528796195983887,0.20254497230052948,0.06852935254573822,0.2593139708042145
3.837744951248169,0.008469302207231522,-0.36852559447288513,0.42950254678726196,0.2019469290971756,0.07515203207731247,0.2588104009628296
3.8578310012817383,0.010508943349123001,-0.3701958954334259,0.42624086141586304,0.20153890550136566,0.07530631124973297,0.2588791251182556
3.8779349327087402,0.009923812001943588,-0.3696756362915039,0.426913857460022,0.2012559473514557,0.07561689615249634,0.25886327028274536
3.8980038166046143,0.009611930698156357,-0.3701353371143341,0.4270605146884918,0.20133890211582184,0.07416039705276489,0.2587421238422394
3.918227195739746,0.009340707212686539,-0.37001049518585205,0.42731767892837524,0.20177507400512695,0.07403567433357239,0.25904154777526855
3.938324451446533,0.009447108954191208,-0.3702779710292816,0.4270186722278595,0.2016407698392868,0.07361236214637756,0.2589060664176941
3.958467721939087,0.009450484067201614,-0.37013012170791626,0.4267987310886383,0.2014252096414566,0.07348182052373886,0.2587560713291168
3.9784886837005615,0.010535333305597305,-0.37128040194511414,0.4246060848236084,0.20096509158611298,0.07408256828784943,0.25874757766723633
3.99857759475708,0.00890769436955452,-0.3692132532596588,0.4295152723789215,0.20160239934921265,0.07535645365715027,0.2587141990661621
4.018656492233276,0.01005714014172554,-0.37236201763153076,0.4235701858997345,0.200860396027565,0.07140176743268967,0.25826358795166016
4.038768291473389,0.008964654058218002,-0.37037259340286255,0.4273003339767456,0.20187462866306305,0.07211993634700775,0.2588415741920471
4.05889368057251,0.010462049394845963,-0.3708699345588684,0.42628994584083557,0.20123544335365295,0.07513049244880676,0.25899946689605713
4.0789875984191895,0.009395185858011246,-0.37024638056755066,0.42713382840156555,0.20181380212306976,0.07339660078287125,0.25898340344429016
4.099171161651611,0.009473104029893875,-0.3705025017261505,0.4270170331001282,0.20169976353645325,0.07346689701080322,0.2588917016983032
4.119274854660034,0.009535055607557297,-0.37046366930007935,0.42682161927223206,0.20152227580547333,0.07346396893262863,0.2588294446468353
4.139303684234619,0.010162856429815292,-0.37063249945640564,0.42673420906066895,0.201308012008667,0.07519085705280304,0.2589893043041229
4.159350633621216,0.009712669998407364,-0.37057673931121826,0.42670661211013794,0.2016984522342682,0.07333436608314514,0.2589605450630188
4.179555654525757,0.008480418473482132,-0.370169073343277,0.4276999235153198,0.20233003795146942,0.07166290283203125,0.259270042181015
4.199644088745117,0.010744858533143997,-0.37083572149276733,0.4254390001296997,0.20086431503295898,0.07491551339626312,0.2587522268295288
4.219740390777588,0.010399390012025833,-0.37042614817619324,0.42570966482162476,0.20131871104240417,0.07468951493501663,0.2590068578720093
4.239791393280029,0.010349307209253311,-0.3706062138080597,0.42627787590026855,0.20141904056072235,0.07520517706871033,0.2590152323246002
4.259944438934326,0.008444037288427353,-0.370136559009552,0.4276977777481079,0.2019088715314865,0.07180112600326538,0.2588352560997009
4.279999732971191,0.009550262242555618,-0.370500385761261,0.4262159466743469,0.20134763419628143,0.07306592166423798,0.2585250437259674
4.3000648021698,0.01008765771985054,-0.37037423253059387,0.4261869192123413,0.20117858052253723,0.0747961699962616,0.2587340772151947
4.3201093673706055,0.009016495198011398,-0.3704637289047241,0.42658355832099915,0.20195744931697845,0.07144198566675186,0.25901615619659424
4.3401877880096436,0.00982939824461937,-0.3707977533340454,0.42630723118782043,0.2016044706106186,0.07325561344623566,0.25880616903305054
4.3602776527404785,0.009953703731298447,-0.37077003717422485,0.4260531961917877,0.20161741971969604,0.0731436088681221,0.2589876651763916
4.380324125289917,0.009603817015886307,-0.3705058693885803,0.4266800880432129,0.20175601541996002,0.0733964741230011,0.2589721977710724
4.400374174118042,0.009077157825231552,-0.37018081545829773,0.42731809616088867,0.20205806195735931,0.07329389452934265,0.25905799865722656
4.420465707778931,0.009710025042295456,-0.3705199360847473,0.42630213499069214,0.2015608698129654,0.07312890142202377,0.25892776250839233
4.440587759017944,0.009816903620958328,-0.37021878361701965,0.4269646406173706,0.20141567289829254,0.07512069493532181,0.2586359679698944
4.46063494682312,0.00957394763827324,-0.3705427944660187,0.4264984428882599,0.20166073739528656,0.07318505644798279,0.2591426968574524
4.4806904792785645,0.009597454220056534,-0.37049147486686707,0.4265505075454712,0.20149971544742584,0.0732751116156578,0.25865787267684937
4.500776529312134,0.008820395916700363,-0.3705269396305084,0.42707353830337524,0.2022310346364975,0.07147639244794846,0.2590595781803131
4.52087140083313,0.009201336652040482,-0.3701038956642151,0.42700064182281494,0.2016337364912033,0.0736127644777298,0.2588762938976288
4.540959119796753,0.00903373584151268,-0.3701125383377075,0.4271238446235657,0.20159122347831726,0.0732971578836441,0.2587401866912842
4.561105489730835,0.009390685707330704,-0.3704933226108551,0.42679792642593384,0.20154477655887604,0.07342489063739777,0.2588079571723938
4.581187963485718,0.009577613323926926,-0.3704575300216675,0.4265846610069275,0.20157332718372345,0.07341329008340836,0.2588883638381958
4.601266622543335,0.009956572204828262,-0.37080255150794983,0.4260173439979553,0.20133663713932037,0.07330964505672455,0.25882115960121155
4.621313810348511,0.010270614176988602,-0.37049612402915955,0.4262458086013794,0.20135118067264557,0.07484029978513718,0.2589256763458252
4.64140772819519,0.009007971733808517,-0.3700469732284546,0.4273454546928406,0.20180897414684296,0.0735207051038742,0.25912436842918396
4.661562919616699,0.009683851152658463,-0.37028443813323975,0.42605286836624146,0.201183021068573,0.0734000876545906,0.2586095929145813
4.6815571784973145,0.009943891316652298,-0.3704260289669037,0.4257533848285675,0.2010142207145691,0.07334519177675247,0.25866010785102844
4.70166277885437,0.00954916700720787,-0.3702729642391205,0.42659252882003784,0.201664999127388,0.0734323263168335,0.25917282700538635
4.721762180328369,0.0101558156311512,-0.3703424632549286,0.4265172481536865,0.20111601054668427,0.07533673197031021,0.2586476802825928
4.741852283477783,0.009765442460775375,-0.3707406520843506,0.42628389596939087,0.2017838954925537,0.07315027713775635,0.25920695066452026
4.761905908584595,0.009893734008073807,-0.3704413175582886,0.4258115291595459,0.20145292580127716,0.07328391820192337,0.2589796185493469
4.782046318054199,0.009626131504774094,-0.37028583884239197,0.4263196587562561,0.20149920880794525,0.07348522543907166,0.2589136064052582
4.802138805389404,0.00936325266957283,-0.37020111083984375,0.42648422718048096,0.20161856710910797,0.0732094943523407,0.25906822085380554
4.8222246170043945,0.009477730840444565,-0.3704662322998047,0.42678800225257874,0.20177803933620453,0.07369279861450195,0.259233295917511
4.842303276062012,0.009421709924936295,-0.3702217936515808,0.42664027214050293,0.20186105370521545,0.07332338392734528,0.2590728998184204
4.86254096031189,0.009495947510004044,-0.37023013830184937,0.4263467490673065,0.201514333486557,0.07332269847393036,0.2589147984981537
4.8827064037323,0.009464096277952194,-0.37007275223731995,0.426308810710907,0.20148475468158722,0.07331244647502899,0.25874027609825134
4.902825593948364,0.00814233347773552,-0.37001094222068787,0.4267950654029846,0.20222660899162292,0.06977373361587524,0.2590063810348511
4.9227659702301025,0.008967291563749313,-0.3691331446170807,0.4282912015914917,0.20136000216007233,0.07479912042617798,0.25856778025627136
4.942850351333618,0.009803865104913712,-0.3716515898704529,0.423445463180542,0.20182503759860992,0.07077932357788086,0.2589930295944214
4.9629127979278564,0.008739981800317764,-0.3687039017677307,0.43042248487472534,0.20198087394237518,0.07495272904634476,0.2586628496646881
4.982988119125366,0.009874988347291946,-0.3712882101535797,0.4241727888584137,0.20118103921413422,0.07180832326412201,0.25862929224967957
5.003064870834351,0.009908299893140793,-0.37095290422439575,0.42433202266693115,0.20167435705661774,0.07219594717025757,0.2590102255344391
5.023245334625244,0.009303543716669083,-0.3693854808807373,0.4285595715045929,0.20124101638793945,0.07534507662057877,0.2586255967617035
5.043296575546265,0.009544383734464645,-0.36998918652534485,0.426335871219635,0.20120052993297577,0.07360963523387909,0.2585946023464203
5.063322305679321,0.009189266711473465,-0.37013375759124756,0.4270700216293335,0.20177499949932098,0.07351014763116837,0.2591266930103302
5.083545207977295,0.009979363530874252,-0.36931112408638,0.42819324135780334,0.20092995464801788,0.07709281891584396,0.25862598419189453
5.10363507270813,0.009063806384801865,-0.36964794993400574,0.42699915170669556,0.20205058157444,0.0735100507736206,0.25907108187675476
5.123701333999634,0.009965624660253525,-0.3694078028202057,0.4284036159515381,0.20110979676246643,0.07720035314559937,0.25855568051338196
5.143749475479126,0.010420266538858414,-0.3710040748119354,0.424265056848526,0.20117731392383575,0.07363255321979523,0.25894495844841003
5.163836240768433,0.008969496935606003,-0.3691330850124359,0.4288751482963562,0.20138303935527802,0.07521260529756546,0.25879713892936707
5.18392539024353,0.010144319385290146,-0.37083086371421814,0.42449748516082764,0.20108076930046082,0.07367809116840363,0.25867322087287903
5.20399284362793,0.008879024535417557,-0.36966753005981445,0.4261695444583893,0.20189730823040009,0.07138477265834808,0.25868016481399536
5.224122047424316,0.008616629987955093,-0.3692389726638794,0.428860604763031,0.20176969468593597,0.07366345822811127,0.2585892677307129
5.244192838668823,0.009900014847517014,-0.3709068298339844,0.42424502968788147,0.2016378492116928,0.07205473631620407,0.25892049074172974
5.264401197433472,0.008969571441411972,-0.36882448196411133,0.42847520112991333,0.2020576149225235,0.07467229664325714,0.2589857280254364
5.284440517425537,0.008402582257986069,-0.3699056804180145,0.4276946783065796,0.2022249549627304,0.07214383780956268,0.2588958740234375
5.304486036300659,0.010125931352376938,-0.3710693120956421,0.4241792559623718,0.20127949118614197,0.07233120501041412,0.2587030529975891
5.324584245681763,0.009108629077672958,-0.36950400471687317,0.426999032497406,0.20209844410419464,0.07360339164733887,0.2592225968837738
5.344690561294556,0.009275075048208237,-0.36908915638923645,0.4286347031593323,0.20144034922122955,0.07553167641162872,0.2585735321044922
5.364733695983887,0.009512823075056076,-0.36991000175476074,0.42659294605255127,0.20137137174606323,0.07378408312797546,0.2586432993412018
5.384829759597778,0.00939694419503212,-0.36973005533218384,0.42677241563796997,0.20159102976322174,0.07402107119560242,0.25864332914352417
5.404897212982178,0.009400766342878342,-0.36970269680023193,0.4264047145843506,0.2012641727924347,0.07356137037277222,0.25866153836250305
5.425028085708618,0.010437455028295517,-0.37010934948921204,0.42554205656051636,0.2007005363702774,0.07516352087259293,0.2582308351993561
5.445052146911621,0.008945394307374954,-0.3698606491088867,0.4276607632637024,0.20203335583209991,0.07393670827150345,0.25888627767562866
5.465203523635864,0.009971577674150467,-0.3693449795246124,0.4283859133720398,0.20109106600284576,0.07710772007703781,0.2583603262901306
5.485304355621338,0.010448817163705826,-0.3710295557975769,0.42460042238235474,0.20104430615901947,0.07417432963848114,0.2586681842803955
5.505325794219971,0.009579163044691086,-0.36976537108421326,0.4263184070587158,0.20189489424228668,0.07351479679346085,0.25900840759277344
5.525442838668823,0.00948985293507576,-0.37014612555503845,0.42655467987060547,0.20133382081985474,0.07354149222373962,0.25858551263809204
5.545527219772339,0.009812403470277786,-0.3700374364852905,0.42713141441345215,0.2015819400548935,0.07552509009838104,0.25899869203567505
5.565605401992798,0.00895879790186882,-0.37002065777778625,0.42661386728286743,0.20183347165584564,0.0718417540192604,0.2588028013706207
5.585641860961914,0.009322632104158401,-0.37010282278060913,0.42690080404281616,0.20164233446121216,0.07376407086849213,0.2588876485824585
5.6058900356292725,0.008933600038290024,-0.370102196931839,0.42676347494125366,0.20192460715770721,0.0719463899731636,0.2589977979660034
5.626027345657349,0.008930351585149765,-0.36967557668685913,0.42734241485595703,0.2017093151807785,0.07377856969833374,0.25870636105537415
5.646115064620972,0.009352210909128189,-0.37002450227737427,0.4266965985298157,0.20146678388118744,0.0736587718129158,0.25864341855049133
5.666224956512451,0.008826974779367447,-0.3700089156627655,0.4268399775028229,0.2018684297800064,0.07192874699831009,0.2587624490261078
5.6862640380859375,0.009855944663286209,-0.3703171908855438,0.4260648488998413,0.20139895379543304,0.07361536473035812,0.25869616866111755
5.7063374519348145,0.008553232997655869,-0.36967965960502625,0.42723143100738525,0.202013298869133,0.07199395447969437,0.25881078839302063
5.726443529129028,0.009231340140104294,-0.3701499402523041,0.42707961797714233,0.20171485841274261,0.07376349717378616,0.25888144969940186
5.746537446975708,0.010051842778921127,-0.3700559139251709,0.42643994092941284,0.20118242502212524,0.07536438852548599,0.25862371921539307
5.766683340072632,0.009130466729402542,-0.36974775791168213,0.4270774722099304,0.20167843997478485,0.07370330393314362,0.2587301433086395
5.786726474761963,0.00813821330666542,-0.36997631192207336,0.427137166261673,0.20222219824790955,0.07022204995155334,0.2588217258453369
5.806792259216309,0.009075339883565903,-0.36984723806381226,0.42701268196105957,0.20141427218914032,0.07384701073169708,0.25856298208236694
5.826979637145996,0.009657185524702072,-0.3700440526008606,0.42645567655563354,0.20165999233722687,0.07363994419574738,0.25881415605545044
5.847100019454956,0.009493116289377213,-0.3698849678039551,0.4264712333679199,0.20146384835243225,0.07365520298480988,0.2585180401802063
5.867141962051392,0.009456325322389603,-0.3697924017906189,0.42631590366363525,0.2011871188879013,0.07368031144142151,0.2583911716938019
5.887313604354858,0.009104136377573013,-0.3697095215320587,0.42701059579849243,0.20151515305042267,0.07372406125068665,0.258640855550766
5.907447099685669,0.00901634618639946,-0.3702488839626312,0.4265802502632141,0.20217624306678772,0.07142756879329681,0.25897008180618286
5.927603006362915,0.00934748724102974,-0.3703087270259857,0.42697644233703613,0.20182262361049652,0.07373149693012238,0.25883594155311584
5.947622299194336,0.009504642337560654,-0.3702338933944702,0.42668014764785767,0.20123951137065887,0.073819100856781,0.2584839463233948
5.967689752578735,0.009469445794820786,-0.3701832592487335,0.42658931016921997,0.20171527564525604,0.073480024933815,0.2587849497795105
5.987756013870239,0.009226422756910324,-0.37045973539352417,0.42615675926208496,0.20166650414466858,0.07171612232923508,0.2587169408798218
6.0078535079956055,0.009407613426446915,-0.3702951967716217,0.4267231822013855,0.20159398019313812,0.07358170300722122,0.2588554322719574
6.027916193008423,0.008473638445138931,-0.3699474632740021,0.42720484733581543,0.20196929574012756,0.07164731621742249,0.25885650515556335
6.0480875968933105,0.009462263435125351,-0.37058836221694946,0.425942063331604,0.20176196098327637,0.07159164547920227,0.25880974531173706
6.0681469440460205,0.009448152035474777,-0.37019163370132446,0.4266393780708313,0.20161189138889313,0.07356104254722595,0.25871041417121887
6.088164329528809,0.010103661566972733,-0.37013089656829834,0.42603716254234314,0.20091791450977325,0.07504083961248398,0.25844502449035645
6.108922243118286,0.009342674165964127,-0.3702399432659149,0.4269869327545166,0.2018796056509018,0.07344390451908112,0.2589792013168335
6.129019260406494,0.009636636823415756,-0.37050846219062805,0.4265236258506775,0.20162811875343323,0.0735863670706749,0.25897738337516785
6.149087905883789,0.009522337466478348,-0.37007102370262146,0.4263180196285248,0.20138049125671387,0.07343659549951553,0.25847485661506653
6.169219493865967,0.009259704500436783,-0.37052321434020996,0.4261917471885681,0.20171430706977844,0.07171452045440674,0.25871938467025757
6.189334154129028,0.010299507528543472,-0.37039393186569214,0.4258490204811096,0.2009027600288391,0.07508312165737152,0.2584325671195984
6.2093422412872314,0.009755562990903854,-0.3703792989253998,0.4262698292732239,0.20161087810993195,0.07336217910051346,0.2587644159793854
6.229413747787476,0.009197477251291275,-0.37006285786628723,0.42715418338775635,0.20194093883037567,0.07350465655326843,0.25881922245025635
6.249456882476807,0.008819948881864548,-0.37036022543907166,0.42705804109573364,0.20213744044303894,0.07190698385238647,0.25890710949897766
6.269546985626221,0.009908806532621384,-0.3705480396747589,0.4258384704589844,0.20127086341381073,0.07330837845802307,0.25872817635536194
6.289614200592041,0.009957443922758102,-0.3703711926937103,0.4257619380950928,0.2012457400560379,0.07341719418764114,0.2584555745124817
6.309718608856201,0.009618286043405533,-0.3702673017978668,0.42639246582984924,0.2015465348958969,0.07347916066646576,0.25870805978775024
6.329816818237305,0.00953824445605278,-0.3702499568462372,0.42643868923187256,0.20151758193969727,0.07346028089523315,0.25869590044021606
6.349908113479614,0.009498964995145798,-0.37025853991508484,0.42653512954711914,0.20154637098312378,0.07346636056900024,0.2586863338947296
6.370008230209351,0.009152386337518692,-0.3700699806213379,0.4272058606147766,0.20183290541172028,0.07367637753486633,0.258823961019516
6.390106439590454,0.00943778082728386,-0.3703005909919739,0.42667287588119507,0.2015581578016281,0.07363232970237732,0.2587451636791229
6.410210132598877,0.008881356567144394,-0.3703804910182953,0.4268704652786255,0.20202623307704926,0.07174555212259293,0.2589847445487976
6.430304765701294,0.009885039180517197,-0.3704948425292969,0.42588523030281067,0.20127852261066437,0.07343065738677979,0.2586303651332855
6.450413942337036,0.009602468460798264,-0.37026944756507874,0.42642468214035034,0.20156842470169067,0.07346100360155106,0.2587190866470337
6.470480442047119,0.009276378899812698,-0.3705596327781677,0.42611953616142273,0.20165422558784485,0.07172885537147522,0.25890088081359863
6.490593194961548,0.009680140763521194,-0.3704233169555664,0.4261813759803772,0.20134831964969635,0.07349199056625366,0.2586289942264557
6.510715961456299,0.00955716148018837,-0.37026703357696533,0.4264664649963379,0.20154862105846405,0.0734575092792511,0.2586985230445862
6.530747175216675,0.010163526982069016,-0.37028512358665466,0.426380455493927,0.20128993690013885,0.07532448321580887,0.25854673981666565
6.55077052116394,0.009391199797391891,-0.37066444754600525,0.42612922191619873,0.20205450057983398,0.07147618383169174,0.25911465287208557
6.570856809616089,0.01026921346783638,-0.3703940212726593,0.42572420835494995,0.20064429938793182,0.07505568861961365,0.25830674171447754
6.590925931930542,0.009755533188581467,-0.37034738063812256,0.42620137333869934,0.20148833096027374,0.07336786389350891,0.25870490074157715
6.611032009124756,0.009573634713888168,-0.3703039586544037,0.4265139400959015,0.20165015757083893,0.07345938682556152,0.2587486207485199
6.631183624267578,0.010148052126169205,-0.3702802360057831,0.4262920022010803,0.20120705664157867,0.07520174980163574,0.2586240768432617
6.6512579917907715,0.00913650169968605,-0.3699730336666107,0.42703601717948914,0.2016814798116684,0.0735127180814743,0.2586992681026459
6.671328067779541,0.009038012474775314,-0.3699185252189636,0.42705073952674866,0.20162995159626007,0.0733565092086792,0.25858578085899353
6.691370010375977,0.00903422012925148,-0.36996325850486755,0.4271455705165863,0.20156188309192657,0.07371418178081512,0.2586851418018341
6.711458444595337,0.009724501520395279,-0.3701428174972534,0.426159530878067,0.2014959305524826,0.07337569445371628,0.2585642337799072
6.731522798538208,0.00959717109799385,-0.3702177405357361,0.42637699842453003,0.20147950947284698,0.07344353199005127,0.25848209857940674
6.751567363739014,0.008900251239538193,-0.3701479434967041,0.4267333745956421,0.20183831453323364,0.0719270408153534,0.25861942768096924
6.771634101867676,0.009988386183977127,-0.37036263942718506,0.4266930818557739,0.20135842263698578,0.07542479783296585,0.258698970079422
6.791722774505615,0.009836789220571518,-0.36995670199394226,0.4266909658908844,0.20126821100711823,0.07526718080043793,0.2586163878440857
6.81179141998291,0.010289374738931656,-0.3705483078956604,0.42641913890838623,0.2014814019203186,0.0752524733543396,0.25880691409111023
6.831835508346558,0.009774100035429,-0.3703238070011139,0.42613160610198975,0.20145054161548615,0.07335643470287323,0.2587144374847412
6.851929187774658,0.009997602552175522,-0.37017107009887695,0.4262492060661316,0.20102174580097198,0.07503561675548553,0.258456289768219
6.872014284133911,0.009646143764257431,-0.37021294236183167,0.42607372999191284,0.20144803822040558,0.07303883135318756,0.2586435377597809
6.892082452774048,0.009530071169137955,-0.37037333846092224,0.42654144763946533,0.20174606144428253,0.07332275062799454,0.25897666811943054
6.912132978439331,0.009501945227384567,-0.3703312575817108,0.4266696870326996,0.20183639228343964,0.07344300299882889,0.25890764594078064
6.932231664657593,0.009484264999628067,-0.3702907860279083,0.42659759521484375,0.2016887068748474,0.07346834987401962,0.25882968306541443
6.95230507850647,0.010061081498861313,-0.3702608048915863,0.42644166946411133,0.2014887034893036,0.07503440976142883,0.2587600648403168
6.9723639488220215,0.009011853486299515,-0.3702772557735443,0.42658841609954834,0.20209433138370514,0.07150568068027496,0.2588992416858673
6.992502450942993,0.00867411121726036,-0.3699362576007843,0.4267309606075287,0.2018078714609146,0.07166055589914322,0.2585590183734894
7.012589931488037,0.009926382452249527,-0.3705775737762451,0.42602330446243286,0.20168884098529816,0.07322140783071518,0.25883346796035767
7.032791376113892,0.009555634111166,-0.37012937664985657,0.42626267671585083,0.20159326493740082,0.07313989847898483,0.25870659947395325
7.0527427196502686,0.00953468307852745,-0.3701101243495941,0.4262932538986206,0.20129214227199554,0.07347100973129272,0.25840485095977783
7.073044538497925,0.010053064674139023,-0.3702695071697235,0.4267532229423523,0.20152457058429718,0.0751209408044815,0.2587459981441498
7.093133449554443,0.009031165391206741,-0.370279461145401,0.42653220891952515,0.20204444229602814,0.07148945331573486,0.25889042019844055
7.11320948600769,0.009332936257123947,-0.37020018696784973,0.42673414945602417,0.20174843072891235,0.07337184250354767,0.2587733864784241
7.133249521255493,0.009512487798929214,-0.3703480064868927,0.42659926414489746,0.2016053944826126,0.07344468683004379,0.258690744638443
7.1534423828125,0.010066088289022446,-0.3702465891838074,0.4262382984161377,0.2012893408536911,0.07492142170667648,0.25879210233688354
7.17345666885376,0.009601984173059464,-0.3703457713127136,0.4264217019081116,0.20177625119686127,0.07326982915401459,0.25902611017227173
7.193519353866577,0.009138021618127823,-0.37003883719444275,0.42718398571014404,0.20200063288211823,0.07349543273448944,0.25893881916999817
7.2136054039001465,0.009402353316545486,-0.3703632056713104,0.42669007182121277,0.20176827907562256,0.07330913841724396,0.25896528363227844
7.2336814403533936,0.009532000869512558,-0.3702811598777771,0.42651093006134033,0.20167893171310425,0.07346297800540924,0.25885191559791565
7.253793954849243,0.010475147515535355,-0.3704463243484497,0.4255642294883728,0.20101667940616608,0.07480186223983765,0.2585564851760864
7.273826837539673,0.009007234126329422,-0.36972829699516296,0.4272138178348541,0.20197002589702606,0.0733029693365097,0.25886937975883484
7.2939417362213135,0.009716283529996872,-0.3702661395072937,0.4259793162345886,0.2014685422182083,0.07295949012041092,0.2586728632450104
7.314021825790405,0.009513746947050095,-0.370128870010376,0.4262681007385254,0.20150986313819885,0.0731530636548996,0.25865092873573303
7.334115743637085,0.010121624916791916,-0.37034061551094055,0.42621493339538574,0.20130424201488495,0.07486751675605774,0.25879985094070435
7.354189395904541,0.009037952870130539,-0.3702744245529175,0.42651069164276123,0.20204700529575348,0.07148317992687225,0.2588973045349121
7.374250173568726,0.009118836373090744,-0.37038931250572205,0.42610472440719604,0.2016756385564804,0.07136934250593185,0.25865408778190613
7.394316673278809,0.008721519261598587,-0.370097279548645,0.42682504653930664,0.20191378891468048,0.07167661935091019,0.25876209139823914
7.414383172988892,0.009242255240678787,-0.36997637152671814,0.42654985189437866,0.20146502554416656,0.07319408655166626,0.2583870589733124
7.434466600418091,0.009062152355909348,-0.36993923783302307,0.4270084500312805,0.20169715583324432,0.07335534691810608,0.2587100565433502
7.454530715942383,0.009696733206510544,-0.3703936040401459,0.4264359474182129,0.2018509954214096,0.07337785512208939,0.258955180644989
7.474599838256836,0.009522844105958939,-0.37028390169143677,0.426603764295578,0.2017884999513626,0.07347403466701508,0.2588943839073181
7.49472188949585,0.009284261614084244,-0.36860454082489014,0.4284543991088867,0.20162449777126312,0.07513685524463654,0.2587904930114746
7.5151755809783936,0.009889218956232071,-0.37061169743537903,0.4266451597213745,0.20130784809589386,0.07346853613853455,0.25856733322143555
7.535290479660034,0.009857665747404099,-0.3703501224517822,0.4272589087486267,0.20168228447437286,0.07543103396892548,0.2590148448944092
7.555483102798462,0.009591881185770035,-0.37037962675094604,0.4268409013748169,0.20175740122795105,0.0733339786529541,0.2589859962463379
7.57548975944519,0.009508702903985977,-0.3704580068588257,0.42688849568367004,0.20174668729305267,0.07323071360588074,0.2587471008300781
7.595552682876587,0.009453672915697098,-0.3703082203865051,0.42714375257492065,0.20178690552711487,0.0736607164144516,0.2588196098804474
7.615623712539673,0.008476246148347855,-0.3701053857803345,0.4276081323623657,0.2021479457616806,0.07156383991241455,0.2587834298610687
7.6544482707977295,0.009866129606962204,-0.3704585134983063,0.42705148458480835,0.20134341716766357,0.07508581876754761,0.2585485875606537
7.67453670501709,0.009208586066961288,-0.37006255984306335,0.42725881934165955,0.20194177329540253,0.07339560985565186,0.2585144340991974
7.69465708732605,0.010046686977148056,-0.37056973576545715,0.4269121289253235,0.20154471695423126,0.07514558732509613,0.258545458316803
7.714714527130127,0.008645441383123398,-0.37019452452659607,0.4274020195007324,0.20226337015628815,0.07158982753753662,0.25876396894454956
7.734959602355957,0.01000671461224556,-0.3711104094982147,0.42660659551620483,0.201959028840065,0.07342911511659622,0.258983850479126
7.755049467086792,0.009569842368364334,-0.37026816606521606,0.42668935656547546,0.20174123346805573,0.07320525497198105,0.2584019601345062
7.7750563621521,0.009433645755052567,-0.3703480660915375,0.4268970489501953,0.20168565213680267,0.07348822057247162,0.2585713267326355
7.795088529586792,0.009498629719018936,-0.37037259340286255,0.42692941427230835,0.20181556046009064,0.07335206866264343,0.25846365094184875
7.8151750564575195,0.010089006274938583,-0.3702837824821472,0.42648375034332275,0.2012024223804474,0.07496782392263412,0.25819870829582214
7.835259675979614,0.009235579520463943,-0.3701355457305908,0.4271652102470398,0.20185653865337372,0.07325100898742676,0.2585650682449341
7.856511116027832,0.009044159203767776,-0.37026089429855347,0.4275815486907959,0.20190171897411346,0.0735180452466011,0.2587592601776123
7.876633405685425,0.009089943021535873,-0.3705958127975464,0.42709773778915405,0.2023516446352005,0.0717444121837616,0.25890418887138367
7.896685600280762,0.00933898612856865,-0.37043115496635437,0.427212655544281,0.20190797746181488,0.07348832488059998,0.2586367428302765
7.9168031215667725,0.009066890925168991,-0.3701170086860657,0.42741072177886963,0.2017884999513626,0.0734657496213913,0.2585654556751251
7.936835050582886,0.010318171232938766,-0.3706439435482025,0.42651915550231934,0.20155827701091766,0.07487563043832779,0.25875794887542725
7.9569196701049805,0.009069081395864487,-0.37040290236473083,0.42690038681030273,0.2021728754043579,0.07158775627613068,0.2585819959640503
7.9769980907440186,0.009957823902368546,-0.37034493684768677,0.42672574520111084,0.20129162073135376,0.0750628262758255,0.2583923935890198
7.997058153152466,0.009904798120260239,-0.3703150451183319,0.4270640015602112,0.20157736539840698,0.0750846266746521,0.25857752561569214
8.017274856567383,0.009225789457559586,-0.3702751696109772,0.42737770080566406,0.2019999623298645,0.07337173819541931,0.25867998600006104
8.037376642227173,0.009038958698511124,-0.37016382813453674,0.42754310369491577,0.201899453997612,0.07347418367862701,0.25859373807907104
8.057416677474976,0.008402492851018906,-0.37014514207839966,0.4274929165840149,0.20214501023292542,0.07165975868701935,0.25864139199256897
8.077978134155273,0.009461235255002975,-0.37018442153930664,0.4274073839187622,0.20155470073223114,0.07519979774951935,0.2584743797779083
8.09816837310791,0.00945289060473442,-0.37043192982673645,0.4270554780960083,0.20218436419963837,0.07331801950931549,0.25900426506996155
8.118261098861694,0.009814854711294174,-0.37059611082077026,0.42615631222724915,0.20155717432498932,0.07330165803432465,0.2584071159362793
8.138277292251587,0.009559113532304764,-0.370317280292511,0.4264577031135559,0.2015838474035263,0.0733298808336258,0.2583954632282257
8.158350706100464,0.009459767490625381,-0.3705543875694275,0.4269328713417053,0.20198741555213928,0.07331636548042297,0.25870102643966675
8.178462743759155,0.010473068803548813,-0.37071946263313293,0.42603370547294617,0.20134307444095612,0.07499943673610687,0.2583753764629364
8.198562145233154,0.00976596400141716,-0.3705776333808899,0.42645394802093506,0.20185762643814087,0.07325859367847443,0.2587170898914337
8.218607425689697,0.010001737624406815,-0.3705240488052368,0.42664334177970886,0.20140130817890167,0.07505965232849121,0.25850579142570496
8.23875379562378,0.008647318929433823,-0.37016651034355164,0.42714351415634155,0.20218612253665924,0.07140457630157471,0.25865232944488525
8.258944749832153,0.009236175566911697,-0.3703271746635437,0.4268595576286316,0.20162548124790192,0.07328353822231293,0.25844064354896545
8.279142379760742,0.009624581784009933,-0.37069258093833923,0.4268288016319275,0.20209327340126038,0.0733322948217392,0.25896432995796204
8.299137115478516,0.010139290243387222,-0.37052494287490845,0.4265616238117218,0.2015497237443924,0.07505755126476288,0.25862038135528564
8.319225072860718,0.009765353053808212,-0.37039420008659363,0.42714375257492065,0.2016824632883072,0.07511183619499207,0.25878143310546875
8.339342832565308,0.008953724056482315,-0.37041613459587097,0.4268224835395813,0.20213016867637634,0.07151683419942856,0.25853869318962097
8.359384775161743,0.00929148867726326,-0.37019985914230347,0.4267478585243225,0.20158712565898895,0.07327994704246521,0.25825661420822144
8.379640817642212,0.009586434811353683,-0.37060418725013733,0.4268382787704468,0.2020653337240219,0.07331007719039917,0.25875717401504517
8.399881362915039,0.008858826011419296,-0.37037190794944763,0.42685365676879883,0.20210853219032288,0.0714651346206665,0.25863829255104065
8.419877529144287,0.009305533021688461,-0.3704834580421448,0.4270799458026886,0.2019132822751999,0.07342912256717682,0.2586246728897095
8.440083980560303,0.009583745151758194,-0.37050893902778625,0.4266684353351593,0.20183773338794708,0.0733431801199913,0.2586671710014343
8.460163593292236,0.009512659162282944,-0.3705054223537445,0.42674756050109863,0.20184171199798584,0.07333759218454361,0.2586577534675598
8.480241537094116,0.009497780352830887,-0.37050461769104004,0.4267613887786865,0.2018333375453949,0.07333575189113617,0.2586498558521271
8.500294923782349,0.00925404205918312,-0.37086865305900574,0.42663997411727905,0.20218810439109802,0.07172678411006927,0.25882577896118164
8.520377397537231,0.009673047810792923,-0.37063583731651306,0.4264851212501526,0.2016199380159378,0.07354032248258591,0.2584451138973236
8.540460586547852,0.009921271353960037,-0.37080416083335876,0.42617034912109375,0.2016657441854477,0.0732751116156578,0.2586279809474945
8.560506343841553,0.009591344743967056,-0.37046000361442566,0.4265763759613037,0.20175588130950928,0.07333526760339737,0.2586533725261688
8.580573081970215,0.009446900337934494,-0.3705485761165619,0.4267628788948059,0.2018115371465683,0.07316918671131134,0.258745402097702
8.600679397583008,0.009486313909292221,-0.37055614590644836,0.4268847703933716,0.20195461809635162,0.07332731783390045,0.2586880326271057
8.620783805847168,0.009492140263319016,-0.3705529272556305,0.42688316106796265,0.20196834206581116,0.07333451509475708,0.2586953043937683
8.640808343887329,0.009746294468641281,-0.3702388405799866,0.4270758330821991,0.20163296163082123,0.07511002570390701,0.25859662890434265
8.660891771316528,0.009317222982645035,-0.37029120326042175,0.42704835534095764,0.20197881758213043,0.07329011708498001,0.25870853662490845
8.680960893630981,0.009450104087591171,-0.3705502450466156,0.4269099235534668,0.2019372433423996,0.07334312051534653,0.2586703896522522
8.701033115386963,0.00919821485877037,-0.37052321434020996,0.4262329339981079,0.2018064260482788,0.07139674574136734,0.2583712935447693
8.721086502075195,0.009017344564199448,-0.3701510727405548,0.42739731073379517,0.20192930102348328,0.07348285615444183,0.25861304998397827
8.741169929504395,0.009731080383062363,-0.37057673931121826,0.42651253938674927,0.2018861472606659,0.07324141263961792,0.25872740149497986
8.761239290237427,0.009536180645227432,-0.3704496920108795,0.42663344740867615,0.2017541080713272,0.07335107028484344,0.2586420178413391
8.7812979221344,0.009524170309305191,-0.37070727348327637,0.42697203159332275,0.20199833810329437,0.07352670282125473,0.25894829630851746
8.801487922668457,0.009126376360654831,-0.3702218234539032,0.42731553316116333,0.20204146206378937,0.07335558533668518,0.2587057948112488
8.821595191955566,0.009684082120656967,-0.370625376701355,0.4264545440673828,0.2017812728881836,0.07309642434120178,0.2587777078151703
8.841627359390259,0.00956149771809578,-0.37074732780456543,0.42701271176338196,0.20211951434612274,0.07351355999708176,0.2590143382549286
8.861684322357178,0.0095006562769413,-0.3705049157142639,0.426804780960083,0.20191995799541473,0.07331609725952148,0.2587016820907593
8.881774187088013,0.010116275399923325,-0.37039753794670105,0.42639946937561035,0.20130617916584015,0.07503531873226166,0.2583238184452057
8.90183973312378,0.009674180299043655,-0.37047871947288513,0.42633822560310364,0.20164749026298523,0.07309791445732117,0.2585441768169403
8.921958446502686,0.00952664390206337,-0.37046223878860474,0.4266691207885742,0.20174004137516022,0.07336738705635071,0.25861284136772156
8.94253420829773,0.009133156388998032,-0.3702216148376465,0.4272646903991699,0.20196445286273956,0.07337712496519089,0.25866153836250305
8.962729215621948,0.009051118046045303,-0.3705507218837738,0.4267781972885132,0.2022077739238739,0.0715264230966568,0.2587721645832062
8.982832193374634,0.009342145174741745,-0.3704325258731842,0.42696481943130493,0.20184937119483948,0.07342983782291412,0.2586252987384796
9.002856731414795,0.009466160088777542,-0.3705577850341797,0.4268876612186432,0.20192719995975494,0.07332469522953033,0.2586674988269806
9.023016929626465,0.010140057653188705,-0.37053024768829346,0.426496684551239,0.20143049955368042,0.07507528364658356,0.2585495114326477
9.043146133422852,0.00971939042210579,-0.3707738220691681,0.4268336296081543,0.20217189192771912,0.07338348031044006,0.25888463854789734
9.06324815750122,0.009120147675275803,-0.37025612592697144,0.4275442659854889,0.2022920697927475,0.07357817143201828,0.25888219475746155
9.083337545394897,0.009700160473585129,-0.3705575168132782,0.42644351720809937,0.20169271528720856,0.07323756814002991,0.2586215138435364
9.10350513458252,0.009891722351312637,-0.3706546127796173,0.425985187292099,0.20147190988063812,0.07315045595169067,0.2584879398345947
9.123542785644531,0.009583663195371628,-0.3704247772693634,0.4266478717327118,0.20183442533016205,0.0733179971575737,0.2584853768348694
9.143580436706543,0.009438183158636093,-0.37045416235923767,0.42671823501586914,0.2017495185136795,0.07317867875099182,0.25852298736572266
9.163710355758667,0.009485136717557907,-0.3705025315284729,0.4267624616622925,0.20179800689220428,0.07334424555301666,0.2586258053779602
9.183769702911377,0.009507570415735245,-0.37060216069221497,0.42690253257751465,0.20201842486858368,0.07331015169620514,0.25871679186820984
9.20391583442688,0.010140735656023026,-0.37067633867263794,0.426825612783432,0.20175732672214508,0.07522238790988922,0.2587418258190155
9.223949193954468,0.009168710559606552,-0.3701474070549011,0.427016943693161,0.20154349505901337,0.07340335845947266,0.25838127732276917
9.244056701660156,0.010446351021528244,-0.37070488929748535,0.42596155405044556,0.20099280774593353,0.07518140226602554,0.2581808865070343
9.264092206954956,0.010302145034074783,-0.37179359793663025,0.42445164918899536,0.2015874832868576,0.07225671410560608,0.25868311524391174
9.284174680709839,0.009357769042253494,-0.3685760796070099,0.4297008514404297,0.2022378295660019,0.07573910057544708,0.25895482301712036
9.304264545440674,0.009304184466600418,-0.3687888979911804,0.42942553758621216,0.2019803822040558,0.07524281740188599,0.25883692502975464
9.324331521987915,0.009052064269781113,-0.36910805106163025,0.42848342657089233,0.2020491510629654,0.07444599270820618,0.2588452100753784
9.344441175460815,0.008919309824705124,-0.3682781755924225,0.43021756410598755,0.2014184296131134,0.07645931839942932,0.258268266916275
9.364481687545776,0.009521234780550003,-0.370293527841568,0.4268742799758911,0.20143868029117584,0.07379207015037537,0.25845012068748474
9.38459062576294,0.009415823966264725,-0.3701172471046448,0.4271724224090576,0.20193277299404144,0.0741184651851654,0.258777916431427
9.404676675796509,0.009423155337572098,-0.36997589468955994,0.4268124997615814,0.20159848034381866,0.07371781021356583,0.25851258635520935
9.424774408340454,0.009836267679929733,-0.37036412954330444,0.42651236057281494,0.20162197947502136,0.07397796213626862,0.25850528478622437
9.444899320602417,0.009278777986764908,-0.370156466960907,0.4273214638233185,0.2018219232559204,0.07401327788829803,0.2587752044200897
9.465014457702637,0.009804893285036087,-0.37051162123680115,0.4265800714492798,0.2016768604516983,0.07383474707603455,0.2588112950325012
9.48507022857666,0.00918545201420784,-0.3699492812156677,0.42768949270248413,0.20218856632709503,0.0740695595741272,0.25885146856307983
9.505126953125,0.009414631873369217,-0.3700430989265442,0.4271273612976074,0.2014537900686264,0.0740693211555481,0.2583584487438202
9.525229930877686,0.008862506598234177,-0.37066128849983215,0.42549800872802734,0.20205242931842804,0.07076869159936905,0.2586571276187897
9.545292615890503,0.010190244764089584,-0.3702286183834076,0.4264809489250183,0.2012607604265213,0.0757020115852356,0.2585054636001587
9.565394878387451,0.009734515100717545,-0.3704897165298462,0.426601380109787,0.20175303518772125,0.07354387640953064,0.2588527202606201
9.585471153259277,0.008927103132009506,-0.37038177251815796,0.42725104093551636,0.2022859901189804,0.07213377952575684,0.2588404417037964
9.60559630393982,0.00987469032406807,-0.3707570731639862,0.4266324043273926,0.20172922313213348,0.07398256659507751,0.2587509751319885
9.625648975372314,0.00936267152428627,-0.3705601692199707,0.42660602927207947,0.2017371654510498,0.07207790017127991,0.25846371054649353
9.645745038986206,0.008899014443159103,-0.3711622655391693,0.42577028274536133,0.20222216844558716,0.07080073654651642,0.25890374183654785
9.665870428085327,0.009302493184804916,-0.3705924451351166,0.4266890287399292,0.2016533762216568,0.07227149605751038,0.25846919417381287
9.685945510864258,0.008830893784761429,-0.3703474700450897,0.427355021238327,0.20219673216342926,0.07219064235687256,0.2587622404098511
9.706001996994019,0.009670887142419815,-0.3705267310142517,0.42659127712249756,0.20157364010810852,0.07372736930847168,0.25853732228279114
9.726057767868042,0.009529855102300644,-0.3701721131801605,0.4267173111438751,0.20161084830760956,0.07367119193077087,0.2583894431591034
9.746134042739868,0.008848164230585098,-0.3703348934650421,0.42721736431121826,0.2021828442811966,0.07196831703186035,0.2586987316608429
9.766243696212769,0.009302575141191483,-0.3701896667480469,0.4271713197231293,0.20174241065979004,0.07393398880958557,0.2584516108036041
9.786315679550171,0.009138297289609909,-0.3703962564468384,0.4275286793708801,0.2020314484834671,0.07369197905063629,0.25870534777641296
9.806661128997803,0.009427841752767563,-0.370470255613327,0.42677372694015503,0.2016565352678299,0.07332850247621536,0.25846925377845764
9.826849699020386,0.009562473744153976,-0.3704793155193329,0.42661231756210327,0.20164461433887482,0.07334703207015991,0.2584895193576813
9.846884965896606,0.0095212422311306,-0.3705296516418457,0.42667561769485474,0.20160581171512604,0.07339625060558319,0.2586326599121094
9.86693024635315,0.009541835635900497,-0.37063318490982056,0.42693111300468445,0.20191459357738495,0.07348191738128662,0.2586466670036316
9.886976957321167,0.00946212187409401,-0.3701433837413788,0.4267333745956421,0.20149444043636322,0.07378123700618744,0.25830528140068054
9.907061576843262,0.009905766695737839,-0.37087559700012207,0.42625850439071655,0.2015686184167862,0.07344813644886017,0.25854095816612244
9.927161931991577,0.010636802762746811,-0.37095317244529724,0.4261307120323181,0.20139580965042114,0.07534315437078476,0.2586357593536377
9.947205781936646,0.009839814156293869,-0.3707118034362793,0.4266600012779236,0.20197232067584991,0.07357378304004669,0.25881582498550415
9.967347145080566,0.010019879788160324,-0.37051650881767273,0.42661619186401367,0.20118166506290436,0.07524696737527847,0.2583763599395752
9.987429857254028,0.010089274495840073,-0.3710010051727295,0.42620620131492615,0.2016783207654953,0.0735258013010025,0.2586880624294281
10.007589101791382,0.00965169444680214,-0.37048980593681335,0.4266035258769989,0.20170359313488007,0.07350602746009827,0.25861629843711853
10.027815580368042,0.00917520746588707,-0.3701939582824707,0.4271879196166992,0.20176774263381958,0.07356517016887665,0.2585687041282654
10.047901153564453,0.0097372867166996,-0.3708493411540985,0.4268703758716583,0.20202478766441345,0.07358504831790924,0.2589782476425171
10.067970037460327,0.009545903652906418,-0.370432585477829,0.42665305733680725,0.2017020732164383,0.07333966344594955,0.2585314214229584
10.088046789169312,0.009523194283246994,-0.3704755902290344,0.4266853928565979,0.20159564912319183,0.07353183627128601,0.258529394865036
10.108246326446533,0.009544353932142258,-0.3706332743167877,0.4269895553588867,0.2019166201353073,0.07365956902503967,0.25872328877449036
10.128397226333618,0.010133523494005203,-0.37046778202056885,0.4264812171459198,0.2013048678636551,0.07508315145969391,0.25840485095977783
10.148487567901611,0.01005566492676735,-0.37064656615257263,0.42576876282691956,0.20131218433380127,0.07321678102016449,0.25824835896492004
10.168577671051025,0.008648324757814407,-0.37017253041267395,0.4272998571395874,0.20210908353328705,0.07186055183410645,0.25865045189857483
10.188684463500977,0.010014589875936508,-0.37078729271888733,0.42597058415412903,0.20148204267024994,0.07320135086774826,0.25849050283432007
10.208908796310425,0.009647157043218613,-0.37057945132255554,0.4267314672470093,0.2018389254808426,0.07350493967533112,0.25865185260772705
10.22891879081726,0.009816858917474747,-0.3704107403755188,0.42718690633773804,0.20165713131427765,0.07530523836612701,0.2587577998638153
10.248967170715332,0.009340967983007431,-0.3702256679534912,0.42704418301582336,0.20177297294139862,0.0736137181520462,0.25848883390426636
10.269060611724854,0.009481023997068405,-0.37057429552078247,0.42675334215164185,0.2016538381576538,0.0733765959739685,0.25864148139953613
10.289103269577026,0.0092008076608181,-0.3702995479106903,0.4272465705871582,0.2017994374036789,0.073517344892025,0.2585598826408386
10.309271335601807,0.009825054556131363,-0.371005654335022,0.4265391230583191,0.20189450681209564,0.07330173999071121,0.2588438391685486
10.329398393630981,0.009313005954027176,-0.3702348470687866,0.42673707008361816,0.2015642374753952,0.07343645393848419,0.25833195447921753
10.34947657585144,0.009066391736268997,-0.36998385190963745,0.426991730928421,0.20162652432918549,0.07320411503314972,0.25826650857925415
10.36955189704895,0.008779648691415787,-0.37047696113586426,0.42702144384384155,0.2020525187253952,0.07163398712873459,0.25862520933151245
10.389761447906494,0.009554620832204819,-0.37017953395843506,0.4272795617580414,0.20156358182430267,0.07518203556537628,0.2585160434246063
10.409902095794678,0.00938437506556511,-0.37019258737564087,0.4268224239349365,0.20190590620040894,0.07313179969787598,0.258645236492157
10.429965734481812,0.009062189608812332,-0.3699570298194885,0.4269821047782898,0.201658234000206,0.07321970164775848,0.25830382108688354
10.450061321258545,0.008787136524915695,-0.3705218434333801,0.4270886182785034,0.20207877457141876,0.07179940491914749,0.25870755314826965
10.470186948776245,0.009250108152627945,-0.3705737590789795,0.4263589382171631,0.20197604596614838,0.07157661020755768,0.25852686166763306
10.490249395370483,0.009009968489408493,-0.37000977993011475,0.4273037314414978,0.20185916125774384,0.07346151024103165,0.258420467376709
10.510311841964722,0.008374478667974472,-0.3700892925262451,0.42743533849716187,0.20204029977321625,0.0716932862997055,0.25858765840530396
10.530358076095581,0.009835269302129745,-0.3704133629798889,0.4267137050628662,0.2012200802564621,0.07514208555221558,0.2583974301815033
10.550447225570679,0.009245101362466812,-0.3702159523963928,0.42722201347351074,0.20212610065937042,0.07337833195924759,0.2587776184082031
10.570515632629395,0.008789684623479843,-0.37060678005218506,0.4273238182067871,0.20241810381412506,0.07181669771671295,0.2588447332382202
10.590583562850952,0.008662398904561996,-0.3704617917537689,0.4273895025253296,0.20228295028209686,0.07186757773160934,0.2587786018848419
10.610649347305298,0.009287308901548386,-0.3705286681652069,0.42713823914527893,0.20190566778182983,0.07355053722858429,0.25870051980018616
10.630734205245972,0.010201450437307358,-0.3703942894935608,0.42624402046203613,0.20130611956119537,0.0749138742685318,0.25846925377845764
10.65079379081726,0.008697222918272018,-0.37021079659461975,0.4271542429924011,0.20220671594142914,0.0715872123837471,0.25874021649360657
10.670847415924072,0.0092613585293293,-0.37037935853004456,0.4269144535064697,0.2016647309064865,0.07343484461307526,0.2585344612598419
10.690925359725952,0.008980724960565567,-0.370626300573349,0.4270467162132263,0.20241543650627136,0.07161413133144379,0.2590278685092926
10.71100640296936,0.0093410424888134,-0.37068140506744385,0.4273429811000824,0.202191561460495,0.07360734790563583,0.25899073481559753
10.731040954589844,0.009453307837247849,-0.37050309777259827,0.4268476665019989,0.20189660787582397,0.07331135123968124,0.2586783468723297
10.75122594833374,0.009519334882497787,-0.37051379680633545,0.4267194867134094,0.20180360972881317,0.07333016395568848,0.2586381435394287
10.771321773529053,0.009758848696947098,-0.3702451288700104,0.4270486533641815,0.2016097605228424,0.07510444521903992,0.2585865557193756
10.791401863098145,0.009235356003046036,-0.3703712224960327,0.4271359145641327,0.20193947851657867,0.07331820577383041,0.2588518559932709
10.811472415924072,0.00944497063755989,-0.37064555287361145,0.42693665623664856,0.20193715393543243,0.07334163784980774,0.25885307788848877
10.831574440002441,0.010781724005937576,-0.37050700187683105,0.42617982625961304,0.20098403096199036,0.0767960250377655,0.2584555149078369
10.851651906967163,0.0092569999396801,-0.3706291615962982,0.42652085423469543,0.20219898223876953,0.07143369317054749,0.2588112950325012
10.87167763710022,0.009011413902044296,-0.3701440989971161,0.4274546504020691,0.2020287960767746,0.07348189502954483,0.2586710751056671
10.891733169555664,0.009741004556417465,-0.3705858290195465,0.4264810085296631,0.20184282958507538,0.07323215901851654,0.25870516896247864
10.911918640136719,0.009544450789690018,-0.37050411105155945,0.4267270565032959,0.20186816155910492,0.07334482669830322,0.258679062128067
10.931987047195435,0.009490091353654861,-0.37040799856185913,0.4266163408756256,0.20164506137371063,0.07336074113845825,0.25858139991760254
10.951961994171143,0.009514469653367996,-0.37056025862693787,0.4267999231815338,0.2018156200647354,0.07349298894405365,0.25870877504348755
10.972051620483398,0.00947972759604454,-0.3704586625099182,0.4267596900463104,0.20180915296077728,0.0733451098203659,0.2586446702480316
10.992152214050293,0.009109605103731155,-0.3701745569705963,0.4272414743900299,0.20189306139945984,0.07339788973331451,0.25862690806388855
11.012182712554932,0.009393703192472458,-0.3703082799911499,0.4266212582588196,0.20153582096099854,0.0733269527554512,0.2583369016647339
11.032771587371826,0.009152498096227646,-0.37050843238830566,0.42756038904190063,0.20222057402133942,0.0735393762588501,0.2589859962463379
11.052932262420654,0.00965305045247078,-0.37037283182144165,0.42623430490493774,0.20150674879550934,0.07312905788421631,0.25850093364715576
11.073085308074951,0.008255135267972946,-0.37032032012939453,0.42696413397789,0.20230253040790558,0.069761723279953,0.2586345076560974
11.09307312965393,0.008709821850061417,-0.36944153904914856,0.4294136166572571,0.20213954150676727,0.07478205114603043,0.2586221992969513
11.113207340240479,0.00983329489827156,-0.37100091576576233,0.4242802560329437,0.20171141624450684,0.0715055912733078,0.25853419303894043
11.133298635482788,0.008836466819047928,-0.3709799647331238,0.4250849485397339,0.2022808939218521,0.0701223835349083,0.2588827908039093
11.15339183807373,0.008515220135450363,-0.37022310495376587,0.42717963457107544,0.20254595577716827,0.07154596596956253,0.25880664587020874
11.173506736755371,0.008531522005796432,-0.37022897601127625,0.4271203279495239,0.20197415351867676,0.07158342003822327,0.2585091292858124
11.193716049194336,0.010641481727361679,-0.3707331418991089,0.42584145069122314,0.2013704627752304,0.07496635615825653,0.2584419548511505
11.213724851608276,0.009790156036615372,-0.3705194890499115,0.4263075590133667,0.20182420313358307,0.0730881541967392,0.2586573660373688
11.233785152435303,0.008547421544790268,-0.3701842427253723,0.42747193574905396,0.20237873494625092,0.07168272137641907,0.25877612829208374
11.254410743713379,0.009873587638139725,-0.37055301666259766,0.4269958734512329,0.20156265795230865,0.07531555742025375,0.2586059272289276
11.274471044540405,0.008606206625699997,-0.37015387415885925,0.42737695574760437,0.20233246684074402,0.07167671620845795,0.25877171754837036
11.294552564620972,0.009220939129590988,-0.3702767491340637,0.4267779588699341,0.20152774453163147,0.07327701151371002,0.25841253995895386
11.314671039581299,0.009451504796743393,-0.37056341767311096,0.4268648624420166,0.20184797048568726,0.07332350313663483,0.25861939787864685
11.33472204208374,0.009494844824075699,-0.37039756774902344,0.4265773892402649,0.20169393718242645,0.07319891452789307,0.25853291153907776
11.354865074157715,0.008858252316713333,-0.37043607234954834,0.4269357919692993,0.20208515226840973,0.07164011895656586,0.2586721181869507
11.374955177307129,0.009309645742177963,-0.37043899297714233,0.426974892616272,0.20179663598537445,0.07341746240854263,0.2585888206958771
11.395004034042358,0.009460043162107468,-0.37050750851631165,0.4267866313457489,0.20179422199726105,0.07332617044448853,0.2586195766925812
11.415157079696655,0.00949680432677269,-0.3703615367412567,0.426649272441864,0.20173515379428864,0.07332495599985123,0.2584414780139923
11.435147047042847,0.009514529258012772,-0.3706042170524597,0.4268999993801117,0.20192907750606537,0.07350791245698929,0.2587416172027588
11.455309629440308,0.009069722145795822,-0.3700696527957916,0.42731159925460815,0.20204119384288788,0.07336733490228653,0.25853168964385986
11.475299835205078,0.008766058832406998,-0.37045568227767944,0.4270177185535431,0.20208920538425446,0.07162350416183472,0.25866320729255676
11.495422124862671,0.009893480688333511,-0.37068912386894226,0.4260629117488861,0.20159657299518585,0.0731365904211998,0.2585490643978119
11.51548981666565,0.009146947413682938,-0.3700272738933563,0.42716747522354126,0.20195791125297546,0.07340426743030548,0.25850990414619446
11.535580396652222,0.009664546698331833,-0.3701086640357971,0.4270554184913635,0.20134279131889343,0.07530093938112259,0.25824472308158875
11.555678844451904,0.010014455765485764,-0.37025442719459534,0.42682528495788574,0.20156387984752655,0.07518134266138077,0.2584117352962494
11.575763940811157,0.009665284305810928,-0.3706275522708893,0.42664241790771484,0.20191983878612518,0.073262058198452,0.2587031126022339
11.595842838287354,0.009887080639600754,-0.37069329619407654,0.4260854721069336,0.20152662694454193,0.07332061976194382,0.25858274102211
11.6159086227417,0.009586777538061142,-0.370432585477829,0.4266766309738159,0.20179502665996552,0.07348785549402237,0.25854045152664185
11.635981321334839,0.0094473697245121,-0.37051382660865784,0.4268762469291687,0.20188339054584503,0.07333436608314514,0.2586495280265808
11.656110763549805,0.009855713695287704,-0.3707904517650604,0.42625609040260315,0.2016824632883072,0.07329004257917404,0.25862523913383484
11.676167488098145,0.009207326918840408,-0.37022340297698975,0.42721205949783325,0.20201781392097473,0.07337415963411331,0.2587060332298279
11.696812629699707,0.009405981749296188,-0.3703977167606354,0.4266652464866638,0.20166513323783875,0.07318546622991562,0.25850051641464233
11.716893672943115,0.009536731988191605,-0.3705480098724365,0.4267805218696594,0.20192711055278778,0.07332202792167664,0.25870010256767273
11.73697805404663,0.009098019450902939,-0.3703034520149231,0.4275783896446228,0.20229005813598633,0.0735590010881424,0.25886625051498413
11.75711727142334,-0.010295495390892029,-0.7093763947486877,0.5981324911117554,0.6719751954078674,0.01587451994419098,0.7553349733352661
11.777123212814331,0.04034198448061943,-0.6186415553092957,0.42748934030532837,0.3663506507873535,0.06530909240245819,0.6410846710205078
11.79720950126648,0.023667898029088974,-0.6195376515388489,0.4601491689682007,0.43848538398742676,0.03032420575618744,0.6830960512161255
11.817355871200562,0.017625395208597183,-0.6029302477836609,0.4866054654121399,0.4489744305610657,0.0499843955039978,0.6867650747299194
11.8373863697052,0.01619517058134079,-0.5920661687850952,0.5059010982513428,0.44814807176589966,0.06808941066265106,0.6850231885910034
11.857464075088501,0.0160398930311203,-0.6102278828620911,0.4776189923286438,0.4563058614730835,0.03092922270298004,0.6914162635803223
11.877554178237915,0.01532774418592453,-0.6062865853309631,0.4827941060066223,0.4608061611652374,0.03361494839191437,0.6937919855117798
11.897668600082397,0.014403916895389557,-0.6040869355201721,0.4907470941543579,0.462849497795105,0.040484681725502014,0.6966218948364258
11.917959451675415,0.012217029929161072,-0.5952204465866089,0.5105528831481934,0.46895068883895874,0.052714332938194275,0.7009851932525635
11.93803858757019,0.01808350533246994,-0.5589486956596375,0.5737311244010925,0.43935954570770264,0.12747697532176971,0.6780282258987427
11.958203315734863,0.019168416038155556,-0.5465788245201111,0.5966218709945679,0.438476026058197,0.1477048546075821,0.6771951913833618
11.97820520401001,0.021029377356171608,-0.5343748927116394,0.621653139591217,0.43478938937187195,0.16887502372264862,0.6747150421142578
11.998281478881836,0.008712932467460632,-0.5992127656936646,0.5274404287338257,0.4768306314945221,0.05244290828704834,0.706552267074585
12.01835036277771,0.006541368085891008,-0.6059426665306091,0.5305870175361633,0.48244380950927734,0.04762394726276398,0.7108761668205261
12.038455724716187,0.003666431177407503,-0.6007952094078064,0.5499379634857178,0.4879438281059265,0.055133745074272156,0.7145361304283142
12.058579444885254,0.002917070407420397,-0.6016095876693726,0.5581672191619873,0.4875907897949219,0.06114782392978668,0.7140488624572754
12.078752994537354,0.02661963179707527,-0.5214922428131104,0.6863487362861633,0.42921531200408936,0.19887645542621613,0.6705453395843506
12.098886966705322,0.02713627740740776,-0.5249308347702026,0.6938700079917908,0.427737295627594,0.20167657732963562,0.669200599193573
12.1189706325531,0.024424321949481964,-0.549340546131134,0.6662172079086304,0.4357485771179199,0.17410479485988617,0.6766077280044556
12.139074563980103,0.002313156146556139,-0.5963720083236694,0.5975972414016724,0.4845395088195801,0.07875601947307587,0.7107654809951782
12.15912652015686,0.006641142535954714,-0.5978236198425293,0.600608229637146,0.4742458462715149,0.08943864703178406,0.7053176164627075
12.17918348312378,0.009798653423786163,-0.6121627688407898,0.5889378786087036,0.4688557982444763,0.0807572454214096,0.7029194831848145
12.199445247650146,0.012564413249492645,-0.6114405989646912,0.584171712398529,0.45996415615081787,0.08486670255661011,0.6990574598312378
12.21941614151001,0.01134052500128746,-0.6299496293067932,0.5668982863426208,0.46433597803115845,0.062126144766807556,0.7018064260482788
12.239675045013428,0.011169388890266418,-0.6342940330505371,0.5685651898384094,0.4670179784297943,0.06078474223613739,0.705803632736206
12.259846925735474,0.010709527879953384,-0.6392050981521606,0.5638480186462402,0.4669561982154846,0.056367769837379456,0.7062846422195435
12.27990174293518,0.011560950428247452,-0.6369853615760803,0.5636613368988037,0.4658486843109131,0.06014247238636017,0.7069781422615051
12.299948453903198,0.011323962360620499,-0.6304200291633606,0.5702927708625793,0.46515798568725586,0.06854662299156189,0.7091519236564636
12.320029735565186,0.010732099413871765,-0.6301879286766052,0.5756572484970093,0.4687204957008362,0.06983007490634918,0.7113068103790283
12.34010624885559,0.011147715151309967,-0.6347775459289551,0.569301426410675,0.46767565608024597,0.06792998313903809,0.7143838405609131
12.360149621963501,0.010610092431306839,-0.6336134076118469,0.572860062122345,0.4702524244785309,0.07457588613033295,0.7174218893051147
12.380239248275757,0.010765276849269867,-0.6327486634254456,0.5756307244300842,0.4672463834285736,0.07690788805484772,0.7163136601448059
12.400305032730103,0.00976693257689476,-0.6413387060165405,0.5650897026062012,0.4708954095840454,0.062172651290893555,0.7193816304206848
12.42040205001831,0.010024011135101318,-0.6348924040794373,0.5736198425292969,0.4700339436531067,0.07654064893722534,0.7218904495239258
12.440508604049683,0.010190222412347794,-0.6343706250190735,0.5780248045921326,0.46979331970214844,0.08035960793495178,0.7221682071685791
12.46054458618164,0.00939718633890152,-0.6399229168891907,0.5715996623039246,0.4692177176475525,0.07566913962364197,0.7237628698348999
12.48059892654419,0.009185567498207092,-0.6394202709197998,0.5773321986198425,0.47213560342788696,0.07901820540428162,0.7272611856460571
12.500686168670654,0.009060949087142944,-0.6332595348358154,0.5810810923576355,0.4710543155670166,0.08510245382785797,0.728518009185791
12.520843267440796,0.00842534750699997,-0.6368498206138611,0.580534040927887,0.4735649824142456,0.0814514011144638,0.7305775880813599
12.540918111801147,0.00866347923874855,-0.6373183131217957,0.5773912072181702,0.4720194935798645,0.0817989856004715,0.7317932844161987
12.560958623886108,0.008480474352836609,-0.6358060836791992,0.5804963111877441,0.4725918471813202,0.08513404428958893,0.7348228096961975
12.581109046936035,0.008300833404064178,-0.6405203938484192,0.5777031779289246,0.47256219387054443,0.08162267506122589,0.7368052005767822
12.601136445999146,0.008291251957416534,-0.641880452632904,0.5719130039215088,0.47185325622558594,0.07963606715202332,0.7390161156654358
12.630028486251831,0.008312858641147614,-0.6452651023864746,0.571607768535614,0.47282513976097107,0.07992221415042877,0.7417677044868469
12.650101661682129,0.006777037400752306,-0.6514914631843567,0.5615860223770142,0.4743703007698059,0.06989429891109467,0.7445840835571289
12.67020297050476,0.0063964505679905415,-0.6351816654205322,0.5766705870628357,0.4716606140136719,0.08612018823623657,0.7448988556861877
12.690454244613647,0.006235924083739519,-0.6450281143188477,0.5674203038215637,0.4745299816131592,0.07608425617218018,0.751146137714386
12.710546016693115,0.007125031668692827,-0.6490678787231445,0.5743392705917358,0.4770321249961853,0.08317460119724274,0.756373405456543
12.730699062347412,0.006995499599725008,-0.6542036533355713,0.5765044093132019,0.4797859191894531,0.0878131240606308,0.7626205682754517
12.750732660293579,0.006788127589970827,-0.6472945213317871,0.590598464012146,0.4793213903903961,0.09927169978618622,0.7632806301116943
12.770790815353394,0.005687930155545473,-0.6502131223678589,0.5802679061889648,0.4791748523712158,0.08837094902992249,0.7644432783126831
12.790911674499512,0.005945098120719194,-0.6469986438751221,0.5874629616737366,0.4791385233402252,0.09553170204162598,0.7668326497077942
12.81095838546753,0.006225347984582186,-0.6535587310791016,0.5809360146522522,0.4800783097743988,0.09374986588954926,0.77180016040802
12.831594944000244,0.0049176630564033985,-0.6519469618797302,0.5801789164543152,0.4800356328487396,0.09443987905979156,0.772060751914978
12.851687669754028,0.00548782991245389,-0.6593789458274841,0.5773684978485107,0.4818008840084076,0.0909009724855423,0.7755532264709473
12.871752500534058,0.004349526483565569,-0.6596508622169495,0.5710991621017456,0.48267608880996704,0.09070967137813568,0.7797956466674805
12.891802549362183,0.0035308380611240864,-0.6536911725997925,0.5774935483932495,0.48103785514831543,0.09533007442951202,0.7804458737373352
12.911909580230713,0.004023123998194933,-0.6511934399604797,0.5859849452972412,0.4810723662376404,0.10113799571990967,0.7818235158920288
12.93209981918335,0.00385727034881711,-0.655605137348175,0.5785609483718872,0.48166409134864807,0.0961175411939621,0.787175178527832
12.952069282531738,0.0033429530449211597,-0.6576017737388611,0.577731192111969,0.48326051235198975,0.09535974264144897,0.7921737432479858
12.972174882888794,0.0030383062548935413,-0.6548523902893066,0.5748201608657837,0.47995203733444214,0.09677456319332123,0.7911590337753296
12.99224328994751,0.003509801346808672,-0.654636561870575,0.5845215916633606,0.4817068576812744,0.10517114400863647,0.7955775856971741
13.012292623519897,0.0025956821627914906,-0.654341459274292,0.5814775228500366,0.4831787943840027,0.10124330222606659,0.7991327047348022
13.032398223876953,0.0020321239717304707,-0.6553453803062439,0.5781580805778503,0.48368412256240845,0.10164998471736908,0.801262617111206
13.052483320236206,0.002833746839314699,-0.6585005521774292,0.5781375169754028,0.48323124647140503,0.10733754932880402,0.806220531463623
13.072582244873047,0.0015966524370014668,-0.6552680134773254,0.5811614990234375,0.48558616638183594,0.1083749383687973,0.8095778226852417
13.092991352081299,0.0005736914463341236,-0.6590173840522766,0.5746244788169861,0.48556405305862427,0.1061534732580185,0.8133991956710815
13.113179922103882,0.0010722060687839985,-0.6593564748764038,0.5757128000259399,0.485986590385437,0.10953293740749359,0.8161494731903076
13.133213758468628,-0.00016708625480532646,-0.65909343957901,0.5770793557167053,0.488200306892395,0.11054913699626923,0.8213486671447754
13.153262853622437,-0.0011501978151500225,-0.6584745645523071,0.5773438811302185,0.4910218119621277,0.10995444655418396,0.8283796310424805
13.173348426818848,-0.0014774161390960217,-0.6599794030189514,0.5737825632095337,0.4889412522315979,0.10984297096729279,0.8281148076057434
13.193532705307007,-0.0014553326182067394,-0.6602556705474854,0.5801578164100647,0.489535391330719,0.11907117068767548,0.8356215357780457
13.213481903076172,-0.002897955011576414,-0.6600565314292908,0.5755311846733093,0.4922744631767273,0.11569477617740631,0.8422256708145142
13.233648538589478,-0.003543056081980467,-0.662212073802948,0.5737078785896301,0.49031931161880493,0.11887116730213165,0.8433055281639099
13.253779888153076,-0.005033418070524931,-0.6610787510871887,0.5686941742897034,0.49226588010787964,0.11415068805217743,0.8504670858383179
13.273828983306885,-0.004423617850989103,-0.6591790318489075,0.5764150023460388,0.4927470088005066,0.12451906502246857,0.8590525388717651
13.294114351272583,-0.005343142431229353,-0.6617357134819031,0.5672783851623535,0.4935612678527832,0.11871455609798431,0.8654365539550781
13.314241647720337,-0.005599148105829954,-0.6596677899360657,0.5701795220375061,0.4926600456237793,0.12236528098583221,0.8673197031021118
13.334294080734253,-0.00736045790836215,-0.6557202935218811,0.5717741250991821,0.4958242177963257,0.1260349005460739,0.8748741149902344
13.354332447052002,-0.008511006832122803,-0.6555460691452026,0.5751320719718933,0.49792224168777466,0.12747369706630707,0.8813619613647461
13.374438762664795,-0.008476071059703827,-0.657281219959259,0.5759729743003845,0.5006445646286011,0.128732830286026,0.8900879621505737
13.394582033157349,-0.0085524320602417,-0.6599887013435364,0.5663490295410156,0.49797695875167847,0.13117681443691254,0.8967384696006775
13.414572954177856,-0.010664433240890503,-0.6596410274505615,0.5698466300964355,0.5028151273727417,0.1289878487586975,0.9041410088539124
13.434655666351318,-0.011101223528385162,-0.6596525311470032,0.5608701705932617,0.5012555718421936,0.12804526090621948,0.9091084003448486
13.454795360565186,-0.012376505881547928,-0.6570404171943665,0.5596915483474731,0.5011308193206787,0.1326887011528015,0.9162420630455017
13.474804639816284,-0.012699250131845474,-0.6592995524406433,0.561919093132019,0.5027784705162048,0.1355457603931427,0.924275279045105
13.494877815246582,-0.012880232185125351,-0.6565535068511963,0.5499427318572998,0.4991680979728699,0.1441638320684433,0.9329193830490112
13.515052080154419,-0.013315882533788681,-0.6579094529151917,0.5628750920295715,0.5023745894432068,0.14852502942085266,0.9365093111991882
13.535096645355225,-0.015405550599098206,-0.6552174091339111,0.562394917011261,0.5037651658058167,0.1457700878381729,0.9438507556915283
13.55521273612976,-0.015870749950408936,-0.6571483612060547,0.5591787695884705,0.5026625990867615,0.1517621874809265,0.9511280059814453
13.575237512588501,-0.016277745366096497,-0.658850908279419,0.5606235861778259,0.5054252743721008,0.14894512295722961,0.9562691450119019
13.595332384109497,-0.017972666770219803,-0.6579328775405884,0.5584415793418884,0.5076523423194885,0.1487412303686142,0.9617424011230469
13.615387439727783,-0.018282197415828705,-0.6607404351234436,0.5577110052108765,0.5070787072181702,0.15648961067199707,0.9688733220100403
13.635475635528564,-0.020401708781719208,-0.6596371531486511,0.5569998621940613,0.5086436867713928,0.15119753777980804,0.9708492755889893
13.655702352523804,-0.019779890775680542,-0.6564301252365112,0.5606421232223511,0.5062564015388489,0.16088050603866577,0.9762203693389893
13.67569375038147,-0.02075764536857605,-0.6586752533912659,0.5576772689819336,0.5085321664810181,0.15786860883235931,0.9831182360649109
13.695775270462036,-0.02169889211654663,-0.6576477885246277,0.5597563982009888,0.509564220905304,0.16063658893108368,0.9859507083892822
13.715881824493408,-0.021234340965747833,-0.6563826203346252,0.5503013134002686,0.5053998827934265,0.1681673675775528,0.9908593893051147
13.735913038253784,-0.022918235510587692,-0.6614453792572021,0.5546332001686096,0.510517954826355,0.16388912498950958,0.9968801736831665
13.756194591522217,-0.023163478821516037,-0.6570872664451599,0.5492516160011292,0.5080732703208923,0.16698341071605682,1.001682162284851
13.776333093643188,-0.02380288764834404,-0.6578289866447449,0.5458544492721558,0.5073307156562805,0.16950489580631256,1.0036553144454956
13.796360492706299,-0.02648521214723587,-0.6586253046989441,0.5614363551139832,0.516287624835968,0.16376589238643646,1.0077804327011108
13.816434144973755,-0.024338282644748688,-0.6552569270133972,0.5482698082923889,0.5069677233695984,0.17996640503406525,1.0127533674240112
13.836541891098022,-0.025140881538391113,-0.654143750667572,0.5621874928474426,0.5117670297622681,0.17880544066429138,1.0140018463134766
13.856616020202637,-0.02636636793613434,-0.6577167510986328,0.5524565577507019,0.5119544863700867,0.1687566488981247,1.017976999282837
13.876770734786987,-0.0268685445189476,-0.6582360863685608,0.5466760396957397,0.5106669068336487,0.17234742641448975,1.0224415063858032
13.896868228912354,-0.028075627982616425,-0.6592739224433899,0.5484945178031921,0.5129486322402954,0.17270128428936005,1.0234317779541016
13.917051553726196,-0.029347851872444153,-0.6589484810829163,0.5466437339782715,0.5145159363746643,0.1724361926317215,1.026884913444519
13.937131881713867,-0.02815081551671028,-0.6519386172294617,0.5587118268013,0.5119850039482117,0.18314023315906525,1.0301966667175293
13.957193374633789,-0.030001487582921982,-0.6566305160522461,0.5446193218231201,0.5140567421913147,0.17387190461158752,1.0331072807312012
13.977233171463013,-0.029626749455928802,-0.6542635560035706,0.5544292330741882,0.5139266848564148,0.17869029939174652,1.036126971244812
13.997308254241943,-0.03092249110341072,-0.6619735360145569,0.5316901206970215,0.5134029984474182,0.1709909588098526,1.0409303903579712
14.017420291900635,-0.02732345461845398,-0.6555884480476379,0.5504733324050903,0.5080562829971313,0.1864350587129593,1.0388799905776978
14.037494897842407,-0.02867242321372032,-0.6597395539283752,0.5323880910873413,0.5082870125770569,0.17919732630252838,1.041662335395813
14.057554721832275,-0.03306848183274269,-0.6560234427452087,0.5473663210868835,0.5178830027580261,0.17160838842391968,1.0442417860031128
14.077620029449463,-0.03091231733560562,-0.654052197933197,0.5341135263442993,0.5084812045097351,0.1837676614522934,1.0445880889892578
14.097790479660034,-0.03153029456734657,-0.6518977284431458,0.5564130544662476,0.5150349736213684,0.18627576529979706,1.0486814975738525
14.11821699142456,-0.029280032962560654,-0.6515409350395203,0.5420496463775635,0.5064094066619873,0.195721834897995,1.0518877506256104
14.138267755508423,-0.031128235161304474,-0.6513675451278687,0.5459980368614197,0.5113121271133423,0.18837670981884003,1.0536571741104126
14.158430814743042,-0.03197116404771805,-0.6571522951126099,0.5287950038909912,0.5097941160202026,0.18344703316688538,1.0564285516738892
14.178460836410522,-0.036162346601486206,-0.6548246741294861,0.5335626602172852,0.5175183415412903,0.1707548350095749,1.0581350326538086
14.198508024215698,-0.033718086779117584,-0.6492469906806946,0.5509997010231018,0.5134634971618652,0.18528597056865692,1.0576480627059937
14.2186279296875,-0.034184765070676804,-0.6514433026313782,0.5526748895645142,0.5179831981658936,0.18258467316627502,1.0590161085128784
14.238691806793213,-0.03155726194381714,-0.6539358496665955,0.5347285866737366,0.5089802742004395,0.1931866556406021,1.062676191329956
14.258760452270508,-0.033851295709609985,-0.648657500743866,0.538432776927948,0.5117365121841431,0.19003120064735413,1.0649694204330444
14.278918743133545,-0.03196640685200691,-0.6537472009658813,0.5308904647827148,0.5073316693305969,0.19025284051895142,1.0659281015396118
14.299022912979126,-0.03452816233038902,-0.6505080461502075,0.543755292892456,0.5137739181518555,0.18566899001598358,1.0658639669418335
14.31904411315918,-0.035111818462610245,-0.6551222801208496,0.5261585116386414,0.5112996697425842,0.17768219113349915,1.067726492881775
14.339114665985107,-0.03241496905684471,-0.6479328870773315,0.549129068851471,0.5093664526939392,0.19761572778224945,1.0668874979019165
14.359171867370605,-0.03315777704119682,-0.6515305042266846,0.5308904051780701,0.5083563923835754,0.19266632199287415,1.0696479082107544
14.379239082336426,-0.03406555950641632,-0.6452091336250305,0.5402721166610718,0.509515106678009,0.20097237825393677,1.072155475616455
14.399537801742554,-0.034667860716581345,-0.6486765742301941,0.5388333797454834,0.5096826553344727,0.19416622817516327,1.0730613470077515
14.41966700553894,-0.03479180485010147,-0.6445295214653015,0.537549614906311,0.5080260038375854,0.19548675417900085,1.0736302137374878
14.43972635269165,-0.03517720848321915,-0.646528959274292,0.5374971032142639,0.5095606446266174,0.19225959479808807,1.0748264789581299
14.45979928970337,-0.035649869590997696,-0.6478615403175354,0.5261046290397644,0.5079290866851807,0.18695054948329926,1.0760706663131714
14.479868650436401,-0.03597415238618851,-0.6494014859199524,0.533962607383728,0.5103625059127808,0.19053810834884644,1.0766650438308716
14.49996042251587,-0.036026015877723694,-0.6489686369895935,0.5214897990226746,0.5080778002738953,0.1919853240251541,1.078775405883789
14.520030498504639,-0.037378013134002686,-0.644909679889679,0.5395311117172241,0.5108337998390198,0.1949150711297989,1.0785034894943237
